<?xml version="1.0"?> 
<VTKFile type="StructuredGrid" version="0.1"> 
<StructuredGrid WholeExtent="0 100 0 100 0 0"> 
<Piece Extent="0 100 0 100 0 0"> 
<PointData>
<DataArray type="Float32" Name="value" format="ascii" NumberOfComponents="1"> 
90.3265 90.3295 90.339 90.3544 90.3748 90.3995 90.4278 90.4588 90.4911 90.5228 90.552 90.577 90.5959 90.6069 90.6078 90.5963 90.5701 90.5267 90.464 90.3794 90.2707 90.136 89.9731 89.7801 89.5549 89.2956 89.0002 88.6676 88.2967 87.8867 87.4364 86.9449 86.4112 85.8353 85.2175 84.5581 83.8575 83.1161 82.3341 81.5125 80.653 79.7569 78.8259 77.8617 76.8656 75.8395 74.7858 73.7067 72.6046 71.4819 70.3408 69.1837 68.0133 66.8319 65.6421 64.4465 63.2477 62.0481 60.8501 59.656 58.4679 57.2883 56.1193 54.9631 53.8218 52.697 51.5905 50.5039 49.4388 48.397 47.38 46.3888 45.4246 44.4882 43.5808 42.7034 41.857 41.0422 40.2594 39.5093 38.7922 38.1087 37.4594 36.8443 36.2639 35.7181 35.2071 34.7312 34.2904 33.8849 33.5146 33.1797 32.88 32.6155 32.3864 32.1926 32.034 31.9107 31.8227 31.7698 31.7522 90.3295 90.3325 90.3421 90.3577 90.3783 90.4033 90.4319 90.4634 90.4961 90.5284 90.5582 90.5839 90.6035 90.6152 90.6169 90.6062 90.5809 90.5385 90.4767 90.3931 90.2854 90.1517 89.9899 89.7979 89.5738 89.3155 89.0211 88.6895 88.3197 87.9106 87.4612 86.9706 86.4379 85.8628 85.2458 84.5871 83.8872 83.1464 82.365 81.5439 80.6848 79.7891 78.8584 77.8943 76.8984 75.8724 74.8187 73.7395 72.6373 71.5144 70.373 69.2156 68.0448 66.8629 65.6727 64.4766 63.2772 62.077 60.8783 59.6835 58.4947 57.3143 56.1445 54.9876 53.8455 52.72 51.6126 50.5252 49.4593 48.4168 47.3989 46.407 45.4419 44.5047 43.5966 42.7185 41.8714 41.0558 40.2724 39.5216 38.804 38.1199 37.47 36.8545 36.2735 35.7272 35.2158 34.7394 34.2983 33.8924 33.5219 33.1866 32.8866 32.622 32.3927 32.1987 32.04 31.9166 31.8284 31.7755 31.7579 90.339 90.3421 90.3521 90.3681 90.3894 90.4153 90.445 90.4777 90.5119 90.5458 90.5774 90.605 90.6267 90.6407 90.6448 90.6367 90.614 90.5744 90.5154 90.4348 90.3301 90.1995 90.0407 89.8519 89.6309 89.3757 89.0844 88.7559 88.389 87.9829 87.5364 87.0485 86.5183 85.9457 85.331 84.6746 83.9767 83.2377 82.4579 81.6383 80.7804 79.8857 78.9559 77.9925 76.9969 75.9712 74.9174 73.8381 72.7354 71.6119 70.4697 69.3114 68.1394 66.9562 65.7645 64.5668 63.3656 62.1635 60.9629 59.766 58.5751 57.3924 56.2204 55.0611 53.9166 52.7887 51.6789 50.589 49.5207 48.4757 47.4555 46.4612 45.4938 44.5543 43.6439 42.7637 41.9144 41.0969 40.3115 39.5588 38.8393 38.1535 37.5019 36.8847 36.3022 35.7546 35.2418 34.7643 34.322 33.915 33.5435 33.2074 32.9067 32.6413 32.4114 32.2169 32.0578 31.9341 31.8457 31.7927 31.775 90.3544 90.3577 90.3681 90.3849 90.4074 90.4348 90.4663 90.5011 90.5377 90.5742 90.6088 90.6397 90.6649 90.6827 90.6908 90.6869 90.6686 90.6336 90.5794 90.5036 90.404 90.2784 90.1248 89.9412 89.7254 89.4754 89.1893 88.8659 88.504 88.1028 87.661 87.1777 86.6519 86.0835 85.4727 84.8199 84.1254 83.3895 82.6124 81.7953 80.9395 80.0466 79.1182 78.1558 77.161 76.1356 75.0818 74.0021 72.8989 71.7743 70.6308 69.4709 68.297 67.1116 65.9175 64.7171 63.513 62.3078 61.1039 59.9036 58.7091 57.5227 56.3468 55.1837 54.0352 52.9032 51.7894 50.6955 49.6231 48.5741 47.5499 46.5516 45.5803 44.6371 43.723 42.839 41.9863 41.1653 40.3766 39.6207 38.8981 38.2094 37.555 36.9352 36.3502 35.8002 35.2853 34.8056 34.3614 33.9528 33.5797 33.2421 32.94 32.6736 32.4427 32.2473 32.0875 31.9633 31.8745 31.8213 31.8035 90.3748 90.3783 90.3894 90.4074 90.4315 90.4609 90.4949 90.5326 90.5726 90.6129 90.6517 90.6871 90.7172 90.7402 90.7539 90.7559 90.7438 90.7152 90.6676 90.5987 90.5061 90.3876 90.2413 90.065 89.8565 89.6138 89.3349 89.0187 88.6639 88.2695 87.8344 87.3575 86.8379 86.2753 85.6701 85.0224 84.3327 83.6011 82.8281 82.0143 81.1615 80.2712 79.3448 78.384 77.3903 76.3654 75.3117 74.2316 73.1275 72.0016 70.8563 69.6941 68.5176 67.3292 66.1317 64.9276 63.7195 62.51 61.3015 60.0963 58.8968 57.7053 56.5241 55.3554 54.2014 53.0638 51.9443 50.8447 49.7666 48.712 47.6822 46.6783 45.7016 44.7531 43.8337 42.9447 42.087 41.2611 40.4678 39.7074 38.9805 38.2877 37.6294 37.0059 36.4174 35.8641 35.3461 34.8636 34.4167 34.0056 33.6302 33.2906 32.9868 32.7187 32.4864 32.2899 32.1291 32.0041 31.9149 31.8613 31.8434 90.3995 90.4033 90.4153 90.4348 90.4609 90.4929 90.5301 90.5716 90.6158 90.661 90.7051 90.7463 90.7827 90.8125 90.8333 90.8429 90.8387 90.8183 90.7793 90.7192 90.6356 90.5263 90.3893 90.2223 90.0233 89.79 89.5205 89.2135 88.8678 88.4823 88.0558 87.5873 87.0756 86.5206 85.9226 85.2816 84.5981 83.8722 83.1043 82.2951 81.4462 80.5592 79.6356 78.6768 77.6845 76.6604 75.6069 74.5263 73.4211 72.2935 71.146 69.981 68.8011 67.6089 66.4071 65.1982 63.985 62.77 61.5556 60.3443 59.1384 57.9402 56.7521 55.5765 54.4153 53.2705 52.1437 51.0367 49.9514 48.8894 47.8524 46.8415 45.8578 44.9023 43.9762 43.0806 42.2165 41.3845 40.5852 39.819 39.0866 38.3885 37.7251 37.0969 36.5039 35.9463 35.4243 34.9381 34.4878 34.0735 33.6953 33.353 33.0468 32.7767 32.5426 32.3446 32.1826 32.0566 31.9667 31.9127 31.8947 90.4278 90.4319 90.445 90.4663 90.4949 90.5301 90.5711 90.6172 90.6667 90.7177 90.7683 90.8166 90.8607 90.8986 90.9282 90.947 90.9525 90.9422 90.9136 90.8642 90.7916 90.6936 90.5679 90.4125 90.225 90.0032 89.7452 89.4495 89.1149 88.7403 88.3245 87.8662 87.3644 86.8187 86.2295 85.5969 84.9211 84.2022 83.4406 82.6371 81.7932 80.9103 79.99 79.0339 78.0434 77.0204 75.9672 74.8861 73.7796 72.6501 71.5 70.3316 69.1477 67.9508 66.7438 65.5292 64.3097 63.0879 61.8664 60.6476 59.4339 58.2275 57.0311 55.8469 54.677 53.5233 52.3876 51.2717 50.1774 49.1066 48.0608 47.0411 46.0488 45.0849 44.1506 43.247 42.375 41.5354 40.7288 39.9555 39.2163 38.5117 37.8422 37.2081 36.6096 36.0468 35.52 35.0292 34.5747 34.1565 33.7747 33.4293 33.1202 32.8475 32.6113 32.4114 32.2479 32.1208 32.03 31.9755 31.9573 90.4588 90.4634 90.4777 90.5011 90.5326 90.5716 90.6172 90.6686 90.7242 90.7821 90.8404 90.897 90.9501 90.9977 91.0377 91.0673 91.0842 91.0857 91.0694 91.0327 90.9731 90.8884 90.7762 90.6344 90.4605 90.2524 90.008 89.7258 89.4045 89.0428 88.6396 88.1935 87.7034 87.1689 86.5903 85.9675 85.3009 84.5905 83.8366 83.0398 82.2018 81.324 80.4079 79.455 78.4668 77.4451 76.3923 75.3108 74.2029 73.0712 71.918 70.7457 69.5571 68.3549 67.1417 65.9203 64.6935 63.4639 62.234 61.0063 59.7833 58.5674 57.3611 56.1668 54.9866 53.8225 52.6763 51.5498 50.445 49.3636 48.3074 47.2774 46.2749 45.301 44.3569 43.4437 42.5625 41.714 40.8986 40.117 39.3698 38.6576 37.9807 37.3397 36.7346 36.1657 35.633 35.1369 34.6773 34.2546 33.8686 33.5194 33.2069 32.9313 32.6924 32.4903 32.325 32.1965 32.1047 32.0496 32.0313 90.4911 90.4961 90.5119 90.5377 90.5726 90.6158 90.6667 90.7242 90.7869 90.8527 90.9197 90.9859 91.0494 91.1081 91.1599 91.202 91.232 91.2472 91.245 91.2229 91.1783 91.1089 91.0123 90.8862 90.7281 90.5359 90.3072 90.0405 89.7346 89.3881 88.9995 88.5676 88.0911 87.5697 87.0034 86.3922 85.7364 85.036 84.291 83.5023 82.6713 81.7994 80.8883 79.9393 78.954 77.934 76.8819 75.8 74.6907 73.5565 72.3999 71.2233 70.0294 68.821 67.6009 66.3719 65.1366 63.898 62.6584 61.4206 60.187 58.96 57.7423 56.5364 55.3444 54.1683 53.01 51.8713 50.7543 49.6608 48.5924 47.5505 46.5362 45.5508 44.5953 43.6711 42.7792 41.9202 41.0949 40.3036 39.5472 38.826 38.1408 37.4917 36.879 36.3029 35.7635 35.2611 34.7958 34.3678 33.9769 33.6233 33.3069 33.0278 32.786 32.5814 32.414 32.2838 32.1909 32.1351 32.1165 90.5228 90.5284 90.5458 90.5742 90.6129 90.661 90.7177 90.7821 90.8527 90.9274 91.0042 91.0812 91.1564 91.2276 91.2927 91.3489 91.3937 91.4243 91.4382 91.4326 91.405 91.3529 91.2739 91.1656 91.0255 90.8512 90.6405 90.3916 90.1032 89.7739 89.4021 88.9865 88.5256 88.0192 87.467 86.8693 86.2259 85.537 84.8024 84.0231 83.2003 82.3356 81.4303 80.486 79.5041 78.4864 77.4353 76.3531 75.2425 74.1058 72.9455 71.7641 70.5644 69.3493 68.1215 66.8838 65.6392 64.3904 63.14 61.8907 60.6451 59.4057 58.1752 56.9561 55.7507 54.561 53.3889 52.2365 51.1056 49.9983 48.9162 47.8607 46.8331 45.8345 44.8661 43.9293 43.0252 42.1545 41.3177 40.5155 39.7485 39.0172 38.3223 37.6641 37.0428 36.4586 35.9116 35.402 34.9302 34.496 34.0997 33.7411 33.4202 33.1372 32.8919 32.6844 32.5147 32.3827 32.2885 32.2319 32.2131 90.552 90.5582 90.5774 90.6088 90.6517 90.7051 90.7683 90.8404 90.9197 91.0042 91.092 91.1809 91.269 91.3541 91.434 91.5059 91.5671 91.6149 91.6465 91.6593 91.6507 91.618 91.5587 91.4703 91.3504 91.1962 91.0056 90.7767 90.5081 90.1981 89.8453 89.4481 89.005 88.5155 87.9795 87.397 86.7679 86.0921 85.3695 84.601 83.7877 82.9313 82.0329 81.0942 80.1165 79.1016 78.0519 76.9698 75.8579 74.7187 73.5546 72.3681 71.1622 69.9397 68.7034 67.4564 66.2014 64.9413 63.679 62.417 61.158 59.9048 58.66 57.4262 56.2058 55.0009 53.8135 52.6456 51.4992 50.3764 49.279 48.2084 47.1657 46.1523 45.1695 44.2187 43.3008 42.4168 41.5673 40.7527 39.9739 39.2313 38.5256 37.8571 37.2261 36.6327 36.0771 35.5596 35.0804 34.6394 34.2369 33.8727 33.5468 33.2594 33.0103 32.7995 32.6272 32.4931 32.3974 32.34 32.3208 90.577 90.5839 90.605 90.6397 90.6871 90.7463 90.8166 90.897 90.9859 91.0812 91.1809 91.2829 91.3851 91.4855 91.5816 91.6706 91.7499 91.8165 91.8678 91.9009 91.9132 91.9018 91.8644 91.7981 91.7004 91.5686 91.4003 91.1937 90.947 90.6587 90.3271 89.9504 89.5272 89.0568 88.539 87.9736 87.3606 86.6998 85.9909 85.2346 84.4323 83.5854 82.6952 81.763 80.7904 79.779 78.7312 77.6496 76.5367 75.3949 74.2269 73.0351 71.8225 70.5921 69.3468 68.0895 66.8233 65.551 64.2755 62.9996 61.726 60.4576 59.197 57.947 56.7101 55.4884 54.284 53.099 51.9355 50.7956 49.6812 48.5936 47.5343 46.5046 45.5058 44.5393 43.6063 42.7076 41.8438 41.0155 40.2235 39.4683 38.7507 38.0708 37.429 36.8254 36.2603 35.7339 35.2465 34.798 34.3885 34.0181 33.6867 33.3943 33.141 32.9266 32.7513 32.615 32.5176 32.4592 32.4397 90.5959 90.6035 90.6267 90.6649 90.7172 90.7827 90.8607 90.9501 91.0494 91.1564 91.269 91.3851 91.5027 91.6196 91.7333 91.841 91.9399 92.0271 92.0998 92.1551 92.1901 92.2022 92.1885 92.1465 92.0732 91.9661 91.8224 91.6403 91.4179 91.1535 90.8453 90.4914 90.0903 89.6411 89.1436 88.5976 88.0026 87.3585 86.6651 85.9228 85.1329 84.2969 83.416 82.4916 81.5249 80.5178 79.4726 78.3919 77.2782 76.1342 74.9622 73.765 72.5454 71.3066 70.0516 68.7834 67.505 66.2195 64.9299 63.6389 62.3494 61.0644 59.7866 58.5189 57.264 56.0238 54.8008 53.597 52.4147 51.256 50.1229 49.0169 47.9393 46.8916 45.8752 44.8915 43.9418 43.0269 42.1474 41.3041 40.4975 39.7285 38.9976 38.3052 37.6515 37.0367 36.4612 35.925 35.4285 34.9717 34.5547 34.1774 33.8398 33.542 33.284 33.0657 32.8871 32.7483 32.6491 32.5896 32.5698 90.6069 90.6152 90.6407 90.6827 90.7402 90.8125 90.8986 90.9977 91.1081 91.2276 91.3541 91.4855 91.6196 91.7542 91.887 92.0149 92.135 92.2444 92.3402 92.4194 92.4792 92.5166 92.5289 92.5132 92.4666 92.3863 92.2695 92.1142 91.9184 91.6803 91.3979 91.0692 90.6924 90.2667 89.7917 89.267 88.6922 88.0668 87.3906 86.664 85.8883 85.0647 84.1944 83.2789 82.3193 81.3173 80.2754 79.1963 78.0823 76.9361 75.7603 74.5575 73.3308 72.0832 70.8179 69.5381 68.2468 66.9472 65.6423 64.335 63.0284 61.7255 60.4291 59.1423 57.8676 56.6075 55.3642 54.1399 52.9371 51.7579 50.6045 49.4783 48.3809 47.3136 46.278 45.2756 44.3076 43.375 42.4783 41.6185 40.7961 40.0118 39.2665 38.5603 37.8937 37.2667 36.6798 36.1329 35.6265 35.1606 34.7353 34.3505 34.0062 33.7025 33.4393 33.2166 33.0345 32.8929 32.7918 32.7311 32.7109 90.6078 90.6169 90.6448 90.6908 90.7539 90.8333 90.9282 91.0377 91.1599 91.2927 91.434 91.5816 91.7333 91.887 92.04 92.1895 92.3323 92.4655 92.5861 92.6911 92.7775 92.8424 92.8826 92.8954 92.8776 92.8263 92.7387 92.6126 92.4458 92.2363 91.9821 91.6809 91.3309 90.931 90.4808 89.9797 89.4271 88.8226 88.1657 87.4567 86.6968 85.8872 85.0291 84.1238 83.1724 82.1767 81.139 80.062 78.9483 77.8004 76.6209 75.4126 74.1785 72.9218 71.6459 70.3538 69.0488 67.7342 66.4131 65.0885 63.7636 62.4413 61.125 59.8175 58.5216 57.2399 55.9746 54.7283 53.5032 52.3019 51.1264 49.9785 48.8594 47.771 46.7146 45.6918 44.704 43.7521 42.8368 41.959 41.1193 40.3186 39.5575 38.8364 38.1557 37.5155 36.9161 36.3577 35.8405 35.3648 34.9304 34.5374 34.1858 33.8756 33.6068 33.3795 33.1935 33.0489 32.9456 32.8837 32.863 90.5963 90.6062 90.6367 90.6869 90.7559 90.8429 90.947 91.0673 91.202 91.3489 91.5059 91.6706 91.841 92.0149 92.1895 92.3618 92.5288 92.6873 92.8344 92.9669 93.0818 93.1759 93.2462 93.2894 93.3027 93.2827 93.2266 93.1319 92.9965 92.8181 92.5945 92.3233 92.0025 91.6309 91.2078 90.7327 90.2047 89.6232 88.9877 88.2983 87.5562 86.7624 85.9182 85.0247 84.0829 83.0946 82.0622 80.9883 79.8755 78.7264 77.5436 76.3299 75.0884 73.8225 72.5355 71.2307 69.9114 68.581 67.2427 65.8997 64.5553 63.2126 61.8748 60.5452 59.2267 57.9217 56.6329 55.3627 54.1138 52.8886 51.6894 50.5178 49.3756 48.2642 47.1853 46.1405 45.1313 44.1585 43.2231 42.3259 41.4675 40.6489 39.8708 39.1336 38.4377 37.7831 37.1703 36.5993 36.0706 35.5841 35.1399 34.7381 34.3786 34.0614 33.7866 33.5541 33.364 33.2161 33.1106 33.0472 33.0261 90.5701 90.5809 90.614 90.6686 90.7438 90.8387 90.9525 91.0842 91.232 91.3937 91.5671 91.7499 91.9399 92.135 92.3323 92.5288 92.7213 92.9067 93.0818 93.2435 93.3885 93.5138 93.616 93.6919 93.7382 93.7518 93.7295 93.6687 93.5671 93.4222 93.2317 92.993 92.704 92.3632 91.9698 91.5231 91.0221 90.4661 89.8543 89.1868 88.4645 87.6886 86.8601 85.98 85.0494 84.0699 83.0439 81.9741 80.8632 79.7136 78.528 77.3092 76.0605 74.7853 73.487 72.1691 70.8349 69.488 68.1317 66.7693 65.4042 64.0398 62.6793 61.3262 59.9834 58.6536 57.3396 56.044 54.7694 53.5186 52.2939 51.0971 49.9298 48.7938 47.6907 46.6222 45.5899 44.5947 43.6376 42.7194 41.841 41.0031 40.2067 39.4521 38.7397 38.0697 37.4424 36.8579 36.3166 35.8186 35.3639 34.9526 34.5845 34.2598 33.9785 33.7405 33.5459 33.3946 33.2865 33.2217 33.2001 90.5267 90.5385 90.5744 90.6336 90.7152 90.8183 90.9422 91.0857 91.2472 91.4243 91.6149 91.8165 92.0271 92.2444 92.4655 92.6873 92.9067 93.1202 93.3249 93.5173 93.6944 93.8526 93.9886 94.0992 94.1807 94.23 94.2438 94.2193 94.1539 94.0451 93.8902 93.6867 93.432 93.1247 92.7637 92.348 91.8767 91.3486 90.763 90.1196 89.4195 88.6636 87.8528 86.9881 86.0705 85.1013 84.0832 83.0188 81.9106 80.7614 79.5737 78.3503 77.0946 75.8101 74.5004 73.1691 71.8196 70.4556 69.0804 67.6977 66.3109 64.9235 63.539 62.161 60.7925 59.4364 58.0955 56.7727 55.4708 54.1926 52.9406 51.7167 50.5226 49.3602 48.2311 47.1373 46.0802 45.061 44.0806 43.14 42.2399 41.3814 40.5653 39.7921 39.062 38.3754 37.7325 37.1335 36.5788 36.0684 35.6024 35.1808 34.8036 34.4708 34.1825 33.9387 33.7392 33.5841 33.4734 33.4069 33.3848 90.464 90.4767 90.5154 90.5794 90.6676 90.7793 90.9136 91.0694 91.245 91.4382 91.6465 91.8678 92.0998 92.3402 92.5861 92.8344 93.0818 93.3249 93.5605 93.7853 93.9959 94.1888 94.3606 94.5077 94.6267 94.7139 94.766 94.7802 94.7536 94.6834 94.5668 94.401 94.1834 93.9123 93.5864 93.2045 92.7655 92.2681 91.7112 91.0947 90.4192 89.6856 88.8948 88.0475 87.1447 86.1877 85.179 84.1213 83.0172 81.8693 80.6802 79.4528 78.1905 76.897 75.576 74.2311 72.8659 71.4841 70.0894 68.6854 67.2758 65.8643 64.4546 63.0502 61.6545 60.2705 58.9013 57.5496 56.2187 54.9113 53.6303 52.3774 51.1547 49.964 48.8072 47.6861 46.6026 45.5577 44.5525 43.5878 42.6646 41.784 40.9469 40.1537 39.4047 38.7003 38.0407 37.4261 36.857 36.3333 35.8553 35.4227 35.0358 34.6944 34.3986 34.1484 33.9438 33.7847 33.6711 33.6029 33.5802 90.3794 90.3931 90.4348 90.5036 90.5987 90.7192 90.8642 91.0327 91.2229 91.4326 91.6593 91.9009 92.1551 92.4194 92.6911 92.9669 93.2435 93.5173 93.7853 94.0438 94.2896 94.519 94.7284 94.9141 95.0724 95.1998 95.2926 95.3478 95.3624 95.3334 95.2578 95.1326 94.9549 94.7228 94.4348 94.0897 93.6859 93.222 92.6966 92.1095 91.4613 90.7526 89.9841 89.1566 88.2707 87.3278 86.3303 85.2808 84.1821 83.0367 81.8472 80.6166 79.3483 78.0461 76.7138 75.3552 73.974 72.574 71.1591 69.733 68.2997 66.8629 65.4266 63.9945 62.5702 61.1569 59.7576 58.3754 57.0137 55.6754 54.3634 53.0798 51.8265 50.6057 49.4192 48.2692 47.1575 46.0852 45.0534 44.0631 43.1154 42.2112 41.3516 40.5371 39.7679 39.0445 38.367 37.7358 37.1513 36.6135 36.1225 35.6783 35.2809 34.9304 34.6266 34.3697 34.1596 33.9962 33.8796 33.8096 33.7863 90.2707 90.2854 90.3301 90.404 90.5061 90.6356 90.7916 90.9731 91.1783 91.405 91.6507 91.9132 92.1901 92.4792 92.7775 93.0818 93.3885 93.6944 93.9959 94.2896 94.5721 94.8396 95.0883 95.3145 95.5142 95.6839 95.8197 95.9184 95.9767 95.9915 95.9596 95.8777 95.7428 95.5526 95.3056 95.0001 94.6345 94.2071 93.7163 93.1615 92.5433 91.8622 91.1187 90.3134 89.4467 88.52 87.5356 86.4962 85.4045 84.2629 83.0742 81.8412 80.5676 79.2572 77.9139 76.5417 75.1443 73.7258 72.29 70.8411 69.3831 67.92 66.4559 64.9948 63.5405 62.0962 60.6653 59.251 57.8566 56.4856 55.1408 53.8245 52.5388 51.2858 50.0679 48.887 47.7453 46.6439 45.5839 44.5664 43.5926 42.6633 41.7798 40.9425 40.1518 39.4081 38.7116 38.0627 37.4618 36.9089 36.4042 35.9476 35.5391 35.1788 34.8666 34.6026 34.3866 34.2187 34.0987 34.0268 34.0028 90.136 90.1517 90.1995 90.2784 90.3876 90.5263 90.6936 90.8884 91.1089 91.3529 91.618 91.9018 92.2022 92.5166 92.8424 93.1759 93.5138 93.8526 94.1888 94.519 94.8396 95.1467 95.4364 95.7048 95.9479 96.1618 96.3428 96.4873 96.5919 96.6531 96.6676 96.6318 96.5426 96.3974 96.1944 95.9317 95.6074 95.2195 94.7664 94.2471 93.6619 93.0114 92.2957 91.5152 90.6704 89.7623 88.7933 87.766 86.683 85.547 84.3605 83.1263 81.8483 80.5304 79.1766 77.7909 76.3774 74.94 73.483 72.0106 70.527 69.0366 67.5436 66.0523 64.5665 63.0897 61.6255 60.1773 58.7486 57.343 55.9635 54.6125 53.2924 52.0054 50.754 49.5404 48.3668 47.2345 46.1446 45.0982 44.0965 43.1407 42.2317 41.3702 40.5567 39.7913 39.0746 38.4069 37.7885 37.2196 36.7003 36.2306 35.8103 35.4396 35.1184 34.8468 34.6246 34.4518 34.3285 34.2544 34.2298 89.9731 89.9899 90.0407 90.1248 90.2413 90.3893 90.5679 90.7762 91.0123 91.2739 91.5587 91.8644 92.1885 92.5289 92.8826 93.2462 93.616 93.9886 94.3606 94.7284 95.0883 95.4364 95.7686 96.0808 96.3691 96.6293 96.8576 97.0502 97.2034 97.3136 97.3771 97.3903 97.3497 97.2525 97.0966 96.8799 96.6002 96.2553 95.843 95.3625 94.8137 94.1968 93.512 92.7595 91.9394 91.0525 90.1014 89.0886 88.0165 86.8879 85.7052 84.4713 83.1901 81.8656 80.5019 79.1033 77.6738 76.2175 74.7389 73.2425 71.7327 70.214 68.691 67.1681 65.6494 64.1386 62.6395 61.1556 59.6908 58.2486 56.8324 55.4449 54.0884 52.7655 51.4786 50.2303 49.0229 47.8578 46.7361 45.659 44.6278 43.6437 42.7077 41.8206 40.9827 40.1944 39.4562 38.7685 38.1316 37.5458 37.011 36.5272 36.0945 35.7127 35.382 35.1023 34.8735 34.6956 34.5686 34.4924 34.4669 89.7801 89.7979 89.8519 89.9412 90.065 90.2223 90.4125 90.6344 90.8862 91.1656 91.4703 91.7981 92.1465 92.5132 92.8954 93.2894 93.6919 94.0992 94.5077 94.9141 95.3145 95.7048 96.0808 96.4385 96.7736 97.082 97.3596 97.6024 97.8066 97.9683 98.0836 98.1486 98.1595 98.1135 98.008 97.8406 97.6088 97.3102 96.9424 96.504 95.9951 95.4153 94.7648 94.0434 93.2511 92.3886 91.4581 90.4624 89.4037 88.2846 87.1077 85.8758 84.5927 83.2627 81.8901 80.4791 79.0339 77.5589 76.0586 74.5378 73.0011 71.4533 69.8992 68.3435 66.7905 65.2442 63.7084 62.187 60.6841 59.2035 57.7488 56.3226 54.9277 53.5668 52.2425 50.9576 49.7144 48.5145 47.3591 46.2495 45.1869 44.1728 43.2081 42.2938 41.4301 40.6176 39.8566 39.1477 38.4912 37.8873 37.3361 36.8375 36.3915 35.9981 35.6573 35.369 35.1332 34.9499 34.819 34.7404 34.7142 89.5549 89.5738 89.6309 89.7254 89.8565 90.0233 90.225 90.4605 90.7281 91.0255 91.3504 91.7004 92.0732 92.4666 92.8776 93.3027 93.7382 94.1807 94.6267 95.0724 95.5142 95.9479 96.3691 96.7736 97.1572 97.5155 97.8443 98.1396 98.3971 98.6127 98.7824 98.9021 98.9676 98.9759 98.924 98.8094 98.6291 98.3804 98.0606 97.6682 97.2027 96.6637 96.0511 95.3644 94.6032 93.7682 92.8616 91.8858 90.8432 89.7362 88.5672 87.3391 86.0558 84.7217 83.3412 81.9187 80.4584 78.9649 77.4429 75.8973 74.3333 72.7557 71.1695 69.5798 67.9911 66.4075 64.8333 63.2727 61.7298 60.2088 58.7134 57.2467 55.8114 54.4105 53.0467 51.723 50.442 49.2053 48.0141 46.87 45.7743 44.7283 43.7333 42.7902 41.8992 41.061 40.276 39.5447 38.8674 38.2445 37.6758 37.1615 36.7015 36.2957 35.9441 35.6468 35.4036 35.2145 35.0795 34.9985 34.9714 89.2956 89.3155 89.3757 89.4754 89.6138 89.79 90.0032 90.2524 90.5359 90.8512 91.1962 91.5686 91.9661 92.3863 92.8263 93.2827 93.7518 94.23 94.7139 95.1998 95.6839 96.1618 96.6293 97.082 97.5155 97.9254 98.3073 98.657 98.9701 99.2422 99.4689 99.6461 99.7693 99.835 99.8403 99.7819 99.6567 99.4618 99.1938 98.8512 98.433 97.9388 97.3678 96.7195 95.9933 95.1894 94.3099 93.3573 92.3337 91.2415 90.083 88.8608 87.5792 86.2426 84.8555 83.4224 81.9477 80.4361 78.8925 77.3222 75.7303 74.1222 72.5031 70.8782 69.2523 67.6299 66.0156 64.4138 62.8289 61.2655 59.7275 58.2181 56.7404 55.2974 53.8921 52.5276 51.2066 49.9309 48.702 47.5213 46.3904 45.3107 44.2837 43.31 42.3903 41.525 40.7146 39.9595 39.2603 38.6172 38.0302 37.4992 37.0243 36.6054 36.2425 35.9355 35.6845 35.4893 35.35 35.2664 35.2385 89.0002 89.0211 89.0844 89.1893 89.3349 89.5205 89.7452 90.008 90.3072 90.6405 91.0056 91.4003 91.8224 92.2695 92.7387 93.2266 93.7295 94.2438 94.766 95.2926 95.8197 96.3428 96.8576 97.3596 97.8443 98.3073 98.7442 99.1503 99.5211 99.852 100.138 100.376 100.56 100.686 100.752 100.754 100.687 100.55 100.338 100.049 99.6824 99.237 98.7118 98.106 97.4186 96.6497 95.8011 94.8751 93.8738 92.7994 91.654 90.4404 89.1626 87.8253 86.4331 84.9906 83.5024 81.9733 80.4084 78.8133 77.1934 75.5542 73.9012 72.2399 70.5755 68.9127 67.2565 65.6116 63.9828 62.3749 60.7922 59.2382 57.7159 56.2287 54.7797 53.3721 52.009 50.6922 49.4233 48.204 47.0358 45.9205 44.8595 43.8537 42.9036 42.0097 41.1724 40.3924 39.6701 39.0057 38.3992 37.8506 37.3599 36.9271 36.5522 36.2351 35.9758 35.7742 35.6303 35.544 35.5152 88.6676 88.6895 88.7559 88.8659 89.0187 89.2135 89.4495 89.7258 90.0405 90.3916 90.7767 91.1937 91.6403 92.1142 92.6126 93.1319 93.6687 94.2193 94.7802 95.3478 95.9184 96.4873 97.0502 97.6024 98.1396 98.657 99.1503 99.6145 100.045 100.437 100.786 101.086 101.334 101.524 101.654 101.719 101.715 101.64 101.488 101.257 100.946 100.554 100.079 99.5199 98.8756 98.1458 97.3322 96.4368 95.4614 94.4082 93.2791 92.0768 90.8054 89.4696 88.0742 86.6238 85.1233 83.5775 81.9918 80.372 78.7239 77.0532 75.3656 73.6669 71.9625 70.2578 68.558 66.8682 65.1936 63.5393 61.9098 60.3087 58.7395 57.2057 55.7107 54.2579 52.8503 51.4901 50.179 48.9188 47.7113 46.5582 45.4614 44.4216 43.4394 42.5153 41.6498 40.8434 40.0967 39.4098 38.7827 38.2156 37.7082 37.2608 36.8732 36.5454 36.2774 36.069 35.9203 35.8311 35.8013 88.2967 88.3197 88.389 88.504 88.6639 88.8678 89.1149 89.4045 89.7346 90.1032 90.5081 90.947 91.4179 91.9184 92.4458 92.9965 93.5671 94.1539 94.7536 95.3624 95.9767 96.5919 97.2034 97.8066 98.3971 98.9701 99.5211 100.045 100.537 100.992 101.405 101.771 102.085 102.343 102.54 102.672 102.735 102.725 102.638 102.47 102.219 101.885 101.465 100.957 100.36 99.6743 98.9003 98.0397 97.0943 96.066 94.9567 93.769 92.5071 91.1755 89.7791 88.3227 86.8112 85.2496 83.6438 81.9997 80.3233 78.6208 76.898 75.1609 73.4153 71.6672 69.9223 68.1861 66.4641 64.7612 63.0825 61.4318 59.8131 58.2302 56.6867 55.1861 53.7316 52.3256 50.9699 49.6666 48.4175 47.2247 46.0899 45.0143 43.9982 43.0422 42.1469 41.3127 40.5401 39.8295 39.1807 38.594 38.0691 37.6062 37.2052 36.8662 36.5889 36.3735 36.2196 36.1274 36.0966 87.8867 87.9106 87.9829 88.1028 88.2695 88.4823 88.7403 89.0428 89.3881 89.7739 90.1981 90.6587 91.1535 91.6803 92.2363 92.8181 93.4222 94.0451 94.6834 95.3334 95.9915 96.6531 97.3136 97.9683 98.6127 99.2422 99.852 100.437 100.992 101.512 101.992 102.426 102.809 103.138 103.405 103.608 103.742 103.801 103.782 103.682 103.497 103.225 102.864 102.413 101.869 101.232 100.502 99.6812 98.7701 97.7708 96.6853 95.516 94.267 92.9428 91.5479 90.0875 88.5667 86.9908 85.3656 83.6977 81.9933 80.2587 78.5002 76.7238 74.9359 73.143 71.3516 69.5676 67.7964 66.043 64.3126 62.6096 60.9386 59.3037 57.709 56.1579 54.654 53.1997 51.797 50.4482 49.1553 47.9205 46.7458 45.6322 44.5803 43.5907 42.6638 41.8002 41.0004 40.2647 39.5931 38.9857 38.4424 37.9632 37.5481 37.1972 36.9103 36.6873 36.5281 36.4327 36.4008 87.4364 87.4612 87.5364 87.661 87.8344 88.0558 88.3245 88.6396 88.9995 89.4021 89.8453 90.3271 90.8453 91.3979 91.9821 92.5945 93.2317 93.8902 94.5668 95.2578 95.9596 96.6676 97.3771 98.0836 98.7824 99.4689 100.138 100.786 101.405 101.992 102.54 103.044 103.5 103.901 104.243 104.52 104.728 104.861 104.916 104.887 104.773 104.569 104.273 103.883 103.397 102.814 102.134 101.358 100.486 99.5205 98.4631 97.3164 96.0842 94.7708 93.3806 91.9188 90.3907 88.8019 87.1586 85.4676 83.7355 81.9688 80.1741 78.3577 76.5266 74.6877 72.8483 71.0146 69.192 67.3858 65.6012 63.8434 62.1173 60.4278 58.779 57.1747 55.6187 54.1134 52.6613 51.2645 49.9255 48.6464 47.4296 46.276 45.1862 44.161 43.2007 42.306 41.4775 40.7154 40.0198 39.3906 38.8279 38.3316 37.9018 37.5384 37.2413 37.0104 36.8456 36.7468 36.7138 86.9449 86.9706 87.0485 87.1777 87.3575 87.5873 87.8662 88.1935 88.5676 88.9865 89.4481 89.9504 90.4914 91.0692 91.6809 92.3233 92.993 93.6867 94.401 95.1326 95.8777 96.6318 97.3903 98.1486 98.9021 99.6461 100.376 101.086 101.771 102.426 103.044 103.621 104.151 104.629 105.048 105.402 105.688 105.9 106.032 106.08 106.041 105.91 105.685 105.362 104.94 104.417 103.792 103.067 102.239 101.313 100.289 99.169 97.9579 96.6591 95.2768 93.8164 92.2835 90.6839 89.0242 87.3112 85.5518 83.753 81.9217 80.065 78.1901 76.3042 74.4149 72.5289 70.6521 68.7903 66.9492 65.1342 63.3507 61.6038 59.898 58.2376 56.6266 55.0678 53.5636 52.1165 50.7288 49.4032 48.1419 46.946 45.8163 44.7533 43.7578 42.8303 41.9714 41.1815 40.4606 39.8086 39.2255 38.7113 38.2659 37.8895 37.5817 37.3425 37.1717 37.0694 37.0352 86.4112 86.4379 86.5183 86.6519 86.8379 87.0756 87.3644 87.7034 88.0911 88.5256 89.005 89.5272 90.0903 90.6924 91.3309 92.0025 92.704 93.432 94.1834 94.9549 95.7428 96.5426 97.3497 98.1595 98.9676 99.7693 100.56 101.334 102.085 102.809 103.5 104.151 104.758 105.314 105.813 106.249 106.616 106.91 107.125 107.255 107.296 107.244 107.095 106.845 106.493 106.036 105.473 104.803 104.027 103.145 102.16 101.073 99.887 98.6069 97.2363 95.7806 94.2458 92.638 90.9637 89.2301 87.4441 85.6132 83.7452 81.848 79.9289 77.9952 76.0541 74.1127 72.1782 70.2576 68.3577 66.4835 64.6404 62.8335 61.0677 59.3481 57.6792 56.0639 54.505 53.0049 51.5662 50.1915 48.8833 47.6428 46.4709 45.3681 44.3353 43.3731 42.4822 41.663 40.9155 40.2395 39.635 39.1021 38.6405 38.2502 37.9312 37.6833 37.5063 37.4002 37.3648 85.8353 85.8628 85.9457 86.0835 86.2753 86.5206 86.8187 87.1689 87.5697 88.0192 88.5155 89.0568 89.6411 90.2667 90.931 91.6309 92.3632 93.1247 93.9123 94.7228 95.5526 96.3974 97.2525 98.1135 98.9759 99.835 100.686 101.524 102.343 103.138 103.901 104.629 105.314 105.95 106.532 107.052 107.506 107.886 108.188 108.404 108.531 108.563 108.496 108.326 108.05 107.666 107.171 106.564 105.845 105.015 104.074 103.025 101.87 100.613 99.2587 97.8116 96.2784 94.6651 92.9786 91.226 89.4146 87.5522 85.6476 83.7095 81.7457 79.7629 77.7682 75.7692 73.7743 71.7925 69.831 67.8951 65.9896 64.1195 62.2905 60.5084 58.7784 57.1037 55.4871 53.9312 52.4387 51.0123 49.6547 48.3672 47.1506 46.0058 44.9335 43.9347 43.0101 42.1601 41.3845 40.6833 40.0564 39.5037 39.0251 38.6204 38.2896 38.0325 37.849 37.739 37.7022 85.2175 85.2458 85.331 85.4727 85.6701 85.9226 86.2295 86.5903 87.0034 87.467 87.9795 88.539 89.1436 89.7917 90.4808 91.2078 91.9698 92.7637 93.5864 94.4348 95.3056 96.1944 97.0966 98.008 98.924 99.8403 100.752 101.654 102.54 103.405 104.243 105.048 105.813 106.532 107.199 107.807 108.349 108.82 109.213 109.521 109.739 109.861 109.882 109.798 109.606 109.301 108.881 108.344 107.69 106.917 106.028 105.023 103.905 102.677 101.344 99.9097 98.3819 96.7664 95.0703 93.3009 91.4657 89.5731 87.6325 85.6531 83.6429 81.6094 79.5598 77.5023 75.4463 73.4013 71.3753 69.3739 67.402 65.4651 63.5695 61.7215 59.9271 58.1896 56.512 54.8971 53.3477 51.8668 50.4569 49.1197 47.856 46.6668 45.553 44.5156 43.5554 42.6728 41.8677 41.14 40.4895 39.9161 39.4195 38.9997 38.6565 38.3897 38.1993 38.0851 38.047 84.5581 84.5871 84.6746 84.8199 85.0224 85.2816 85.5969 85.9675 86.3922 86.8693 87.397 87.9736 88.5976 89.267 89.9797 90.7327 91.5231 92.348 93.2045 94.0897 95.0001 95.9317 96.8799 97.8406 98.8094 99.7819 100.754 101.719 102.672 103.608 104.52 105.402 106.249 107.052 107.807 108.505 109.14 109.705 110.193 110.597 110.912 111.13 111.246 111.255 111.153 110.934 110.597 110.138 109.556 108.849 108.019 107.065 105.99 104.797 103.49 102.075 100.557 98.9431 97.2401 95.4563 93.5998 91.6792 89.7035 87.6819 85.6234 83.537 81.4316 79.3161 77.1994 75.0902 72.9964 70.9247 68.8816 66.8737 64.9076 62.9903 61.1278 59.3239 57.5817 55.9043 54.2947 52.7559 51.2908 49.9011 48.5877 47.3517 46.1941 45.116 44.1183 43.2015 42.3653 41.6096 40.9342 40.3388 39.8233 39.3876 39.0313 38.7544 38.5568 38.4383 38.3987 83.8575 83.8872 83.9767 84.1254 84.3327 84.5981 84.9211 85.3009 85.7364 86.2259 86.7679 87.3606 88.0026 88.6922 89.4271 90.2047 91.0221 91.8767 92.7655 93.6859 94.6345 95.6074 96.6002 97.6088 98.6291 99.6567 100.687 101.715 102.735 103.742 104.728 105.688 106.616 107.506 108.349 109.14 109.87 110.533 111.12 111.625 112.042 112.362 112.579 112.688 112.684 112.56 112.314 111.941 111.439 110.806 110.042 109.147 108.122 106.971 105.698 104.307 102.804 101.196 99.4897 97.6946 95.8193 93.8726 91.8631 89.7994 87.6914 85.5506 83.3882 81.2141 79.0356 76.86 74.695 72.549 70.4305 68.3477 66.3077 64.3174 62.3832 60.509 58.6983 56.9545 55.281 53.6809 52.1573 50.7121 49.3464 48.0611 46.8574 45.7365 44.6993 43.7463 42.8773 42.092 41.3903 40.7718 40.2364 39.7837 39.4137 39.1262 38.921 38.798 38.7568 83.1161 83.1464 83.2377 83.3895 83.6011 83.8722 84.2022 84.5905 85.036 85.537 86.0921 86.6998 87.3585 88.0668 88.8226 89.6232 90.4661 91.3486 92.2681 93.222 94.2071 95.2195 96.2553 97.3102 98.3804 99.4618 100.55 101.64 102.725 103.801 104.861 105.9 106.91 107.886 108.82 109.705 110.533 111.296 111.987 112.597 113.12 113.548 113.873 114.09 114.191 114.17 114.023 113.745 113.332 112.782 112.094 111.265 110.299 109.198 107.965 106.604 105.123 103.525 101.821 100.018 98.1267 96.1556 94.1133 92.0087 89.8525 87.6573 85.4361 83.1993 80.9543 78.708 76.4686 74.2457 72.0495 69.8893 67.7724 65.7057 63.6958 61.7472 59.8638 58.0495 56.3079 54.6427 53.0573 51.5535 50.1325 48.7954 47.5434 46.3774 45.2986 44.3075 43.4038 42.5873 41.8577 41.2147 40.6582 40.1878 39.8034 39.5047 39.2915 39.1637 39.1209 82.3341 82.365 82.4579 82.6124 82.8281 83.1043 83.4406 83.8366 84.291 84.8024 85.3695 85.9909 86.6651 87.3906 88.1657 88.9877 89.8543 90.763 91.7112 92.6966 93.7163 94.7664 95.843 96.9424 98.0606 99.1938 100.338 101.488 102.638 103.782 104.916 106.032 107.125 108.188 109.213 110.193 111.12 111.987 112.784 113.504 114.139 114.681 115.12 115.451 115.665 115.756 115.717 115.544 115.229 114.772 114.168 113.416 112.518 111.475 110.289 108.966 107.511 105.932 104.235 102.429 100.524 98.53 96.4562 94.3132 92.112 89.8643 87.5816 85.2752 82.9552 80.6317 78.3148 76.0143 73.7398 71.5006 69.3042 67.1578 65.0684 63.0409 61.0802 59.1908 57.3769 55.6426 53.9916 52.426 50.9469 49.5553 48.2523 47.0391 45.9166 44.8853 43.945 43.0954 42.3363 41.6674 41.0886 40.5995 40.1998 39.8894 39.6679 39.535 39.4905 81.5125 81.5439 81.6383 81.7953 82.0143 82.2951 82.6371 83.0398 83.5023 84.0231 84.601 85.2346 85.9228 86.664 87.4567 88.2983 89.1868 90.1196 91.0947 92.1095 93.1615 94.2471 95.3625 96.504 97.6682 98.8512 100.049 101.257 102.47 103.682 104.887 106.08 107.255 108.404 109.521 110.597 111.625 112.597 113.504 114.338 115.089 115.75 116.31 116.762 117.098 117.309 117.389 117.329 117.123 116.768 116.259 115.594 114.773 113.797 112.668 111.39 109.97 108.415 106.733 104.93 103.015 101 98.8966 96.7178 94.4742 92.175 89.829 87.4477 85.0463 82.6402 80.2427 77.8624 75.5075 73.1862 70.9065 68.6761 66.5026 64.3918 62.3492 60.3803 58.4897 56.682 54.9616 53.3307 51.7902 50.3412 48.9846 47.7216 46.553 45.4793 44.5004 43.6158 42.8256 42.1294 41.5269 41.0181 40.6024 40.2796 40.0494 39.9112 39.865 80.653 80.6848 80.7804 80.9395 81.1615 81.4462 81.7932 82.2018 82.6713 83.2003 83.7877 84.4323 85.1329 85.8883 86.6968 87.5562 88.4645 89.4195 90.4192 91.4613 92.5433 93.6619 94.8137 95.9951 97.2027 98.433 99.6824 100.946 102.219 103.497 104.773 106.041 107.296 108.531 109.739 110.912 112.042 113.12 114.139 115.089 115.961 116.745 117.433 118.014 118.479 118.819 119.026 119.09 119.004 118.762 118.359 117.792 117.059 116.16 115.098 113.875 112.499 110.977 109.315 107.521 105.603 103.572 101.443 99.2291 96.9422 94.5899 92.1803 89.7254 87.2439 84.7544 82.2724 79.8064 77.364 74.9532 72.583 70.2623 67.9996 65.8011 63.6726 61.6198 59.6481 57.7629 55.969 54.2689 52.6634 51.1535 49.7403 48.4246 47.2073 46.0889 45.0692 44.1479 43.3248 42.5998 41.9726 41.443 41.0105 40.6747 40.4352 40.2916 40.2434 79.7569 79.7891 79.8857 80.0466 80.2712 80.5592 80.9103 81.324 81.7994 82.3356 82.9313 83.5854 84.2969 85.0647 85.8872 86.7624 87.6886 88.6636 89.6856 90.7526 91.8622 93.0114 94.1968 95.4153 96.6637 97.9388 99.237 100.554 101.885 103.225 104.569 105.91 107.244 108.563 109.861 111.13 112.362 113.548 114.681 115.75 116.745 117.658 118.478 119.195 119.797 120.276 120.619 120.818 120.862 120.745 120.46 120.002 119.368 118.559 117.575 116.419 115.098 113.617 111.983 110.205 108.291 106.253 104.103 101.854 99.5189 97.1094 94.6376 92.1172 89.5643 86.9952 84.4242 81.8625 79.3205 76.8087 74.3379 71.9186 69.5606 67.2699 65.0517 62.9112 60.8543 58.8871 57.0155 55.2419 53.5674 51.9929 50.5194 49.1477 47.8789 46.7132 45.6506 44.6906 43.8332 43.078 42.4249 41.8734 41.4233 41.0738 40.8247 40.6753 40.6252 78.8259 78.8584 78.9559 79.1182 79.3448 79.6356 79.99 80.4079 80.8883 81.4303 82.0329 82.6952 83.416 84.1944 85.0291 85.9182 86.8601 87.8528 88.8948 89.9841 91.1187 92.2957 93.512 94.7648 96.0511 97.3678 98.7118 100.079 101.465 102.864 104.273 105.685 107.095 108.496 109.882 111.246 112.579 113.873 115.12 116.31 117.433 118.478 119.436 120.294 121.042 121.666 122.156 122.5 122.687 122.707 122.553 122.215 121.693 120.986 120.094 119.019 117.764 116.334 114.738 112.984 111.084 109.047 106.882 104.598 102.212 99.7415 97.2086 94.6287 92.011 89.3643 86.6996 84.0328 81.38 78.7569 76.1761 73.6503 71.1906 68.8023 66.4896 64.2568 62.1103 60.0567 58.1028 56.2512 54.5032 52.8597 51.3219 49.8906 48.5671 47.3515 46.2437 45.2433 44.3499 43.5633 42.883 42.3087 41.84 41.4762 41.2168 41.0614 41.0093 77.8617 77.8943 77.9925 78.1558 78.384 78.6768 79.0339 79.455 79.9393 80.486 81.0942 81.763 82.4916 83.2789 84.1238 85.0247 85.98 86.9881 88.0475 89.1566 90.3134 91.5152 92.7595 94.0434 95.3644 96.7195 98.106 99.5199 100.957 102.413 103.883 105.362 106.845 108.326 109.798 111.255 112.688 114.09 115.451 116.762 118.014 119.195 120.294 121.3 122.198 122.978 123.624 124.124 124.464 124.634 124.623 124.421 124.025 123.434 122.647 121.666 120.492 119.127 117.58 115.862 113.984 111.954 109.779 107.467 105.033 102.505 99.9087 97.2618 94.5697 91.8372 89.0737 86.2991 83.5342 80.7979 78.1047 75.4679 72.8997 70.4059 67.991 65.6596 63.4181 61.2736 59.2326 57.2982 55.4717 53.7545 52.1479 50.653 49.2713 48.003 46.8478 45.805 44.8742 44.0548 43.3463 42.7482 42.2599 41.881 41.6109 41.449 41.395 76.8656 76.8984 76.9969 77.161 77.3903 77.6845 78.0434 78.4668 78.954 79.5041 80.1165 80.7904 81.5249 82.3193 83.1724 84.0829 85.0494 86.0705 87.1447 88.2707 89.4467 90.6704 91.9394 93.2511 94.6032 95.9933 97.4186 98.8756 100.36 101.869 103.397 104.94 106.493 108.05 109.606 111.153 112.684 114.191 115.665 117.098 118.479 119.797 121.042 122.198 123.255 124.196 125.008 125.674 126.18 126.512 126.658 126.606 126.352 125.894 125.227 124.354 123.275 121.992 120.513 118.845 116.996 114.976 112.796 110.464 107.998 105.42 102.754 100.018 97.2249 94.3876 91.5203 88.6424 85.7735 82.9318 80.1304 77.3821 74.6986 72.0889 69.5609 67.1225 64.7802 62.5397 60.4067 58.3842 56.474 54.6778 52.9974 51.4345 49.9909 48.667 47.4619 46.375 45.4052 44.5519 43.814 43.191 42.6823 42.2874 42.006 41.8375 41.7814 75.8395 75.8724 75.9712 76.1356 76.3654 76.6604 77.0204 77.4451 77.934 78.4864 79.1016 79.779 80.5178 81.3173 82.1767 83.0946 84.0699 85.1013 86.1877 87.3278 88.52 89.7623 91.0525 92.3886 93.7682 95.1894 96.6497 98.1458 99.6743 101.232 102.814 104.417 106.036 107.666 109.301 110.934 112.56 114.17 115.756 117.309 118.819 120.276 121.666 122.978 124.196 125.307 126.292 127.134 127.817 128.324 128.642 128.757 128.663 128.353 127.824 127.074 126.108 124.928 123.536 121.933 120.124 118.119 115.937 113.597 111.113 108.495 105.753 102.906 99.9857 97.0244 94.0482 91.0714 88.1066 85.1659 82.2598 79.3985 76.5928 73.8566 71.2046 68.6501 66.1997 63.8572 61.6264 59.5102 57.5106 55.6301 53.8709 52.2355 50.726 49.3432 48.0858 46.9526 45.9422 45.0535 44.2852 43.6362 43.106 42.6945 42.4011 42.2256 42.1675 74.7858 74.8187 74.9174 75.0818 75.3117 75.6069 75.9672 76.3923 76.8819 77.4353 78.0519 78.7312 79.4726 80.2754 81.139 82.0622 83.0439 84.0832 85.179 86.3303 87.5356 88.7933 90.1014 91.4581 92.8616 94.3099 95.8011 97.3322 98.9003 100.502 102.134 103.792 105.473 107.171 108.881 110.597 112.314 114.023 115.717 117.389 119.026 120.619 122.156 123.624 125.008 126.292 127.458 128.485 129.355 130.05 130.555 130.853 130.936 130.796 130.424 129.822 128.991 127.933 126.646 125.126 123.372 121.396 119.224 116.881 114.379 111.719 108.904 105.951 102.909 99.825 96.7349 93.6492 90.5756 87.5222 84.4982 81.513 78.5778 75.71 72.9283 70.2501 67.6824 65.2288 62.8925 60.6763 58.5822 56.6125 54.77 53.0576 51.4783 50.0328 48.7198 47.5375 46.4844 45.5586 44.7583 44.0821 43.5296 43.1005 42.7947 42.6119 42.5517 73.7067 73.7395 73.8381 74.0021 74.2316 74.5263 74.8861 75.3108 75.8 76.3531 76.9698 77.6496 78.3919 79.1963 80.062 80.9883 81.9741 83.0188 84.1213 85.2808 86.4962 87.766 89.0886 90.4624 91.8858 93.3573 94.8751 96.4368 98.0397 99.6812 101.358 103.067 104.803 106.564 108.344 110.138 111.941 113.745 115.544 117.329 119.09 120.818 122.5 124.124 125.674 127.134 128.485 129.704 130.773 131.67 132.376 132.874 133.153 133.203 133.017 132.59 131.919 131.004 129.839 128.42 126.745 124.823 122.677 120.328 117.792 115.08 112.201 109.18 106.057 102.874 99.6655 96.4453 93.2271 90.0242 86.8507 83.7206 80.6484 77.6491 74.7383 71.9304 69.2344 66.6573 64.2057 61.8826 59.689 57.6259 55.696 53.9027 52.2494 50.7371 49.3644 48.1297 47.031 46.0658 45.2317 44.527 43.9512 43.504 43.1853 42.9949 42.9324 72.6046 72.6373 72.7354 72.8989 73.1275 73.4211 73.7796 74.2029 74.6907 75.2425 75.8579 76.5367 77.2782 78.0823 78.9483 79.8755 80.8632 81.9106 83.0172 84.1821 85.4045 86.683 88.0165 89.4037 90.8432 92.3337 93.8738 95.4614 97.0943 98.7701 100.486 102.239 104.027 105.845 107.69 109.556 111.439 113.332 115.229 117.123 119.004 120.862 122.687 124.464 126.18 127.817 129.355 130.773 132.049 133.161 134.084 134.798 135.291 135.557 135.586 135.367 134.889 134.139 133.114 131.817 130.248 128.41 126.31 123.951 121.36 118.579 115.65 112.605 109.452 106.201 102.868 99.484 96.0794 92.6847 89.3255 86.0264 82.8086 79.6787 76.6397 73.6961 70.8599 68.1461 65.5683 63.1305 60.8316 58.6707 56.6494 54.7713 53.04 51.4566 50.0199 48.7287 47.581 46.5738 45.7039 44.9692 44.3691 43.9033 43.5714 43.373 43.3079 71.4819 71.5144 71.6119 71.7743 72.0016 72.2935 72.6501 73.0712 73.5565 74.1058 74.7187 75.3949 76.1342 76.9361 77.8004 78.7264 79.7136 80.7614 81.8693 83.0367 84.2629 85.547 86.8879 88.2846 89.7362 91.2415 92.7994 94.4082 96.066 97.7708 99.5205 101.313 103.145 105.015 106.917 108.849 110.806 112.782 114.772 116.768 118.762 120.745 122.707 124.634 126.512 128.324 130.05 131.67 133.161 134.497 135.651 136.599 137.331 137.839 138.113 138.135 137.881 137.33 136.479 135.332 133.891 132.154 130.11 127.753 125.114 122.267 119.285 116.205 113.009 109.679 106.216 102.665 99.0731 95.4861 91.9387 88.4644 85.0898 81.8154 78.6347 75.5445 72.5595 69.7006 66.9874 64.425 62.0117 59.7456 57.6276 55.6607 53.8475 52.1893 50.685 49.3338 48.1337 47.0813 46.1733 45.4071 44.7818 44.2967 43.9512 43.7448 43.6766 70.3408 70.373 70.4697 70.6308 70.8563 71.146 71.5 71.918 72.3999 72.9455 73.5546 74.2269 74.9622 75.7603 76.6209 77.5436 78.528 79.5737 80.6802 81.8472 83.0742 84.3605 85.7052 87.1077 88.5672 90.083 91.654 93.2791 94.9567 96.6853 98.4631 100.289 102.16 104.074 106.028 108.019 110.042 112.094 114.168 116.259 118.359 120.46 122.553 124.623 126.658 128.642 130.555 132.376 134.084 135.651 137.049 138.254 139.251 140.03 140.578 140.869 140.876 140.572 139.943 138.983 137.686 136.047 134.064 131.734 129.09 126.203 123.144 119.951 116.623 113.154 109.554 105.866 102.136 98.4056 94.7078 91.0733 87.5279 84.0779 80.7247 77.4715 74.3327 71.3267 68.4708 65.7717 63.2307 60.8489 58.6275 56.5672 54.6691 52.933 51.3582 49.9438 48.6878 47.5871 46.6384 45.8389 45.1874 44.6826 44.3234 44.1086 44.0369 69.1837 69.2156 69.3114 69.4709 69.6941 69.981 70.3316 70.7457 71.2233 71.7641 72.3681 73.0351 73.765 74.5575 75.4126 76.3299 77.3092 78.3503 79.4528 80.6166 81.8412 83.1263 84.4713 85.8758 87.3391 88.8608 90.4404 92.0768 93.769 95.516 97.3164 99.169 101.073 103.025 105.023 107.065 109.147 111.265 113.416 115.594 117.792 120.002 122.215 124.421 126.606 128.757 130.853 132.874 134.798 136.599 138.254 139.738 141.03 142.11 142.959 143.551 143.858 143.853 143.504 142.776 141.636 140.089 138.166 135.897 133.309 130.42 127.249 123.838 120.253 116.562 112.819 109.041 105.245 101.444 97.6509 93.8801 90.1473 86.4818 82.9161 79.4792 76.1821 73.0288 70.0235 67.1742 64.49 61.9801 59.6468 57.4879 55.5014 53.6851 52.0375 50.5571 49.2419 48.0894 47.0972 46.2628 45.5842 45.0593 44.6862 44.4627 44.387 68.0133 68.0448 68.1394 68.297 68.5176 68.8011 69.1477 69.5571 70.0294 70.5644 71.1622 71.8225 72.5454 73.3308 74.1785 75.0884 76.0605 77.0946 78.1905 79.3483 80.5676 81.8483 83.1901 84.5927 86.0558 87.5792 89.1626 90.8054 92.5071 94.267 96.0842 97.9579 99.887 101.87 103.905 105.99 108.122 110.299 112.518 114.773 117.059 119.368 121.693 124.025 126.352 128.663 130.936 133.153 135.291 137.331 139.251 141.03 142.639 144.05 145.235 146.167 146.817 147.157 147.132 146.674 145.723 144.291 142.445 140.252 137.728 134.845 131.572 127.948 124.11 120.201 116.315 112.445 108.575 104.691 100.788 96.8644 92.9271 89.029 85.2332 81.5953 78.1228 74.8064 71.6386 68.6278 65.7903 63.1421 60.6873 58.4215 56.3405 54.4402 52.7174 51.1687 49.7917 48.5849 47.547 46.6763 45.9697 45.4242 45.0369 44.8046 44.7245 66.8319 66.8629 66.9562 67.1116 67.3292 67.6089 67.9508 68.3549 68.821 69.3493 69.9397 70.5921 71.3066 72.0832 72.9218 73.8225 74.7853 75.8101 76.897 78.0461 79.2572 80.5304 81.8656 83.2627 84.7217 86.2426 87.8253 89.4696 91.1755 92.9428 94.7708 96.6591 98.6069 100.613 102.677 104.797 106.971 109.198 111.475 113.797 116.16 118.559 120.986 123.434 125.894 128.353 130.796 133.203 135.557 137.839 140.03 142.11 144.05 145.818 147.383 148.706 149.747 150.463 150.785 150.63 149.922 148.669 146.941 144.806 142.292 139.383 136.065 132.384 128.469 124.458 120.438 116.407 112.352 108.262 104.141 99.9939 95.8351 91.7179 87.7055 83.8533 80.1725 76.6581 73.3062 70.1258 67.132 64.3391 61.7517 59.367 57.1822 55.1926 53.3916 51.7728 50.3324 49.0698 47.9851 47.0769 46.3414 45.7747 45.3727 45.1315 45.0469 65.6421 65.6727 65.7645 65.9175 66.1317 66.4071 66.7438 67.1417 67.6009 68.1215 68.7034 69.3468 70.0516 70.8179 71.6459 72.5355 73.487 74.5004 75.576 76.7138 77.9139 79.1766 80.5019 81.8901 83.3412 84.8555 86.4331 88.0742 89.7791 91.5479 93.3806 95.2768 97.2363 99.2587 101.344 103.49 105.698 107.965 110.289 112.668 115.098 117.575 120.094 122.647 125.227 127.824 130.424 133.017 135.586 138.113 140.578 142.959 145.235 147.383 149.374 151.147 152.628 153.746 154.427 154.605 154.212 153.229 151.674 149.562 146.958 143.968 140.7 137.215 133.514 129.589 125.453 121.151 116.73 112.24 107.732 103.257 98.8581 94.5542 90.3568 86.2792 82.3456 78.584 75.0203 71.6637 68.5144 65.5726 62.8408 60.323 58.0229 55.937 54.0544 52.3639 50.8591 49.5404 48.4083 47.462 46.6969 46.1081 45.6909 45.4404 45.3517 64.4465 64.4766 64.5668 64.7171 64.9276 65.1982 65.5292 65.9203 66.3719 66.8838 67.4564 68.0895 68.7834 69.5381 70.3538 71.2307 72.1691 73.1691 74.2311 75.3552 76.5417 77.7909 79.1033 80.4791 81.9187 83.4224 84.9906 86.6238 88.3227 90.0875 91.9188 93.8164 95.7806 97.8116 99.9097 102.075 104.307 106.604 108.966 111.39 113.875 116.419 119.019 121.666 124.354 127.074 129.822 132.59 135.367 138.135 140.869 143.551 146.167 148.706 151.147 153.405 155.372 156.944 158.044 158.611 158.583 157.911 156.552 154.47 151.773 148.708 145.524 142.303 138.886 135.099 130.863 126.276 121.461 116.533 111.599 106.76 102.096 97.5852 93.1814 88.8512 84.6341 80.5962 76.7979 73.2484 69.9309 66.8296 63.9439 61.2843 58.8612 56.6721 54.7025 52.9373 51.3674 49.9928 48.8138 47.829 47.0335 46.4218 45.9886 45.7286 45.6365 63.2477 63.2772 63.3656 63.513 63.7195 63.985 64.3097 64.6935 65.1366 65.6392 66.2014 66.8233 67.505 68.2468 69.0488 69.9114 70.8349 71.8196 72.8659 73.974 75.1443 76.3774 77.6738 79.0339 80.4584 81.9477 83.5024 85.1233 86.8112 88.5667 90.3907 92.2835 94.2458 96.2784 98.3819 100.557 102.804 105.123 107.511 109.97 112.499 115.098 117.764 120.492 123.275 126.108 128.991 131.919 134.889 137.881 140.876 143.858 146.817 149.747 152.628 155.372 157.863 159.986 161.629 162.681 163.034 162.629 161.444 159.463 156.814 153.773 150.618 147.432 144.033 140.219 135.893 131.161 126.149 120.985 115.782 110.654 105.69 100.873 96.1626 91.5303 87.0222 82.7112 78.664 74.8908 71.3727 68.0919 65.0462 62.2447 59.6963 57.3977 55.3337 53.4889 51.8529 50.4235 49.1987 48.1754 47.3487 46.713 46.263 45.9934 45.8986 62.0481 62.077 62.1635 62.3078 62.51 62.77 63.0879 63.4639 63.898 64.3904 64.9413 65.551 66.2195 66.9472 67.7342 68.581 69.488 70.4556 71.4841 72.574 73.7258 74.94 76.2175 77.5589 78.9649 80.4361 81.9733 83.5775 85.2496 86.9908 88.8019 90.6839 92.638 94.6651 96.7664 98.9431 101.196 103.525 105.932 108.415 110.977 113.617 116.334 119.127 121.992 124.928 127.933 131.004 134.139 137.33 140.572 143.853 147.157 150.463 153.746 156.944 159.986 162.785 165.144 166.805 167.527 167.287 166.221 164.464 162.127 159.293 156.045 152.447 148.543 144.372 139.967 135.342 130.511 125.493 120.331 115.069 109.758 104.472 99.2908 94.288 89.498 84.9413 80.6374 76.5982 72.8312 69.3435 66.1344 63.1975 60.5262 58.1122 55.945 54.0143 52.3111 50.8285 49.5597 48.4985 47.6399 46.9791 46.5114 46.2318 46.1356 60.8501 60.8783 60.9629 61.1039 61.3015 61.5556 61.8664 62.234 62.6584 63.14 63.679 64.2755 64.9299 65.6423 66.4131 67.2427 68.1317 69.0804 70.0894 71.1591 72.29 73.483 74.7389 76.0586 77.4429 78.8925 80.4084 81.9918 83.6438 85.3656 87.1586 89.0242 90.9637 92.9786 95.0703 97.2401 99.4897 101.821 104.235 106.733 109.315 111.983 114.738 117.58 120.513 123.536 126.646 129.839 133.114 136.479 139.943 143.504 147.132 150.785 154.427 158.044 161.629 165.144 168.287 170.621 171.738 171.668 170.755 169.336 167.489 165.026 161.754 157.703 153.214 148.646 144.203 139.779 135.233 130.447 125.37 119.962 114.231 108.37 102.619 97.1843 92.0838 87.2644 82.6803 78.3445 74.3001 70.5874 67.2076 64.1331 61.3363 58.8019 56.5266 54.5073 52.7372 51.2032 49.8921 48.7936 47.903 47.2167 46.7307 46.4413 46.3445 59.656 59.6835 59.766 59.9036 60.0963 60.3443 60.6476 61.0063 61.4206 61.8907 62.417 62.9996 63.6389 64.335 65.0885 65.8997 66.7693 67.6977 68.6854 69.733 70.8411 72.0106 73.2425 74.5378 75.8973 77.3222 78.8133 80.372 81.9997 83.6977 85.4676 87.3112 89.2301 91.226 93.3009 95.4563 97.6946 100.018 102.429 104.93 107.521 110.205 112.984 115.862 118.845 121.933 125.126 128.42 131.817 135.332 138.983 142.776 146.674 150.63 154.605 158.611 162.681 166.805 170.621 173.587 175.197 175.495 174.922 173.909 172.538 170.539 167.634 163.818 159.468 154.988 150.598 146.162 141.504 136.483 131.058 125.202 118.942 112.52 106.23 100.325 94.8193 89.6407 84.7258 80.0867 75.7744 71.8368 68.2717 65.0406 62.1055 59.447 57.0653 54.9609 53.1262 51.5425 50.1903 49.0553 48.1335 47.422 46.9182 46.6192 46.5221 58.4679 58.4947 58.5751 58.7091 58.8968 59.1384 59.4339 59.7833 60.187 60.6451 61.158 61.726 62.3494 63.0284 63.7636 64.5553 65.4042 66.3109 67.2758 68.2997 69.3831 70.527 71.7327 73.0011 74.3333 75.7303 77.1934 78.7239 80.3233 81.9933 83.7355 85.5518 87.4441 89.4146 91.4657 93.5998 95.8193 98.1267 100.524 103.015 105.603 108.291 111.084 113.984 116.996 120.124 123.372 126.745 130.248 133.891 137.686 141.636 145.723 149.922 154.212 158.583 163.034 167.527 171.738 175.197 177.459 178.5 178.594 178.02 176.951 175.454 173.594 171.346 168.573 165.126 160.921 155.99 150.383 144.178 137.549 130.681 123.75 116.885 110.2 103.802 97.7372 92.0326 86.7122 81.7839 77.2474 73.101 69.3297 65.9088 62.8136 60.029 57.5491 55.3681 53.4732 51.8412 50.4485 49.2782 48.3265 47.5914 47.0709 46.7629 46.6653 57.2883 57.3143 57.3924 57.5227 57.7053 57.9402 58.2275 58.5674 58.96 59.4057 59.9048 60.4576 61.0644 61.7255 62.4413 63.2126 64.0398 64.9235 65.8643 66.8629 67.92 69.0366 70.214 71.4533 72.7557 74.1222 75.5542 77.0532 78.6208 80.2587 81.9688 83.753 85.6132 87.5522 89.5731 91.6792 93.8726 96.1556 98.53 101 103.572 106.253 109.047 111.954 114.976 118.119 121.396 124.823 128.41 132.154 136.047 140.089 144.291 148.669 153.229 157.911 162.629 167.287 171.668 175.495 178.5 180.548 181.602 181.643 180.959 180.155 179.834 179.954 179.579 177.714 173.801 168.143 161.141 153.22 144.879 136.628 128.866 121.533 114.456 107.503 100.768 94.4317 88.6534 83.4331 78.6877 74.337 70.3479 66.7211 63.4578 60.5496 57.9789 55.7277 53.7746 52.0944 50.6612 49.4567 48.4774 47.7212 47.186 46.8699 46.7708 56.1193 56.1445 56.2204 56.3468 56.5241 56.7521 57.0311 57.3611 57.7423 58.1752 58.66 59.197 59.7866 60.4291 61.125 61.8748 62.6793 63.539 64.4546 65.4266 66.4559 67.5436 68.691 69.8992 71.1695 72.5031 73.9012 75.3656 76.898 78.5002 80.1741 81.9217 83.7452 85.6476 87.6325 89.7035 91.8631 94.1133 96.4562 98.8966 101.443 104.103 106.882 109.779 112.796 115.937 119.224 122.677 126.31 130.11 134.064 138.166 142.445 146.941 151.674 156.552 161.444 166.221 170.755 174.922 178.594 181.602 183.745 184.842 185.191 185.573 186.766 188.668 189.947 189.189 185.602 179.606 171.758 162.656 153.002 143.516 134.754 126.612 118.822 111.171 103.771 96.8512 90.6177 85.0576 80.0465 75.4646 71.2658 67.4573 64.0467 61.0248 58.3655 56.0421 54.0281 52.297 50.8225 49.5856 48.5816 47.8076 47.2606 46.9375 46.8354 54.9631 54.9876 55.0611 55.1837 55.3554 55.5765 55.8469 56.1668 56.5364 56.9561 57.4262 57.947 58.5189 59.1423 59.8175 60.5452 61.3262 62.161 63.0502 63.9945 64.9948 66.0523 67.1681 68.3435 69.5798 70.8782 72.2399 73.6669 75.1609 76.7238 78.3577 80.065 81.848 83.7095 85.6531 87.6819 89.7994 92.0087 94.3132 96.7178 99.2291 101.854 104.598 107.467 110.464 113.597 116.881 120.328 123.951 127.753 131.734 135.897 140.252 144.806 149.562 154.47 159.463 164.464 169.336 173.909 178.02 181.643 184.842 187.687 190.248 192.596 194.795 196.596 197.314 196.234 192.937 187.574 180.363 171.614 161.889 151.793 141.851 132.257 123.124 114.557 106.605 99.2998 92.6667 86.6772 81.2753 76.4058 72.0248 68.0973 64.5883 61.4694 58.7184 56.3135 54.2309 52.4443 50.927 49.6593 48.6344 47.847 47.2916 46.9631 46.8561 53.8218 53.8455 53.9166 54.0352 54.2014 54.4153 54.677 54.9866 55.3444 55.7507 56.2058 56.7101 57.264 57.8676 58.5216 59.2267 59.9834 60.7925 61.6545 62.5702 63.5405 64.5665 65.6494 66.7905 67.9911 69.2523 70.5755 71.9625 73.4153 74.9359 76.5266 78.1901 79.9289 81.7457 83.6429 85.6234 87.6914 89.8525 92.112 94.4742 96.9422 99.5189 102.212 105.033 107.998 111.113 114.379 117.792 121.36 125.114 129.09 133.309 137.728 142.292 146.958 151.773 156.814 162.127 167.489 172.538 176.951 180.959 185.191 190.248 195.852 200.852 204.073 205.037 204.237 202.233 199.281 195.048 189.134 181.32 171.897 161.242 149.793 138.238 127.326 117.685 109.244 101.674 94.6784 88.2081 82.3436 77.1584 72.6204 68.6212 65.0528 61.8554 59.0174 56.5294 54.3754 52.5309 50.9708 49.6749 48.6333 47.8369 47.277 46.9447 46.8309 52.697 52.72 52.7887 52.9032 53.0638 53.2705 53.5233 53.8225 54.1683 54.561 55.0009 55.4884 56.0238 56.6075 57.2399 57.9217 58.6536 59.4364 60.2705 61.1569 62.0962 63.0897 64.1386 65.2442 66.4075 67.6299 68.9127 70.2578 71.6672 73.143 74.6877 76.3042 77.9952 79.7629 81.6094 83.537 85.5506 87.6573 89.8643 92.175 94.5899 97.1094 99.7415 102.505 105.42 108.495 111.719 115.08 118.579 122.267 126.203 130.42 134.845 139.383 143.968 148.708 153.773 159.293 165.026 170.539 175.454 180.155 185.573 192.596 200.852 208.709 214.499 217.479 218.192 217.27 214.973 210.833 204.297 195.102 183.775 170.979 157.418 143.963 131.524 120.854 111.771 103.76 96.3478 89.4632 83.2383 77.796 73.1023 69.0104 65.3738 62.1125 59.2125 56.6627 54.4489 52.5518 50.9519 49.6317 48.5776 47.7765 47.2151 46.8803 46.7589 51.5905 51.6126 51.6789 51.7894 51.9443 52.1437 52.3876 52.6763 53.01 53.3889 53.8135 54.284 54.8008 55.3642 55.9746 56.6329 57.3396 58.0955 58.9013 59.7576 60.6653 61.6255 62.6395 63.7084 64.8333 66.0156 67.2565 68.558 69.9223 71.3516 72.8483 74.4149 76.0541 77.7682 79.5598 81.4316 83.3882 85.4361 87.5816 89.829 92.1803 94.6376 97.2086 99.9087 102.754 105.753 108.904 112.201 115.65 119.285 123.144 127.249 131.572 136.065 140.7 145.524 150.618 156.045 161.754 167.634 173.594 179.834 186.766 194.795 204.073 214.499 225.941 237.401 246.672 251.468 250.388 243.755 232.087 216.278 198.248 180.095 163.543 148.829 135.816 124.36 114.27 105.338 97.3665 90.2536 83.9469 78.3932 73.5209 69.2459 65.4843 62.1697 59.253 56.6865 54.4387 52.5015 50.8683 49.529 48.4669 47.6644 47.1041 46.7682 46.6394 50.5039 50.5252 50.589 50.6955 50.8447 51.0367 51.2717 51.5498 51.8713 52.2365 52.6456 53.099 53.597 54.1399 54.7283 55.3627 56.044 56.7727 57.5496 58.3754 59.251 60.1773 61.1556 62.187 63.2727 64.4138 65.6116 66.8682 68.1861 69.5676 71.0146 72.5289 74.1127 75.7692 77.5023 79.3161 81.2141 83.1993 85.2752 87.4477 89.7254 92.1172 94.6287 97.2618 100.018 102.906 105.951 109.18 112.605 116.205 119.951 123.838 127.948 132.384 137.215 142.303 147.432 152.447 157.703 163.818 171.346 179.954 188.668 196.596 205.037 217.479 237.401 263.583 288.284 303.311 303.952 292.255 271.045 243.576 214.282 187.802 167.601 152.449 139.948 128.032 116.608 106.298 97.6454 90.5167 84.4308 78.9265 73.8589 69.3112 65.367 62.0099 59.1233 56.5875 54.3357 52.3751 50.718 49.3662 48.3007 47.4999 46.9424 46.6068 46.4716 49.4388 49.4593 49.5207 49.6231 49.7666 49.9514 50.1774 50.445 50.7543 51.1056 51.4992 51.9355 52.4147 52.9371 53.5032 54.1138 54.7694 55.4708 56.2187 57.0137 57.8566 58.7486 59.6908 60.6841 61.7298 62.8289 63.9828 65.1936 66.4641 67.7964 69.192 70.6521 72.1782 73.7743 75.4463 77.1994 79.0356 80.9543 82.9552 85.0463 87.2439 89.5643 92.011 94.5697 97.2249 99.9857 102.909 106.057 109.452 113.009 116.623 120.253 124.11 128.469 133.514 138.886 144.033 148.543 153.214 159.468 168.573 179.579 189.947 197.314 204.237 218.192 246.672 288.284 329.3 355.138 357.511 340.363 309.04 269.356 228.4 193.482 169.88 154.741 143.182 131.038 118.348 106.673 97.3993 90.3655 84.6153 79.2364 74.0049 69.1931 65.0743 61.6911 58.8557 56.3722 54.1358 52.1679 50.4992 49.1428 48.0784 47.2817 46.7284 46.3942 46.2548 48.397 48.4168 48.4757 48.5741 48.712 48.8894 49.1066 49.3636 49.6608 49.9983 50.3764 50.7956 51.256 51.7579 52.3019 52.8886 53.5186 54.1926 54.9113 55.6754 56.4856 57.343 58.2486 59.2035 60.2088 61.2655 62.3749 63.5393 64.7612 66.043 67.3858 68.7903 70.2576 71.7925 73.4013 75.0902 76.86 78.708 80.6317 82.6402 84.7544 86.9952 89.3643 91.8372 94.3876 97.0244 99.825 102.874 106.201 109.679 113.154 116.562 120.201 124.458 129.589 135.099 140.219 144.372 148.646 154.988 165.126 177.714 189.189 196.234 202.233 217.27 251.468 303.311 355.138 388.168 391.762 371.106 333.201 285.537 236.956 196.529 170.731 155.642 144.749 132.505 119.033 106.508 96.8648 89.9251 84.4234 79.154 73.8409 68.8787 64.6633 61.2764 58.4859 56.0486 53.8354 51.8755 50.2098 48.8581 47.7997 47.0089 46.4604 46.1286 45.9881 47.38 47.3989 47.4555 47.5499 47.6822 47.8524 48.0608 48.3074 48.5924 48.9162 49.279 49.6812 50.1229 50.6045 51.1264 51.6894 52.2939 52.9406 53.6303 54.3634 55.1408 55.9635 56.8324 57.7488 58.7134 59.7275 60.7922 61.9098 63.0825 64.3126 65.6012 66.9492 68.3577 69.831 71.3753 72.9964 74.695 76.4686 78.3148 80.2427 82.2724 84.4242 86.6996 89.0737 91.5203 94.0482 96.7349 99.6655 102.868 106.216 109.554 112.819 116.315 120.438 125.453 130.863 135.893 139.967 144.203 150.598 160.921 173.801 185.602 192.937 199.281 214.973 250.388 303.952 357.511 391.762 395.769 374.846 336.181 287.464 237.796 196.515 170.287 155.083 144.201 131.936 118.402 105.82 96.1672 89.2622 83.8126 78.5868 73.3024 68.3611 64.1658 60.8016 58.0354 55.6231 53.4342 51.4967 49.8498 48.5127 47.465 46.6819 46.1386 45.8102 45.6721 46.3888 46.407 46.4612 46.5516 46.6783 46.8415 47.0411 47.2774 47.5505 47.8607 48.2084 48.5936 49.0169 49.4783 49.9785 50.5178 51.0971 51.7167 52.3774 53.0798 53.8245 54.6125 55.4449 56.3226 57.2467 58.2181 59.2382 60.3087 61.4318 62.6096 63.8434 65.1342 66.4835 67.8951 69.3739 70.9247 72.549 74.2457 76.0143 77.8624 79.8064 81.8625 84.0328 86.2991 88.6424 91.0714 93.6492 96.4453 99.484 102.665 105.866 109.041 112.445 116.407 121.151 126.276 131.161 135.342 139.779 146.162 155.99 168.143 179.606 187.574 195.048 210.833 243.755 292.255 340.363 371.106 374.846 356.186 321.362 277.129 231.654 193.349 168.261 152.978 141.723 129.572 116.572 104.573 95.2163 88.3299 82.8067 77.591 72.4291 67.645 63.5644 60.2491 57.4975 55.0989 52.9389 51.0371 49.4229 48.1092 47.0769 46.3035 45.7663 45.4424 45.3094 45.4246 45.4419 45.4938 45.5803 45.7016 45.8578 46.0488 46.2749 46.5362 46.8331 47.1657 47.5343 47.9393 48.3809 48.8594 49.3756 49.9298 50.5226 51.1547 51.8265 52.5388 53.2924 54.0884 54.9277 55.8114 56.7404 57.7159 58.7395 59.8131 60.9386 62.1173 63.3507 64.6404 65.9896 67.402 68.8816 70.4305 72.0495 73.7398 75.5075 77.364 79.3205 81.38 83.5342 85.7735 88.1066 90.5756 93.2271 96.0794 99.0731 102.136 105.245 108.575 112.352 116.73 121.461 126.149 130.511 135.233 141.504 150.383 161.141 171.758 180.363 189.134 204.297 232.087 271.045 309.04 333.201 336.181 321.362 293.363 257.288 219.597 186.98 164.317 149.24 137.571 125.738 113.707 102.726 93.897 87.068 81.4373 76.2398 71.2724 66.7368 62.8359 59.5952 56.8624 54.4792 52.3568 50.5032 48.933 47.6505 46.6384 45.8772 45.3473 45.0291 44.9032 44.4882 44.5047 44.5543 44.6371 44.7531 44.9023 45.0849 45.301 45.5508 45.8345 46.1523 46.5046 46.8916 47.3136 47.771 48.2642 48.7938 49.3602 49.964 50.6057 51.2858 52.0054 52.7655 53.5668 54.4105 55.2974 56.2287 57.2057 58.2302 59.3037 60.4278 61.6038 62.8335 64.1195 65.4651 66.8737 68.3477 69.8893 71.5006 73.1862 74.9532 76.8087 78.7569 80.7979 82.9318 85.1659 87.5222 90.0242 92.6847 95.4861 98.4056 101.444 104.691 108.262 112.24 116.533 120.985 125.493 130.447 136.483 144.178 153.22 162.656 171.614 181.32 195.102 216.278 243.576 269.356 285.537 287.464 277.129 257.288 231.132 203.047 177.625 158.301 143.893 132.061 120.795 109.999 100.267 92.1205 85.4331 79.7432 74.6088 69.8862 65.6467 61.9625 58.8205 56.1227 53.768 51.6956 49.9013 48.3844 47.1397 46.1523 45.4062 44.8855 44.5742 44.4564 43.5808 43.5966 43.6439 43.723 43.8337 43.9762 44.1506 44.3569 44.5953 44.8661 45.1695 45.5058 45.8752 46.278 46.7146 47.1853 47.6907 48.2311 48.8072 49.4192 50.0679 50.754 51.4786 52.2425 53.0467 53.8921 54.7797 55.7107 56.6867 57.709 58.779 59.898 61.0677 62.2905 63.5695 64.9076 66.3077 67.7724 69.3042 70.9065 72.583 74.3379 76.1761 78.1047 80.1304 82.2598 84.4982 86.8507 89.3255 91.9387 94.7078 97.6509 100.788 104.141 107.732 111.599 115.782 120.331 125.37 131.058 137.549 144.879 153.002 161.889 171.897 183.775 198.248 214.282 228.4 236.956 237.796 231.654 219.597 203.047 184.404 166.234 150.565 137.268 125.677 115.204 105.722 97.2689 89.8699 83.428 77.783 72.7796 68.3302 64.3962 60.9399 57.9172 55.278 52.972 50.9637 49.2379 47.7809 46.5796 45.6213 44.8938 44.3847 44.0816 43.9721 42.7034 42.7185 42.7637 42.839 42.9447 43.0806 43.247 43.4437 43.6711 43.9293 44.2187 44.5393 44.8915 45.2756 45.6918 46.1405 46.6222 47.1373 47.6861 48.2692 48.887 49.5404 50.2303 50.9576 51.723 52.5276 53.3721 54.2579 55.1861 56.1579 57.1747 58.2376 59.3481 60.5084 61.7215 62.9903 64.3174 65.7057 67.1578 68.6761 70.2623 71.9186 73.6503 75.4679 77.3821 79.3985 81.513 83.7206 86.0264 88.4644 91.0733 93.8801 96.8644 99.9939 103.257 106.76 110.654 115.069 119.962 125.202 130.681 136.628 143.516 151.793 161.242 170.979 180.095 187.802 193.482 196.529 196.515 193.349 186.98 177.625 166.234 153.884 141.543 129.75 118.933 109.444 101.167 93.8193 87.1407 81.0632 75.6189 70.8351 66.6651 63.0087 59.7664 56.8792 54.3288 52.0985 50.1693 48.5195 47.1268 45.9731 45.0484 44.3433 43.8486 43.555 43.4533 41.857 41.8714 41.9144 41.9863 42.087 42.2165 42.375 42.5625 42.7792 43.0252 43.3008 43.6063 43.9418 44.3076 44.704 45.1313 45.5899 46.0802 46.6026 47.1575 47.7453 48.3668 49.0229 49.7144 50.442 51.2066 52.009 52.8503 53.7316 54.654 55.6187 56.6266 57.6792 58.7784 59.9271 61.1278 62.3832 63.6958 65.0684 66.5026 67.9996 69.5606 71.1906 72.8997 74.6986 76.5928 78.5778 80.6484 82.8086 85.0898 87.5279 90.1473 92.9271 95.8351 98.8581 102.096 105.69 109.758 114.231 118.942 123.75 128.866 134.754 141.851 149.793 157.418 163.543 167.601 169.88 170.731 170.287 168.261 164.317 158.301 150.565 141.543 131.716 121.726 112.259 103.894 96.5745 90.0176 83.9636 78.3706 73.3086 68.8417 64.9405 61.5084 58.4489 55.7096 53.2813 51.1566 49.3217 47.753 46.4267 45.3241 44.4371 43.7585 43.2814 42.9988 42.9036 41.0422 41.0558 41.0969 41.1653 41.2611 41.3845 41.5354 41.714 41.9202 42.1545 42.4168 42.7076 43.0269 43.375 43.7521 44.1585 44.5947 45.061 45.5577 46.0852 46.6439 47.2345 47.8578 48.5145 49.2053 49.9309 50.6922 51.4901 52.3256 53.1997 54.1134 55.0678 56.0639 57.1037 58.1896 59.3239 60.509 61.7472 63.0409 64.3918 65.8011 67.2699 68.8023 70.4059 72.0889 73.8566 75.71 77.6491 79.6787 81.8154 84.0779 86.4818 89.029 91.7179 94.5542 97.5852 100.873 104.472 108.37 112.52 116.885 121.533 126.612 132.257 138.238 143.963 148.829 152.449 154.741 155.642 155.083 152.978 149.24 143.893 137.268 129.75 121.726 113.592 105.75 98.5434 91.9962 86.0142 80.5112 75.4663 70.8923 66.7996 63.1608 59.9218 57.0285 54.4468 52.1628 50.1633 48.4317 46.9473 45.6887 44.6397 43.7937 43.1451 42.6883 42.4178 42.3279 40.2594 40.2724 40.3115 40.3766 40.4678 40.5852 40.7288 40.8986 41.0949 41.3177 41.5673 41.8438 42.1474 42.4783 42.8368 43.2231 43.6376 44.0806 44.5525 45.0534 45.5839 46.1446 46.7361 47.3591 48.0141 48.702 49.4233 50.179 50.9699 51.797 52.6613 53.5636 54.505 55.4871 56.512 57.5817 58.6983 59.8638 61.0802 62.3492 63.6726 65.0517 66.4896 67.991 69.5609 71.2046 72.9283 74.7383 76.6397 78.6347 80.7247 82.9161 85.2332 87.7055 90.3568 93.1814 96.1626 99.2908 102.619 106.23 110.2 114.456 118.822 123.124 127.326 131.524 135.816 139.948 143.182 144.749 144.201 141.723 137.571 132.061 125.677 118.933 112.259 105.75 99.4175 93.2847 87.4345 81.9721 76.9913 72.4876 68.406 64.6926 61.3193 58.2766 55.5547 53.1383 51.0063 49.1371 47.5111 46.1115 44.9214 43.9279 43.1254 42.5093 42.0749 41.8173 41.732 39.5093 39.5216 39.5588 39.6207 39.7074 39.819 39.9555 40.117 40.3036 40.5155 40.7527 41.0155 41.3041 41.6185 41.959 42.3259 42.7194 43.14 43.5878 44.0631 44.5664 45.0982 45.659 46.2495 46.87 47.5213 48.204 48.9188 49.6666 50.4482 51.2645 52.1165 53.0049 53.9312 54.8971 55.9043 56.9545 58.0495 59.1908 60.3803 61.6198 62.9112 64.2568 65.6596 67.1225 68.6501 70.2501 71.9304 73.6961 75.5445 77.4715 79.4792 81.5953 83.8533 86.2792 88.8512 91.5303 94.288 97.1843 100.325 103.802 107.503 111.171 114.557 117.685 120.854 124.36 128.032 131.038 132.505 131.936 129.572 125.738 120.795 115.204 109.444 103.894 98.5434 93.2847 88.0389 82.903 78.0372 73.5861 69.557 65.8863 62.513 59.4151 56.5993 54.072 51.8262 49.841 48.0953 46.5711 45.2549 44.1334 43.1965 42.4393 41.8574 41.4466 41.2027 41.1213 38.7922 38.804 38.8393 38.8981 38.9805 39.0866 39.2163 39.3698 39.5472 39.7485 39.9739 40.2235 40.4975 40.7961 41.1193 41.4675 41.841 42.2399 42.6646 43.1154 43.5926 44.0965 44.6278 45.1869 45.7743 46.3904 47.0358 47.7113 48.4175 49.1553 49.9255 50.7288 51.5662 52.4387 53.3477 54.2947 55.281 56.3079 57.3769 58.4897 59.6481 60.8543 62.1103 63.4181 64.7802 66.1997 67.6824 69.2344 70.8599 72.5595 74.3327 76.1821 78.1228 80.1725 82.3456 84.6341 87.0222 89.498 92.0838 94.8193 97.7372 100.768 103.771 106.605 109.244 111.771 114.27 116.608 118.348 119.033 118.402 116.572 113.707 109.999 105.722 101.167 96.5745 91.9962 87.4345 82.903 78.4774 74.2558 70.3279 66.7086 63.3743 60.3021 57.4819 54.9133 52.5954 50.5211 48.6764 47.0472 45.6208 44.3865 43.3336 42.4537 41.7424 41.1955 40.809 40.5791 40.5015 38.1087 38.1199 38.1535 38.2094 38.2877 38.3885 38.5117 38.6576 38.826 39.0172 39.2313 39.4683 39.7285 40.0118 40.3186 40.6489 41.0031 41.3814 41.784 42.2112 42.6633 43.1407 43.6437 44.1728 44.7283 45.3107 45.9205 46.5582 47.2247 47.9205 48.6464 49.4032 50.1915 51.0123 51.8668 52.7559 53.6809 54.6427 55.6426 56.682 57.7629 58.8871 60.0567 61.2736 62.5397 63.8572 65.2288 66.6573 68.1461 69.7006 71.3267 73.0288 74.8064 76.6581 78.584 80.5962 82.7112 84.9413 87.2644 89.6407 92.0326 94.4317 96.8512 99.2998 101.674 103.76 105.338 106.298 106.673 106.508 105.82 104.573 102.726 100.267 97.2689 93.8193 90.0176 86.0142 81.9721 78.0372 74.2558 70.638 67.1947 63.9451 60.9126 58.1189 55.5659 53.2404 51.1292 49.2228 47.5147 45.9991 44.6687 43.5153 42.5305 41.7074 41.0417 40.5298 40.1678 39.9518 39.8781 37.4594 37.47 37.5019 37.555 37.6294 37.7251 37.8422 37.9807 38.1408 38.3223 38.5256 38.7507 38.9976 39.2665 39.5575 39.8708 40.2067 40.5653 40.9469 41.3516 41.7798 42.2317 42.7077 43.2081 43.7333 44.2837 44.8595 45.4614 46.0899 46.7458 47.4296 48.1419 48.8833 49.6547 50.4569 51.2908 52.1573 53.0573 53.9916 54.9616 55.969 57.0155 58.1028 59.2326 60.4067 61.6264 62.8925 64.2057 65.5683 66.9874 68.4708 70.0235 71.6386 73.3062 75.0203 76.7979 78.664 80.6374 82.6803 84.7258 86.7122 88.6534 90.6177 92.6667 94.6784 96.3478 97.3665 97.6454 97.3993 96.8648 96.1672 95.2163 93.897 92.1205 89.8699 87.1407 83.9636 80.5112 76.9913 73.5861 70.3279 67.1947 64.1687 61.2707 58.5412 56.0185 53.7102 51.6018 49.6786 47.9319 46.359 44.9573 43.723 42.6502 41.7327 40.9653 40.3444 39.8665 39.5282 39.326 39.2566 36.8443 36.8545 36.8847 36.9352 37.0059 37.0969 37.2081 37.3397 37.4917 37.6641 37.8571 38.0708 38.3052 38.5603 38.8364 39.1336 39.4521 39.7921 40.1537 40.5371 40.9425 41.3702 41.8206 42.2938 42.7902 43.31 43.8537 44.4216 45.0143 45.6322 46.276 46.946 47.6428 48.3672 49.1197 49.9011 50.7121 51.5535 52.426 53.3307 54.2689 55.2419 56.2512 57.2982 58.3842 59.5102 60.6763 61.8826 63.1305 64.425 65.7717 67.1742 68.6278 70.1258 71.6637 73.2484 74.8908 76.5982 78.3445 80.0867 81.7839 83.4331 85.0576 86.6772 88.2081 89.4632 90.2536 90.5167 90.3655 89.9251 89.2622 88.3299 87.068 85.4331 83.428 81.0632 78.3706 75.4663 72.4876 69.557 66.7086 63.9451 61.2707 58.706 56.2794 54.0184 51.9313 50.0128 48.2573 46.6604 45.2192 43.9307 42.7915 41.798 40.9465 40.2333 39.6557 39.2107 38.8952 38.7065 38.6416 36.2639 36.2735 36.3022 36.3502 36.4174 36.5039 36.6096 36.7346 36.879 37.0428 37.2261 37.429 37.6515 37.8937 38.1557 38.4377 38.7397 39.062 39.4047 39.7679 40.1518 40.5567 40.9827 41.4301 41.8992 42.3903 42.9036 43.4394 43.9982 44.5803 45.1862 45.8163 46.4709 47.1506 47.856 48.5877 49.3464 50.1325 50.9469 51.7902 52.6634 53.5674 54.5032 55.4717 56.474 57.5106 58.5822 59.689 60.8316 62.0117 63.2307 64.49 65.7903 67.132 68.5144 69.9309 71.3727 72.8312 74.3001 75.7744 77.2474 78.6877 80.0465 81.2753 82.3436 83.2383 83.9469 84.4308 84.6153 84.4234 83.8126 82.8067 81.4373 79.7432 77.783 75.6189 73.3086 70.8923 68.406 65.8863 63.3743 60.9126 58.5412 56.2794 54.1354 52.1174 50.2322 48.4856 46.8833 45.426 44.1094 42.929 41.8816 40.9649 40.1773 39.5166 38.9806 38.5669 38.2734 38.0977 38.0376 35.7181 35.7272 35.7546 35.8002 35.8641 35.9463 36.0468 36.1657 36.3029 36.4586 36.6327 36.8254 37.0367 37.2667 37.5155 37.7831 38.0697 38.3754 38.7003 39.0445 39.4081 39.7913 40.1944 40.6176 41.061 41.525 42.0097 42.5153 43.0422 43.5907 44.161 44.7533 45.3681 46.0058 46.6668 47.3517 48.0611 48.7954 49.5553 50.3412 51.1535 51.9929 52.8597 53.7545 54.6778 55.6301 56.6125 57.6259 58.6707 59.7456 60.8489 61.9801 63.1421 64.3391 65.5726 66.8296 68.0919 69.3435 70.5874 71.8368 73.101 74.337 75.4646 76.4058 77.1584 77.796 78.3932 78.9265 79.2364 79.154 78.5868 77.591 76.2398 74.6088 72.7796 70.8351 68.8417 66.7996 64.6926 62.513 60.3021 58.1189 56.0185 54.0184 52.1174 50.3145 48.6157 47.032 45.5741 44.2456 43.0429 41.9621 41.0005 40.157 39.4306 38.82 38.3236 37.9399 37.6673 37.5041 37.4488 35.2071 35.2158 35.2418 35.2853 35.3461 35.4243 35.52 35.633 35.7635 35.9116 36.0771 36.2603 36.4612 36.6798 36.9161 37.1703 37.4424 37.7325 38.0407 38.367 38.7116 39.0746 39.4562 39.8566 40.276 40.7146 41.1724 41.6498 42.1469 42.6638 43.2007 43.7578 44.3353 44.9335 45.553 46.1941 46.8574 47.5434 48.2523 48.9846 49.7403 50.5194 51.3219 52.1479 52.9974 53.8709 54.77 55.696 56.6494 57.6276 58.6275 59.6468 60.6873 61.7517 62.8408 63.9439 65.0462 66.1344 67.2076 68.2717 69.3297 70.3479 71.2658 72.0248 72.6204 73.1023 73.5209 73.8589 74.0049 73.8409 73.3024 72.4291 71.2724 69.8862 68.3302 66.6651 64.9405 63.1608 61.3193 59.4151 57.4819 55.5659 53.7102 51.9313 50.2322 48.6157 47.0886 45.6597 44.3381 43.1278 42.028 41.0374 40.1552 39.3803 38.7117 38.1485 37.6897 37.3343 37.0815 36.9302 36.8795 34.7312 34.7394 34.7643 34.8056 34.8636 34.9381 35.0292 35.1369 35.2611 35.402 35.5596 35.7339 35.925 36.1329 36.3577 36.5993 36.8579 37.1335 37.4261 37.7358 38.0627 38.4069 38.7685 39.1477 39.5447 39.9595 40.3924 40.8434 41.3127 41.8002 42.306 42.8303 43.3731 43.9347 44.5156 45.116 45.7365 46.3774 47.0391 47.7216 48.4246 49.1477 49.8906 50.653 51.4345 52.2355 53.0576 53.9027 54.7713 55.6607 56.5672 57.4879 58.4215 59.367 60.323 61.2843 62.2447 63.1975 64.1331 65.0406 65.9088 66.7211 67.4573 68.0973 68.6212 69.0104 69.2459 69.3112 69.1931 68.8787 68.3611 67.645 66.7368 65.6467 64.3962 63.0087 61.5084 59.9218 58.2766 56.5993 54.9133 53.2404 51.6018 50.0128 48.4856 47.032 45.6597 44.3733 43.1774 42.0753 41.0691 40.1611 39.352 38.6407 38.0261 37.5071 37.0835 36.7548 36.5205 36.3804 36.334 34.2904 34.2983 34.322 34.3614 34.4167 34.4878 34.5747 34.6773 34.7958 34.9302 35.0804 35.2465 35.4285 35.6265 35.8405 36.0706 36.3166 36.5788 36.857 37.1513 37.4618 37.7885 38.1316 38.4912 38.8674 39.2603 39.6701 40.0967 40.5401 41.0004 41.4775 41.9714 42.4822 43.0101 43.5554 44.1183 44.6993 45.2986 45.9166 46.553 47.2073 47.8789 48.5671 49.2713 49.9909 50.726 51.4783 52.2494 53.04 53.8475 54.6691 55.5014 56.3405 57.1822 58.0229 58.8612 59.6963 60.5262 61.3363 62.1055 62.8136 63.4578 64.0467 64.5883 65.0528 65.3738 65.4843 65.367 65.0743 64.6633 64.1658 63.5644 62.8359 61.9625 60.9399 59.7664 58.4489 57.0285 55.5547 54.072 52.5954 51.1292 49.6786 48.2573 46.8833 45.5741 44.3381 43.1774 42.0938 41.0903 40.1708 39.3391 38.5972 37.9442 37.379 36.9008 36.5098 36.2057 35.9888 35.8591 35.8166 33.8849 33.8924 33.915 33.9528 34.0056 34.0735 34.1565 34.2546 34.3678 34.496 34.6394 34.798 34.9717 35.1606 35.3648 35.5841 35.8186 36.0684 36.3333 36.6135 36.9089 37.2196 37.5458 37.8873 38.2445 38.6172 39.0057 39.4098 39.8295 40.2647 40.7154 41.1815 41.663 42.1601 42.6728 43.2015 43.7463 44.3075 44.8853 45.4793 46.0889 46.7132 47.3515 48.003 48.667 49.3432 50.0328 50.7371 51.4566 52.1893 52.933 53.6851 54.4402 55.1926 55.937 56.6721 57.3977 58.1122 58.8019 59.447 60.029 60.5496 61.0248 61.4694 61.8554 62.1125 62.1697 62.0099 61.6911 61.2764 60.8016 60.2491 59.5952 58.8205 57.9172 56.8792 55.7096 54.4468 53.1383 51.8262 50.5211 49.2228 47.9319 46.6604 45.426 44.2456 43.1278 42.0753 41.0903 40.1761 39.3365 38.5754 37.8949 37.2947 36.7742 36.3332 35.9719 35.6907 35.4899 35.3697 35.3305 33.5146 33.5219 33.5435 33.5797 33.6302 33.6953 33.7747 33.8686 33.9769 34.0997 34.2369 34.3885 34.5547 34.7353 34.9304 35.1399 35.3639 35.6024 35.8553 36.1225 36.4042 36.7003 37.011 37.3361 37.6758 38.0302 38.3992 38.7827 39.1807 39.5931 40.0198 40.4606 40.9155 41.3845 41.8677 42.3653 42.8773 43.4038 43.945 44.5004 45.0692 45.6506 46.2437 46.8478 47.4619 48.0858 48.7198 49.3644 50.0199 50.685 51.3582 52.0375 52.7174 53.3916 54.0544 54.7025 55.3337 55.945 56.5266 57.0653 57.5491 57.9789 58.3655 58.7184 59.0174 59.2125 59.253 59.1233 58.8557 58.4859 58.0354 57.4975 56.8624 56.1227 55.278 54.3288 53.2813 52.1628 51.0063 49.841 48.6764 47.5147 46.359 45.2192 44.1094 43.0429 42.028 41.0691 40.1708 39.3365 38.5694 37.8723 37.2471 36.6942 36.2138 35.8064 35.4722 35.2119 35.0258 34.9143 34.8779 33.1797 33.1866 33.2074 33.2421 33.2906 33.353 33.4293 33.5194 33.6233 33.7411 33.8727 34.0181 34.1774 34.3505 34.5374 34.7381 34.9526 35.1808 35.4227 35.6783 35.9476 36.2306 36.5272 36.8375 37.1615 37.4992 37.8506 38.2156 38.594 38.9857 39.3906 39.8086 40.2395 40.6833 41.14 41.6096 42.092 42.5873 43.0954 43.6158 44.1479 44.6906 45.2433 45.805 46.375 46.9526 47.5375 48.1297 48.7287 49.3338 49.9438 50.5571 51.1687 51.7728 52.3639 52.9373 53.4889 54.0143 54.5073 54.9609 55.3681 55.7277 56.0421 56.3135 56.5294 56.6627 56.6865 56.5875 56.3722 56.0486 55.6231 55.0989 54.4792 53.768 52.972 52.0985 51.1566 50.1633 49.1371 48.0953 47.0472 45.9991 44.9573 43.9307 42.929 41.9621 41.0374 40.1611 39.3391 38.5754 37.8723 37.2318 36.6555 36.1446 35.7 35.3226 35.0129 34.7714 34.5986 34.495 34.4611 32.88 32.8866 32.9067 32.94 32.9868 33.0468 33.1202 33.2069 33.3069 33.4202 33.5468 33.6867 33.8398 34.0062 34.1858 34.3786 34.5845 34.8036 35.0358 35.2809 35.5391 35.8103 36.0945 36.3915 36.7015 37.0243 37.3599 37.7082 38.0691 38.4424 38.8279 39.2255 39.635 40.0564 40.4895 40.9342 41.3903 41.8577 42.3363 42.8256 43.3248 43.8332 44.3499 44.8742 45.4052 45.9422 46.4844 47.031 47.581 48.1337 48.6878 49.2419 49.7917 50.3324 50.8591 51.3674 51.8529 52.3111 52.7372 53.1262 53.4732 53.7746 54.0281 54.2309 54.3754 54.4489 54.4387 54.3357 54.1358 53.8354 53.4342 52.9389 52.3568 51.6956 50.9637 50.1693 49.3217 48.4317 47.5111 46.5711 45.6208 44.6687 43.723 42.7915 41.8816 41.0005 40.1552 39.352 38.5972 37.8949 37.2471 36.6555 36.1219 35.6478 35.2348 34.884 34.5961 34.3714 34.2106 34.114 34.0822 32.6155 32.622 32.6413 32.6736 32.7187 32.7767 32.8475 32.9313 33.0278 33.1372 33.2594 33.3943 33.542 33.7025 33.8756 34.0614 34.2598 34.4708 34.6944 34.9304 35.1788 35.4396 35.7127 35.9981 36.2957 36.6054 36.9271 37.2608 37.6062 37.9632 38.3316 38.7113 39.1021 39.5037 39.9161 40.3388 40.7718 41.2147 41.6674 42.1294 42.5998 43.078 43.5633 44.0548 44.5519 45.0535 45.5586 46.0658 46.5738 47.0813 47.5871 48.0894 48.5849 49.0698 49.5404 49.9928 50.4235 50.8285 51.2032 51.5425 51.8412 52.0944 52.297 52.4443 52.5309 52.5518 52.5015 52.3751 52.1679 51.8755 51.4967 51.0371 50.5032 49.9013 49.2379 48.5195 47.753 46.9473 46.1115 45.2549 44.3865 43.5153 42.6502 41.798 40.9649 40.157 39.3803 38.6407 37.9442 37.2947 36.6942 36.1446 35.6478 35.2058 34.8203 34.4928 34.2239 34.0141 33.8638 33.7734 33.7434 32.3864 32.3927 32.4114 32.4427 32.4864 32.5426 32.6113 32.6924 32.786 32.8919 33.0103 33.141 33.284 33.4393 33.6068 33.7866 33.9785 34.1825 34.3986 34.6266 34.8666 35.1184 35.382 35.6573 35.9441 36.2425 36.5522 36.8732 37.2052 37.5481 37.9018 38.2659 38.6405 39.0251 39.4195 39.8233 40.2364 40.6582 41.0886 41.5269 41.9726 42.4249 42.883 43.3463 43.814 44.2852 44.7583 45.2317 45.7039 46.1733 46.6384 47.0972 47.547 47.9851 48.4083 48.8138 49.1987 49.5597 49.8921 50.1903 50.4485 50.6612 50.8225 50.927 50.9708 50.9519 50.8683 50.718 50.4992 50.2098 49.8498 49.4229 48.933 48.3844 47.7809 47.1268 46.4267 45.6887 44.9214 44.1334 43.3336 42.5305 41.7327 40.9465 40.1773 39.4306 38.7117 38.0261 37.379 36.7742 36.2138 35.7 35.2348 34.8203 34.4586 34.1512 33.8987 33.7016 33.5603 33.4752 33.4469 32.1926 32.1987 32.2169 32.2473 32.2899 32.3446 32.4114 32.4903 32.5814 32.6844 32.7995 32.9266 33.0657 33.2166 33.3795 33.5541 33.7405 33.9387 34.1484 34.3697 34.6026 34.8468 35.1023 35.369 35.6468 35.9355 36.2351 36.5454 36.8662 37.1972 37.5384 37.8895 38.2502 38.6204 38.9997 39.3876 39.7837 40.1878 40.5995 41.0181 41.443 41.8734 42.3087 42.7482 43.191 43.6362 44.0821 44.527 44.9692 45.4071 45.8389 46.2628 46.6763 47.0769 47.462 47.829 48.1754 48.4985 48.7936 49.0553 49.2782 49.4567 49.5856 49.6593 49.6749 49.6317 49.529 49.3662 49.1428 48.8581 48.5127 48.1092 47.6505 47.1397 46.5796 45.9731 45.3241 44.6397 43.9279 43.1965 42.4537 41.7074 40.9653 40.2333 39.5166 38.82 38.1485 37.5071 36.9008 36.3332 35.8064 35.3226 34.884 34.4928 34.1512 33.8607 33.622 33.4355 33.3018 33.2213 33.1944 32.034 32.04 32.0578 32.0875 32.1291 32.1826 32.2479 32.325 32.414 32.5147 32.6272 32.7513 32.8871 33.0345 33.1935 33.364 33.5459 33.7392 33.9438 34.1596 34.3866 34.6246 34.8735 35.1332 35.4036 35.6845 35.9758 36.2774 36.5889 36.9103 37.2413 37.5817 37.9312 38.2896 38.6565 39.0313 39.4137 39.8034 40.1998 40.6024 41.0105 41.4233 41.84 42.2599 42.6823 43.106 43.5296 43.9512 44.3691 44.7818 45.1874 45.5842 45.9697 46.3414 46.6969 47.0335 47.3487 47.6399 47.903 48.1335 48.3265 48.4774 48.5816 48.6344 48.6333 48.5776 48.4669 48.3007 48.0784 47.7997 47.465 47.0769 46.6384 46.1523 45.6213 45.0484 44.4371 43.7937 43.1254 42.4393 41.7424 41.0417 40.3444 39.6557 38.9806 38.3236 37.6897 37.0835 36.5098 35.9719 35.4722 35.0129 34.5961 34.2239 33.8987 33.622 33.3945 33.2166 33.089 33.0121 32.9865 31.9107 31.9166 31.9341 31.9633 32.0041 32.0566 32.1208 32.1965 32.2838 32.3827 32.4931 32.615 32.7483 32.8929 33.0489 33.2161 33.3946 33.5841 33.7847 33.9962 34.2187 34.4518 34.6956 34.9499 35.2145 35.4893 35.7742 36.069 36.3735 36.6873 37.0104 37.3425 37.6833 38.0325 38.3897 38.7544 39.1262 39.5047 39.8894 40.2796 40.6747 41.0738 41.4762 41.881 42.2874 42.6945 43.1005 43.504 43.9033 44.2967 44.6826 45.0593 45.4242 45.7747 46.1081 46.4218 46.713 46.9791 47.2167 47.422 47.5914 47.7212 47.8076 47.847 47.8369 47.7765 47.6644 47.4999 47.2817 47.0089 46.6819 46.3035 45.8772 45.4062 44.8938 44.3433 43.7585 43.1451 42.5093 41.8574 41.1955 40.5298 39.8665 39.2107 38.5669 37.9399 37.3343 36.7548 36.2057 35.6907 35.2119 34.7714 34.3714 34.0141 33.7016 33.4355 33.2166 33.0454 32.9225 32.8485 32.8239 31.8227 31.8284 31.8457 31.8745 31.9149 31.9667 32.03 32.1047 32.1909 32.2885 32.3974 32.5176 32.6491 32.7918 32.9456 33.1106 33.2865 33.4734 33.6711 33.8796 34.0987 34.3285 34.5686 34.819 35.0795 35.35 35.6303 35.9203 36.2196 36.5281 36.8456 37.1717 37.5063 37.849 38.1993 38.5568 38.921 39.2915 39.6679 40.0494 40.4352 40.8247 41.2168 41.6109 42.006 42.4011 42.7947 43.1853 43.5714 43.9512 44.3234 44.6862 45.0369 45.3727 45.6909 45.9886 46.263 46.5114 46.7307 46.9182 47.0709 47.186 47.2606 47.2916 47.277 47.2151 47.1041 46.9424 46.7284 46.4604 46.1386 45.7663 45.3473 44.8855 44.3847 43.8486 43.2814 42.6883 42.0749 41.4466 40.809 40.1678 39.5282 38.8952 38.2734 37.6673 37.0815 36.5205 35.9888 35.4899 35.0258 34.5986 34.2106 33.8638 33.5603 33.3018 33.089 32.9225 32.803 32.7309 32.707 31.7698 31.7755 31.7927 31.8213 31.8613 31.9127 31.9755 32.0496 32.1351 32.2319 32.34 32.4592 32.5896 32.7311 32.8837 33.0472 33.2217 33.4069 33.6029 33.8096 34.0268 34.2544 34.4924 34.7404 34.9985 35.2664 35.544 35.8311 36.1274 36.4327 36.7468 37.0694 37.4002 37.739 38.0851 38.4383 38.798 39.1637 39.535 39.9112 40.2916 40.6753 41.0614 41.449 41.8375 42.2256 42.6119 42.9949 43.373 43.7448 44.1086 44.4627 44.8046 45.1315 45.4404 45.7286 45.9934 46.2318 46.4413 46.6192 46.7629 46.8699 46.9375 46.9631 46.9447 46.8803 46.7682 46.6068 46.3942 46.1286 45.8102 45.4424 45.0291 44.5742 44.0816 43.555 42.9988 42.4178 41.8173 41.2027 40.5791 39.9518 39.326 38.7065 38.0977 37.5041 36.9302 36.3804 35.8591 35.3697 34.9143 34.495 34.114 33.7734 33.4752 33.2213 33.0121 32.8485 32.7309 32.6601 32.6366 31.7522 31.7579 31.775 31.8035 31.8434 31.8947 31.9573 32.0313 32.1165 32.2131 32.3208 32.4397 32.5698 32.7109 32.863 33.0261 33.2001 33.3848 33.5802 33.7863 34.0028 34.2298 34.4669 34.7142 34.9714 35.2385 35.5152 35.8013 36.0966 36.4008 36.7138 37.0352 37.3648 37.7022 38.047 38.3987 38.7568 39.1209 39.4905 39.865 40.2434 40.6252 41.0093 41.395 41.7814 42.1675 42.5517 42.9324 43.3079 43.6766 44.0369 44.387 44.7245 45.0469 45.3517 45.6365 45.8986 46.1356 46.3445 46.5221 46.6653 46.7708 46.8354 46.8561 46.8309 46.7589 46.6394 46.4716 46.2548 45.9881 45.6721 45.3094 44.9032 44.4564 43.9721 43.4533 42.9036 42.3279 41.732 41.1213 40.5015 39.8781 39.2566 38.6416 38.0376 37.4488 36.8795 36.334 35.8166 35.3305 34.8779 34.4611 34.0822 33.7434 33.4469 33.1944 32.9865 32.8239 32.707 32.6366 32.6131 </DataArray> 
<DataArray type="Float32" Name="gradient" format="ascii" NumberOfComponents="3"> 
-0.157843 -0.157843 0 1.85153 -0.158026 0 3.6441 -0.15844 0 5.21987 -0.159078 0 6.57884 -0.159933 0 7.72102 -0.160999 0 8.6464 -0.162268 0 9.26605 -0.16373 0 9.36258 -0.165346 0 8.92609 -0.16706 0 7.95661 -0.168816 0 6.45412 -0.170559 0 4.41862 -0.172234 0 1.83138 -0.173785 0 -1.41997 -0.175169 0 -5.35417 -0.176352 0 -9.97123 -0.177299 0 -15.2711 -0.177978 0 -21.2539 -0.178355 0 -27.9165 -0.178396 0 -35.1925 -0.178065 0 -43.0549 -0.177316 0 -51.5036 -0.176102 0 -60.5387 -0.174378 0 -70.16 -0.172098 0 -80.3677 -0.169216 0 -91.0143 -0.165701 0 -101.952 -0.161587 0 -113.182 -0.156922 0 -124.702 -0.151757 0 -136.515 -0.14614 0 -148.618 -0.14012 0 -160.904 -0.133745 0 -173.103 -0.127039 0 -185.205 -0.120014 0 -197.208 -0.112684 0 -209.113 -0.105061 0 -220.92 -0.097158 0 -232.584 -0.0889924 0 -243.84 -0.0806696 0 -254.642 -0.0723845 0 -264.992 -0.0643358 0 -274.888 -0.0567222 0 -284.331 -0.0497424 0 -293.313 -0.043594 0 -301.681 -0.0383209 0 -309.371 -0.0336692 0 -316.382 -0.0293507 0 -322.715 -0.0250772 0 -328.37 -0.0205605 0 -333.347 -0.0155125 0 -337.615 -0.00978053 0 -341.147 -0.00375414 0 -343.94 0.00204159 0 -345.996 0.00708153 0 -347.314 0.0108406 0 -347.894 0.0127937 0 -347.76 0.0125194 0 -346.969 0.0104979 0 -345.523 0.00767388 0 -343.422 0.0049959 0 -340.667 0.0034124 0 -337.258 0.00387188 0 -333.214 0.00727472 0 -328.662 0.0134149 0 -323.621 0.0209801 0 -318.092 0.0286099 0 -312.075 0.0349437 0 -305.569 0.038621 0 -298.581 0.038289 0 -291.238 0.0335097 0 -283.593 0.0256216 0 -275.645 0.0161676 0 -267.394 0.00669062 0 -258.841 -0.00126655 0 -249.985 -0.00616106 0 -240.904 -0.00692092 0 -231.676 -0.00435748 0 -222.299 0.000247031 0 -212.775 0.00561042 0 -203.103 0.0104505 0 -193.283 0.013485 0 -183.344 0.0135872 0 -173.355 0.0109823 0 -163.319 0.00659204 0 -153.236 0.00134373 0 -143.106 -0.00383526 0 -132.929 -0.00801756 0 -122.711 -0.0103072 0 -112.486 -0.0105293 0 -102.259 -0.00923034 0 -92.0292 -0.0069881 0 -81.7978 -0.00438035 0 -71.5645 -0.00198487 0 -61.3293 -0.000377074 0 -51.097 0.000151987 0 -40.8693 -0.000136415 0 -30.6463 -0.000917552 0 -20.428 -0.0018667 0 -10.2143 -0.00265912 0 -0.00535422 -0.00297009 0 -0.158026 1.85153 0 1.87068 1.87068 0 3.68237 1.92845 0 5.27706 2.02442 0 6.65474 2.15817 0 7.81542 2.32927 0 8.75908 2.53731 0 9.3967 2.78181 0 9.51059 3.06175 0 9.09086 3.37588 0 8.13751 3.72293 0 6.65054 4.10162 0 4.62996 4.51069 0 2.05696 4.94885 0 -1.18123 5.41431 0 -5.10339 5.90482 0 -9.70953 6.41809 0 -14.9997 6.95184 0 -20.9738 7.50379 0 -27.6288 8.07165 0 -34.8988 8.6529 0 -42.7566 9.24456 0 -51.2022 9.8436 0 -60.2356 10.447 0 -69.8568 11.0516 0 -80.0659 11.6546 0 -90.7154 12.2527 0 -101.658 12.843 0 -112.893 13.4224 0 -124.422 13.9876 0 -136.243 14.5357 0 -148.358 15.0636 0 -160.655 15.5681 0 -172.868 16.0469 0 -184.984 16.4977 0 -197.003 16.9185 0 -208.924 17.3069 0 -220.749 17.6609 0 -232.432 17.9784 0 -243.707 18.2578 0 -254.529 18.4985 0 -264.898 18.6998 0 -274.814 18.861 0 -284.278 18.9816 0 -293.282 19.0607 0 -301.671 19.0983 0 -309.381 19.0954 0 -316.411 19.0529 0 -322.763 18.972 0 -328.437 18.8537 0 -333.431 18.699 0 -337.717 18.5092 0 -341.264 18.286 0 -344.073 18.0313 0 -346.143 17.7469 0 -347.475 17.4349 0 -348.069 17.0971 0 -347.947 16.7354 0 -347.167 16.3522 0 -345.73 15.95 0 -343.636 15.5314 0 -340.887 15.099 0 -337.481 14.6554 0 -333.44 14.2029 0 -328.889 13.7439 0 -323.85 13.2798 0 -318.323 12.8124 0 -312.307 12.3434 0 -305.802 11.8743 0 -298.815 11.4068 0 -291.472 10.9426 0 -283.825 10.4833 0 -275.874 10.0306 0 -267.618 9.58628 0 -259.059 9.15189 0 -250.195 8.72916 0 -241.105 8.31954 0 -231.868 7.9236 0 -222.484 7.54168 0 -212.952 7.17413 0 -203.273 6.82129 0 -193.447 6.48351 0 -183.502 6.16113 0 -173.506 5.85458 0 -163.462 5.56429 0 -153.371 5.29071 0 -143.232 5.03429 0 -133.046 4.79546 0 -122.818 4.57466 0 -112.582 4.37203 0 -102.345 4.18744 0 -92.1069 4.02072 0 -81.8666 3.87173 0 -71.6248 3.7403 0 -61.3815 3.62629 0 -51.1409 3.5296 0 -40.9049 3.45032 0 -30.6733 3.38853 0 -20.4461 3.34431 0 -10.2235 3.31774 0 -0.00530058 3.3089 0 -0.15844 3.6441 0 1.92845 3.68237 0 3.7977 3.7977 0 5.44933 3.98927 0 6.88332 4.25623 0 8.09968 4.59778 0 9.0984 5.01309 0 9.79009 5.5012 0 9.95619 6.06014 0 9.58676 6.68737 0 8.68181 7.38037 0 7.24134 8.13662 0 5.26534 8.95358 0 2.73484 9.82868 0 -0.46407 10.7584 0 -4.35037 11.7382 0 -8.92407 12.7637 0 -14.1852 13.8302 0 -20.1336 14.9332 0 -26.7665 16.0682 0 -34.0186 17.2302 0 -41.8629 18.4132 0 -50.2997 19.6112 0 -59.3289 20.818 0 -68.9504 22.0276 0 -79.1644 23.2339 0 -89.8233 24.4308 0 -100.78 25.6122 0 -112.034 26.7718 0 -123.586 27.9036 0 -135.435 29.0013 0 -147.582 30.0587 0 -159.917 31.0698 0 -172.17 32.0296 0 -184.329 32.9338 0 -196.395 33.7778 0 -208.366 34.5574 0 -220.244 35.2682 0 -231.984 35.9057 0 -243.316 36.4672 0 -254.196 36.9514 0 -264.625 37.357 0 -274.602 37.6828 0 -284.127 37.9274 0 -293.193 38.0898 0 -301.643 38.1695 0 -309.413 38.1683 0 -316.503 38.088 0 -322.912 37.9304 0 -328.641 37.6975 0 -333.689 37.3909 0 -338.027 37.0131 0 -341.623 36.5678 0 -344.478 36.0591 0 -346.591 35.4914 0 -347.962 34.8687 0 -348.593 34.1954 0 -348.505 33.4755 0 -347.754 32.7135 0 -346.344 31.9137 0 -344.274 31.0806 0 -341.544 30.2186 0 -338.154 29.3322 0 -334.126 28.4256 0 -329.585 27.5033 0 -324.552 26.5698 0 -319.028 25.6292 0 -313.013 24.686 0 -306.506 23.7444 0 -299.514 22.809 0 -292.163 21.8833 0 -284.506 20.9697 0 -276.544 20.0703 0 -268.275 19.1875 0 -259.7 18.3234 0 -250.819 17.4803 0 -241.71 16.6602 0 -232.454 15.865 0 -223.049 15.0962 0 -213.495 14.3556 0 -203.794 13.6449 0 -193.944 12.9657 0 -183.973 12.3196 0 -173.952 11.7073 0 -163.883 11.1289 0 -153.767 10.5847 0 -143.602 10.0748 0 -133.39 9.59931 0 -123.135 9.15855 0 -112.873 8.75262 0 -102.61 8.38167 0 -92.3449 8.04583 0 -82.0782 7.74524 0 -71.8098 7.48003 0 -61.5401 7.25035 0 -51.2731 7.05625 0 -41.0105 6.89767 0 -30.7525 6.7745 0 -20.4989 6.68665 0 -10.2498 6.63403 0 -0.00523512 6.61656 0 -0.159078 5.21987 0 2.02442 5.27706 0 3.98927 5.44933 0 5.73546 5.73546 0 7.26301 6.13427 0 8.57191 6.64453 0 9.66216 7.26506 0 10.4438 7.99445 0 10.6967 8.8298 0 10.411 9.7674 0 9.58664 10.8035 0 8.22363 11.9344 0 6.32196 13.1564 0 3.86234 14.4657 0 0.729006 15.8571 0 -3.09735 17.3239 0 -7.61672 18.8594 0 -12.8291 20.457 0 -18.7345 22.1098 0 -25.33 23.8113 0 -32.5517 25.5538 0 -40.3733 27.3287 0 -48.7949 29.1266 0 -57.8164 30.9386 0 -67.4379 32.7557 0 -77.6594 34.5687 0 -88.3335 36.3685 0 -99.313 38.1458 0 -110.598 39.8915 0 -122.188 41.5961 0 -134.084 43.2505 0 -146.284 44.8452 0 -158.68 46.3713 0 -171 47.8211 0 -183.231 49.188 0 -195.374 50.4653 0 -207.429 51.6464 0 -219.395 52.7245 0 -231.229 53.693 0 -242.657 54.5477 0 -253.635 55.2864 0 -264.162 55.9073 0 -274.24 56.4085 0 -283.867 56.7879 0 -293.037 57.0436 0 -301.59 57.1752 0 -309.46 57.1851 0 -316.647 57.0758 0 -323.152 56.8501 0 -328.974 56.5107 0 -334.114 56.0602 0 -338.539 55.5019 0 -342.217 54.8416 0 -345.148 54.0857 0 -347.333 53.2405 0 -348.771 52.3123 0 -349.462 51.3077 0 -349.43 50.2329 0 -348.729 49.0944 0 -347.363 47.8988 0 -345.333 46.6526 0 -342.636 45.3622 0 -339.275 44.0343 0 -335.27 42.6753 0 -330.746 41.2919 0 -325.725 39.8908 0 -320.208 38.4788 0 -314.193 37.0627 0 -307.681 35.6491 0 -300.678 34.2449 0 -293.313 32.8556 0 -285.64 31.4847 0 -277.658 30.1352 0 -269.367 28.8104 0 -260.767 27.5134 0 -251.859 26.2472 0 -242.721 25.0151 0 -233.433 23.8197 0 -223.994 22.6638 0 -214.404 21.5501 0 -204.664 20.4813 0 -194.773 19.4602 0 -184.761 18.4891 0 -174.697 17.5692 0 -164.585 16.7005 0 -154.426 15.8833 0 -144.218 15.1176 0 -133.963 14.4036 0 -123.665 13.7414 0 -113.36 13.1312 0 -103.052 12.5735 0 -92.7433 12.0683 0 -82.4324 11.6162 0 -72.1197 11.2172 0 -61.8053 10.8718 0 -51.4937 10.5801 0 -41.1867 10.3419 0 -30.8844 10.157 0 -20.5867 10.0252 0 -10.2936 9.94623 0 -0.00518707 9.91999 0 -0.159933 6.57884 0 2.15817 6.65474 0 4.25623 6.88332 0 6.13427 7.26301 0 7.79227 7.79227 0 9.23024 8.46952 0 10.4482 9.29322 0 11.3553 10.2616 0 11.7295 11.3708 0 11.5608 12.616 0 10.8491 13.9923 0 9.59452 15.495 0 7.79699 17.1192 0 5.43678 18.8599 0 2.39551 20.7103 0 -1.34654 22.6618 0 -5.78938 24.7053 0 -10.933 26.8322 0 -16.7774 29.0337 0 -23.3198 31.3008 0 -30.4981 33.6238 0 -38.2869 35.9909 0 -46.6862 38.3899 0 -55.6961 40.809 0 -65.3164 43.236 0 -75.5473 45.659 0 -86.2415 48.0658 0 -97.252 50.444 0 -108.579 52.7813 0 -120.222 55.0652 0 -132.181 57.2833 0 -144.456 59.4231 0 -156.936 61.4725 0 -169.348 63.4213 0 -181.679 65.2605 0 -193.931 66.981 0 -206.101 68.5738 0 -218.192 70.0299 0 -230.156 71.3403 0 -241.718 72.4991 0 -252.832 73.5036 0 -263.499 74.3508 0 -273.717 75.0382 0 -283.488 75.5629 0 -292.803 75.9222 0 -301.5 76.1154 0 -309.511 76.1456 0 -316.836 76.0164 0 -323.475 75.7311 0 -329.429 75.2934 0 -334.697 74.7068 0 -339.245 73.9756 0 -343.039 73.1075 0 -346.079 72.1109 0 -348.364 70.9941 0 -349.896 69.7657 0 -350.673 68.434 0 -350.719 67.0075 0 -350.09 65.495 0 -348.787 63.9053 0 -346.812 62.2472 0 -344.164 60.5297 0 -340.843 58.7617 0 -336.87 56.952 0 -332.371 55.1094 0 -327.367 53.243 0 -321.858 51.3614 0 -315.845 49.4735 0 -309.326 47.5883 0 -302.309 45.7145 0 -294.925 43.8596 0 -287.229 42.0284 0 -279.22 40.2254 0 -270.899 38.455 0 -262.265 36.7217 0 -253.319 35.03 0 -244.139 33.3842 0 -234.806 31.7879 0 -225.319 30.2445 0 -215.679 28.7576 0 -205.885 27.3305 0 -195.937 25.9668 0 -185.865 24.6696 0 -175.742 23.4402 0 -165.57 22.2791 0 -155.35 21.1865 0 -145.083 20.1627 0 -134.767 19.2082 0 -124.408 18.3231 0 -114.042 17.5079 0 -103.673 16.7628 0 -93.3023 16.0882 0 -82.9294 15.4845 0 -72.5543 14.9518 0 -62.1772 14.4907 0 -51.803 14.1011 0 -41.4337 13.783 0 -31.0693 13.536 0 -20.7097 13.3598 0 -10.355 13.2543 0 -0.00518565 13.2192 0 -0.160999 7.72102 0 2.32927 7.81542 0 4.59778 8.09968 0 6.64453 8.57191 0 8.46952 9.23024 0 10.0728 10.0728 0 11.4542 11.0976 0 12.5221 12.3025 0 13.0518 13.683 0 13.0333 15.2331 0 12.4664 16.9469 0 11.3511 18.8185 0 9.6876 20.8419 0 7.45545 23.0113 0 4.53296 25.3182 0 0.899832 27.7519 0 -3.44393 30.3014 0 -8.49832 32.956 0 -14.2633 35.7048 0 -20.7363 38.5369 0 -27.8576 41.4401 0 -35.6029 44.3998 0 -43.9723 47.4011 0 -52.9656 50.429 0 -62.583 53.4685 0 -72.8244 56.5048 0 -83.5428 59.5227 0 -94.5915 62.5067 0 -105.97 65.4413 0 -117.68 68.3109 0 -129.719 71.0998 0 -142.089 73.7925 0 -154.676 76.3736 0 -167.205 78.8303 0 -179.665 81.1513 0 -192.054 83.3249 0 -204.373 85.3398 0 -216.623 87.1844 0 -228.755 88.8476 0 -240.489 90.3216 0 -251.778 91.6028 0 -262.623 92.6874 0 -273.023 93.5718 0 -282.979 94.2524 0 -292.482 94.7256 0 -301.364 94.9902 0 -309.557 95.0501 0 -317.06 94.9097 0 -323.873 94.5734 0 -329.997 94.0456 0 -335.431 93.3308 0 -340.138 92.4343 0 -344.082 91.3655 0 -347.262 90.1348 0 -349.679 88.7524 0 -351.332 87.2288 0 -352.222 85.5744 0 -352.371 83.7995 0 -351.834 81.9152 0 -350.614 79.9331 0 -348.711 77.8646 0 -346.125 75.7212 0 -342.855 73.5144 0 -338.924 71.2557 0 -334.457 68.9561 0 -329.476 66.6262 0 -323.979 64.2768 0 -317.969 61.9185 0 -311.443 59.562 0 -304.409 57.2178 0 -297.002 54.8952 0 -289.277 52.6008 0 -281.234 50.3407 0 -272.873 48.1212 0 -264.195 45.9484 0 -255.199 43.8285 0 -245.965 41.7675 0 -236.574 39.7694 0 -227.025 37.8383 0 -217.319 35.9781 0 -207.456 34.1925 0 -197.435 32.4856 0 -187.288 30.861 0 -177.088 29.3204 0 -166.84 27.8646 0 -156.543 26.4943 0 -146.197 25.2103 0 -135.803 24.0132 0 -125.366 22.9038 0 -114.92 21.8825 0 -104.472 20.9497 0 -94.0218 20.1055 0 -83.5689 19.3502 0 -73.1136 18.6839 0 -62.656 18.107 0 -52.2014 17.6194 0 -41.7519 17.221 0 -31.3076 16.9115 0 -20.8683 16.6907 0 -10.4342 16.5583 0 -0.00526006 16.5142 0 -0.162268 8.6464 0 2.53731 8.75908 0 5.01309 9.0984 0 7.26506 9.66216 0 9.29322 10.4482 0 11.0976 11.4542 0 12.6781 12.6781 0 13.9418 14.1174 0 14.6611 15.7665 0 14.8257 17.6187 0 14.4355 19.6671 0 13.4906 21.9047 0 11.991 24.3246 0 9.91568 26.9199 0 7.13886 29.6807 0 3.63955 32.5942 0 -0.582244 35.6477 0 -5.52652 38.8283 0 -11.1933 42.1232 0 -17.58 45.5194 0 -24.6301 49.0028 0 -32.3207 52.5556 0 -40.6516 56.1602 0 -49.623 59.7987 0 -59.2347 63.4532 0 -69.4868 67.1061 0 -80.2329 70.7392 0 -91.3264 74.3339 0 -102.767 77.8715 0 -114.556 81.3331 0 -126.691 84.7 0 -139.175 87.9532 0 -151.891 91.0745 0 -164.563 94.0481 0 -177.178 96.8603 0 -189.735 99.497 0 -202.235 101.944 0 -214.677 104.188 0 -227.014 106.215 0 -238.958 108.015 0 -250.462 109.584 0 -261.525 110.917 0 -272.148 112.009 0 -282.33 112.857 0 -292.063 113.454 0 -301.174 113.799 0 -309.59 113.898 0 -317.311 113.756 0 -324.338 113.377 0 -330.67 112.767 0 -336.308 111.932 0 -341.211 110.878 0 -345.34 109.616 0 -348.693 108.157 0 -351.272 106.515 0 -353.076 104.702 0 -354.105 102.729 0 -354.381 100.609 0 -353.959 98.355 0 -352.841 95.9823 0 -351.027 93.5047 0 -348.517 90.9367 0 -345.312 88.2925 0 -341.431 85.5864 0 -337.003 82.8317 0 -332.049 80.0406 0 -326.569 77.2252 0 -320.563 74.3977 0 -314.031 71.5701 0 -306.979 68.7548 0 -299.545 65.9625 0 -291.787 63.2019 0 -283.703 60.4813 0 -275.294 57.809 0 -266.561 55.1935 0 -257.502 52.6429 0 -248.2 50.165 0 -238.737 47.7644 0 -229.112 45.4452 0 -219.326 43.2115 0 -209.379 41.0673 0 -199.27 39.0167 0 -189.031 37.0634 0 -178.739 35.2098 0 -168.397 33.4571 0 -158.006 31.8068 0 -147.565 30.2601 0 -137.074 28.8185 0 -126.539 27.4834 0 -115.996 26.2552 0 -105.45 25.1342 0 -94.9019 24.1202 0 -84.351 23.2133 0 -73.7976 22.4134 0 -63.2417 21.7206 0 -52.689 21.1348 0 -42.1417 20.6558 0 -31.5996 20.2835 0 -21.0629 20.0177 0 -10.5315 19.8582 0 -0.00543955 19.805 0 -0.16373 9.26605 0 2.78181 9.3967 0 5.5012 9.79009 0 7.99445 10.4438 0 10.2616 11.3553 0 12.3025 12.5221 0 14.1174 13.9418 0 15.6116 15.6116 0 16.5542 17.5253 0 16.9347 19.6752 0 16.7532 22.0534 0 16.0096 24.6522 0 14.7038 27.4638 0 12.8143 30.4803 0 10.2102 33.6904 0 6.86991 37.0795 0 2.79334 40.633 0 -2.0195 44.3362 0 -7.5686 48.1744 0 -13.8516 52.1328 0 -20.8157 56.195 0 -28.4395 60.3406 0 -36.7229 64.5491 0 -45.6659 68.7998 0 -55.2686 73.0721 0 -65.5309 77.3454 0 -76.3069 81.5988 0 -87.4508 85.8105 0 -98.9625 89.9585 0 -110.842 94.0207 0 -123.089 97.9751 0 -135.705 101.8 0 -148.573 105.473 0 -161.411 108.976 0 -174.207 112.293 0 -186.961 115.407 0 -199.673 118.302 0 -212.343 120.96 0 -224.921 123.366 0 -237.113 125.509 0 -248.87 127.383 0 -260.191 128.98 0 -271.077 130.297 0 -281.528 131.327 0 -291.535 132.064 0 -300.917 132.506 0 -309.598 132.659 0 -317.579 132.528 0 -324.859 132.121 0 -331.44 131.442 0 -337.32 130.499 0 -342.456 129.298 0 -346.804 127.853 0 -350.364 126.178 0 -353.136 124.285 0 -355.121 122.189 0 -356.317 119.905 0 -356.748 117.445 0 -356.464 114.827 0 -355.468 112.068 0 -353.76 109.185 0 -351.341 106.195 0 -348.21 103.115 0 -344.388 99.9638 0 -340.007 96.7555 0 -335.086 93.5042 0 -329.626 90.2235 0 -323.628 86.9267 0 -317.09 83.6276 0 -310.02 80.3397 0 -302.558 77.0756 0 -294.762 73.8462 0 -286.631 70.662 0 -278.165 67.5339 0 -269.365 64.4724 0 -260.23 61.4882 0 -250.846 58.5908 0 -241.296 55.7854 0 -231.58 53.0761 0 -221.699 50.467 0 -211.653 47.9622 0 -201.441 45.5657 0 -191.096 43.2815 0 -180.696 41.1123 0 -170.244 39.0603 0 -159.741 37.1274 0 -149.187 35.3158 0 -138.581 33.6276 0 -127.93 32.0647 0 -117.27 30.6282 0 -106.608 29.3177 0 -95.9429 28.133 0 -85.2759 27.0737 0 -74.6064 26.1395 0 -63.9347 25.3302 0 -53.2663 24.6455 0 -42.6033 24.0853 0 -31.9458 23.6497 0 -21.2937 23.3385 0 -10.647 23.1516 0 -0.00574759 23.0891 0 -0.165346 9.36258 0 3.06175 9.51059 0 6.06014 9.95619 0 8.8298 10.6967 0 11.3708 11.7295 0 13.683 13.0518 0 15.7665 14.6611 0 17.5253 16.5542 0 18.7245 18.7245 0 19.3534 21.1634 0 19.412 23.8624 0 18.9004 26.813 0 17.8186 30.0067 0 16.1438 33.4347 0 13.7398 37.0847 0 10.5841 40.9405 0 6.67663 44.9856 0 2.01732 49.2039 0 -3.39377 53.5788 0 -9.55447 58.0942 0 -16.4165 62.7313 0 -23.9602 67.4674 0 -32.1854 72.2792 0 -41.0923 77.1434 0 -50.6808 82.0367 0 -60.9509 86.9357 0 -71.7576 91.8168 0 -82.9557 96.655 0 -94.5454 101.425 0 -106.527 106.102 0 -118.899 110.66 0 -131.664 115.074 0 -144.702 119.318 0 -157.73 123.373 0 -170.733 127.218 0 -183.712 130.835 0 -196.667 134.203 0 -209.597 137.304 0 -222.453 140.118 0 -234.93 142.632 0 -246.979 144.839 0 -258.598 146.732 0 -269.789 148.303 0 -280.551 149.545 0 -290.875 150.451 0 -300.571 151.019 0 -309.56 151.254 0 -317.842 151.163 0 -325.417 150.753 0 -332.286 150.03 0 -338.447 149.002 0 -343.854 147.677 0 -348.459 146.069 0 -352.26 144.193 0 -355.259 142.067 0 -357.456 139.704 0 -358.849 137.122 0 -359.46 134.336 0 -359.339 131.364 0 -358.487 128.228 0 -356.904 124.947 0 -354.591 121.541 0 -351.547 118.031 0 -347.795 114.436 0 -343.467 110.774 0 -338.586 107.062 0 -333.152 103.313 0 -327.164 99.5444 0 -320.623 95.7708 0 -313.535 92.0076 0 -306.043 88.2694 0 -298.204 84.5692 0 -290.019 80.9196 0 -281.488 77.3333 0 -272.611 73.8229 0 -263.387 70.4011 0 -253.906 67.0793 0 -244.255 63.8633 0 -234.434 60.7576 0 -224.443 57.7666 0 -214.283 54.8949 0 -203.953 52.1469 0 -193.486 49.5269 0 -182.962 47.0382 0 -172.384 44.6834 0 -161.752 42.465 0 -151.066 40.3858 0 -140.326 38.4483 0 -129.539 36.655 0 -118.744 35.007 0 -107.946 33.504 0 -97.1469 32.1455 0 -86.3453 30.9309 0 -75.5418 29.8598 0 -64.7364 28.9319 0 -53.9343 28.1466 0 -43.1378 27.5041 0 -32.3467 27.0042 0 -21.561 26.6471 0 -10.7809 26.4326 0 -0.0061579 26.3608 0 -0.16706 8.92609 0 3.37588 9.09086 0 6.68737 9.58676 0 9.7674 10.411 0 12.616 11.5608 0 15.2331 13.0333 0 17.6187 14.8257 0 19.6752 16.9347 0 21.1634 19.3534 0 22.0725 22.0725 0 22.4025 25.083 0 22.1535 28.3757 0 21.3253 31.9417 0 19.8944 35.7715 0 17.7183 39.8518 0 14.7733 44.165 0 11.0594 48.6932 0 6.57672 53.4188 0 1.32512 58.3238 0 -4.69339 63.3906 0 -11.4357 68.5988 0 -18.8843 73.9231 0 -27.039 79.3375 0 -35.9 84.8164 0 -45.4672 90.3338 0 -55.7405 95.8638 0 -66.5762 101.38 0 -77.8304 106.855 0 -89.503 112.259 0 -101.594 117.564 0 -114.104 122.742 0 -127.032 127.763 0 -140.259 132.6 0 -153.497 137.228 0 -166.731 141.626 0 -179.961 145.77 0 -193.189 149.639 0 -206.412 153.209 0 -219.58 156.46 0 -232.379 159.376 0 -244.758 161.947 0 -256.715 164.164 0 -268.252 166.02 0 -279.367 167.505 0 -290.053 168.611 0 -300.107 169.334 0 -309.447 169.68 0 -318.073 169.656 0 -325.986 169.27 0 -333.184 168.529 0 -339.669 167.44 0 -345.387 166.012 0 -350.286 164.261 0 -354.365 162.204 0 -357.625 159.86 0 -360.066 157.247 0 -361.687 154.38 0 -362.508 151.28 0 -362.574 147.967 0 -361.889 144.463 0 -360.452 140.793 0 -358.262 136.977 0 -355.32 133.04 0 -351.65 129.004 0 -347.386 124.89 0 -342.553 120.715 0 -337.149 116.496 0 -331.176 112.252 0 -324.633 108.001 0 -317.527 103.76 0 -310.001 99.5456 0 -302.116 95.3727 0 -293.872 91.2556 0 -285.267 87.2088 0 -276.302 83.2466 0 -266.978 79.3834 0 -257.387 75.6322 0 -247.621 71.9996 0 -237.68 68.4909 0 -227.566 65.1114 0 -217.276 61.8663 0 -206.812 58.7608 0 -196.207 55.8001 0 -185.541 52.9878 0 -174.819 50.3268 0 -164.041 47.82 0 -153.205 45.4705 0 -142.313 43.281 0 -131.372 41.2544 0 -120.422 39.392 0 -109.47 37.6933 0 -98.5169 36.1578 0 -87.5623 34.785 0 -76.6061 33.5744 0 -65.6486 32.5255 0 -54.6946 31.638 0 -43.7461 30.9118 0 -32.803 30.3469 0 -21.8654 29.9433 0 -10.9333 29.7009 0 -0.00661854 29.6198 0 -0.168816 7.95661 0 3.72293 8.13751 0 7.38037 8.68181 0 10.8035 9.58664 0 13.9923 10.8491 0 16.9469 12.4664 0 19.6671 14.4355 0 22.0534 16.7532 0 23.8624 19.412 0 25.083 22.4025 0 25.7151 25.7151 0 25.7589 29.3404 0 25.2143 33.2688 0 24.0564 37.4906 0 22.1361 41.9916 0 19.4285 46.753 0 15.9336 51.7558 0 11.6514 56.9809 0 6.58201 62.4094 0 0.726974 68.0222 0 -5.87653 73.7975 0 -13.2133 79.7075 0 -21.2834 85.724 0 -30.0868 91.8188 0 -39.6234 97.9634 0 -49.8933 104.13 0 -60.7543 110.289 0 -72.0639 116.409 0 -83.8222 122.459 0 -96.0293 128.407 0 -108.685 134.221 0 -121.79 139.868 0 -135.222 145.317 0 -148.689 150.542 0 -162.176 155.515 0 -175.683 160.213 0 -189.211 164.609 0 -202.759 168.678 0 -216.274 172.394 0 -229.431 175.74 0 -242.177 178.705 0 -254.512 181.278 0 -266.435 183.45 0 -277.947 185.208 0 -289.038 186.544 0 -299.495 187.451 0 -309.231 187.937 0 -318.245 188.009 0 -326.538 187.674 0 -334.11 186.939 0 -340.961 185.813 0 -347.033 184.304 0 -352.266 182.43 0 -356.661 180.211 0 -360.218 177.666 0 -362.937 174.816 0 -364.817 171.681 0 -365.878 168.279 0 -366.16 164.635 0 -365.666 160.774 0 -364.395 156.722 0 -362.349 152.504 0 -359.526 148.145 0 -355.951 143.67 0 -351.763 139.103 0 -346.987 134.463 0 -341.621 129.773 0 -335.666 125.051 0 -329.123 120.319 0 -321.997 115.597 0 -314.436 110.904 0 -306.5 106.256 0 -298.189 101.67 0 -289.503 97.1605 0 -280.442 92.7436 0 -271.007 88.4352 0 -261.293 84.2494 0 -251.4 80.1942 0 -241.326 76.276 0 -231.072 72.5012 0 -220.638 68.8763 0 -210.023 65.4075 0 -199.262 62.1011 0 -188.438 58.9611 0 -177.554 55.9905 0 -166.61 53.1924 0 -155.607 50.5698 0 -144.544 48.1257 0 -133.429 45.863 0 -122.306 43.783 0 -111.182 41.8854 0 -100.056 40.1699 0 -88.9295 38.6359 0 -77.8019 37.2831 0 -66.6734 36.1111 0 -55.5485 35.1196 0 -44.4292 34.3085 0 -33.3154 33.6777 0 -22.2071 33.2271 0 -11.1043 32.9566 0 -0.00707735 32.8662 0 -0.170559 6.45412 0 4.10162 6.65054 0 8.13662 7.24134 0 11.9344 8.22363 0 15.495 9.59452 0 18.8185 11.3511 0 21.9047 13.4906 0 24.6522 16.0096 0 26.813 18.9004 0 28.3757 22.1535 0 29.3404 25.7589 0 29.707 29.707 0 29.4756 33.9881 0 28.6201 38.5921 0 26.9838 43.5042 0 24.5408 48.7046 0 21.2909 54.1732 0 17.2342 59.8902 0 12.3708 65.8354 0 6.70191 71.9889 0 0.257912 78.3273 0 -6.94881 84.8207 0 -14.9183 91.4386 0 -23.6504 98.1505 0 -33.1453 104.926 0 -43.4029 111.734 0 -54.2831 118.543 0 -65.6455 125.319 0 -77.4902 132.027 0 -89.8172 138.632 0 -102.627 145.097 0 -115.918 151.388 0 -129.57 157.471 0 -143.283 163.313 0 -157.043 168.887 0 -170.851 174.164 0 -184.706 179.113 0 -198.609 183.708 0 -212.504 187.919 0 -226.055 191.725 0 -239.206 195.114 0 -251.957 198.074 0 -264.308 200.591 0 -276.259 202.654 0 -287.801 204.249 0 -298.706 205.371 0 -308.882 206.026 0 -318.33 206.221 0 -327.049 205.964 0 -335.04 205.261 0 -342.302 204.121 0 -348.77 202.552 0 -354.379 200.576 0 -359.129 198.213 0 -363.021 195.485 0 -366.053 192.414 0 -368.227 189.022 0 -369.558 185.332 0 -370.084 181.369 0 -369.807 177.161 0 -368.728 172.736 0 -366.846 168.121 0 -364.162 163.344 0 -360.698 158.432 0 -356.6 153.412 0 -351.89 148.308 0 -346.57 143.142 0 -340.638 137.94 0 -334.095 132.724 0 -326.948 127.518 0 -319.348 122.345 0 -311.356 117.221 0 -302.973 112.163 0 -294.199 107.188 0 -285.034 102.314 0 -275.478 97.5563 0 -265.632 92.9309 0 -255.598 88.4471 0 -245.378 84.113 0 -234.97 79.9363 0 -224.374 75.925 0 -213.591 72.087 0 -202.656 68.4299 0 -191.654 64.9581 0 -180.59 61.6746 0 -169.463 58.5822 0 -158.274 55.6839 0 -147.022 52.9824 0 -135.715 50.4808 0 -124.4 48.1802 0 -113.084 46.0806 0 -101.767 44.1818 0 -90.4498 42.4837 0 -79.1316 40.986 0 -67.8127 39.6887 0 -56.4977 38.5915 0 -45.1883 37.6942 0 -33.8846 36.9966 0 -22.5866 36.4984 0 -11.2942 36.1996 0 -0.0074822 36.0998 0 -0.172234 4.41862 0 4.51069 4.62996 0 8.95358 5.26534 0 13.1564 6.32196 0 17.1192 7.79699 0 20.8419 9.6876 0 24.3246 11.991 0 27.4638 14.7038 0 30.0067 17.8186 0 31.9417 21.3253 0 33.2688 25.2143 0 33.9881 29.4756 0 34.0995 34.0995 0 33.5757 39.0759 0 32.2521 44.3895 0 30.1012 50.0197 0 27.1232 55.9457 0 23.3179 62.1467 0 18.6854 68.602 0 13.2267 75.2907 0 6.96441 82.1883 0 -0.0922781 89.2627 0 -7.94335 96.4814 0 -16.5888 103.812 0 -26.0287 111.22 0 -36.2629 118.675 0 -47.154 126.142 0 -58.5643 133.584 0 -70.4938 140.962 0 -82.9427 148.237 0 -95.9107 155.371 0 -109.398 162.325 0 -123.281 169.06 0 -137.255 175.543 0 -151.308 181.741 0 -165.439 187.622 0 -179.648 193.152 0 -193.935 198.301 0 -208.242 203.035 0 -222.221 207.331 0 -235.814 211.175 0 -249.021 214.551 0 -261.841 217.444 0 -274.275 219.841 0 -286.311 221.727 0 -297.71 223.093 0 -308.374 223.946 0 -318.301 224.292 0 -327.492 224.139 0 -335.948 223.494 0 -343.667 222.363 0 -350.578 220.758 0 -356.606 218.699 0 -361.753 216.21 0 -366.018 213.315 0 -369.401 210.039 0 -371.902 206.406 0 -373.536 202.44 0 -374.336 198.169 0 -374.305 193.624 0 -373.443 188.833 0 -371.748 183.828 0 -369.223 178.637 0 -365.89 173.291 0 -361.896 167.819 0 -357.265 162.248 0 -351.998 156.605 0 -346.094 150.919 0 -339.553 145.216 0 -332.383 139.524 0 -324.739 133.868 0 -316.688 128.265 0 -308.227 122.734 0 -299.359 117.293 0 -290.081 111.958 0 -280.395 106.747 0 -270.407 101.677 0 -260.223 96.7584 0 -249.842 92.0017 0 -239.265 87.4164 0 -228.492 83.0123 0 -217.522 78.7992 0 -206.393 74.7865 0 -195.195 70.9788 0 -183.932 67.379 0 -172.603 63.9894 0 -161.209 60.8126 0 -149.749 57.8512 0 -138.233 55.1077 0 -126.707 52.5834 0 -115.181 50.2786 0 -103.654 48.1935 0 -92.1262 46.3283 0 -80.5976 44.6831 0 -69.0685 43.2582 0 -57.5435 42.0536 0 -46.0244 41.0688 0 -34.5113 40.3036 0 -23.0042 39.7574 0 -11.503 39.4299 0 -0.00778094 39.3206 0 -0.173785 1.83138 0 4.94885 2.05696 0 9.82868 2.73484 0 14.4657 3.86234 0 18.8599 5.43678 0 23.0113 7.45545 0 26.9199 9.91568 0 30.4803 12.8143 0 33.4347 16.1438 0 35.7715 19.8944 0 37.4906 24.0564 0 38.5921 28.6201 0 39.0759 33.5757 0 38.9133 38.9133 0 37.9311 44.6172 0 36.1006 50.6665 0 33.4219 57.0396 0 29.8948 63.7154 0 25.5194 70.6725 0 20.2964 77.8893 0 14.2395 85.3405 0 7.3545 92.9921 0 -0.358666 100.809 0 -8.89997 108.758 0 -18.2694 116.802 0 -28.467 124.908 0 -39.3585 133.04 0 -50.8096 141.156 0 -62.8202 149.215 0 -75.3905 157.175 0 -88.5203 164.993 0 -102.21 172.628 0 -116.333 180.038 0 -130.583 187.184 0 -144.945 194.032 0 -159.42 200.543 0 -174.007 206.683 0 -188.707 212.416 0 -203.458 217.704 0 -217.9 222.522 0 -231.971 226.853 0 -245.672 230.678 0 -259.002 233.982 0 -271.962 236.746 0 -284.539 238.955 0 -296.479 240.597 0 -307.676 241.68 0 -318.13 242.208 0 -327.841 242.189 0 -336.809 241.629 0 -345.035 240.535 0 -352.435 238.917 0 -358.928 236.797 0 -364.515 234.203 0 -369.194 231.161 0 -372.965 227.697 0 -375.83 223.837 0 -377.8 219.609 0 -378.906 215.043 0 -379.15 210.171 0 -378.531 205.024 0 -377.05 199.635 0 -374.707 194.036 0 -371.525 188.259 0 -367.653 182.335 0 -363.114 176.296 0 -357.909 170.175 0 -352.038 164.002 0 -345.5 157.809 0 -338.303 151.628 0 -330.613 145.486 0 -322.496 139.402 0 -313.953 133.394 0 -304.983 127.482 0 -295.587 121.682 0 -285.765 116.013 0 -275.625 110.492 0 -265.279 105.133 0 -254.725 99.9474 0 -243.965 94.9467 0 -232.997 90.1432 0 -221.822 85.5488 0 -210.479 81.175 0 -199.064 77.0267 0 -187.582 73.1063 0 -176.032 69.4156 0 -164.414 65.9569 0 -152.729 62.7321 0 -140.984 59.7434 0 -129.23 56.992 0 -117.475 54.4787 0 -105.719 52.2041 0 -93.9612 50.1688 0 -82.2025 48.3735 0 -70.4428 46.8188 0 -58.6875 45.505 0 -46.9386 44.4314 0 -35.1962 43.5976 0 -23.4603 43.0027 0 -11.7309 42.6462 0 -0.00792489 42.5275 0 -0.175169 -1.41997 0 5.41431 -1.18123 0 10.7584 -0.46407 0 15.8571 0.729006 0 20.7103 2.39551 0 25.3182 4.53296 0 29.6807 7.13886 0 33.6904 10.2102 0 37.0847 13.7398 0 39.8518 17.7183 0 41.9916 22.1361 0 43.5042 26.9838 0 44.3895 32.2521 0 44.6172 37.9311 0 44.0054 44.0054 0 42.5239 50.4537 0 40.1725 57.2544 0 36.9513 64.3859 0 32.8603 71.8266 0 27.8998 79.5549 0 22.0737 87.5445 0 15.3839 95.76 0 7.83039 104.165 0 -0.586905 112.723 0 -9.86795 121.398 0 -20.0127 130.153 0 -30.8911 138.951 0 -42.3727 147.747 0 -54.4576 156.496 0 -67.1459 165.153 0 -80.4374 173.672 0 -94.3322 182.009 0 -108.703 190.117 0 -123.239 197.956 0 -137.925 205.485 0 -152.762 212.663 0 -167.75 219.451 0 -182.888 225.809 0 -198.114 231.696 0 -213.051 237.082 0 -227.636 241.947 0 -241.869 246.271 0 -255.75 250.034 0 -269.279 253.217 0 -282.444 255.798 0 -294.971 257.766 0 -306.749 259.126 0 -317.778 259.883 0 -328.058 260.044 0 -337.589 259.613 0 -346.371 258.597 0 -354.311 257.005 0 -361.316 254.863 0 -367.387 252.199 0 -372.523 249.04 0 -376.724 245.417 0 -379.991 241.356 0 -382.334 236.887 0 -383.78 232.043 0 -384.331 226.858 0 -383.985 221.366 0 -382.744 215.603 0 -380.607 209.603 0 -377.599 203.401 0 -373.867 197.032 0 -369.435 190.53 0 -364.303 183.932 0 -358.471 177.272 0 -351.939 170.587 0 -344.715 163.911 0 -336.975 157.275 0 -328.789 150.699 0 -320.158 144.204 0 -311.082 137.808 0 -301.56 131.531 0 -291.593 125.393 0 -281.294 119.412 0 -270.774 113.603 0 -260.035 107.98 0 -249.076 102.557 0 -237.896 97.3466 0 -226.496 92.3634 0 -214.919 87.62 0 -203.268 83.1223 0 -191.547 78.872 0 -179.756 74.8713 0 -167.896 71.1221 0 -155.966 67.6262 0 -143.975 64.3856 0 -131.974 61.4017 0 -119.97 58.6755 0 -107.965 56.2079 0 -95.9578 53.9996 0 -83.9486 52.0518 0 -71.9376 50.3651 0 -59.9313 48.9401 0 -47.9322 47.7759 0 -35.9403 46.8719 0 -23.9557 46.2271 0 -11.9782 45.8408 0 -0.00794544 45.7123 0 -0.176352 -5.35417 0 5.90482 -5.10339 0 11.7382 -4.35037 0 17.3239 -3.09735 0 22.6618 -1.34654 0 27.7519 0.899832 0 32.5942 3.63955 0 37.0795 6.86991 0 40.9405 10.5841 0 44.165 14.7733 0 46.753 19.4285 0 48.7046 24.5408 0 50.0197 30.1012 0 50.6665 36.1006 0 50.4537 42.5239 0 49.3497 49.3497 0 47.3542 56.5565 0 44.4674 64.1231 0 40.6893 72.0277 0 36.0195 80.249 0 30.4515 88.7603 0 23.9826 97.5249 0 16.6129 106.505 0 8.34239 115.664 0 -0.829005 124.962 0 -10.9013 134.363 0 -21.7491 143.827 0 -33.2472 153.307 0 -45.3955 162.755 0 -58.1942 172.122 0 -71.6431 181.359 0 -85.7423 190.418 0 -100.363 199.251 0 -115.191 207.811 0 -130.213 216.055 0 -145.427 223.937 0 -160.834 231.414 0 -176.434 238.44 0 -192.162 244.971 0 -207.625 250.974 0 -222.758 256.425 0 -237.56 261.3 0 -252.032 265.575 0 -266.174 269.228 0 -279.972 272.234 0 -293.135 274.58 0 -305.544 276.268 0 -317.198 277.304 0 -328.097 277.692 0 -338.242 277.436 0 -347.633 276.543 0 -356.164 275.021 0 -363.732 272.896 0 -370.335 270.198 0 -375.975 266.957 0 -380.65 263.204 0 -384.362 258.968 0 -387.118 254.28 0 -388.942 249.176 0 -389.834 243.693 0 -389.793 237.87 0 -388.822 231.743 0 -386.918 225.35 0 -384.106 218.731 0 -380.534 211.921 0 -376.224 204.961 0 -371.178 197.889 0 -365.395 190.743 0 -358.874 183.563 0 -351.626 176.387 0 -343.835 169.248 0 -335.578 162.169 0 -326.856 155.172 0 -317.667 148.279 0 -308.013 141.512 0 -297.893 134.892 0 -287.423 128.441 0 -276.718 122.173 0 -265.779 116.105 0 -254.605 110.252 0 -243.197 104.627 0 -231.555 99.2474 0 -219.724 94.1258 0 -207.816 89.2688 0 -195.836 84.6789 0 -183.785 80.3582 0 -171.663 76.309 0 -159.468 72.5334 0 -147.211 69.0338 0 -134.942 65.8118 0 -122.671 62.8681 0 -110.396 60.2038 0 -98.1185 57.8198 0 -85.8381 55.717 0 -73.5551 53.8962 0 -61.2771 52.3579 0 -49.0071 51.1012 0 -36.7452 50.1254 0 -24.4914 49.4294 0 -12.2456 49.0124 0 -0.00795403 48.8736 0 -0.177299 -9.97123 0 6.41809 -9.70953 0 12.7637 -8.92407 0 18.8594 -7.61672 0 24.7053 -5.78938 0 30.3014 -3.44393 0 35.6477 -0.582244 0 40.633 2.79334 0 44.9856 6.67663 0 48.6932 11.0594 0 51.7558 15.9336 0 54.1732 21.2909 0 55.9457 27.1232 0 57.0396 33.4219 0 57.2544 40.1725 0 56.5565 47.3542 0 54.946 54.946 0 52.4229 62.9269 0 48.9871 71.2758 0 44.6379 79.9717 0 39.357 88.9879 0 33.137 98.2869 0 25.9779 107.83 0 17.8797 117.579 0 8.84245 127.494 0 -1.1339 137.538 0 -11.93 147.669 0 -23.4265 157.838 0 -35.6235 167.992 0 -48.5208 178.082 0 -62.1186 188.053 0 -76.4168 197.856 0 -91.2858 207.438 0 -106.409 216.75 0 -121.772 225.742 0 -137.375 234.365 0 -153.218 242.571 0 -169.301 250.309 0 -185.555 257.531 0 -201.573 264.199 0 -217.286 270.286 0 -232.694 275.763 0 -247.797 280.603 0 -262.595 284.779 0 -277.073 288.263 0 -290.921 291.038 0 -304.01 293.106 0 -316.34 294.47 0 -327.911 295.133 0 -338.724 295.1 0 -348.778 294.374 0 -357.955 292.963 0 -366.137 290.895 0 -373.324 288.2 0 -379.517 284.91 0 -384.714 281.058 0 -388.917 276.673 0 -392.132 271.789 0 -394.374 266.443 0 -395.645 260.678 0 -395.945 254.534 0 -395.273 248.053 0 -393.63 241.277 0 -391.039 234.247 0 -387.648 227.004 0 -383.479 219.59 0 -378.533 212.047 0 -372.81 204.416 0 -366.31 196.738 0 -359.042 189.056 0 -351.203 181.404 0 -342.876 173.811 0 -334.059 166.3 0 -324.754 158.896 0 -314.959 151.625 0 -304.675 144.511 0 -294.021 137.578 0 -283.117 130.844 0 -271.964 124.323 0 -260.561 118.031 0 -248.908 111.986 0 -237.005 106.201 0 -224.902 100.692 0 -212.719 95.4665 0 -200.461 90.5268 0 -188.13 85.8762 0 -175.724 81.5176 0 -163.244 77.454 0 -150.699 73.6882 0 -138.141 70.2221 0 -125.58 67.0565 0 -113.015 64.192 0 -100.446 61.6293 0 -87.8732 59.3691 0 -75.2972 57.4121 0 -62.7267 55.7585 0 -50.165 54.4074 0 -37.6124 53.3581 0 -25.0686 52.6096 0 -12.5339 52.161 0 -0.00806559 52.0116 0 -0.177978 -15.2711 0 6.95184 -14.9997 0 13.8302 -14.1852 0 20.457 -12.8291 0 26.8322 -10.933 0 32.956 -8.49832 0 38.8283 -5.52652 0 44.3362 -2.0195 0 49.2039 2.01732 0 53.4188 6.57672 0 56.9809 11.6514 0 59.8902 17.2342 0 62.1467 23.3179 0 63.7154 29.8948 0 64.3859 36.9513 0 64.1231 44.4674 0 62.9269 52.4229 0 60.7975 60.7975 0 57.7347 69.5709 0 53.7373 78.723 0 48.7744 88.2273 0 42.8333 98.046 0 35.9141 108.14 0 28.0168 118.469 0 19.1415 128.995 0 9.28796 139.678 0 -1.4314 150.477 0 -12.9044 161.339 0 -25.131 172.209 0 -38.1112 183.033 0 -51.8451 193.756 0 -66.3326 204.323 0 -81.4437 214.68 0 -96.8607 224.772 0 -112.569 234.546 0 -128.569 243.947 0 -144.86 252.922 0 -161.443 261.416 0 -178.246 269.375 0 -194.845 276.757 0 -211.168 283.53 0 -227.217 289.661 0 -242.99 295.119 0 -258.487 299.871 0 -273.694 303.885 0 -288.277 307.142 0 -302.097 309.639 0 -315.156 311.381 0 -327.453 312.368 0 -338.988 312.603 0 -349.761 312.089 0 -359.64 310.832 0 -368.493 308.86 0 -376.318 306.205 0 -383.117 302.901 0 -388.888 298.979 0 -393.633 294.472 0 -397.355 289.413 0 -400.061 283.844 0 -401.752 277.811 0 -402.428 271.36 0 -402.089 264.535 0 -400.736 257.383 0 -398.391 249.95 0 -395.202 242.28 0 -391.194 234.417 0 -386.366 226.405 0 -380.717 218.289 0 -374.249 210.111 0 -366.971 201.917 0 -359.091 193.745 0 -350.695 185.625 0 -341.783 177.587 0 -332.355 169.659 0 -322.41 161.871 0 -311.95 154.25 0 -301.099 146.826 0 -289.982 139.614 0 -278.599 132.632 0 -266.95 125.896 0 -255.036 119.421 0 -242.855 113.224 0 -230.462 107.319 0 -217.985 101.715 0 -205.431 96.4159 0 -192.799 91.4254 0 -180.089 86.748 0 -167.301 82.3877 0 -154.445 78.3486 0 -141.576 74.6328 0 -128.702 71.2407 0 -115.824 68.1724 0 -102.942 65.4282 0 -90.0562 63.0082 0 -77.1663 60.9128 0 -64.2821 59.1418 0 -51.4078 57.6944 0 -38.5433 56.57 0 -25.6885 55.7676 0 -12.8436 55.2866 0 -0.00839502 55.1261 0 -0.178355 -21.2539 0 7.50379 -20.9738 0 14.9332 -20.1336 0 22.1098 -18.7345 0 29.0337 -16.7774 0 35.7048 -14.2633 0 42.1232 -11.1933 0 48.1744 -7.5686 0 53.5788 -3.39377 0 58.3238 1.32512 0 62.4094 6.58201 0 65.8354 12.3708 0 68.602 18.6854 0 70.6725 25.5194 0 71.8266 32.8603 0 72.0277 40.6893 0 71.2758 48.9871 0 69.5709 57.7347 0 66.9131 66.9131 0 63.3001 76.5029 0 58.6878 86.4786 0 53.058 96.8022 0 46.4105 107.434 0 38.7456 118.335 0 30.0631 129.464 0 20.363 140.784 0 9.74925 152.251 0 -1.67431 163.81 0 -13.9077 175.404 0 -26.9508 186.975 0 -40.8038 198.466 0 -55.4666 209.819 0 -70.8093 220.976 0 -86.5145 231.878 0 -102.568 242.467 0 -118.969 252.684 0 -135.718 262.468 0 -152.815 271.76 0 -170.187 280.503 0 -187.391 288.648 0 -204.354 296.158 0 -221.077 302.995 0 -237.559 309.122 0 -253.8 314.503 0 -269.783 319.101 0 -285.151 322.89 0 -299.755 325.868 0 -313.596 328.037 0 -326.674 329.396 0 -338.989 329.946 0 -350.54 329.688 0 -361.181 328.627 0 -370.761 326.791 0 -379.282 324.214 0 -386.743 320.928 0 -393.145 316.967 0 -398.486 312.364 0 -402.767 307.153 0 -405.986 301.379 0 -408.141 295.094 0 -409.233 288.346 0 -409.262 281.188 0 -408.228 273.669 0 -406.155 265.839 0 -403.193 257.748 0 -399.366 249.441 0 -394.675 240.964 0 -389.118 232.363 0 -382.697 223.683 0 -375.421 214.972 0 -367.508 206.27 0 -359.048 197.612 0 -350.04 189.034 0 -340.484 180.568 0 -330.381 172.248 0 -319.731 164.109 0 -308.666 156.182 0 -297.319 148.485 0 -285.69 141.034 0 -273.78 133.845 0 -261.588 126.934 0 -249.114 120.316 0 -236.415 114.007 0 -223.627 108.015 0 -210.756 102.346 0 -197.802 97.0058 0 -184.766 92.0001 0 -171.648 87.3347 0 -158.456 83.0151 0 -145.251 79.0438 0 -132.042 75.4206 0 -118.828 72.145 0 -105.611 69.2164 0 -92.3894 66.6343 0 -79.1642 64.3983 0 -65.9455 62.5078 0 -52.7372 60.9623 0 -39.5394 59.7611 0 -26.3521 58.9036 0 -13.1753 58.3892 0 -0.00905727 58.2172 0 -0.178396 -27.9165 0 8.07165 -27.6288 0 16.0682 -26.7665 0 23.8113 -25.33 0 31.3008 -23.3198 0 38.5369 -20.7363 0 45.5194 -17.58 0 52.1328 -13.8516 0 58.0942 -9.55447 0 63.3906 -4.69339 0 68.0222 0.726974 0 71.9889 6.70191 0 75.2907 13.2267 0 77.8893 20.2964 0 79.5549 27.8998 0 80.249 36.0195 0 79.9717 44.6379 0 78.723 53.7373 0 76.5029 63.3001 0 73.3087 73.3087 0 69.0815 83.7384 0 63.7973 94.5513 0 57.456 105.708 0 50.0576 117.169 0 41.6022 128.896 0 32.0898 140.847 0 21.6144 152.982 0 10.2701 165.242 0 -1.94307 177.568 0 -15.0251 189.898 0 -28.976 202.173 0 -43.7957 214.332 0 -59.3552 226.314 0 -75.3389 238.056 0 -91.7326 249.493 0 -108.536 260.561 0 -125.75 271.195 0 -143.373 281.33 0 -161.33 290.903 0 -179.162 299.859 0 -196.793 308.156 0 -214.222 315.752 0 -231.451 322.602 0 -248.479 328.666 0 -265.288 333.899 0 -281.492 338.274 0 -296.933 341.786 0 -311.612 344.432 0 -325.528 346.212 0 -338.681 347.125 0 -351.072 347.168 0 -362.534 346.346 0 -372.904 344.687 0 -382.18 342.225 0 -390.364 338.992 0 -397.454 335.023 0 -403.452 330.351 0 -408.349 325.011 0 -412.132 319.051 0 -414.797 312.529 0 -416.347 305.498 0 -416.781 298.017 0 -416.098 290.139 0 -414.325 281.921 0 -411.614 273.415 0 -407.992 264.668 0 -403.459 255.728 0 -398.014 246.642 0 -391.657 237.457 0 -384.399 228.222 0 -376.465 218.982 0 -367.947 209.775 0 -358.844 200.643 0 -349.156 191.626 0 -338.884 182.762 0 -328.028 174.092 0 -316.731 165.652 0 -305.137 157.46 0 -293.246 149.532 0 -281.058 141.882 0 -268.573 134.526 0 -255.79 127.48 0 -242.769 120.757 0 -229.652 114.367 0 -216.445 108.318 0 -203.15 102.618 0 -189.765 97.275 0 -176.291 92.2959 0 -162.738 87.6885 0 -149.172 83.4559 0 -135.602 79.5969 0 -122.03 76.1101 0 -108.454 72.994 0 -94.8749 70.2472 0 -81.2932 67.8683 0 -67.7186 65.8562 0 -54.155 64.2105 0 -40.6023 62.9308 0 -27.0606 62.0168 0 -13.5299 61.4681 0 -0.0101665 61.2844 0 -0.178065 -35.1925 0 8.6529 -34.8988 0 17.2302 -34.0186 0 25.5538 -32.5517 0 33.6238 -30.4981 0 41.4401 -27.8576 0 49.0028 -24.6301 0 56.195 -20.8157 0 62.7313 -16.4165 0 68.5988 -11.4357 0 73.7975 -5.87653 0 78.3273 0.257912 0 82.1883 6.96441 0 85.3405 14.2395 0 87.5445 22.0737 0 88.7603 30.4515 0 88.9879 39.357 0 88.2273 48.7744 0 86.4786 58.6878 0 83.7384 69.0815 0 79.9323 79.9323 0 75.03 91.203 0 69.0315 102.855 0 61.9369 114.849 0 53.746 127.147 0 44.4589 139.71 0 34.1585 152.495 0 22.9275 165.443 0 10.7659 178.491 0 -2.32621 191.577 0 -16.3489 204.638 0 -31.3021 217.611 0 -47.0584 230.432 0 -63.3062 243.034 0 -80.0312 255.346 0 -97.2336 267.298 0 -114.913 278.821 0 -133.07 289.843 0 -151.625 300.295 0 -170.104 310.118 0 -188.427 319.262 0 -206.595 327.679 0 -224.607 335.319 0 -242.464 342.135 0 -260.146 348.077 0 -277.239 353.111 0 -293.571 357.229 0 -309.144 360.427 0 -323.956 362.701 0 -338.009 364.047 0 -351.302 364.459 0 -363.651 363.94 0 -374.874 362.518 0 -384.97 360.227 0 -393.939 357.099 0 -401.781 353.17 0 -408.497 348.473 0 -414.072 343.044 0 -418.475 336.934 0 -421.702 330.206 0 -423.755 322.918 0 -424.634 315.133 0 -424.338 306.911 0 -422.894 298.313 0 -420.463 289.394 0 -417.071 280.204 0 -412.72 270.794 0 -407.408 261.215 0 -401.136 251.516 0 -393.914 241.749 0 -385.971 231.96 0 -377.402 222.197 0 -368.206 212.503 0 -358.382 202.924 0 -347.932 193.505 0 -336.856 184.29 0 -325.309 175.32 0 -313.451 166.615 0 -301.28 158.189 0 -288.797 150.06 0 -276.002 142.24 0 -262.895 134.747 0 -249.535 127.594 0 -236.072 120.793 0 -222.51 114.354 0 -208.851 108.284 0 -195.094 102.594 0 -181.24 97.2919 0 -167.299 92.3877 0 -153.345 87.8847 0 -139.39 83.7808 0 -125.434 80.0742 0 -111.476 76.7625 0 -97.517 73.8438 0 -83.5569 71.3159 0 -69.6046 69.1774 0 -55.6635 67.4279 0 -41.7337 66.0671 0 -27.8151 65.0949 0 -13.9078 64.511 0 -0.0117519 64.3153 0 -0.177316 -43.0549 0 9.24456 -42.7566 0 18.4132 -41.8629 0 27.3287 -40.3733 0 35.9909 -38.2869 0 44.3998 -35.6029 0 52.5556 -32.3207 0 60.3406 -28.4395 0 67.4674 -23.9602 0 73.9231 -18.8843 0 79.7075 -13.2133 0 84.8207 -6.94881 0 89.2627 -0.0922781 0 92.9921 7.3545 0 95.76 15.3839 0 97.5249 23.9826 0 98.2869 33.137 0 98.046 42.8333 0 96.8022 53.058 0 94.5513 63.7973 0 91.203 75.03 0 86.7203 86.7203 0 81.1032 98.8306 0 74.3516 111.323 0 66.4657 124.161 0 57.4454 137.306 0 47.3607 150.717 0 36.2816 164.332 0 24.2082 178.088 0 11.1404 191.92 0 -2.92182 205.763 0 -17.9784 219.552 0 -33.9044 233.222 0 -50.3947 246.701 0 -67.4354 259.912 0 -85.0264 272.78 0 -103.168 285.229 0 -121.859 297.182 0 -141.02 308.565 0 -160.158 319.312 0 -179.194 329.366 0 -198.126 338.672 0 -216.954 347.175 0 -235.679 354.819 0 -254.28 361.549 0 -272.311 367.324 0 -289.587 372.132 0 -306.111 375.966 0 -321.88 378.816 0 -336.896 380.674 0 -351.158 381.532 0 -364.463 381.389 0 -376.607 380.272 0 -387.59 378.214 0 -397.413 375.252 0 -406.074 371.418 0 -413.575 366.746 0 -419.893 361.275 0 -424.977 355.058 0 -428.822 348.16 0 -431.43 340.647 0 -432.801 332.583 0 -432.934 324.034 0 -431.858 315.063 0 -429.741 305.731 0 -426.611 296.093 0 -422.468 286.204 0 -417.313 276.12 0 -411.144 265.894 0 -403.974 255.583 0 -396.034 245.238 0 -387.421 234.911 0 -378.134 224.648 0 -368.173 214.5 0 -357.538 204.514 0 -346.229 194.74 0 -334.419 185.222 0 -322.281 175.981 0 -309.815 167.035 0 -297.02 158.4 0 -283.898 150.093 0 -270.447 142.131 0 -256.731 134.531 0 -242.9 127.304 0 -228.962 120.461 0 -214.916 114.011 0 -200.763 107.964 0 -186.503 102.331 0 -172.149 97.1205 0 -157.782 92.3365 0 -143.416 87.9771 0 -129.051 84.0399 0 -114.687 80.5226 0 -100.324 77.4229 0 -85.9617 74.7384 0 -71.6083 72.4676 0 -57.2664 70.6098 0 -42.936 69.165 0 -28.6171 68.1327 0 -14.3096 67.5127 0 -0.0136773 67.3048 0 -0.176102 -51.5036 0 9.8436 -51.2022 0 19.6112 -50.2997 0 29.1266 -48.7949 0 38.3899 -46.6862 0 47.4011 -43.9723 0 56.1602 -40.6516 0 64.5491 -36.7229 0 72.2792 -32.1854 0 79.3375 -27.039 0 85.724 -21.2834 0 91.4386 -14.9183 0 96.4814 -7.94335 0 100.809 -0.358666 0 104.165 7.83039 0 106.505 16.6129 0 107.83 25.9779 0 108.14 35.9141 0 107.434 46.4105 0 105.708 57.456 0 102.855 69.0315 0 98.8306 81.1032 0 93.6352 93.6352 0 87.2687 106.592 0 79.7312 119.937 0 71.0226 133.636 0 61.1985 147.648 0 50.3147 161.91 0 38.3711 176.359 0 25.3677 190.926 0 11.3046 205.548 0 -3.81829 220.156 0 -19.8799 234.685 0 -36.5841 249.058 0 -53.9175 263.192 0 -71.8801 277.007 0 -90.4718 290.42 0 -109.693 303.349 0 -129.459 315.714 0 -149.265 327.442 0 -169.026 338.469 0 -188.744 348.733 0 -208.417 358.171 0 -228.046 366.719 0 -247.609 374.316 0 -266.625 380.914 0 -284.899 386.495 0 -302.43 391.047 0 -319.218 394.555 0 -335.263 397.006 0 -350.566 398.387 0 -364.9 398.692 0 -378.038 397.947 0 -389.981 396.188 0 -400.728 393.449 0 -410.28 389.765 0 -418.637 385.171 0 -425.767 379.704 0 -431.597 373.422 0 -436.123 366.393 0 -439.345 358.685 0 -441.262 350.367 0 -441.875 341.506 0 -441.214 332.171 0 -439.452 322.427 0 -436.619 312.335 0 -432.715 301.957 0 -427.741 291.355 0 -421.695 280.591 0 -414.59 269.725 0 -406.662 258.816 0 -398.011 247.917 0 -388.635 237.078 0 -378.536 226.352 0 -367.712 215.79 0 -356.164 205.443 0 -344.081 195.358 0 -331.651 185.56 0 -318.875 176.068 0 -305.753 166.903 0 -292.284 158.085 0 -278.469 149.633 0 -264.371 141.567 0 -250.15 133.899 0 -235.811 126.64 0 -221.354 119.8 0 -206.781 113.388 0 -192.09 107.413 0 -177.297 101.887 0 -162.492 96.8114 0 -147.69 92.1856 0 -132.891 88.0073 0 -118.096 84.2743 0 -103.303 80.9845 0 -88.5143 78.1358 0 -73.7348 75.7267 0 -58.9672 73.7564 0 -44.2115 72.2245 0 -29.4677 71.1303 0 -14.7358 70.4733 0 -0.0157875 70.253 0 -0.174378 -60.5387 0 10.447 -60.2356 0 20.818 -59.3289 0 30.9386 -57.8164 0 40.809 -55.6961 0 50.429 -52.9656 0 59.7987 -49.623 0 68.7998 -45.6659 0 77.1434 -41.0923 0 84.8164 -35.9 0 91.8188 -30.0868 0 98.1505 -23.6504 0 103.812 -16.5888 0 108.758 -8.89997 0 112.723 -0.586905 0 115.664 8.34239 0 117.579 17.8797 0 118.469 28.0168 0 118.335 38.7456 0 117.169 50.0576 0 114.849 61.9369 0 111.323 74.3516 0 106.592 87.2687 0 100.655 100.655 0 93.512 114.476 0 85.1636 128.7 0 75.6492 143.288 0 65.0087 158.178 0 53.2419 173.303 0 40.349 188.596 0 26.3298 203.992 0 11.1844 219.423 0 -4.97122 234.821 0 -21.8536 250.104 0 -39.45 265.186 0 -57.7602 279.978 0 -76.7843 294.393 0 -96.5223 308.343 0 -116.888 321.741 0 -137.362 334.507 0 -157.86 346.57 0 -178.379 357.86 0 -198.922 368.305 0 -219.487 377.835 0 -240.051 386.378 0 -260.099 393.88 0 -279.422 400.318 0 -298.019 405.671 0 -315.889 409.92 0 -333.033 413.044 0 -349.451 415.024 0 -364.891 415.849 0 -379.101 415.544 0 -392.08 414.147 0 -403.828 411.691 0 -414.346 408.212 0 -423.633 403.747 0 -431.65 398.332 0 -438.297 392.028 0 -443.571 384.904 0 -447.47 377.033 0 -449.996 368.484 0 -451.148 359.328 0 -450.957 349.637 0 -449.598 339.481 0 -447.104 328.93 0 -443.472 318.054 0 -438.704 306.922 0 -432.8 295.606 0 -425.77 284.174 0 -417.862 272.693 0 -409.178 261.215 0 -399.718 249.794 0 -389.481 238.482 0 -378.468 227.333 0 -366.678 216.399 0 -354.316 205.728 0 -341.585 195.35 0 -328.486 185.289 0 -315.019 175.569 0 -301.183 166.215 0 -286.978 157.251 0 -272.473 148.701 0 -257.834 140.578 0 -243.068 132.892 0 -228.175 125.65 0 -213.156 118.863 0 -198.01 112.539 0 -182.753 106.686 0 -167.486 101.309 0 -152.223 96.4065 0 -136.965 91.9763 0 -121.712 88.0175 0 -106.464 84.5286 0 -91.2214 81.5081 0 -75.9892 78.9548 0 -60.7697 76.8676 0 -45.5628 75.2455 0 -30.3685 74.0875 0 -15.1869 73.3927 0 -0.0179273 73.1599 0 -0.172098 -70.16 0 11.0516 -69.8568 0 22.0276 -68.9504 0 32.7557 -67.4379 0 43.236 -65.3164 0 53.4685 -62.583 0 63.4532 -59.2347 0 73.0721 -55.2686 0 82.0367 -50.6808 0 90.3338 -45.4672 0 97.9634 -39.6234 0 104.926 -33.1453 0 111.22 -26.0287 0 116.802 -18.2694 0 121.398 -9.86795 0 124.962 -0.829005 0 127.494 8.84245 0 128.995 19.1415 0 129.464 30.0631 0 128.896 41.6022 0 127.147 53.746 0 124.161 66.4657 0 119.937 79.7312 0 114.476 93.512 0 107.778 107.778 0 99.8417 122.498 0 90.6903 137.637 0 80.3457 153.133 0 68.808 168.92 0 56.0772 184.93 0 42.1531 201.096 0 27.036 217.352 0 10.835 233.628 0 -6.18283 249.84 0 -24.0052 265.893 0 -42.6323 281.694 0 -62.0639 297.149 0 -82.3001 312.164 0 -103.253 326.646 0 -124.391 340.508 0 -145.628 353.67 0 -166.962 366.054 0 -188.394 377.578 0 -209.923 388.165 0 -231.526 397.734 0 -252.651 406.223 0 -273.074 413.6 0 -292.794 419.839 0 -311.811 424.91 0 -330.127 428.787 0 -347.739 431.443 0 -364.368 432.86 0 -379.73 433.064 0 -393.825 432.091 0 -406.655 429.978 0 -418.218 426.76 0 -428.515 422.474 0 -437.495 417.158 0 -445.036 410.874 0 -451.13 403.693 0 -455.779 395.689 0 -458.983 386.934 0 -460.741 377.501 0 -461.083 367.462 0 -460.184 356.894 0 -458.073 345.878 0 -454.75 334.493 0 -450.216 322.82 0 -444.47 310.94 0 -437.524 298.932 0 -429.642 286.869 0 -420.93 274.805 0 -411.388 262.794 0 -401.017 250.889 0 -389.817 239.142 0 -377.787 227.606 0 -365.145 216.331 0 -352.106 205.352 0 -338.672 194.697 0 -324.843 184.398 0 -310.617 174.484 0 -295.996 164.987 0 -281.053 155.934 0 -265.966 147.341 0 -250.745 139.215 0 -235.389 131.563 0 -219.898 124.391 0 -204.272 117.708 0 -188.529 111.52 0 -172.775 105.83 0 -157.026 100.64 0 -141.283 95.947 0 -125.546 91.7523 0 -109.815 88.0551 0 -94.0899 84.8552 0 -78.3767 82.1518 0 -62.6774 79.9434 0 -46.9921 78.2282 0 -31.3207 77.0046 0 -15.6633 76.2709 0 -0.0199417 76.0254 0 -0.169216 -80.3677 0 11.6546 -80.0659 0 23.2339 -79.1644 0 34.5687 -77.6594 0 45.659 -75.5473 0 56.5048 -72.8244 0 67.1061 -69.4868 0 77.3454 -65.5309 0 86.9357 -60.9509 0 95.8638 -55.7405 0 104.13 -49.8933 0 111.734 -43.4029 0 118.675 -36.2629 0 124.908 -28.467 0 130.153 -20.0127 0 134.363 -10.9013 0 137.538 -1.1339 0 139.678 9.28796 0 140.784 20.363 0 140.847 32.0898 0 139.71 44.4589 0 137.306 57.4454 0 133.636 71.0226 0 128.7 85.1636 0 122.498 99.8417 0 115.03 115.03 0 106.299 130.696 0 96.3079 146.778 0 85.0567 163.211 0 72.5454 179.928 0 58.774 196.861 0 43.7427 213.944 0 27.5521 231.109 0 10.4489 248.265 0 -7.55573 265.314 0 -26.4618 282.154 0 -46.2694 298.687 0 -66.9784 314.811 0 -88.4989 330.429 0 -110.291 345.444 0 -132.265 359.769 0 -154.421 373.314 0 -176.759 385.991 0 -199.278 397.711 0 -221.953 408.386 0 -244.197 417.943 0 -265.77 426.343 0 -286.672 433.549 0 -306.904 439.525 0 -326.465 444.236 0 -345.355 447.644 0 -363.259 449.726 0 -379.859 450.506 0 -395.157 450.022 0 -409.152 448.31 0 -421.844 445.408 0 -433.234 441.352 0 -443.259 436.182 0 -451.773 429.96 0 -458.768 422.76 0 -464.244 414.655 0 -468.202 405.718 0 -470.641 396.023 0 -471.588 385.645 0 -471.21 374.666 0 -469.534 363.178 0 -466.56 351.275 0 -462.288 339.049 0 -456.718 326.592 0 -449.863 313.997 0 -442.009 301.345 0 -433.273 288.688 0 -423.655 276.08 0 -413.154 263.573 0 -401.772 251.218 0 -389.508 239.067 0 -376.588 227.169 0 -363.238 215.565 0 -349.459 204.293 0 -335.25 193.389 0 -320.611 182.892 0 -305.543 172.84 0 -290.126 163.267 0 -274.56 154.189 0 -258.853 145.61 0 -243.005 137.536 0 -227.016 129.971 0 -210.886 122.92 0 -194.634 116.387 0 -178.369 110.375 0 -162.11 104.885 0 -145.856 99.9193 0 -129.607 95.4786 0 -113.364 91.5642 0 -97.1265 88.1772 0 -80.9022 85.3179 0 -64.694 82.9838 0 -48.5018 81.1724 0 -32.3257 79.8813 0 -16.1657 79.1079 0 -0.0216754 78.8496 0 -0.165701 -91.0143 0 12.2527 -90.7154 0 24.4308 -89.8233 0 36.3685 -88.3335 0 48.0658 -86.2415 0 59.5227 -83.5428 0 70.7392 -80.2329 0 81.5988 -76.3069 0 91.8168 -71.7576 0 101.38 -66.5762 0 110.289 -60.7543 0 118.543 -54.2831 0 126.142 -47.154 0 133.04 -39.3585 0 138.951 -30.8911 0 143.827 -21.7491 0 147.669 -11.93 0 150.477 -1.4314 0 152.251 9.74925 0 152.982 21.6144 0 152.495 34.1585 0 150.717 47.3607 0 147.648 61.1985 0 143.288 75.6492 0 137.637 90.6903 0 130.696 106.299 0 122.446 122.446 0 112.87 139.072 0 101.967 156.113 0 89.739 173.503 0 76.1846 191.177 0 61.3041 209.07 0 45.1879 227.114 0 28.0567 245.215 0 9.92052 263.267 0 -9.22028 281.161 0 -29.3644 298.792 0 -50.5118 316.059 0 -72.5716 332.86 0 -94.9995 349.09 0 -117.705 364.646 0 -140.687 379.424 0 -163.943 393.324 0 -187.472 406.254 0 -211.247 418.121 0 -234.647 428.847 0 -257.42 438.375 0 -279.566 446.652 0 -301.082 453.628 0 -321.965 459.264 0 -342.217 463.519 0 -361.484 466.366 0 -379.412 467.825 0 -396.003 467.926 0 -411.255 466.7 0 -425.166 464.186 0 -437.736 460.422 0 -448.895 455.453 0 -458.468 449.341 0 -466.448 442.163 0 -472.834 433.993 0 -477.629 424.907 0 -480.832 414.977 0 -482.467 404.276 0 -482.678 392.896 0 -481.49 380.947 0 -478.904 368.542 0 -474.923 355.784 0 -469.549 342.767 0 -462.797 329.583 0 -454.98 316.314 0 -446.226 303.025 0 -436.535 289.777 0 -425.91 276.629 0 -414.352 263.631 0 -401.861 250.833 0 -388.668 238.285 0 -375.004 226.031 0 -360.869 214.117 0 -346.263 202.586 0 -331.187 191.483 0 -315.639 180.853 0 -299.713 170.737 0 -283.632 161.152 0 -267.406 152.099 0 -251.037 143.582 0 -234.523 135.603 0 -217.864 128.164 0 -201.08 121.27 0 -184.281 114.922 0 -167.485 109.122 0 -150.693 103.874 0 -133.904 99.1795 0 -117.119 95.0411 0 -100.337 91.4614 0 -83.5709 88.4409 0 -66.8233 85.9768 0 -50.0947 84.0658 0 -33.3851 82.7046 0 -16.6946 81.8898 0 -0.0230172 81.6182 0 -0.161587 -101.952 0 12.843 -101.658 0 25.6122 -100.78 0 38.1458 -99.313 0 50.444 -97.252 0 62.5067 -94.5915 0 74.3339 -91.3264 0 85.8105 -87.4508 0 96.655 -82.9557 0 106.855 -77.8304 0 116.409 -72.0639 0 125.319 -65.6455 0 133.584 -58.5643 0 141.156 -50.8096 0 147.747 -42.3727 0 153.307 -33.2472 0 157.838 -23.4265 0 161.339 -12.9044 0 163.81 -1.67431 0 165.242 10.2701 0 165.443 22.9275 0 164.332 36.2816 0 161.91 50.3147 0 158.178 65.0087 0 153.133 80.3457 0 146.778 96.3079 0 139.072 112.87 0 129.976 129.976 0 119.489 147.564 0 107.613 165.571 0 94.3474 183.936 0 79.6932 202.599 0 63.7264 221.496 0 46.6335 240.525 0 28.423 259.571 0 9.09762 278.514 0 -11.3323 297.25 0 -32.8659 315.681 0 -55.4145 333.709 0 -78.4458 351.22 0 -101.871 368.083 0 -125.689 384.166 0 -149.875 399.359 0 -174.422 413.575 0 -199.303 426.73 0 -223.884 438.743 0 -247.905 449.526 0 -271.366 458.996 0 -294.244 467.081 0 -316.526 473.746 0 -338.211 478.96 0 -358.918 482.702 0 -378.265 484.976 0 -396.253 485.79 0 -412.873 485.16 0 -428.108 483.123 0 -441.96 479.725 0 -454.347 475.017 0 -465.072 469.068 0 -474.126 461.958 0 -481.51 453.769 0 -487.23 444.575 0 -491.287 434.443 0 -493.699 423.444 0 -494.569 411.683 0 -493.914 399.3 0 -491.738 386.436 0 -488.077 373.202 0 -482.941 359.668 0 -476.345 345.9 0 -468.607 331.973 0 -459.857 317.979 0 -450.095 304.01 0 -439.339 290.15 0 -427.602 276.451 0 -414.883 262.959 0 -401.415 249.723 0 -387.429 236.79 0 -372.926 224.21 0 -357.905 212.031 0 -342.366 200.302 0 -326.309 189.072 0 -309.839 178.386 0 -293.21 168.262 0 -276.435 158.701 0 -259.513 149.708 0 -242.444 141.284 0 -225.228 133.431 0 -207.884 126.153 0 -190.522 119.452 0 -173.162 113.331 0 -155.802 107.792 0 -138.442 102.838 0 -121.084 98.4714 0 -103.727 94.6949 0 -86.3871 91.509 0 -69.0694 88.9107 0 -51.7742 86.896 0 -34.5016 85.4613 0 -17.2515 84.6029 0 -0.0240309 84.317 0 -0.156922 -113.182 0 13.4224 -112.893 0 26.7718 -112.034 0 39.8915 -110.598 0 52.7813 -108.579 0 65.4413 -105.97 0 77.8715 -102.767 0 89.9585 -98.9625 0 101.425 -94.5454 0 112.259 -89.503 0 122.459 -83.8222 0 132.027 -77.4902 0 140.962 -70.4938 0 149.215 -62.8202 0 156.496 -54.4576 0 162.755 -45.3955 0 167.992 -35.6235 0 172.209 -25.131 0 175.404 -13.9077 0 177.568 -1.94307 0 178.491 10.7659 0 178.088 24.2082 0 176.359 38.3711 0 173.303 53.2419 0 168.92 68.808 0 163.211 85.0567 0 156.113 101.967 0 147.564 119.489 0 137.564 137.564 0 126.114 156.132 0 113.218 175.14 0 98.8763 194.533 0 83.1458 214.254 0 66.1668 234.195 0 47.9455 254.225 0 28.4913 274.214 0 7.83866 294.059 0 -14.009 313.675 0 -36.9703 332.976 0 -60.5575 351.833 0 -84.6892 370.078 0 -109.358 387.541 0 -134.483 404.095 0 -160.045 419.674 0 -186.014 434.213 0 -211.781 447.63 0 -237.096 459.797 0 -261.957 470.583 0 -286.288 479.884 0 -310.041 487.681 0 -333.216 493.968 0 -355.426 498.734 0 -376.283 501.959 0 -395.787 503.616 0 -413.906 503.69 0 -430.59 502.219 0 -445.838 499.261 0 -459.561 494.875 0 -471.537 489.141 0 -481.757 482.147 0 -490.227 473.983 0 -496.966 464.72 0 -501.977 454.422 0 -505.265 443.15 0 -506.862 431.029 0 -506.773 418.237 0 -505.009 404.957 0 -501.696 391.303 0 -496.865 377.295 0 -490.528 362.949 0 -482.953 348.32 0 -474.246 333.548 0 -464.409 318.78 0 -453.506 304.138 0 -441.576 289.679 0 -428.618 275.446 0 -414.864 261.484 0 -400.542 247.843 0 -385.652 234.573 0 -370.194 221.725 0 -354.169 209.349 0 -337.577 197.496 0 -320.534 186.212 0 -303.328 175.518 0 -285.972 165.418 0 -268.466 155.915 0 -250.81 147.014 0 -233.004 138.72 0 -215.066 131.036 0 -197.108 123.966 0 -179.149 117.511 0 -161.189 111.673 0 -143.227 106.454 0 -125.264 101.855 0 -107.3 97.8777 0 -89.3553 94.5223 0 -71.4365 91.7853 0 -53.5441 89.6629 0 -35.678 88.1514 0 -17.8382 87.247 0 -0.0248245 86.9458 0 -0.151757 -124.702 0 13.9876 -124.422 0 27.9036 -123.586 0 41.5961 -122.188 0 55.0652 -120.222 0 68.3109 -117.68 0 81.3331 -114.556 0 94.0207 -110.842 0 106.102 -106.527 0 117.564 -101.594 0 128.407 -96.0293 0 138.632 -89.8172 0 148.237 -82.9427 0 157.175 -75.3905 0 165.153 -67.1459 0 172.122 -58.1942 0 178.082 -48.5208 0 183.033 -38.1112 0 186.975 -26.9508 0 189.898 -15.0251 0 191.577 -2.32621 0 191.92 11.1404 0 190.926 25.3677 0 188.596 40.349 0 184.93 56.0772 0 179.928 72.5454 0 173.503 89.739 0 165.571 107.613 0 156.132 126.114 0 145.19 145.19 0 132.751 164.792 0 118.817 184.873 0 103.42 205.378 0 86.6396 226.198 0 68.4794 247.191 0 48.9604 268.218 0 28.161 289.18 0 6.08875 310 0 -17.1892 330.601 0 -41.2699 350.844 0 -66.0864 370.524 0 -91.6211 389.435 0 -117.692 407.435 0 -144.25 424.473 0 -171.272 440.5 0 -198.218 455.43 0 -224.869 469.095 0 -251.222 481.316 0 -277.101 491.963 0 -302.397 501.025 0 -327.109 508.515 0 -350.876 514.434 0 -373.335 518.732 0 -394.485 521.348 0 -414.254 522.234 0 -432.525 521.429 0 -449.297 519.002 0 -464.471 515.025 0 -477.807 509.582 0 -489.295 502.767 0 -498.945 494.671 0 -506.802 485.372 0 -512.869 474.938 0 -517.135 463.438 0 -519.528 451.006 0 -520.037 437.842 0 -518.688 424.146 0 -515.757 410.032 0 -511.315 395.496 0 -505.369 380.529 0 -498.063 365.18 0 -489.453 349.62 0 -479.541 334.035 0 -468.469 318.577 0 -456.325 303.312 0 -443.108 288.292 0 -429.046 273.568 0 -414.366 259.189 0 -399.068 245.205 0 -383.153 231.667 0 -366.619 218.623 0 -349.467 206.124 0 -331.827 194.217 0 -314.017 182.922 0 -296.051 172.249 0 -277.929 162.204 0 -259.65 152.795 0 -241.216 144.031 0 -222.645 135.919 0 -204.053 128.463 0 -185.458 121.663 0 -166.862 115.518 0 -148.263 110.028 0 -129.662 105.192 0 -111.061 101.01 0 -92.4797 97.4806 0 -73.9289 94.6006 0 -55.4081 92.3665 0 -36.9172 90.7748 0 -18.4564 89.8221 0 -0.0255058 89.5048 0 -0.14614 -136.515 0 14.5357 -136.243 0 29.0013 -135.435 0 43.2505 -134.084 0 57.2833 -132.181 0 71.0998 -129.719 0 84.7 -126.691 0 97.9751 -123.089 0 110.66 -118.899 0 122.742 -114.104 0 134.221 -108.685 0 145.097 -102.627 0 155.371 -95.9107 0 164.993 -88.5203 0 173.672 -80.4374 0 181.359 -71.6431 0 188.053 -62.1186 0 193.756 -51.8451 0 198.466 -40.8038 0 202.173 -28.976 0 204.638 -16.3489 0 205.763 -2.92182 0 205.548 11.3046 0 203.992 26.3298 0 201.096 42.1531 0 196.861 58.774 0 191.177 76.1846 0 183.936 94.3474 0 175.14 113.218 0 164.792 132.751 0 152.901 152.901 0 139.467 173.619 0 124.498 194.851 0 108.008 216.491 0 90.0002 238.404 0 70.5063 260.456 0 49.6505 282.545 0 27.4447 304.586 0 3.9389 326.493 0 -20.5661 348.117 0 -46.0202 369.246 0 -72.3945 389.665 0 -99.3881 409.221 0 -126.921 427.847 0 -154.973 445.481 0 -183.099 462.017 0 -211.117 477.271 0 -239.025 491.048 0 -266.525 503.2 0 -293.434 513.704 0 -319.75 522.562 0 -345.152 529.759 0 -369.318 535.231 0 -392.247 538.898 0 -413.811 540.7 0 -433.804 540.677 0 -452.225 538.905 0 -468.97 535.462 0 -483.791 530.426 0 -496.676 523.876 0 -507.636 515.893 0 -516.716 506.574 0 -523.922 496.031 0 -529.228 484.375 0 -532.494 471.733 0 -533.697 458.249 0 -532.873 444.068 0 -530.415 429.303 0 -526.426 414.03 0 -520.907 398.321 0 -513.899 382.271 0 -505.418 366.015 0 -495.467 349.697 0 -484.248 333.444 0 -471.89 317.349 0 -458.394 301.499 0 -443.995 285.974 0 -428.93 270.828 0 -413.198 256.107 0 -396.8 241.857 0 -379.735 228.125 0 -362.005 214.957 0 -343.748 202.399 0 -325.31 190.473 0 -306.704 179.193 0 -287.933 168.573 0 -268.995 158.626 0 -249.89 149.364 0 -230.64 140.802 0 -211.369 132.944 0 -192.098 125.786 0 -172.826 119.326 0 -153.555 113.559 0 -134.283 108.482 0 -115.012 104.092 0 -95.7649 100.384 0 -76.5508 97.3568 0 -57.37 95.0069 0 -38.2222 93.3317 0 -19.1076 92.3283 0 -0.0261826 91.994 0 -0.14012 -148.618 0 15.0636 -148.358 0 30.0587 -147.582 0 44.8452 -146.284 0 59.4231 -144.456 0 73.7925 -142.089 0 87.9532 -139.175 0 101.8 -135.705 0 115.074 -131.664 0 127.763 -127.032 0 139.868 -121.79 0 151.388 -115.918 0 162.325 -109.398 0 172.628 -102.21 0 182.009 -94.3322 0 190.418 -85.7423 0 197.856 -76.4168 0 204.323 -66.3326 0 209.819 -55.4666 0 214.332 -43.7957 0 217.611 -31.3021 0 219.552 -17.9784 0 220.156 -3.81829 0 219.423 11.1844 0 217.352 27.036 0 213.944 43.7427 0 209.07 61.3041 0 202.599 79.6932 0 194.533 98.8763 0 184.873 118.817 0 173.619 139.467 0 160.771 160.771 0 146.317 182.672 0 130.219 205.073 0 112.478 227.863 0 93.1311 250.928 0 72.3244 274.156 0 50.0717 297.434 0 26.4092 320.65 0 1.55391 343.65 0 -24.4579 366.241 0 -51.5888 388.228 0 -79.4466 409.451 0 -107.927 429.796 0 -137.013 449.153 0 -166.334 467.388 0 -195.74 484.323 0 -225.224 499.775 0 -254.387 513.593 0 -282.976 525.718 0 -310.993 536.106 0 -338.144 544.708 0 -364.138 551.454 0 -388.975 556.266 0 -412.464 559.088 0 -434.306 559.962 0 -454.495 558.969 0 -472.935 556.186 0 -489.384 551.673 0 -503.833 545.476 0 -516.275 537.65 0 -526.696 528.328 0 -535.091 517.702 0 -541.447 505.962 0 -545.672 493.21 0 -547.749 479.459 0 -547.71 464.723 0 -545.892 449.116 0 -542.382 432.893 0 -537.186 416.322 0 -530.393 399.589 0 -522.04 382.731 0 -512.13 365.764 0 -500.848 348.737 0 -488.311 331.788 0 -474.519 315.065 0 -459.744 298.703 0 -444.258 282.76 0 -428.063 267.277 0 -411.157 252.295 0 -393.541 237.854 0 -375.214 223.996 0 -356.326 210.759 0 -337.238 198.171 0 -317.966 186.252 0 -298.512 175.024 0 -278.874 164.506 0 -259.052 154.719 0 -239.071 145.684 0 -219.072 137.407 0 -199.078 129.881 0 -179.09 123.097 0 -159.107 117.048 0 -139.13 111.726 0 -119.159 107.122 0 -99.215 103.233 0 -79.3065 100.054 0 -59.4335 97.584 0 -39.5959 95.8219 0 -19.7937 94.7656 0 -0.0269626 94.4133 0 -0.133745 -160.904 0 15.5681 -160.655 0 31.0698 -159.917 0 46.3713 -158.68 0 61.4725 -156.936 0 76.3736 -154.676 0 91.0745 -151.891 0 105.473 -148.573 0 119.318 -144.702 0 132.6 -140.259 0 145.317 -135.222 0 157.471 -129.57 0 169.06 -123.281 0 180.038 -116.333 0 190.117 -108.703 0 199.251 -100.363 0 207.438 -91.2858 0 214.68 -81.4437 0 220.976 -70.8093 0 226.314 -59.3552 0 230.432 -47.0584 0 233.222 -33.9044 0 234.685 -19.8799 0 234.821 -4.97122 0 233.628 10.835 0 231.109 27.5521 0 227.114 45.1879 0 221.496 63.7264 0 214.254 83.1458 0 205.378 103.42 0 194.851 124.498 0 182.672 146.317 0 168.815 168.815 0 153.218 191.914 0 135.879 215.53 0 116.83 239.574 0 96.1929 263.924 0 73.9784 288.434 0 50.2174 312.955 0 25.0923 337.334 0 -1.36632 361.409 0 -29.1187 385.018 0 -57.748 407.995 0 -87.1435 430.167 0 -117.289 451.358 0 -147.833 471.399 0 -178.63 490.13 0 -209.676 507.391 0 -240.511 523.036 0 -270.849 536.952 0 -300.69 549.033 0 -329.737 559.181 0 -357.695 567.327 0 -384.564 573.41 0 -410.098 577.386 0 -433.906 579.296 0 -455.983 579.215 0 -476.244 577.212 0 -494.484 573.325 0 -510.693 567.573 0 -524.826 559.987 0 -536.711 550.734 0 -546.333 540.081 0 -553.714 528.29 0 -558.993 515.437 0 -562.192 501.413 0 -563.312 486.109 0 -562.356 469.642 0 -559.327 452.453 0 -554.243 435.002 0 -547.496 417.569 0 -539.247 400.085 0 -529.498 382.443 0 -518.284 364.609 0 -505.626 346.764 0 -491.525 329.126 0 -476.328 311.882 0 -460.383 295.097 0 -443.69 278.808 0 -426.249 263.05 0 -408.06 247.86 0 -389.124 233.271 0 -369.591 219.319 0 -349.834 206.033 0 -329.869 193.443 0 -309.696 181.576 0 -289.315 170.46 0 -268.726 160.123 0 -247.957 150.592 0 -227.176 141.876 0 -206.411 133.963 0 -185.661 126.84 0 -164.927 120.496 0 -144.208 114.917 0 -123.506 110.092 0 -102.835 106.011 0 -82.2006 102.675 0 -61.6025 100.08 0 -41.0411 98.2276 0 -20.5163 97.1161 0 -0.0280485 96.7447 0 -0.127039 -173.103 0 16.0469 -172.868 0 32.0296 -172.17 0 47.8211 -171 0 63.4213 -169.348 0 78.8303 -167.205 0 94.0481 -164.563 0 108.976 -161.411 0 123.373 -157.73 0 137.228 -153.497 0 150.542 -148.689 0 163.313 -143.283 0 175.543 -137.255 0 187.184 -130.583 0 197.956 -123.239 0 207.811 -115.191 0 216.75 -106.409 0 224.772 -96.8607 0 231.878 -86.5145 0 238.056 -75.3389 0 243.034 -63.3062 0 246.701 -50.3947 0 249.058 -36.5841 0 250.104 -21.8536 0 249.84 -6.18283 0 248.265 10.4489 0 245.215 28.0567 0 240.525 46.6335 0 234.195 66.1668 0 226.198 86.6396 0 216.491 108.008 0 205.073 130.219 0 191.914 153.218 0 176.939 176.939 0 160.143 201.308 0 141.545 226.25 0 121.207 251.639 0 99.1363 277.316 0 75.3635 303.121 0 50.0728 328.898 0 23.2951 354.497 0 -4.93298 379.769 0 -34.2266 404.537 0 -64.4836 428.589 0 -95.6866 451.707 0 -127.456 473.695 0 -159.636 494.39 0 -192.221 513.632 0 -224.739 531.263 0 -256.891 547.125 0 -288.68 561.061 0 -319.768 572.931 0 -349.822 582.669 0 -378.84 590.227 0 -406.534 595.566 0 -432.441 598.707 0 -456.557 599.695 0 -478.806 598.571 0 -499.004 595.384 0 -517.141 590.18 0 -533.129 583.015 0 -546.626 574.043 0 -557.602 563.49 0 -566.122 551.579 0 -572.585 538.411 0 -577.059 523.964 0 -579.506 508.214 0 -579.535 491.305 0 -577.04 473.608 0 -572.058 455.512 0 -565.354 437.268 0 -557.244 418.86 0 -547.725 400.24 0 -536.638 381.425 0 -523.883 362.608 0 -509.46 344.009 0 -493.81 325.819 0 -477.374 308.109 0 -460.154 290.92 0 -442.149 274.291 0 -423.361 258.259 0 -403.791 242.86 0 -383.591 228.131 0 -363.135 214.103 0 -342.442 200.809 0 -321.511 188.28 0 -300.342 176.546 0 -278.935 165.639 0 -257.323 155.589 0 -235.708 146.405 0 -214.121 138.073 0 -192.564 130.578 0 -171.037 123.906 0 -149.539 118.042 0 -128.07 112.972 0 -106.637 108.684 0 -85.2405 105.178 0 -63.8819 102.452 0 -42.5607 100.505 0 -21.2769 99.3362 0 -0.030467 98.9444 0 -0.120014 -185.205 0 16.4977 -184.984 0 32.9338 -184.329 0 49.188 -183.231 0 65.2605 -181.679 0 81.1513 -179.665 0 96.8603 -177.178 0 112.293 -174.207 0 127.218 -170.733 0 141.626 -166.731 0 155.515 -162.176 0 168.887 -157.043 0 181.741 -151.308 0 194.032 -144.945 0 205.485 -137.925 0 216.055 -130.213 0 225.742 -121.772 0 234.546 -112.569 0 242.467 -102.568 0 249.493 -91.7326 0 255.346 -80.0312 0 259.912 -67.4354 0 263.192 -53.9175 0 265.186 -39.45 0 265.893 -24.0052 0 265.314 -7.55573 0 263.267 9.92052 0 259.571 28.423 0 254.225 47.9455 0 247.191 68.4794 0 238.404 90.0002 0 227.863 112.478 0 215.53 135.879 0 201.308 160.143 0 185.193 185.193 0 167.185 210.949 0 147.287 237.291 0 125.498 264.07 0 101.849 291.135 0 76.5299 318.331 0 49.5702 345.496 0 21.002 372.47 0 -8.84386 399.062 0 -39.8793 425.044 0 -72.0853 450.183 0 -105.043 474.261 0 -138.582 497.091 0 -172.695 518.487 0 -206.915 538.263 0 -240.947 556.224 0 -274.793 572.176 0 -308.05 585.947 0 -340.316 597.473 0 -371.591 606.712 0 -401.563 613.626 0 -429.731 618.196 0 -456.09 620.41 0 -480.545 620.266 0 -502.865 617.851 0 -523.039 613.298 0 -540.964 606.739 0 -556.247 598.265 0 -568.852 587.942 0 -578.85 575.84 0 -586.676 562.133 0 -592.4 547.104 0 -595.977 531.039 0 -596.924 514.122 0 -595.112 496.399 0 -590.581 477.906 0 -584.215 458.736 0 -576.376 439.089 0 -567.06 419.178 0 -556.029 399.204 0 -543.134 379.334 0 -528.374 359.728 0 -512.266 340.529 0 -495.326 321.809 0 -477.554 303.623 0 -458.954 286.023 0 -439.532 269.057 0 -419.288 252.767 0 -398.376 237.198 0 -377.179 222.383 0 -355.712 208.353 0 -333.977 195.137 0 -311.973 182.766 0 -289.699 171.27 0 -267.196 160.678 0 -244.698 150.996 0 -222.244 142.213 0 -199.834 134.312 0 -177.469 127.28 0 -155.147 121.101 0 -132.87 115.761 0 -110.633 111.249 0 -88.4355 107.562 0 -66.2769 104.697 0 -44.1574 102.652 0 -22.077 101.424 0 -0.0356695 101.01 0 -0.112684 -197.208 0 16.9185 -197.003 0 33.7778 -196.395 0 50.4653 -195.374 0 66.981 -193.931 0 83.3249 -192.054 0 99.497 -189.735 0 115.407 -186.961 0 130.835 -183.712 0 145.77 -179.961 0 160.213 -175.683 0 174.164 -170.851 0 187.622 -165.439 0 200.543 -159.42 0 212.663 -152.762 0 223.937 -145.427 0 234.365 -137.375 0 243.947 -128.569 0 252.684 -118.969 0 260.561 -108.536 0 267.298 -97.2336 0 272.78 -85.0264 0 277.007 -71.8801 0 279.978 -57.7602 0 281.694 -42.6323 0 282.154 -26.4618 0 281.161 -9.22028 0 278.514 9.09762 0 274.214 28.4913 0 268.218 48.9604 0 260.456 70.5063 0 250.928 93.1311 0 239.574 116.83 0 226.25 141.545 0 210.949 167.185 0 193.662 193.662 0 174.351 220.866 0 153.013 248.674 0 129.674 276.962 0 104.494 305.575 0 77.4992 334.326 0 48.7181 363.029 0 18.4385 391.477 0 -13.2627 419.441 0 -46.3658 446.691 0 -80.4349 472.995 0 -115.292 498.123 0 -150.93 521.842 0 -186.884 543.924 0 -222.86 564.147 0 -258.858 582.287 0 -294.392 598.154 0 -328.975 611.674 0 -362.608 622.802 0 -394.979 631.492 0 -425.593 637.676 0 -454.445 641.282 0 -481.373 642.257 0 -505.98 640.74 0 -528.25 636.967 0 -548.124 631.161 0 -565.393 623.333 0 -580.034 613.343 0 -592.051 601.064 0 -601.456 586.769 0 -608.253 571.124 0 -612.444 554.806 0 -614.085 538.048 0 -613.188 520.47 0 -609.776 501.649 0 -604.301 481.472 0 -596.951 460.431 0 -587.724 439.084 0 -576.561 417.874 0 -563.425 396.917 0 -548.316 376.274 0 -531.771 356.008 0 -514.329 336.196 0 -495.99 316.916 0 -476.762 298.248 0 -456.661 280.254 0 -435.687 262.992 0 -414.002 246.52 0 -392.003 230.873 0 -369.707 216.074 0 -347.115 202.149 0 -324.225 189.122 0 -301.04 177.017 0 -277.602 165.857 0 -254.178 155.65 0 -230.812 146.382 0 -207.504 138.042 0 -184.254 130.616 0 -161.061 124.093 0 -137.927 118.46 0 -114.839 113.707 0 -91.7947 109.827 0 -68.793 106.816 0 -45.8342 104.669 0 -22.9182 103.379 0 -0.0451107 102.943 0 -0.105061 -209.113 0 17.3069 -208.924 0 34.5574 -208.366 0 51.6464 -207.429 0 68.5738 -206.101 0 85.3398 -204.373 0 101.944 -202.235 0 118.302 -199.673 0 134.203 -196.667 0 149.639 -193.189 0 164.609 -189.211 0 179.113 -184.706 0 193.152 -179.648 0 206.683 -174.007 0 219.451 -167.75 0 231.414 -160.834 0 242.571 -153.218 0 252.922 -144.86 0 262.468 -135.718 0 271.195 -125.75 0 278.821 -114.913 0 285.229 -103.168 0 290.42 -90.4718 0 294.393 -76.7843 0 297.149 -62.0639 0 298.687 -46.2694 0 298.792 -29.3644 0 297.25 -11.3323 0 294.059 7.83866 0 289.18 28.161 0 282.545 49.6505 0 274.156 72.3244 0 263.924 96.1929 0 251.639 121.207 0 237.291 147.287 0 220.866 174.351 0 202.306 202.306 0 181.605 231.047 0 158.781 260.468 0 133.931 290.418 0 107.071 320.697 0 78.2265 351.105 0 47.6585 381.427 0 15.4362 411.429 0 -18.4213 440.876 0 -53.4943 469.518 0 -89.6109 497.076 0 -126.765 523.27 0 -164.476 547.828 0 -202.441 570.503 0 -240.661 591.054 0 -278.562 609.266 0 -315.574 625.03 0 -351.694 638.263 0 -386.62 648.883 0 -419.866 656.82 0 -451.426 662.006 0 -481.051 664.392 0 -508.131 664.098 0 -532.638 661.331 0 -554.59 656.287 0 -574.055 648.988 0 -591.041 639.332 0 -605.443 627.228 0 -616.636 612.946 0 -624.515 597.109 0 -629.166 580.351 0 -631.478 562.911 0 -631.688 544.485 0 -629.785 524.731 0 -625.512 503.597 0 -618.764 481.596 0 -609.545 459.304 0 -598.139 437.166 0 -584.727 415.262 0 -569.309 393.609 0 -552.389 372.242 0 -534.472 351.265 0 -515.559 330.8 0 -495.669 310.965 0 -474.837 291.849 0 -453.062 273.535 0 -430.522 256.097 0 -407.646 239.572 0 -384.453 223.973 0 -360.944 209.315 0 -337.119 195.612 0 -312.978 182.879 0 -288.569 171.129 0 -264.179 160.366 0 -239.859 150.581 0 -215.607 141.767 0 -191.423 133.916 0 -167.308 127.019 0 -143.261 121.069 0 -119.269 116.057 0 -95.3273 111.973 0 -71.4354 108.809 0 -47.5937 106.555 0 -23.8019 105.203 0 -0.0602453 104.741 0 -0.097158 -220.92 0 17.6609 -220.749 0 35.2682 -220.244 0 52.7245 -219.395 0 70.0299 -218.192 0 87.1844 -216.623 0 104.188 -214.677 0 120.96 -212.343 0 137.304 -209.597 0 153.209 -206.412 0 168.678 -202.759 0 183.708 -198.609 0 198.301 -193.935 0 212.416 -188.707 0 225.809 -182.888 0 238.44 -176.434 0 250.309 -169.301 0 261.416 -161.443 0 271.76 -152.815 0 281.33 -143.373 0 289.843 -133.07 0 297.182 -121.859 0 303.349 -109.693 0 308.343 -96.5223 0 312.164 -82.3001 0 314.811 -66.9784 0 316.059 -50.5118 0 315.681 -32.8659 0 313.675 -14.009 0 310 6.08875 0 304.586 27.4447 0 297.434 50.0717 0 288.434 73.9784 0 277.316 99.1363 0 264.07 125.498 0 248.674 153.013 0 231.047 181.605 0 211.18 211.18 0 189.078 241.64 0 164.763 272.838 0 138.237 304.58 0 109.524 336.666 0 78.8537 368.879 0 46.2889 400.974 0 11.8461 432.704 0 -24.1007 463.792 0 -61.3984 493.913 0 -100.041 522.732 0 -139.51 549.934 0 -179.483 575.256 0 -219.96 598.443 0 -260.301 619.255 0 -299.87 637.518 0 -338.667 653.071 0 -376.355 665.774 0 -412.398 675.597 0 -446.789 682.553 0 -479.233 686.656 0 -509.005 687.93 0 -536.073 686.406 0 -560.474 682.119 0 -582.354 675.207 0 -601.725 665.875 0 -618.436 654.329 0 -631.573 640.723 0 -640.984 625.163 0 -646.785 607.754 0 -650.21 588.694 0 -651.585 568.316 0 -650.883 546.96 0 -647.516 524.93 0 -641.242 502.46 0 -632.068 479.775 0 -620.528 457.055 0 -606.959 434.36 0 -591.361 411.731 0 -574.175 389.23 0 -555.841 367.017 0 -536.359 345.273 0 -515.772 324.173 0 -494.147 303.844 0 -471.486 284.396 0 -447.988 265.93 0 -424.145 248.481 0 -399.978 232.049 0 -375.487 216.635 0 -350.672 202.237 0 -325.534 188.856 0 -300.122 176.492 0 -274.734 165.144 0 -249.419 154.81 0 -224.177 145.488 0 -199.009 137.179 0 -173.915 129.879 0 -148.893 123.587 0 -123.937 118.299 0 -99.0422 114 0 -74.2096 110.676 0 -49.4387 108.312 0 -24.7297 106.893 0 -0.0825282 106.406 0 -0.0889924 -232.584 0 17.9784 -232.432 0 35.9057 -231.984 0 53.693 -231.229 0 71.3403 -230.156 0 88.8476 -228.755 0 106.215 -227.014 0 123.366 -224.921 0 140.118 -222.453 0 156.46 -219.58 0 172.394 -216.274 0 187.919 -212.504 0 203.035 -208.242 0 217.704 -203.458 0 231.696 -198.114 0 244.971 -192.162 0 257.531 -185.555 0 269.375 -178.246 0 280.503 -170.187 0 290.903 -161.33 0 300.295 -151.625 0 308.565 -141.02 0 315.714 -129.459 0 321.741 -116.888 0 326.646 -103.253 0 330.429 -88.4989 0 332.86 -72.5716 0 333.709 -55.4145 0 332.976 -36.9703 0 330.601 -17.1892 0 326.493 3.9389 0 320.65 26.4092 0 312.955 50.2174 0 303.121 75.3635 0 291.135 101.849 0 276.962 129.674 0 260.468 158.781 0 241.64 189.078 0 220.47 220.47 0 196.908 252.818 0 170.947 285.946 0 142.603 319.671 0 112.059 353.78 0 79.3644 388.008 0 44.5316 422.089 0 7.86386 455.719 0 -30.5149 488.521 0 -70.5972 520.11 0 -111.806 550.129 0 -153.777 578.296 0 -196.512 604.343 0 -239.348 628.002 0 -281.624 649.012 0 -323.339 667.114 0 -364.045 682.094 0 -403.032 693.991 0 -440.289 702.941 0 -475.574 709.05 0 -508.292 712.199 0 -538.417 712.149 0 -565.875 708.697 0 -590.39 702.155 0 -611.937 693.201 0 -630.464 682.494 0 -645.656 670.008 0 -657.463 655.035 0 -665.914 636.855 0 -671.332 615.601 0 -673.802 592.588 0 -673.329 569.215 0 -669.998 546.321 0 -663.843 523.665 0 -654.87 500.883 0 -643.516 477.725 0 -630.054 454.258 0 -614.486 430.608 0 -597.183 406.917 0 -578.515 383.407 0 -558.483 360.318 0 -537.163 337.88 0 -514.678 316.26 0 -491.03 295.605 0 -466.456 276.047 0 -441.54 257.623 0 -416.31 240.315 0 -390.766 224.107 0 -364.906 208.981 0 -338.731 194.922 0 -312.29 181.913 0 -285.872 169.948 0 -259.524 159.034 0 -233.248 149.176 0 -207.042 140.38 0 -180.907 132.653 0 -154.843 126.001 0 -128.856 120.421 0 -102.949 115.895 0 -77.1209 112.403 0 -51.3722 109.924 0 -25.703 108.438 0 -0.113152 107.924 0 -0.0806696 -243.84 0 18.2578 -243.707 0 36.4672 -243.316 0 54.5477 -242.657 0 72.4991 -241.718 0 90.3216 -240.489 0 108.015 -238.958 0 125.509 -237.113 0 142.632 -234.93 0 159.376 -232.379 0 175.74 -229.431 0 191.725 -226.055 0 207.331 -222.221 0 222.522 -217.9 0 237.082 -213.051 0 250.974 -207.625 0 264.199 -201.573 0 276.757 -194.845 0 288.648 -187.391 0 299.859 -179.162 0 310.118 -170.104 0 319.312 -160.158 0 327.442 -149.265 0 334.507 -137.362 0 340.508 -124.391 0 345.444 -110.291 0 349.09 -94.9995 0 351.22 -78.4458 0 351.833 -60.5575 0 350.844 -41.2699 0 348.117 -20.5661 0 343.65 1.55391 0 337.334 25.0923 0 328.898 50.0728 0 318.331 76.5299 0 305.575 104.494 0 290.418 133.931 0 272.838 164.763 0 252.818 196.908 0 230.248 230.248 0 205.108 264.625 0 177.409 299.88 0 147.254 335.802 0 114.672 372.111 0 79.6709 408.519 0 42.4672 444.698 0 3.14832 480.237 0 -38.2773 514.716 0 -81.1638 547.739 0 -125.105 578.971 0 -170.102 608.09 0 -215.486 634.78 0 -260.588 658.748 0 -305.41 679.711 0 -349.344 697.427 0 -391.426 711.91 0 -431.644 723.264 0 -469.87 731.568 0 -505.795 736.673 0 -539.405 738.314 0 -570.427 736.263 0 -597.84 730.823 0 -621.546 722.677 0 -641.687 712.49 0 -659.123 700.238 0 -673.997 685.215 0 -686.174 666.701 0 -694.242 644.856 0 -697.825 621.058 0 -696.991 596.768 0 -693.184 572.857 0 -686.996 549.052 0 -678.427 524.946 0 -667.536 500.286 0 -654.356 475.243 0 -638.888 450.063 0 -621.483 424.976 0 -602.494 400.171 0 -581.92 375.826 0 -559.86 352.118 0 -536.469 329.23 0 -511.749 307.346 0 -485.992 286.635 0 -459.909 267.141 0 -433.53 248.844 0 -406.858 231.721 0 -379.89 215.752 0 -352.629 200.914 0 -325.117 187.187 0 -297.625 174.563 0 -270.196 163.049 0 -242.831 152.651 0 -215.53 143.376 0 -188.292 135.23 0 -161.12 128.222 0 -134.038 122.347 0 -107.057 117.585 0 -80.1777 113.914 0 -53.3996 111.311 0 -26.7228 109.753 0 -0.14729 109.217 0 -0.0723845 -254.642 0 18.4985 -254.529 0 36.9514 -254.196 0 55.2864 -253.635 0 73.5036 -252.832 0 91.6028 -251.778 0 109.584 -250.462 0 127.383 -248.87 0 144.839 -246.979 0 161.947 -244.758 0 178.705 -242.177 0 195.114 -239.206 0 211.175 -235.814 0 226.853 -231.971 0 241.947 -227.636 0 256.425 -222.758 0 270.286 -217.286 0 283.53 -211.168 0 296.158 -204.354 0 308.156 -196.793 0 319.262 -188.427 0 329.366 -179.194 0 338.469 -169.026 0 346.57 -157.86 0 353.67 -145.628 0 359.769 -132.265 0 364.646 -117.705 0 368.083 -101.871 0 370.078 -84.6892 0 370.524 -66.0864 0 369.246 -46.0202 0 366.241 -24.4579 0 361.409 -1.36632 0 354.497 23.2951 0 345.496 49.5702 0 334.326 77.4992 0 320.697 107.071 0 304.58 138.237 0 285.946 170.947 0 264.625 205.108 0 240.588 240.588 0 213.835 277.251 0 184.359 314.894 0 152.159 353.216 0 117.24 391.911 0 79.7268 430.631 0 39.6688 468.951 0 -2.92477 506.435 0 -47.3717 542.651 0 -93.2432 577.172 0 -140.539 609.574 0 -188.537 639.469 0 -236.514 666.6 0 -284.47 690.749 0 -331.693 711.706 0 -377.053 729.339 0 -420.534 743.539 0 -462.057 754.208 0 -501.43 761.314 0 -538.644 764.861 0 -573.307 764.859 0 -603.95 761.377 0 -630.433 754.532 0 -652.993 744.443 0 -673.06 731.319 0 -690.872 715.45 0 -706.202 697.131 0 -716.689 676.663 0 -721.703 654.35 0 -721.346 630.498 0 -717.842 605.388 0 -712.099 579.26 0 -704.116 552.347 0 -693.668 524.923 0 -680.615 497.363 0 -664.957 470.064 0 -647.161 443.351 0 -627.694 417.265 0 -606.556 391.78 0 -583.799 366.895 0 -559.509 342.776 0 -533.685 319.649 0 -506.681 297.722 0 -479.362 277.059 0 -451.767 257.649 0 -423.895 239.478 0 -395.747 222.534 0 -367.322 206.806 0 -338.663 192.282 0 -310.022 178.954 0 -281.442 166.821 0 -252.921 155.884 0 -224.46 146.141 0 -196.059 137.592 0 -167.72 130.235 0 -139.487 124.063 0 -111.377 119.057 0 -83.3913 115.196 0 -55.5287 112.459 0 -27.7896 110.824 0 -0.174093 110.271 0 -0.0643358 -264.992 0 18.6998 -264.898 0 37.357 -264.625 0 55.9073 -264.162 0 74.3508 -263.499 0 92.6874 -262.623 0 110.917 -261.525 0 128.98 -260.191 0 146.732 -258.598 0 164.164 -256.715 0 181.278 -254.512 0 198.074 -251.957 0 214.551 -249.021 0 230.678 -245.672 0 246.271 -241.869 0 261.3 -237.56 0 275.763 -232.694 0 289.661 -227.217 0 302.995 -221.077 0 315.752 -214.222 0 327.679 -206.595 0 338.672 -198.126 0 348.733 -188.744 0 357.86 -178.379 0 366.054 -166.962 0 373.314 -154.421 0 379.424 -140.687 0 384.166 -125.689 0 387.541 -109.358 0 389.435 -91.6211 0 389.665 -72.3945 0 388.228 -51.5888 0 385.018 -29.1187 0 379.769 -4.93298 0 372.47 21.002 0 363.029 48.7181 0 351.105 78.2265 0 336.666 109.524 0 319.671 142.603 0 299.88 177.409 0 277.251 213.835 0 251.772 251.772 0 223.291 291.023 0 191.771 331.275 0 157.213 372.205 0 119.657 413.452 0 79.1219 454.589 0 35.6147 495.181 0 -10.2168 534.762 0 -57.9661 572.783 0 -107.633 608.682 0 -158.325 641.975 0 -209.149 672.498 0 -260.106 700.162 0 -310.534 724.841 0 -359.382 746.158 0 -406.636 763.647 0 -452.066 776.912 0 -495.107 786.149 0 -535.734 791.859 0 -573.682 794.49 0 -607.963 793.702 0 -638.481 788.594 0 -665.273 778.311 0 -688.558 763.467 0 -708.374 746.138 0 -724.631 728.429 0 -736.414 710.871 0 -743.478 691.807 0 -745.874 669.429 0 -744.745 642.948 0 -740.558 613.554 0 -733.312 582.663 0 -722.99 551.488 0 -709.582 520.681 0 -693.087 490.794 0 -674.305 462.237 0 -654.036 434.83 0 -632.278 408.248 0 -608.921 382.232 0 -583.787 356.902 0 -556.875 332.515 0 -528.606 309.31 0 -500.016 287.377 0 -471.152 266.728 0 -442.013 247.375 0 -412.599 229.328 0 -382.91 212.598 0 -352.99 197.196 0 -323.095 183.119 0 -293.268 170.351 0 -263.508 158.876 0 -233.817 148.677 0 -204.194 139.738 0 -174.642 132.041 0 -145.21 125.571 0 -115.921 120.312 0 -86.7731 116.249 0 -57.7676 113.367 0 -28.904 111.651 0 -0.18245 111.086 0 -0.0567222 -274.888 0 18.861 -274.814 0 37.6828 -274.602 0 56.4085 -274.24 0 75.0382 -273.717 0 93.5718 -273.023 0 112.009 -272.148 0 130.297 -271.077 0 148.303 -269.789 0 166.02 -268.252 0 183.45 -266.435 0 200.591 -264.308 0 217.444 -261.841 0 233.982 -259.002 0 250.034 -255.75 0 265.575 -252.032 0 280.603 -247.797 0 295.119 -242.99 0 309.122 -237.559 0 322.602 -231.451 0 335.319 -224.607 0 347.175 -216.954 0 358.171 -208.417 0 368.305 -198.922 0 377.578 -188.394 0 385.991 -176.759 0 393.324 -163.943 0 399.359 -149.875 0 404.095 -134.483 0 407.435 -117.692 0 409.221 -99.3881 0 409.451 -79.4466 0 407.995 -57.748 0 404.537 -34.2266 0 399.062 -8.84386 0 391.477 18.4385 0 381.427 47.6585 0 368.879 78.8537 0 353.78 112.059 0 335.802 147.254 0 314.894 184.359 0 291.023 223.291 0 263.877 263.877 0 233.372 305.817 0 199.505 348.802 0 162.231 392.474 0 121.531 436.381 0 77.4114 480.062 0 30.4225 523.011 0 -19.0909 564.614 0 -71.1288 604.234 0 -124.532 641.326 0 -178.14 675.708 0 -231.953 707.287 0 -285.495 735.915 0 -338.004 761.128 0 -389.471 782.348 0 -439.351 799.069 0 -486.311 811.46 0 -530.291 820.03 0 -571.354 825.227 0 -609.739 826.607 0 -645.47 823.084 0 -678.132 813.631 0 -705.248 798.943 0 -726.404 781.434 0 -741.841 763.55 0 -754.075 745.901 0 -763.774 726.548 0 -770.87 703.372 0 -773.858 675.462 0 -772.121 644.251 0 -765.668 611.439 0 -755.171 578.436 0 -741.05 545.846 0 -723.307 514.136 0 -703.163 483.66 0 -681.839 454.333 0 -659.335 425.956 0 -635.337 398.371 0 -609.348 371.649 0 -581.36 345.943 0 -551.851 321.397 0 -521.986 298.095 0 -491.817 276.084 0 -461.345 255.413 0 -430.569 236.132 0 -399.49 218.289 0 -368.158 201.93 0 -336.871 187.059 0 -305.681 173.638 0 -274.587 161.627 0 -243.588 150.983 0 -212.686 141.668 0 -181.881 133.64 0 -151.213 126.869 0 -120.697 121.349 0 -90.3346 117.073 0 -60.1242 114.037 0 -30.0665 112.235 0 -0.161252 111.662 0 -0.0497424 -284.331 0 18.9816 -284.278 0 37.9274 -284.127 0 56.7879 -283.867 0 75.5629 -283.488 0 94.2524 -282.979 0 112.857 -282.33 0 131.327 -281.528 0 149.545 -280.551 0 167.505 -279.367 0 185.208 -277.947 0 202.654 -276.259 0 219.841 -274.275 0 236.746 -271.962 0 253.217 -269.279 0 269.228 -266.174 0 284.779 -262.595 0 299.871 -258.487 0 314.503 -253.8 0 328.666 -248.479 0 342.135 -242.464 0 354.819 -235.679 0 366.719 -228.046 0 377.835 -219.487 0 388.165 -209.923 0 397.711 -199.278 0 406.254 -187.472 0 413.575 -174.422 0 419.674 -160.045 0 424.473 -144.25 0 427.847 -126.921 0 429.796 -107.927 0 430.167 -87.1435 0 428.589 -64.4836 0 425.044 -39.8793 0 419.441 -13.2627 0 411.429 15.4362 0 400.974 46.2889 0 388.008 79.3644 0 372.111 114.672 0 353.216 152.159 0 331.275 191.771 0 305.817 233.372 0 276.714 276.714 0 243.958 321.542 0 207.361 367.515 0 166.846 414.123 0 122.419 460.839 0 74.5426 507.116 0 23.5089 552.347 0 -30.6827 595.916 0 -86.6445 637.262 0 -142.989 676.036 0 -199.717 711.944 0 -256.47 744.683 0 -312.681 773.921 0 -368.341 799.309 0 -422.703 820.516 0 -473.934 837.322 0 -521.951 849.565 0 -567 857.088 0 -610 859.773 0 -651.041 857.528 0 -689.399 850.281 0 -720.737 838.349 0 -744.333 822.441 0 -760.637 803.278 0 -774.373 781.334 0 -786.798 756.744 0 -797.762 729.616 0 -804.02 700.25 0 -804.243 669.307 0 -798.449 637.491 0 -787.929 605.355 0 -773.496 573.034 0 -755.149 540.591 0 -734.204 508.162 0 -711.98 476.166 0 -688.474 445.096 0 -663.402 415.376 0 -636.308 387.029 0 -607.185 359.934 0 -576.499 333.985 0 -545.384 309.212 0 -513.893 285.715 0 -482.025 263.593 0 -449.781 242.948 0 -417.16 223.879 0 -384.228 206.483 0 -351.382 190.774 0 -318.689 176.682 0 -286.147 164.135 0 -253.758 153.059 0 -221.52 143.382 0 -189.435 135.031 0 -157.501 127.959 0 -125.718 122.168 0 -94.087 117.668 0 -62.6066 114.468 0 -31.2774 112.575 0 -0.0993883 112 0 -0.043594 -293.313 0 19.0607 -293.282 0 38.0898 -293.193 0 57.0436 -293.037 0 75.9222 -292.803 0 94.7256 -292.482 0 113.454 -292.063 0 132.064 -291.535 0 150.451 -290.875 0 168.611 -290.053 0 186.544 -289.038 0 204.249 -287.801 0 221.727 -286.311 0 238.955 -284.539 0 255.798 -282.444 0 272.234 -279.972 0 288.263 -277.073 0 303.885 -273.694 0 319.101 -269.783 0 333.899 -265.288 0 348.077 -260.146 0 361.549 -254.28 0 374.316 -247.609 0 386.378 -240.051 0 397.734 -231.526 0 408.386 -221.953 0 418.121 -211.247 0 426.73 -199.303 0 434.213 -186.014 0 440.5 -171.272 0 445.481 -154.973 0 449.153 -137.013 0 451.358 -117.289 0 451.707 -95.6866 0 450.183 -72.0853 0 446.691 -46.3658 0 440.876 -18.4213 0 432.704 11.8461 0 422.089 44.5316 0 408.519 79.6709 0 391.911 117.24 0 372.205 157.213 0 348.802 199.505 0 321.542 243.958 0 290.406 290.406 0 254.956 338.538 0 215.012 387.762 0 170.581 437.454 0 122.131 487.015 0 69.9553 535.923 0 14.0543 583.665 0 -44.1391 629.702 0 -103.192 673.388 0 -163.103 714.047 0 -223.369 751.102 0 -283.183 784.544 0 -342.535 814.569 0 -400.87 841.259 0 -456.829 863.684 0 -510.351 880.394 0 -561.353 890.078 0 -609.521 893.33 0 -654.826 892.121 0 -696.785 888.349 0 -732.502 881.542 0 -761.493 868.861 0 -783.98 847.43 0 -802.272 817.397 0 -816.984 783.101 0 -828.049 749.174 0 -833.998 718.325 0 -834.233 689.527 0 -828.767 661.325 0 -818.863 632.46 0 -805.31 602.227 0 -788.108 570.015 0 -767.91 535.594 0 -745.366 500.258 0 -720.476 465.681 0 -693.487 433.291 0 -664.792 403.075 0 -634.396 374.495 0 -602.634 347.063 0 -570.327 320.717 0 -537.512 295.616 0 -504.189 271.919 0 -470.357 249.788 0 -436.017 229.389 0 -401.262 210.878 0 -366.658 194.283 0 -332.298 179.496 0 -298.183 166.408 0 -264.312 154.906 0 -230.686 144.876 0 -197.301 136.207 0 -164.081 128.83 0 -130.994 122.761 0 -98.0416 118.026 0 -65.2227 114.652 0 -32.5374 112.665 0 0.0140878 112.091 0 -0.0383209 -301.681 0 19.0983 -301.671 0 38.1695 -301.643 0 57.1752 -301.59 0 76.1154 -301.5 0 94.9902 -301.364 0 113.799 -301.174 0 132.506 -300.917 0 151.019 -300.571 0 169.334 -300.107 0 187.451 -299.495 0 205.371 -298.706 0 223.093 -297.71 0 240.597 -296.479 0 257.766 -294.971 0 274.58 -293.135 0 291.038 -290.921 0 307.142 -288.277 0 322.89 -285.151 0 338.274 -281.492 0 353.111 -277.239 0 367.324 -272.311 0 380.914 -266.625 0 393.88 -260.099 0 406.223 -252.651 0 417.943 -244.197 0 428.847 -234.647 0 438.743 -223.884 0 447.63 -211.781 0 455.43 -198.218 0 462.017 -183.099 0 467.388 -166.334 0 471.399 -147.833 0 473.695 -127.456 0 474.261 -105.043 0 472.995 -80.4349 0 469.518 -53.4943 0 463.792 -24.1007 0 455.719 7.86386 0 444.698 42.4672 0 430.631 79.7268 0 413.452 119.657 0 392.474 162.231 0 367.515 207.361 0 338.538 254.956 0 304.754 304.754 0 265.84 356.169 0 221.802 408.574 0 173.194 461.37 0 120.364 514.032 0 63.3108 566.046 0 3.32671 616.848 0 -58.2974 665.67 0 -121.561 711.692 0 -185.552 754.211 0 -248.816 793.212 0 -311.333 828.923 0 -373.142 861.422 0 -434.336 889.433 0 -494.918 910.988 0 -553.953 924.3 0 -607.93 930.141 0 -656.51 931.123 0 -700.009 929.761 0 -740.318 925.373 0 -777.752 914.077 0 -811.852 891.942 0 -837.826 859.07 0 -854.399 821.163 0 -861.75 784.31 0 -863.802 751.996 0 -862.16 722.634 0 -856.83 694.06 0 -848.269 664.472 0 -836.765 633.073 0 -822.317 599.237 0 -804.278 562.751 0 -781.997 525.049 0 -755.474 487.975 0 -725.899 453.114 0 -695.165 420.543 0 -663.296 389.789 0 -630.429 360.419 0 -596.896 332.349 0 -562.713 305.673 0 -527.87 280.488 0 -492.339 256.951 0 -456.115 235.254 0 -419.332 215.587 0 -382.777 197.99 0 -346.584 182.357 0 -310.752 168.577 0 -275.294 156.521 0 -240.211 146.043 0 -205.496 136.996 0 -170.96 129.288 0 -136.528 122.939 0 -102.199 117.981 0 -67.9726 114.447 0 -33.8496 112.368 0 0.170308 111.776 0 -0.0336692 -309.371 0 19.0954 -309.381 0 38.1683 -309.413 0 57.1851 -309.46 0 76.1456 -309.511 0 95.0501 -309.557 0 113.898 -309.59 0 132.659 -309.598 0 151.254 -309.56 0 169.68 -309.447 0 187.937 -309.231 0 206.026 -308.882 0 223.946 -308.374 0 241.68 -307.676 0 259.126 -306.749 0 276.268 -305.544 0 293.106 -304.01 0 309.639 -302.097 0 325.868 -299.755 0 341.786 -296.933 0 357.229 -293.571 0 372.132 -289.587 0 386.495 -284.899 0 400.318 -279.422 0 413.6 -273.074 0 426.343 -265.77 0 438.375 -257.42 0 449.526 -247.905 0 459.797 -237.096 0 469.095 -224.869 0 477.271 -211.117 0 484.323 -195.74 0 490.13 -178.63 0 494.39 -159.636 0 497.091 -138.582 0 498.123 -115.292 0 497.076 -89.6109 0 493.913 -61.3984 0 488.521 -30.5149 0 480.237 3.14832 0 468.951 39.6688 0 454.589 79.1219 0 436.381 121.531 0 414.123 166.846 0 387.762 215.012 0 356.169 265.84 0 318.88 318.88 0 275.904 373.655 0 227.777 429.632 0 174.836 486.138 0 117.082 542.475 0 55.74 597.965 0 -7.96565 652.026 0 -74.0347 704.098 0 -141.317 753.618 0 -207.981 800.011 0 -274.003 842.697 0 -339.863 881.055 0 -406.735 914.114 0 -474.672 940.718 0 -542.031 959.796 0 -602.633 971.374 0 -655.886 976.275 0 -702.689 975.308 0 -748.432 968.556 0 -794.014 955.385 0 -838.458 935.15 0 -871.567 908.392 0 -890.63 877.289 0 -896.015 844.136 0 -895.851 810.388 0 -893.465 775.877 0 -888.851 740.248 0 -881.691 703.324 0 -871.785 665.426 0 -859.133 626.957 0 -842.362 588.32 0 -820.099 549.901 0 -792.345 512.086 0 -760.818 475.252 0 -728.254 439.741 0 -694.689 405.88 0 -660.224 373.966 0 -625.109 344.001 0 -589.356 315.838 0 -552.916 289.342 0 -515.612 264.557 0 -477.426 241.653 0 -438.527 220.802 0 -399.911 202.061 0 -361.746 185.378 0 -324.038 170.694 0 -286.85 157.904 0 -250.201 146.839 0 -214.074 137.326 0 -178.153 129.252 0 -142.307 122.625 0 -106.537 117.465 0 -70.8417 113.791 0 -35.2222 111.625 0 0.321924 110.987 0 -0.0293507 -316.382 0 19.0529 -316.411 0 38.088 -316.503 0 57.0758 -316.647 0 76.0164 -316.836 0 94.9097 -317.06 0 113.756 -317.311 0 132.528 -317.579 0 151.163 -317.842 0 169.656 -318.073 0 188.009 -318.245 0 206.221 -318.33 0 224.292 -318.301 0 242.208 -318.13 0 259.883 -317.778 0 277.304 -317.198 0 294.47 -316.34 0 311.381 -315.156 0 328.037 -313.596 0 344.432 -311.612 0 360.427 -309.144 0 375.966 -306.111 0 391.047 -302.43 0 405.671 -298.019 0 419.839 -292.794 0 433.549 -286.672 0 446.652 -279.566 0 458.996 -271.366 0 470.583 -261.957 0 481.316 -251.222 0 491.048 -239.025 0 499.775 -225.224 0 507.391 -209.676 0 513.632 -192.221 0 518.487 -172.695 0 521.842 -150.93 0 523.27 -126.765 0 522.732 -100.041 0 520.11 -70.5972 0 514.716 -38.2773 0 506.435 -2.92477 0 495.181 35.6147 0 480.062 77.4114 0 460.839 122.419 0 437.454 170.581 0 408.574 221.802 0 373.655 275.904 0 332.7 332.7 0 285.927 391.796 0 233.472 452.228 0 175.337 512.934 0 113.047 573.043 0 48.132 632.455 0 -19.4096 691.264 0 -88.8379 749.305 0 -158.976 804.906 0 -229.81 855.851 0 -301.496 900.147 0 -374.416 937.754 0 -448.59 969.633 0 -522.55 996.58 0 -590.782 1016.98 0 -652.76 1027.5 0 -708.888 1024.96 0 -761.6 1011.18 0 -811.302 992.946 0 -857.344 977.151 0 -892.943 965.238 0 -916.295 951.102 0 -927.662 928.109 0 -932.839 892.959 0 -934.194 848.823 0 -931.727 799.618 0 -925.268 748.911 0 -914.71 699.315 0 -900.053 653.277 0 -881.112 612.395 0 -857.703 574.857 0 -829.825 538.004 0 -798.409 499.677 0 -764.939 460.654 0 -729.433 422.778 0 -692.38 387.721 0 -654.979 355.686 0 -617.282 326.116 0 -579.149 298.475 0 -540.042 272.596 0 -499.911 248.575 0 -458.94 226.514 0 -418.242 206.49 0 -378.003 188.555 0 -338.239 172.759 0 -299.145 159.055 0 -260.77 147.264 0 -223.095 137.197 0 -185.672 128.723 0 -148.318 121.819 0 -111.031 116.477 0 -73.8133 112.686 0 -36.6639 110.439 0 0.417162 109.725 0 -0.0250772 -322.715 0 18.972 -322.763 0 37.9304 -322.912 0 56.8501 -323.152 0 75.7311 -323.475 0 94.5734 -323.873 0 113.377 -324.338 0 132.121 -324.859 0 150.753 -325.417 0 169.27 -325.986 0 187.674 -326.538 0 205.964 -327.049 0 224.139 -327.492 0 242.189 -327.841 0 260.044 -328.058 0 277.692 -328.097 0 295.133 -327.911 0 312.368 -327.453 0 329.396 -326.674 0 346.212 -325.528 0 362.701 -323.956 0 378.816 -321.88 0 394.555 -319.218 0 409.92 -315.889 0 424.91 -311.811 0 439.525 -306.904 0 453.628 -301.082 0 467.081 -294.244 0 479.884 -286.288 0 491.963 -277.101 0 503.2 -266.525 0 513.593 -254.387 0 523.036 -240.511 0 531.263 -224.739 0 538.263 -206.915 0 543.924 -186.884 0 547.828 -164.476 0 549.934 -139.51 0 550.129 -111.806 0 547.739 -81.1638 0 542.651 -47.3717 0 534.762 -10.2168 0 523.011 30.4225 0 507.116 74.5426 0 487.015 122.131 0 461.37 173.194 0 429.632 227.777 0 391.796 285.927 0 347.408 347.408 0 296.184 411.199 0 238.123 476.143 0 175.477 541.334 0 110.501 606.869 0 43.1933 673.095 0 -26.9079 739.963 0 -100.538 805.104 0 -177.708 865.311 0 -257.322 917.721 0 -336.704 962.497 0 -415.734 1001.36 0 -494.196 1035.75 0 -571.275 1063.2 0 -646.895 1078.44 0 -719.655 1076.45 0 -781.153 1059.96 0 -829.989 1039.42 0 -866.871 1025.43 0 -899.202 1019.98 0 -928.95 1013.12 0 -955.909 994.067 0 -975.532 957.326 0 -985.958 907.7 0 -987.202 851.167 0 -980.505 793.058 0 -966.644 736.914 0 -945.62 685.969 0 -920.571 642.28 0 -894.634 603.199 0 -867.81 564.9 0 -838.786 524.251 0 -805.473 482.164 0 -767.845 441.01 0 -727.208 402.959 0 -686.759 368.381 0 -646.644 336.72 0 -606.593 307.429 0 -565.587 280.24 0 -523.529 255.078 0 -480.595 231.878 0 -437.85 210.662 0 -395.472 191.543 0 -353.496 174.634 0 -312.314 159.939 0 -272.03 147.316 0 -232.619 136.611 0 -193.533 127.7 0 -154.546 120.521 0 -115.658 115.017 0 -76.871 111.131 0 -38.1835 108.807 0 0.404252 107.989 0 -0.0205605 -328.37 0 18.8537 -328.437 0 37.6975 -328.641 0 56.5107 -328.974 0 75.2934 -329.429 0 94.0456 -329.997 0 112.767 -330.67 0 131.442 -331.44 0 150.03 -332.286 0 168.529 -333.184 0 186.939 -334.11 0 205.261 -335.04 0 223.494 -335.948 0 241.629 -336.809 0 259.613 -337.589 0 277.436 -338.242 0 295.1 -338.724 0 312.603 -338.988 0 329.946 -338.989 0 347.125 -338.681 0 364.047 -338.009 0 380.674 -336.896 0 397.006 -335.263 0 413.044 -333.033 0 428.787 -330.127 0 444.236 -326.465 0 459.264 -321.965 0 473.746 -316.526 0 487.681 -310.041 0 501.025 -302.397 0 513.704 -293.434 0 525.718 -282.976 0 536.952 -270.849 0 547.125 -256.891 0 556.224 -240.947 0 564.147 -222.86 0 570.503 -202.441 0 575.256 -179.483 0 578.296 -153.777 0 578.971 -125.105 0 577.172 -93.2432 0 572.783 -57.9661 0 564.614 -19.0909 0 552.347 23.5089 0 535.923 69.9553 0 514.032 120.364 0 486.138 174.836 0 452.228 233.472 0 411.199 296.184 0 362.359 362.359 0 305.708 431.299 0 244.037 502.369 0 180.136 575.21 0 114.006 649.528 0 43.9773 724.768 0 -32.6082 798.851 0 -115.784 869.144 0 -203.361 933.161 0 -289.985 989.688 0 -375.413 1038.17 0 -460.406 1077.98 0 -547.824 1107.66 0 -637.941 1125.1 0 -727.725 1128.36 0 -798.976 1119.13 0 -848.662 1102.77 0 -878.701 1084.7 0 -909.14 1066.58 0 -945.311 1044.83 0 -986.594 1015.52 0 -1019.38 976.866 0 -1038.09 931.291 0 -1042.77 881.701 0 -1036.1 830.631 0 -1019.76 779.592 0 -993.74 729.917 0 -963.802 682.565 0 -935.691 636.986 0 -909.408 592.251 0 -881.916 547.631 0 -848.381 503.564 0 -808.742 460.911 0 -764.877 420.484 0 -721.378 382.703 0 -678.452 347.784 0 -635.824 315.918 0 -592.453 286.97 0 -548.24 260.573 0 -503.323 236.365 0 -458.53 214.195 0 -414.001 194.127 0 -369.787 176.231 0 -326.432 160.532 0 -284.08 146.992 0 -242.705 135.565 0 -201.748 126.184 0 -160.977 118.731 0 -120.394 113.085 0 -79.9983 109.126 0 -39.7898 106.732 0 0.231423 105.781 0 -0.0155125 -333.347 0 18.699 -333.431 0 37.3909 -333.689 0 56.0602 -334.114 0 74.7068 -334.697 0 93.3308 -335.431 0 111.932 -336.308 0 130.499 -337.32 0 149.002 -338.447 0 167.44 -339.669 0 185.813 -340.961 0 204.121 -342.302 0 222.363 -343.667 0 240.535 -345.035 0 258.597 -346.371 0 276.543 -347.633 0 294.374 -348.778 0 312.089 -349.761 0 329.688 -350.54 0 347.168 -351.072 0 364.459 -351.302 0 381.532 -351.158 0 398.387 -350.566 0 415.024 -349.451 0 431.443 -347.739 0 447.644 -345.355 0 463.519 -342.217 0 478.96 -338.211 0 493.968 -333.216 0 508.515 -327.109 0 522.562 -319.75 0 536.106 -310.993 0 549.033 -300.69 0 561.061 -288.68 0 572.176 -274.793 0 582.287 -258.858 0 591.054 -240.661 0 598.443 -219.96 0 604.343 -196.512 0 608.09 -170.102 0 609.574 -140.539 0 608.682 -107.633 0 604.234 -71.1288 0 595.916 -30.6827 0 583.665 14.0543 0 566.046 63.3108 0 542.475 117.082 0 512.934 175.337 0 476.143 238.123 0 431.299 305.708 0 378.4 378.4 0 319.867 456.148 0 258.117 537.48 0 193.151 620.564 0 123.03 703.721 0 44.666 786.147 0 -41.9797 867.352 0 -135.075 946.469 0 -230.142 1019.33 0 -326.975 1080.06 0 -425.432 1123.29 0 -524.967 1150.36 0 -625.528 1167.49 0 -724.404 1180.69 0 -805.332 1188.69 0 -865.599 1182.99 0 -906.775 1154.96 0 -945.247 1105.03 0 -985.373 1046.23 0 -1026.69 992.471 0 -1058.91 951.577 0 -1077.84 919.596 0 -1083.5 891.221 0 -1078.56 861.631 0 -1064.68 827.347 0 -1041.87 785.121 0 -1014.39 733.251 0 -986.523 676.22 0 -958.274 620.057 0 -927.739 569.816 0 -891.89 524.857 0 -850.687 482.48 0 -805.537 440.294 0 -759.877 398.65 0 -713.863 359.31 0 -667.512 323.941 0 -620.89 292.786 0 -574.005 265.061 0 -526.921 239.976 0 -480.028 217.088 0 -433.393 196.305 0 -387.064 177.55 0 -341.559 160.836 0 -297.015 146.293 0 -253.413 134.062 0 -210.331 124.173 0 -167.598 116.448 0 -125.214 110.683 0 -83.1787 106.672 0 -41.4916 104.212 0 -0.153096 103.099 0 -0.00978053 -337.615 0 18.5092 -337.717 0 37.0131 -338.027 0 55.5019 -338.539 0 73.9756 -339.245 0 92.4343 -340.138 0 110.878 -341.211 0 129.298 -342.456 0 147.677 -343.854 0 166.012 -345.387 0 184.304 -347.033 0 202.552 -348.77 0 220.758 -350.578 0 238.917 -352.435 0 257.005 -354.311 0 275.021 -356.164 0 292.963 -357.955 0 310.832 -359.64 0 328.627 -361.181 0 346.346 -362.534 0 363.94 -363.651 0 381.389 -364.463 0 398.692 -364.9 0 415.849 -364.891 0 432.86 -364.368 0 449.726 -363.259 0 466.366 -361.484 0 482.702 -358.918 0 498.734 -355.426 0 514.434 -350.876 0 529.759 -345.152 0 544.708 -338.144 0 559.181 -329.737 0 572.931 -319.768 0 585.947 -308.05 0 598.154 -294.392 0 609.266 -278.562 0 619.255 -260.301 0 628.002 -239.348 0 634.78 -215.486 0 639.469 -188.537 0 641.975 -158.325 0 641.326 -124.532 0 637.262 -86.6445 0 629.702 -44.1391 0 616.848 3.32671 0 597.965 55.74 0 573.043 113.047 0 541.334 175.477 0 502.369 244.037 0 456.148 319.867 0 403.44 403.44 0 345.012 492.565 0 280.865 584.384 0 210.177 676.442 0 131.641 768.648 0 45.2414 861.766 0 -49.6523 955.817 0 -154.578 1044.35 0 -269.606 1117.57 0 -390.992 1166.57 0 -504.661 1194.53 0 -609.265 1213.39 0 -705.24 1234.62 0 -795.199 1255.22 0 -879.578 1257.67 0 -957.357 1224.21 0 -1017.88 1154.49 0 -1058.32 1072.33 0 -1079.17 1003.24 0 -1091.24 961.246 0 -1098.97 938.057 0 -1102.36 922.83 0 -1101.75 905.872 0 -1097.34 880.674 0 -1089.12 841.274 0 -1074.31 784.452 0 -1050.1 717.967 0 -1016.48 652.323 0 -976.614 596.308 0 -935.514 548.697 0 -893.246 504.643 0 -849.371 459.814 0 -802.815 414.446 0 -753.53 371.127 0 -702.178 332.317 0 -651.248 298.539 0 -600.976 268.915 0 -551.338 242.549 0 -502.181 218.819 0 -453.478 197.377 0 -405.25 177.893 0 -357.695 160.293 0 -310.867 144.86 0 -264.762 131.903 0 -219.286 121.544 0 -174.401 113.553 0 -130.107 107.658 0 -86.4031 103.585 0 -43.2901 101.062 0 -0.767871 99.817 0 -0.00375414 -341.147 0 18.286 -341.264 0 36.5678 -341.623 0 54.8416 -342.217 0 73.1075 -343.039 0 91.3655 -344.082 0 109.616 -345.34 0 127.853 -346.804 0 146.069 -348.459 0 164.261 -350.286 0 182.43 -352.266 0 200.576 -354.379 0 218.699 -356.606 0 236.797 -358.928 0 254.863 -361.316 0 272.896 -363.732 0 290.895 -366.137 0 308.86 -368.493 0 326.791 -370.761 0 344.687 -372.904 0 362.518 -374.874 0 380.272 -376.607 0 397.947 -378.038 0 415.544 -379.101 0 433.064 -379.73 0 450.506 -379.859 0 467.825 -379.412 0 484.976 -378.265 0 501.959 -376.283 0 518.732 -373.335 0 535.231 -369.318 0 551.454 -364.138 0 567.327 -357.695 0 582.669 -349.822 0 597.473 -340.316 0 611.674 -328.975 0 625.03 -315.574 0 637.518 -299.87 0 649.012 -281.624 0 658.748 -260.588 0 666.6 -236.514 0 672.498 -209.149 0 675.708 -178.14 0 676.036 -142.989 0 673.388 -103.192 0 665.67 -58.2974 0 652.026 -7.96565 0 632.455 48.132 0 606.869 110.501 0 575.21 180.136 0 537.48 258.117 0 492.565 345.012 0 439.354 439.354 0 377.848 539.168 0 308.209 642.549 0 230.697 748.01 0 145.316 854.219 0 48.8086 959.381 0 -66.786 1057.68 0 -201.83 1141.22 0 -348.671 1202.72 0 -478.541 1243.39 0 -588.685 1270.56 0 -682.728 1291.35 0 -782.414 1305.31 0 -891.368 1304.41 0 -1006.01 1280.48 0 -1088.9 1234.12 0 -1130.1 1178.14 0 -1131.06 1126.16 0 -1123.82 1085.66 0 -1121.48 1052.12 0 -1124.01 1019.63 0 -1128.94 983.171 0 -1134.72 940.069 0 -1141.34 888.069 0 -1139.2 826.284 0 -1118.68 759.295 0 -1079.77 693.054 0 -1030.57 632.609 0 -983.923 577.741 0 -940.01 526.325 0 -896.703 476.467 0 -848.811 428.314 0 -796.098 383.064 0 -739.756 341.865 0 -684.273 305.081 0 -630.076 272.51 0 -577.127 243.925 0 -525.183 218.867 0 -474.205 196.644 0 -424.152 176.56 0 -374.591 158.349 0 -325.409 142.337 0 -276.622 128.891 0 -228.572 118.17 0 -181.401 109.925 0 -135.108 103.861 0 -89.6931 99.6839 0 -45.1567 97.098 0 -1.49864 95.8085 0 0.00204159 -343.94 0 18.0313 -344.073 0 36.0591 -344.478 0 54.0857 -345.148 0 72.1109 -346.079 0 90.1348 -347.262 0 108.157 -348.693 0 126.178 -350.364 0 144.193 -352.26 0 162.204 -354.365 0 180.211 -356.661 0 198.213 -359.129 0 216.21 -361.753 0 234.203 -364.515 0 252.199 -367.387 0 270.198 -370.335 0 288.2 -373.324 0 306.205 -376.318 0 324.214 -379.282 0 342.225 -382.18 0 360.227 -384.97 0 378.214 -387.59 0 396.188 -389.981 0 414.147 -392.08 0 432.091 -393.825 0 450.022 -395.157 0 467.926 -396.003 0 485.79 -396.253 0 503.616 -395.787 0 521.348 -394.485 0 538.898 -392.247 0 556.266 -388.975 0 573.41 -384.564 0 590.227 -378.84 0 606.712 -371.591 0 622.802 -362.608 0 638.263 -351.694 0 653.071 -338.667 0 667.114 -323.339 0 679.711 -305.41 0 690.749 -284.47 0 700.162 -260.106 0 707.287 -231.953 0 711.944 -199.717 0 714.047 -163.103 0 711.692 -121.561 0 704.098 -74.0347 0 691.264 -19.4096 0 673.095 43.1933 0 649.528 114.006 0 620.564 193.151 0 584.384 280.865 0 539.168 377.848 0 484.918 484.918 0 420.632 602.042 0 344.718 724.233 0 257.156 844.712 0 154.481 957.16 0 28.2212 1059.31 0 -122.008 1150.99 0 -287.52 1231.74 0 -435.661 1296.94 0 -563.303 1339 0 -673.606 1350.86 0 -785.531 1338.95 0 -902.238 1323.2 0 -1020.61 1323.76 0 -1108.03 1343.93 0 -1155.84 1363.65 0 -1165.4 1361.22 0 -1166.66 1324.82 0 -1171.88 1261.77 0 -1181.01 1181.63 0 -1190.77 1093.53 0 -1199.11 1005.53 0 -1206.03 925.508 0 -1203.08 858.747 0 -1181.84 800.203 0 -1142.3 742.249 0 -1092.03 678.719 0 -1043.07 611.989 0 -995.577 547.528 0 -947.896 490.254 0 -895.999 440.253 0 -839.704 395.121 0 -780.03 352.585 0 -720.814 312.414 0 -662.423 275.846 0 -604.991 244.104 0 -549.323 217.232 0 -495.553 194.103 0 -443.55 173.55 0 -391.937 155.003 0 -340.349 138.722 0 -288.821 125.027 0 -238.137 114.051 0 -188.619 105.563 0 -140.266 99.2926 0 -93.0777 94.9683 0 -47.0552 92.319 0 -2.19794 91.0732 0 0.00708153 -345.996 0 17.7469 -346.143 0 35.4914 -346.591 0 53.2405 -347.333 0 70.9941 -348.364 0 88.7524 -349.679 0 106.515 -351.272 0 124.285 -353.136 0 142.067 -355.259 0 159.86 -357.625 0 177.666 -360.218 0 195.485 -363.021 0 213.315 -366.018 0 231.161 -369.194 0 249.04 -372.523 0 266.957 -375.975 0 284.91 -379.517 0 302.901 -383.117 0 320.928 -386.743 0 338.992 -390.364 0 357.099 -393.939 0 375.252 -397.413 0 393.449 -400.728 0 411.691 -403.828 0 429.978 -406.655 0 448.31 -409.152 0 466.7 -411.255 0 485.16 -412.873 0 503.69 -413.906 0 522.234 -414.254 0 540.7 -413.811 0 559.088 -412.464 0 577.386 -410.098 0 595.566 -406.534 0 613.626 -401.563 0 631.492 -394.979 0 648.883 -386.62 0 665.774 -376.355 0 682.094 -364.045 0 697.427 -349.344 0 711.706 -331.693 0 724.841 -310.534 0 735.915 -285.495 0 744.683 -256.47 0 751.102 -223.369 0 754.211 -185.552 0 753.618 -141.317 0 749.305 -88.8379 0 739.963 -26.9079 0 724.768 43.9773 0 703.721 123.03 0 676.442 210.177 0 642.549 308.209 0 602.042 420.632 0 549.314 549.314 0 475.438 686.56 0 380.299 821.213 0 264.215 943.281 0 127.959 1052.97 0 -28.4332 1155.73 0 -200.106 1256.01 0 -368.806 1344.05 0 -532.786 1399.86 0 -688.693 1404.58 0 -816.413 1371.05 0 -912.593 1343.77 0 -979.57 1367.75 0 -1041.73 1448.56 0 -1105.56 1537.01 0 -1170.56 1580.11 0 -1225.92 1548.9 0 -1267.2 1461.13 0 -1294.4 1339.94 0 -1307.11 1206.9 0 -1305.07 1079.34 0 -1288.28 973.847 0 -1262.44 901.05 0 -1233.24 847.756 0 -1200.7 794.816 0 -1162.98 726.564 0 -1117.17 647.689 0 -1063.23 570.248 0 -1003.45 505.07 0 -943.367 452.231 0 -883.247 406.271 0 -822.865 362.003 0 -761.388 318.588 0 -698.737 278.317 0 -635.466 243.475 0 -574.896 214.543 0 -517.583 190.195 0 -463.281 169.043 0 -409.445 150.301 0 -355.397 134.02 0 -301.188 120.311 0 -247.929 109.187 0 -196.076 100.468 0 -145.628 93.9519 0 -96.5859 89.4383 0 -48.9493 86.7253 0 -2.7183 85.6113 0 0.0108406 -347.314 0 17.4349 -347.475 0 34.8687 -347.962 0 52.3123 -348.771 0 69.7657 -349.896 0 87.2288 -351.332 0 104.702 -353.076 0 122.189 -355.121 0 139.704 -357.456 0 157.247 -360.066 0 174.816 -362.937 0 192.414 -366.053 0 210.039 -369.401 0 227.697 -372.965 0 245.417 -376.724 0 263.204 -380.65 0 281.058 -384.714 0 298.979 -388.888 0 316.967 -393.145 0 335.023 -397.454 0 353.17 -401.781 0 371.418 -406.074 0 389.765 -410.28 0 408.212 -414.346 0 426.76 -418.218 0 445.408 -421.844 0 464.186 -425.166 0 483.123 -428.108 0 502.219 -430.59 0 521.429 -432.525 0 540.677 -433.804 0 559.962 -434.306 0 579.296 -433.906 0 598.707 -432.441 0 618.196 -429.731 0 637.676 -425.593 0 656.82 -419.866 0 675.597 -412.398 0 693.991 -403.032 0 711.91 -391.426 0 729.339 -377.053 0 746.158 -359.382 0 761.128 -338.004 0 773.921 -312.681 0 784.544 -283.183 0 793.212 -248.816 0 800.011 -207.981 0 804.906 -158.976 0 805.104 -100.538 0 798.851 -32.6082 0 786.147 44.666 0 768.648 131.641 0 748.01 230.697 0 724.233 344.718 0 686.56 475.438 0 617.864 617.864 0 517.927 764.57 0 390.491 908.399 0 244.708 1044.56 0 80.9938 1169.47 0 -99.5165 1279.33 0 -292.555 1367.02 0 -497.712 1423.08 0 -704.265 1438.81 0 -847.873 1425.3 0 -917.811 1413.42 0 -922.82 1434.27 0 -954.187 1491.76 0 -1036.19 1552.02 0 -1166.15 1578.57 0 -1285.15 1551.24 0 -1369.09 1481.62 0 -1418 1384.92 0 -1435.02 1275.47 0 -1422.11 1165.13 0 -1379.26 1065.33 0 -1328.14 983.769 0 -1290.39 913.196 0 -1266.02 842.645 0 -1242.55 763.293 0 -1200.16 678.873 0 -1138.6 597.664 0 -1064.65 527.112 0 -994.883 467.381 0 -930.06 414.879 0 -868.602 366.183 0 -804.585 320.503 0 -737.44 278.958 0 -668.112 242.662 0 -602.263 211.799 0 -540.838 185.616 0 -483.516 163.326 0 -426.963 144.318 0 -370.291 128.237 0 -313.552 114.743 0 -257.896 103.578 0 -203.793 94.6386 0 -151.244 87.8392 0 -100.247 83.0939 0 -50.803 80.3169 0 -2.91225 79.4226 0 0.0127937 -347.894 0 17.0971 -348.069 0 34.1954 -348.593 0 51.3077 -349.462 0 68.434 -350.673 0 85.5744 -352.222 0 102.729 -354.105 0 119.905 -356.317 0 137.122 -358.849 0 154.38 -361.687 0 171.681 -364.817 0 189.022 -368.227 0 206.406 -371.902 0 223.837 -375.83 0 241.356 -379.991 0 258.968 -384.362 0 276.673 -388.917 0 294.472 -393.633 0 312.364 -398.486 0 330.351 -403.452 0 348.473 -408.497 0 366.746 -413.575 0 385.171 -418.637 0 403.747 -423.633 0 422.474 -428.515 0 441.352 -433.234 0 460.422 -437.736 0 479.725 -441.96 0 499.261 -445.838 0 519.002 -449.297 0 538.905 -452.225 0 558.969 -454.495 0 579.215 -455.983 0 599.695 -456.557 0 620.41 -456.09 0 641.282 -454.445 0 662.006 -451.426 0 682.553 -446.789 0 702.941 -440.289 0 723.264 -431.644 0 743.539 -420.534 0 763.647 -406.636 0 782.348 -389.471 0 799.309 -368.341 0 814.569 -342.535 0 828.923 -311.333 0 842.697 -274.003 0 855.851 -229.81 0 865.311 -177.708 0 869.144 -115.784 0 867.352 -41.9797 0 861.766 45.2414 0 854.219 145.316 0 844.712 257.156 0 821.213 380.299 0 764.57 517.927 0 674.54 674.54 0 551.449 852.393 0 396.095 1034.15 0 208.516 1192.39 0 -6.26711 1301.74 0 -229.371 1365.63 0 -458.987 1408.28 0 -684.097 1453.37 0 -838.59 1502.02 0 -911.447 1532.76 0 -912.54 1523.59 0 -944.966 1472.8 0 -1036.15 1406.8 0 -1183.08 1353.99 0 -1319.74 1329.21 0 -1419.12 1321.07 0 -1481.26 1315.16 0 -1508.8 1298.62 0 -1503.41 1262.96 0 -1465.09 1200.39 0 -1416.28 1107.3 0 -1379.42 996.668 0 -1354.52 885.633 0 -1328.88 788.741 0 -1282.31 705.463 0 -1214.53 629.816 0 -1133.08 556.462 0 -1056.32 485.741 0 -985.079 420.924 0 -917.756 365.072 0 -848.295 318.121 0 -776.119 277.755 0 -702.136 241.672 0 -631.805 209.014 0 -566.036 180.377 0 -504.545 156.401 0 -444.387 137.054 0 -384.775 121.371 0 -325.743 108.322 0 -267.987 97.2241 0 -211.793 88.0763 0 -157.16 80.9545 0 -104.089 75.935 0 -52.58 73.0938 0 -2.63232 72.5072 0 0.0125194 -347.76 0 16.7354 -347.947 0 33.4755 -348.505 0 50.2329 -349.43 0 67.0075 -350.719 0 83.7995 -352.371 0 100.609 -354.381 0 117.445 -356.748 0 134.336 -359.46 0 151.28 -362.508 0 168.279 -365.878 0 185.332 -369.558 0 202.44 -373.536 0 219.609 -377.8 0 236.887 -382.334 0 254.28 -387.118 0 271.789 -392.132 0 289.413 -397.355 0 307.153 -402.767 0 325.011 -408.349 0 343.044 -414.072 0 361.275 -419.893 0 379.704 -425.767 0 398.332 -431.65 0 417.158 -437.495 0 436.182 -443.259 0 455.453 -448.895 0 475.017 -454.347 0 494.875 -459.561 0 515.025 -464.471 0 535.462 -468.97 0 556.186 -472.935 0 577.212 -476.244 0 598.571 -478.806 0 620.266 -480.545 0 642.257 -481.373 0 664.392 -481.051 0 686.656 -479.233 0 709.05 -475.574 0 731.568 -469.87 0 754.208 -462.057 0 776.912 -452.066 0 799.069 -439.351 0 820.516 -422.703 0 841.259 -400.87 0 861.422 -373.142 0 881.055 -339.863 0 900.147 -301.496 0 917.721 -257.322 0 933.161 -203.361 0 946.469 -135.075 0 955.817 -49.6523 0 959.381 48.8086 0 957.16 154.481 0 943.281 264.215 0 908.399 390.491 0 852.393 551.449 0 760.236 760.236 0 595.195 986.495 0 355.602 1177.47 0 63.8256 1284.89 0 -196.021 1324.05 0 -415.884 1356.02 0 -597.775 1439.87 0 -753.754 1565.25 0 -885.834 1652.4 0 -994.864 1620.14 0 -1089.74 1459.72 0 -1172.84 1262.9 0 -1244.41 1128.46 0 -1309.96 1109.21 0 -1371.77 1168.68 0 -1429.75 1260.14 0 -1478.25 1341.37 0 -1513.71 1382.54 0 -1536.12 1355.95 0 -1540.44 1246.49 0 -1521.58 1089.28 0 -1479.55 932.054 0 -1420.95 814.746 0 -1356.27 732.014 0 -1285.64 662.118 0 -1210.13 585.584 0 -1132.28 502.874 0 -1052.22 424.717 0 -970.742 361.229 0 -890.859 313.124 0 -812.856 274.337 0 -736.875 238.824 0 -663.773 204.572 0 -593.693 173.589 0 -526.56 148.024 0 -461.606 128.461 0 -398.627 113.31 0 -337.606 100.826 0 -278.142 89.89 0 -220.075 80.6048 0 -163.404 73.2123 0 -108.128 67.9544 0 -54.2483 65.073 0 -1.76458 64.8101 0 0.0104979 -346.969 0 16.3522 -347.167 0 32.7135 -347.754 0 49.0944 -348.729 0 65.495 -350.09 0 81.9152 -351.834 0 98.355 -353.959 0 114.827 -356.464 0 131.364 -359.339 0 147.967 -362.574 0 164.635 -366.16 0 181.369 -370.084 0 198.169 -374.336 0 215.043 -378.906 0 232.043 -383.78 0 249.176 -388.942 0 266.443 -394.374 0 283.844 -400.061 0 301.379 -405.986 0 319.051 -412.132 0 336.934 -418.475 0 355.058 -424.977 0 373.422 -431.597 0 392.028 -438.297 0 410.874 -445.036 0 429.96 -451.773 0 449.341 -458.468 0 469.068 -465.072 0 489.141 -471.537 0 509.582 -477.807 0 530.426 -483.791 0 551.673 -489.384 0 573.325 -494.484 0 595.384 -499.004 0 617.851 -502.865 0 640.74 -505.98 0 664.098 -508.131 0 687.93 -509.005 0 712.199 -508.292 0 736.673 -505.795 0 761.314 -501.43 0 786.149 -495.107 0 811.46 -486.311 0 837.322 -473.934 0 863.684 -456.829 0 889.433 -434.336 0 914.114 -406.735 0 937.754 -374.416 0 962.497 -336.704 0 989.688 -289.985 0 1019.33 -230.142 0 1044.35 -154.578 0 1057.68 -66.786 0 1059.31 28.2212 0 1052.97 127.959 0 1044.56 244.708 0 1034.15 396.095 0 986.495 595.195 0 815.414 815.414 0 516.989 1009.73 0 135.942 1135.03 0 -159.579 1203.6 0 -353.473 1267.64 0 -465.632 1377.74 0 -615.397 1527.13 0 -822.659 1651.65 0 -1075.98 1685.87 0 -1255.9 1618.84 0 -1330.65 1515.2 0 -1304.79 1444.9 0 -1278.82 1444.69 0 -1293.87 1486.88 0 -1349.68 1536.37 0 -1428.28 1562.62 0 -1518.37 1547.66 0 -1619.94 1475.69 0 -1692.46 1339.87 0 -1695.4 1169.32 0 -1628.76 1002.13 0 -1525.01 870.245 0 -1435.85 769.657 0 -1361.93 683.351 0 -1295.44 596.062 0 -1217.23 507.928 0 -1126.46 427.017 0 -1027.15 360.905 0 -934.527 309.628 0 -850.052 267.787 0 -772.805 230.015 0 -697.282 194.521 0 -622.566 163.082 0 -548.872 137.598 0 -478.449 118.425 0 -411.894 103.776 0 -349.121 91.7105 0 -288.236 81.0002 0 -228.462 71.795 0 -169.8 64.4035 0 -112.25 59.1343 0 -55.8126 56.296 0 -0.486809 56.1971 0 0.00767388 -345.523 0 15.95 -345.73 0 31.9137 -346.344 0 47.8988 -347.363 0 63.9053 -348.787 0 79.9331 -350.614 0 95.9823 -352.841 0 112.068 -355.468 0 128.228 -358.487 0 144.463 -361.889 0 160.774 -365.666 0 177.161 -369.807 0 193.624 -374.305 0 210.171 -379.15 0 226.858 -384.331 0 243.693 -389.834 0 260.678 -395.645 0 277.811 -401.752 0 295.094 -408.141 0 312.529 -414.797 0 330.206 -421.702 0 348.16 -428.822 0 366.393 -436.123 0 384.904 -443.571 0 403.693 -451.13 0 422.76 -458.768 0 442.163 -466.448 0 461.958 -474.126 0 482.147 -481.757 0 502.767 -489.295 0 523.876 -496.676 0 545.476 -503.833 0 567.573 -510.693 0 590.18 -517.141 0 613.298 -523.039 0 636.967 -528.25 0 661.331 -532.638 0 686.406 -536.073 0 712.149 -538.417 0 738.314 -539.405 0 764.861 -538.644 0 791.859 -535.734 0 820.03 -530.291 0 849.565 -521.951 0 880.394 -510.351 0 910.988 -494.918 0 940.718 -474.672 0 969.633 -448.59 0 1001.36 -415.734 0 1038.17 -375.413 0 1080.06 -326.975 0 1117.57 -269.606 0 1141.22 -201.83 0 1150.99 -122.008 0 1155.73 -28.4332 0 1169.47 80.9938 0 1192.39 208.516 0 1177.47 355.602 0 1009.73 516.989 0 683.949 683.949 0 256.371 847.892 0 -61.5301 1002.53 0 -249.507 1143.21 0 -334.13 1266.06 0 -474.816 1383.65 0 -698.134 1525 0 -990.02 1719.04 0 -1203.56 1957.71 0 -1299.69 2181.67 0 -1283.67 2328.01 0 -1271.35 2360.82 0 -1310.13 2296.69 0 -1399.66 2158.22 0 -1513.37 1969.59 0 -1634.57 1759.41 0 -1763.25 1557.04 0 -1853.03 1384.66 0 -1857.48 1235.79 0 -1776.61 1096.78 0 -1651.11 956.554 0 -1545.74 818.897 0 -1461.33 693.005 0 -1387.78 587.059 0 -1300.44 500.41 0 -1198.18 427.86 0 -1086.13 364.385 0 -983.565 307.82 0 -892.332 258.064 0 -810.986 215.057 0 -730.859 178.681 0 -650.507 148.758 0 -570.345 125.096 0 -494.712 106.94 0 -424.762 92.7547 0 -360.343 80.9511 0 -298.107 70.5285 0 -236.684 61.6273 0 -176.075 54.5187 0 -116.279 49.474 0 -57.2963 46.7647 0 0.872975 46.662 0 0.0049959 -343.422 0 15.5314 -343.636 0 31.0806 -344.274 0 46.6526 -345.333 0 62.2472 -346.812 0 77.8646 -348.711 0 93.5047 -351.027 0 109.185 -353.76 0 124.947 -356.904 0 140.793 -360.452 0 156.722 -364.395 0 172.736 -368.728 0 188.833 -373.443 0 205.024 -378.531 0 221.366 -383.985 0 237.87 -389.793 0 254.534 -395.945 0 271.36 -402.428 0 288.346 -409.233 0 305.498 -416.347 0 322.918 -423.755 0 340.647 -431.43 0 358.685 -439.345 0 377.033 -447.47 0 395.689 -455.779 0 414.655 -464.244 0 433.993 -472.834 0 453.769 -481.51 0 473.983 -490.227 0 494.671 -498.945 0 515.893 -507.636 0 537.65 -516.275 0 559.987 -524.826 0 583.015 -533.129 0 606.739 -540.964 0 631.161 -548.124 0 656.287 -554.59 0 682.119 -560.474 0 708.697 -565.875 0 736.263 -570.427 0 764.859 -573.307 0 794.49 -573.682 0 825.227 -571.354 0 857.088 -567 0 890.078 -561.353 0 924.3 -553.953 0 959.796 -542.031 0 996.58 -522.55 0 1035.75 -494.196 0 1077.98 -460.406 0 1123.29 -425.432 0 1166.57 -390.992 0 1202.72 -348.671 0 1231.74 -287.52 0 1256.01 -200.106 0 1279.33 -99.5165 0 1301.74 -6.26711 0 1284.89 63.8256 0 1135.03 135.942 0 847.892 256.371 0 466.261 466.261 0 151.007 734.596 0 -82.4686 978.353 0 -242.062 1118.4 0 -375.15 1191.54 0 -489.631 1350.5 0 -589.827 1749.56 0 -720.884 2385.31 0 -894.808 3035.49 0 -1109.83 3462.6 0 -1326.98 3535.41 0 -1530.33 3329 0 -1719.55 2942.2 0 -1869.99 2471.35 0 -1966.16 2006 0 -2008.05 1634.54 0 -2006.02 1416.99 0 -1970.4 1299.81 0 -1901.21 1201.07 0 -1808.38 1052.89 0 -1707.79 869.325 0 -1599.61 694.109 0 -1486.04 566.316 0 -1372.38 484.143 0 -1258.86 424.741 0 -1146.89 366.326 0 -1041.66 303.915 0 -943.679 244.64 0 -852.241 195.675 0 -763.1 159.117 0 -675.549 131.978 0 -589.962 111.072 0 -510.243 94.1492 0 -437.429 80.2584 0 -371.325 68.5475 0 -307.596 58.475 0 -244.472 50.1016 0 -181.952 43.5577 0 -120.035 38.9734 0 -58.723 36.479 0 1.98552 36.2047 0 0.0034124 -340.667 0 15.099 -340.887 0 30.2186 -341.544 0 45.3622 -342.636 0 60.5297 -344.164 0 75.7212 -346.125 0 90.9367 -348.517 0 106.195 -351.341 0 121.541 -354.591 0 136.977 -358.262 0 152.504 -362.349 0 168.121 -366.846 0 183.828 -371.748 0 199.635 -377.05 0 215.603 -382.744 0 231.743 -388.822 0 248.053 -395.273 0 264.535 -402.089 0 281.188 -409.262 0 298.017 -416.781 0 315.133 -424.634 0 332.583 -432.801 0 350.367 -441.262 0 368.484 -449.996 0 386.934 -458.983 0 405.718 -468.202 0 424.907 -477.629 0 444.575 -487.23 0 464.72 -496.966 0 485.372 -506.802 0 506.574 -516.716 0 528.328 -526.696 0 550.734 -536.711 0 574.043 -546.626 0 598.265 -556.247 0 623.333 -565.393 0 648.988 -574.055 0 675.207 -582.354 0 702.155 -590.39 0 730.823 -597.84 0 761.377 -603.95 0 793.702 -607.963 0 826.607 -609.739 0 859.773 -610 0 893.33 -609.521 0 930.141 -607.93 0 971.374 -602.633 0 1016.98 -590.782 0 1063.2 -571.275 0 1107.66 -547.824 0 1150.36 -524.967 0 1194.53 -504.661 0 1243.39 -478.541 0 1296.94 -435.661 0 1344.05 -368.806 0 1367.02 -292.555 0 1365.63 -229.371 0 1324.05 -196.021 0 1203.6 -159.579 0 1002.53 -61.5301 0 734.596 151.007 0 451.592 451.592 0 158.469 756.617 0 -121.142 985.789 0 -245.474 1164.04 0 -190.898 1421.55 0 9.59821 1889.92 0 11.464 2559.36 0 -276.936 3223.84 0 -842.903 3663.67 0 -1407.06 3757 0 -1855.13 3571.93 0 -2186.85 3198.39 0 -2382.69 2725.93 0 -2430.4 2243.05 0 -2329.98 1838.06 0 -2180.51 1572.81 0 -2081.09 1403.24 0 -2031.72 1258.84 0 -1993.37 1081.11 0 -1903.94 881.79 0 -1762.63 698.049 0 -1590.86 562.941 0 -1440.99 473.508 0 -1315.39 408.248 0 -1209.23 346.644 0 -1104.38 283.683 0 -999.083 225.521 0 -894.059 178.353 0 -793.56 143.589 0 -698.294 117.859 0 -608.418 97.6116 0 -525.58 80.5894 0 -450.219 66.3291 0 -382.119 54.4999 0 -316.543 44.8396 0 -251.555 37.2181 0 -187.155 31.5206 0 -123.342 27.6326 0 -60.1163 25.4391 0 2.52157 24.8255 0 0.00387188 -337.258 0 14.6554 -337.481 0 29.3322 -338.154 0 44.0343 -339.275 0 58.7617 -340.843 0 73.5144 -342.855 0 88.2925 -345.312 0 103.115 -348.21 0 118.031 -351.547 0 133.04 -355.32 0 148.145 -359.526 0 163.344 -364.162 0 178.637 -369.223 0 194.036 -374.707 0 209.603 -380.607 0 225.35 -386.918 0 241.277 -393.63 0 257.383 -400.736 0 273.669 -408.228 0 290.139 -416.098 0 306.911 -424.338 0 324.034 -432.934 0 341.506 -441.875 0 359.328 -451.148 0 377.501 -460.741 0 396.023 -470.641 0 414.977 -480.832 0 434.443 -491.287 0 454.422 -501.977 0 474.938 -512.869 0 496.031 -523.922 0 517.702 -535.091 0 540.081 -546.333 0 563.49 -557.602 0 587.942 -568.852 0 613.343 -580.034 0 639.332 -591.041 0 665.875 -601.725 0 693.201 -611.937 0 722.677 -621.546 0 754.532 -630.433 0 788.594 -638.481 0 823.084 -645.47 0 857.528 -651.041 0 892.121 -654.826 0 931.123 -656.51 0 976.275 -655.886 0 1027.5 -652.76 0 1078.44 -646.895 0 1125.1 -637.941 0 1167.49 -625.528 0 1213.39 -609.265 0 1270.56 -588.685 0 1339 -563.303 0 1399.86 -532.786 0 1423.08 -497.712 0 1408.28 -458.987 0 1356.02 -415.884 0 1267.64 -353.473 0 1143.21 -249.507 0 978.353 -82.4686 0 756.617 158.469 0 476.427 476.427 0 174.079 873.11 0 67.3435 1321.58 0 192.516 1766.24 0 504.325 2150.88 0 529.927 2447.09 0 143.564 2665.07 0 -636.825 2817.75 0 -1416.64 2909.61 0 -2034.45 2928.58 0 -2489.9 2860.72 0 -2754.41 2700.6 0 -2810.07 2466.33 0 -2656.85 2180.03 0 -2438.12 1865.11 0 -2297.21 1550.08 0 -2234.13 1264.7 0 -2193.55 1033.72 0 -2087.44 852.547 0 -1914.65 705.915 0 -1704.16 579.722 0 -1526.78 469.883 0 -1385.72 377.477 0 -1273.43 303.417 0 -1161.45 245.763 0 -1047.06 200.519 0 -931.534 163.71 0 -822.489 132.84 0 -721.193 106.89 0 -627.641 84.9133 0 -541.765 66.3122 0 -463.548 50.9709 0 -392.778 38.8082 0 -324.787 29.6223 0 -257.663 22.9766 0 -191.407 18.4075 0 -126.019 15.4514 0 -61.4997 13.6448 0 2.15187 12.5241 0 0.00727472 -333.214 0 14.2029 -333.44 0 28.4256 -334.126 0 42.6753 -335.27 0 56.952 -336.87 0 71.2557 -338.924 0 85.5864 -341.431 0 99.9638 -344.388 0 114.436 -347.795 0 129.004 -351.65 0 143.67 -355.951 0 158.432 -360.698 0 173.291 -365.89 0 188.259 -371.525 0 203.401 -377.599 0 218.731 -384.106 0 234.247 -391.039 0 249.95 -398.391 0 265.839 -406.155 0 281.921 -414.325 0 298.313 -422.894 0 315.063 -431.858 0 332.171 -441.214 0 349.637 -450.957 0 367.462 -461.083 0 385.645 -471.588 0 404.276 -482.467 0 423.444 -493.699 0 443.15 -505.265 0 463.438 -517.135 0 484.375 -529.228 0 505.962 -541.447 0 528.29 -553.714 0 551.579 -566.122 0 575.84 -578.85 0 601.064 -592.051 0 627.228 -605.443 0 654.329 -618.436 0 682.494 -630.464 0 712.49 -641.687 0 744.443 -652.993 0 778.311 -665.273 0 813.631 -678.132 0 850.281 -689.399 0 888.349 -696.785 0 929.761 -700.009 0 975.308 -702.689 0 1024.96 -708.888 0 1076.45 -719.655 0 1128.36 -727.725 0 1180.69 -724.404 0 1234.62 -705.24 0 1291.35 -682.728 0 1350.86 -673.606 0 1404.58 -688.693 0 1438.81 -704.265 0 1453.37 -684.097 0 1439.87 -597.775 0 1377.74 -465.632 0 1266.06 -334.13 0 1118.4 -242.062 0 985.789 -121.142 0 873.11 174.079 0 780.454 780.454 0 708.36 1597.86 0 656.917 2289.18 0 610.055 2513.31 0 399.911 2214.2 0 -18.1572 1731.33 0 -635.679 1431.91 0 -1266.29 1512.48 0 -1833.76 1838.04 0 -2337.2 2235.54 0 -2708.06 2554.29 0 -2903.27 2705.28 0 -2922.84 2610.09 0 -2838.2 2233.46 0 -2720.82 1712.85 0 -2570.68 1228.9 0 -2396.86 931.401 0 -2213.79 790.022 0 -2021.66 709.247 0 -1827.59 602.785 0 -1649.03 465.442 0 -1486.77 333.777 0 -1339.6 242.372 0 -1203.04 194.249 0 -1076.65 169.682 0 -959.95 148.941 0 -850.072 123.655 0 -746.532 96.817 0 -649.428 71.8846 0 -559.76 50.9422 0 -477.796 34.1703 0 -403.343 21.6068 0 -332.166 12.9988 0 -262.533 7.52902 0 -194.443 4.31523 0 -127.897 2.47527 0 -62.8944 1.12692 0 0.56445 -0.611986 0 0.0134149 -328.662 0 13.7439 -328.889 0 27.5033 -329.585 0 41.2919 -330.746 0 55.1094 -332.371 0 68.9561 -334.457 0 82.8317 -337.003 0 96.7555 -340.007 0 110.774 -343.467 0 124.89 -347.386 0 139.103 -351.763 0 153.412 -356.6 0 167.819 -361.896 0 182.335 -367.653 0 197.032 -373.867 0 211.921 -380.534 0 227.004 -387.648 0 242.28 -395.202 0 257.748 -403.193 0 273.415 -411.614 0 289.394 -420.463 0 305.731 -429.741 0 322.427 -439.452 0 339.481 -449.598 0 356.894 -460.184 0 374.666 -471.21 0 392.896 -482.678 0 411.683 -494.569 0 431.029 -506.862 0 451.006 -519.528 0 471.733 -532.494 0 493.21 -545.672 0 515.437 -558.993 0 538.411 -572.585 0 562.133 -586.676 0 586.769 -601.456 0 612.946 -616.636 0 640.723 -631.573 0 670.008 -645.656 0 700.238 -659.123 0 731.319 -673.06 0 763.467 -688.558 0 798.943 -705.248 0 838.349 -720.737 0 881.542 -732.502 0 925.373 -740.318 0 968.556 -748.432 0 1011.18 -761.6 0 1059.96 -781.153 0 1119.13 -798.976 0 1188.69 -805.332 0 1255.22 -795.199 0 1305.31 -782.414 0 1338.95 -785.531 0 1371.05 -816.413 0 1425.3 -847.873 0 1502.02 -838.59 0 1565.25 -753.754 0 1527.13 -615.397 0 1383.65 -474.816 0 1191.54 -375.15 0 1164.04 -245.474 0 1321.58 67.3435 0 1597.86 708.36 0 1595.19 1595.19 0 1247.3 2418.01 0 589.935 2862.43 0 -3.4514 2854.79 0 -433.538 2655.53 0 -709.066 2548.56 0 -1022.32 2681.08 0 -1451.95 2934.8 0 -1996.2 3160.97 0 -2517.54 3240.55 0 -2929.57 3136.54 0 -3232.29 2825.99 0 -3371.74 2315.11 0 -3293.95 1726.76 0 -2998.94 1212.97 0 -2606.17 898.082 0 -2305.81 744.79 0 -2100.32 657.287 0 -1956.36 548.904 0 -1792.49 413.24 0 -1605.02 285.221 0 -1404.78 197.872 0 -1232.56 153.72 0 -1092.29 133.318 0 -980.293 117.206 0 -874.68 96.7437 0 -771.796 74.1175 0 -671.964 51.9674 0 -578.552 32.2266 0 -492.455 15.8469 0 -413.526 3.70242 0 -338.509 -3.9771 0 -266.075 -8.21402 0 -196.222 -10.1745 0 -128.951 -11.0246 0 -64.2623 -11.9306 0 -2.15517 -14.0585 0 0.0209801 -323.621 0 13.2798 -323.85 0 26.5698 -324.552 0 39.8908 -325.725 0 53.243 -327.367 0 66.6262 -329.476 0 80.0406 -332.049 0 93.5042 -335.086 0 107.062 -338.586 0 120.715 -342.553 0 134.463 -346.987 0 148.308 -351.89 0 162.248 -357.265 0 176.296 -363.114 0 190.53 -369.435 0 204.961 -376.224 0 219.59 -383.479 0 234.417 -391.194 0 249.441 -399.366 0 264.668 -407.992 0 280.204 -417.071 0 296.093 -426.611 0 312.335 -436.619 0 328.93 -447.104 0 345.878 -458.073 0 363.178 -469.534 0 380.947 -481.49 0 399.3 -493.914 0 418.237 -506.773 0 437.842 -520.037 0 458.249 -533.697 0 479.459 -547.749 0 501.413 -562.192 0 523.964 -577.059 0 547.104 -592.4 0 571.124 -608.253 0 597.109 -624.515 0 625.163 -640.984 0 655.035 -657.463 0 685.215 -673.997 0 715.45 -690.872 0 746.138 -708.374 0 781.434 -726.404 0 822.441 -744.333 0 868.861 -761.493 0 914.077 -777.752 0 955.385 -794.014 0 992.946 -811.302 0 1039.42 -829.989 0 1102.77 -848.662 0 1182.99 -865.599 0 1257.67 -879.578 0 1304.41 -891.368 0 1323.2 -902.238 0 1343.77 -912.593 0 1413.42 -917.811 0 1532.76 -911.447 0 1652.4 -885.834 0 1651.65 -822.659 0 1525 -698.134 0 1350.5 -489.631 0 1421.55 -190.898 0 1766.24 192.516 0 2289.18 656.917 0 2418.01 1247.3 0 2057.34 2057.34 0 1254.56 3179.09 0 504.695 4534.56 0 -60.6036 5809.84 0 -452.105 6674.76 0 -906.722 6934.65 0 -1521.38 6657.94 0 -2293.31 5943.36 0 -3007.8 4918.32 0 -3529.95 3789.56 0 -3859.76 2777.37 0 -3961.31 2049.61 0 -3798.65 1564.34 0 -3371.8 1227.15 0 -2839.32 954.425 0 -2453.64 725.28 0 -2217.99 541.576 0 -2079.21 404.207 0 -1907.37 305.454 0 -1696.57 233.158 0 -1462.87 175.643 0 -1266.69 128.272 0 -1113.82 91.4775 0 -999.251 65.6981 0 -892.871 48.8918 0 -789.67 36.5373 0 -689.822 24.0686 0 -595.148 9.78982 0 -506.13 -4.01303 0 -422.713 -14.7705 0 -343.632 -21.1298 0 -268.371 -24.1007 0 -196.93 -24.9647 0 -129.308 -25.003 0 -65.5063 -25.4969 0 -5.52397 -27.7279 0 0.0286099 -318.092 0 12.8124 -318.323 0 25.6292 -319.028 0 38.4788 -320.208 0 51.3614 -321.858 0 64.2768 -323.979 0 77.2252 -326.569 0 90.2235 -329.626 0 103.313 -333.152 0 116.496 -337.149 0 129.773 -341.621 0 143.142 -346.57 0 156.605 -351.998 0 170.175 -357.909 0 183.932 -364.303 0 197.889 -371.178 0 212.047 -378.533 0 226.405 -386.366 0 240.964 -394.675 0 255.728 -403.459 0 270.794 -412.72 0 286.204 -422.468 0 301.957 -432.715 0 318.054 -443.472 0 334.493 -454.75 0 351.275 -466.56 0 368.542 -478.904 0 386.436 -491.738 0 404.957 -505.009 0 424.146 -518.688 0 444.068 -532.873 0 464.723 -547.71 0 486.109 -563.312 0 508.214 -579.506 0 531.039 -595.977 0 554.806 -612.444 0 580.351 -629.166 0 607.754 -646.785 0 636.855 -665.914 0 666.701 -686.174 0 697.131 -706.202 0 728.429 -724.631 0 763.55 -741.841 0 803.278 -760.637 0 847.43 -783.98 0 891.942 -811.852 0 935.15 -838.458 0 977.151 -857.344 0 1025.43 -866.871 0 1084.7 -878.701 0 1154.96 -906.775 0 1224.21 -957.357 0 1280.48 -1006.01 0 1323.76 -1020.61 0 1367.75 -979.57 0 1434.27 -922.82 0 1523.59 -912.54 0 1620.14 -994.864 0 1685.87 -1075.98 0 1719.04 -990.02 0 1749.56 -589.827 0 1889.92 9.59821 0 2150.88 504.325 0 2513.31 610.055 0 2862.43 589.935 0 3179.09 1254.56 0 3418.8 3418.8 0 3116.82 7012.79 0 2149.53 10739 0 542.443 13214.5 0 -1143.5 13661.2 0 -2678.82 12475.5 0 -4059.94 10188.7 0 -5008.03 7352.54 0 -5347.93 4574.18 0 -5079.63 2470.48 0 -4526.98 1468.56 0 -4013.84 1236.72 0 -3540.2 1253.57 0 -3114.05 1076.23 0 -2748.13 720.333 0 -2442.59 367.506 0 -2184.7 179.919 0 -1943.32 148.555 0 -1717.05 176.257 0 -1507.73 170.663 0 -1322.27 114.43 0 -1161.33 44.2798 0 -1023.61 -3.02237 0 -901.196 -17.1357 0 -792.782 -14.1448 0 -697.515 -11.0886 0 -606.507 -16.1817 0 -517.395 -25.3946 0 -430.278 -33.812 0 -347.351 -38.4593 0 -269.513 -40.1311 0 -196.762 -40.0553 0 -129.101 -39.4598 0 -66.5269 -39.5722 0 -9.04166 -41.6204 0 0.0349437 -312.075 0 12.3434 -312.307 0 24.686 -313.013 0 37.0627 -314.193 0 49.4735 -315.845 0 61.9185 -317.969 0 74.3977 -320.563 0 86.9267 -323.628 0 99.5444 -327.164 0 112.252 -331.176 0 125.051 -335.666 0 137.94 -340.638 0 150.919 -346.094 0 164.002 -352.038 0 177.272 -358.471 0 190.743 -365.395 0 204.416 -372.81 0 218.289 -380.717 0 232.363 -389.118 0 246.642 -398.014 0 261.215 -407.408 0 276.12 -417.313 0 291.355 -427.741 0 306.922 -438.704 0 322.82 -450.216 0 339.049 -462.288 0 355.784 -474.923 0 373.202 -488.077 0 391.303 -501.696 0 410.032 -515.757 0 429.303 -530.415 0 449.116 -545.892 0 469.642 -562.356 0 491.305 -579.535 0 514.122 -596.924 0 538.048 -614.085 0 562.911 -631.478 0 588.694 -650.21 0 615.601 -671.332 0 644.856 -694.242 0 676.663 -716.689 0 710.871 -736.414 0 745.901 -754.075 0 781.334 -774.373 0 817.397 -802.272 0 859.07 -837.826 0 908.392 -871.567 0 965.238 -892.943 0 1019.98 -899.202 0 1066.58 -909.14 0 1105.03 -945.247 0 1154.49 -1017.88 0 1234.12 -1088.9 0 1343.93 -1108.03 0 1448.56 -1041.73 0 1491.76 -954.187 0 1472.8 -944.966 0 1459.72 -1089.74 0 1618.84 -1255.9 0 1957.71 -1203.56 0 2385.31 -720.884 0 2559.36 11.464 0 2447.09 529.927 0 2214.2 399.911 0 2854.79 -3.4514 0 4534.56 504.695 0 7012.79 3116.82 0 7775.4 7775.4 0 6153.76 12688.5 0 2247.97 15943.3 0 -1739.63 16469.3 0 -4908.09 14831.4 0 -7253.29 11782.5 0 -8454.81 8088.17 0 -8311.33 4548.72 0 -6822.86 1970.44 0 -5010.07 901.818 0 -3893.61 860.278 0 -3473.49 1105.45 0 -3414.13 1010.68 0 -3181.38 613.409 0 -2768.37 191.423 0 -2265.32 -6.71904 0 -1892.7 10.144 0 -1660.55 100.644 0 -1536.45 130.464 0 -1398.47 75.9031 0 -1234.95 -7.02059 0 -1053.47 -62.2192 0 -899.488 -72.4571 0 -780.578 -59.3513 0 -694.022 -45.9528 0 -611.4 -43.742 0 -525.155 -48.1448 0 -435.592 -53.4221 0 -349.481 -55.9655 0 -269.588 -56.3051 0 -195.915 -55.4465 0 -128.46 -54.3951 0 -67.2245 -54.1564 0 -12.2079 -55.7359 0 0.038621 -305.569 0 11.8743 -305.802 0 23.7444 -306.506 0 35.6491 -307.681 0 47.5883 -309.326 0 59.562 -311.443 0 71.5701 -314.031 0 83.6276 -317.09 0 95.7708 -320.623 0 108.001 -324.633 0 120.319 -329.123 0 132.724 -334.095 0 145.216 -339.553 0 157.809 -345.5 0 170.587 -351.939 0 183.563 -358.874 0 196.738 -366.31 0 210.111 -374.249 0 223.683 -382.697 0 237.457 -391.657 0 251.516 -401.136 0 265.894 -411.144 0 280.591 -421.695 0 295.606 -432.8 0 310.94 -444.47 0 326.592 -456.718 0 342.767 -469.549 0 359.668 -482.941 0 377.295 -496.865 0 395.496 -511.315 0 414.03 -526.426 0 432.893 -542.382 0 452.453 -559.327 0 473.608 -577.04 0 496.399 -595.112 0 520.47 -613.188 0 544.485 -631.688 0 568.316 -651.585 0 592.588 -673.802 0 621.058 -697.825 0 654.35 -721.703 0 691.807 -743.478 0 726.548 -763.774 0 756.744 -786.798 0 783.101 -816.984 0 821.163 -854.399 0 877.289 -890.63 0 951.102 -916.295 0 1013.12 -928.95 0 1044.83 -945.311 0 1046.23 -985.373 0 1072.33 -1058.32 0 1178.14 -1130.1 0 1363.65 -1155.84 0 1537.01 -1105.56 0 1552.02 -1036.19 0 1406.8 -1036.15 0 1262.9 -1172.84 0 1515.2 -1330.65 0 2181.67 -1299.69 0 3035.49 -894.808 0 3223.84 -276.936 0 2665.07 143.564 0 1731.33 -18.1572 0 2655.53 -433.538 0 5809.84 -60.6036 0 10739 2149.53 0 12688.5 6153.76 0 10393.7 10393.7 0 4035.88 13205.6 0 -2400.97 13658.9 0 -7286.92 12247.9 0 -10617.5 9630.29 0 -12046.2 6472.27 0 -11355 3462.74 0 -8543.99 1294.57 0 -5381.33 437.13 0 -3635.09 465.959 0 -3305.3 733.121 0 -3676.19 690.565 0 -3608.41 373.513 0 -3087.35 28.3112 0 -2319.04 -124.524 0 -1807.14 -91.8006 0 -1574.52 2.62743 0 -1550.61 41.0907 0 -1469.96 3.03812 0 -1307.17 -62.0902 0 -1079.68 -104.782 0 -892.134 -109.391 0 -761.967 -94.1414 0 -684.52 -78.5155 0 -611.106 -72.3735 0 -528.776 -72.2228 0 -438.03 -73.6007 0 -349.837 -73.6485 0 -268.688 -72.6229 0 -194.582 -71.1382 0 -127.519 -69.8089 0 -67.4994 -69.2495 0 -14.5225 -70.0744 0 0.038289 -298.581 0 11.4068 -298.815 0 22.809 -299.514 0 34.2449 -300.678 0 45.7145 -302.309 0 57.2178 -304.409 0 68.7548 -306.979 0 80.3397 -310.02 0 92.0076 -313.535 0 103.76 -317.527 0 115.597 -321.997 0 127.518 -326.948 0 139.524 -332.383 0 151.628 -338.303 0 163.911 -344.715 0 176.387 -351.626 0 189.056 -359.042 0 201.917 -366.971 0 214.972 -375.421 0 228.222 -384.399 0 241.749 -393.914 0 255.583 -403.974 0 269.725 -414.59 0 284.174 -425.77 0 298.932 -437.524 0 313.997 -449.863 0 329.583 -462.797 0 345.9 -476.345 0 362.949 -490.528 0 380.529 -505.369 0 398.321 -520.907 0 416.322 -537.186 0 435.002 -554.243 0 455.512 -572.058 0 477.906 -590.581 0 501.649 -609.776 0 524.731 -629.785 0 546.96 -650.883 0 569.215 -673.329 0 596.768 -696.991 0 630.498 -721.346 0 669.429 -745.874 0 703.372 -770.87 0 729.616 -797.762 0 749.174 -828.049 0 784.31 -861.75 0 844.136 -896.015 0 928.109 -927.662 0 994.067 -955.909 0 1015.52 -986.594 0 992.471 -1026.69 0 1003.24 -1079.17 0 1126.16 -1131.06 0 1361.22 -1165.4 0 1580.11 -1170.56 0 1578.57 -1166.15 0 1353.99 -1183.08 0 1128.46 -1244.41 0 1444.9 -1304.79 0 2328.01 -1283.67 0 3462.6 -1109.83 0 3663.67 -842.903 0 2817.75 -636.825 0 1431.91 -635.679 0 2548.56 -709.066 0 6674.76 -452.105 0 13214.5 542.443 0 15943.3 2247.97 0 13205.6 4035.88 0 5235.66 5235.66 0 -2812.35 5470.83 0 -8829.94 4935.91 0 -12812.4 3891.03 0 -14393.9 2603.3 0 -13344.6 1359.05 0 -9664.48 447.91 0 -5613.7 68.2598 0 -3452.48 53.5298 0 -3180.8 145.91 0 -3833.61 126.769 0 -3874.72 6.26928 0 -3284.42 -122.613 0 -2344.25 -176.691 0 -1742.39 -158.963 0 -1510.14 -116.805 0 -1552.12 -95.2555 0 -1509.7 -102.624 0 -1348.56 -120.755 0 -1092.43 -131.439 0 -883.838 -128.727 0 -746.515 -118.93 0 -674.619 -108.821 0 -607.083 -101.976 0 -527.664 -97.5291 0 -436.965 -94.2933 0 -348.238 -91.4762 0 -266.903 -89.054 0 -192.96 -87.091 0 -126.41 -85.6517 0 -67.2525 -84.8004 0 -15.4875 -84.6015 0 0.0335097 -291.238 0 10.9426 -291.472 0 21.8833 -292.163 0 32.8556 -293.313 0 43.8596 -294.925 0 54.8952 -297.002 0 65.9625 -299.545 0 77.0756 -302.558 0 88.2694 -306.043 0 99.5456 -310.001 0 110.904 -314.436 0 122.345 -319.348 0 133.868 -324.739 0 145.486 -330.613 0 157.275 -336.975 0 169.248 -343.835 0 181.404 -351.203 0 193.745 -359.091 0 206.27 -367.508 0 218.982 -376.465 0 231.96 -385.971 0 245.238 -396.034 0 258.816 -406.662 0 272.693 -417.862 0 286.869 -429.642 0 301.345 -442.009 0 316.314 -454.98 0 331.973 -468.607 0 348.32 -482.953 0 365.18 -498.063 0 382.271 -513.899 0 399.589 -530.393 0 417.569 -547.496 0 437.268 -565.354 0 458.736 -584.215 0 481.472 -604.301 0 503.597 -625.512 0 524.93 -647.516 0 546.321 -669.998 0 572.857 -693.184 0 605.388 -717.842 0 642.948 -744.745 0 675.462 -773.858 0 700.25 -804.02 0 718.325 -833.998 0 751.996 -863.802 0 810.388 -895.851 0 892.959 -932.839 0 957.326 -975.532 0 976.866 -1019.38 0 951.577 -1058.91 0 961.246 -1091.24 0 1085.66 -1123.82 0 1324.82 -1166.66 0 1548.9 -1225.92 0 1551.24 -1285.15 0 1329.21 -1319.74 0 1109.21 -1309.96 0 1444.69 -1278.82 0 2360.82 -1271.35 0 3535.41 -1326.98 0 3757 -1407.06 0 2909.61 -1416.64 0 1512.48 -1266.29 0 2681.08 -1022.32 0 6934.65 -906.722 0 13661.2 -1143.5 0 16469.3 -1739.63 0 13658.9 -2400.97 0 5470.83 -2812.35 0 -2800.04 -2800.04 0 -8987.59 -2464.99 0 -13086.9 -1939.67 0 -14717.2 -1352.48 0 -13639 -820.47 0 -9852.53 -458.77 0 -5683.68 -341.917 0 -3458.48 -382.125 0 -3176.93 -451.029 0 -3848.05 -440.908 0 -3894.33 -364.601 0 -3295.55 -278.583 0 -2339.29 -233.475 0 -1728.51 -228.398 0 -1495.17 -235.957 0 -1541.94 -230.169 0 -1502.88 -207.202 0 -1342.95 -179.186 0 -1086.2 -158.229 0 -876.974 -147.823 0 -739.318 -142.841 0 -667.396 -137.851 0 -600.236 -130.343 0 -521.622 -121.876 0 -432.137 -114.3 0 -344.604 -108.742 0 -264.268 -104.933 0 -191.129 -102.441 0 -125.188 -100.836 0 -66.444 -99.6854 0 -14.8971 -98.5587 0 0.0256216 -283.593 0 10.4833 -283.825 0 20.9697 -284.506 0 31.4847 -285.64 0 42.0284 -287.229 0 52.6008 -289.277 0 63.2019 -291.787 0 73.8462 -294.762 0 84.5692 -298.204 0 95.3727 -302.116 0 106.256 -306.5 0 117.221 -311.356 0 128.265 -316.688 0 139.402 -322.496 0 150.699 -328.789 0 162.169 -335.578 0 173.811 -342.876 0 185.625 -350.695 0 197.612 -359.048 0 209.775 -367.947 0 222.197 -377.402 0 234.911 -387.421 0 247.917 -398.011 0 261.215 -409.178 0 274.805 -420.93 0 288.688 -433.273 0 303.025 -446.226 0 317.979 -459.857 0 333.548 -474.246 0 349.62 -489.453 0 366.015 -505.418 0 382.731 -522.04 0 400.085 -539.247 0 418.86 -557.244 0 439.089 -576.376 0 460.431 -596.951 0 481.596 -618.764 0 502.46 -641.242 0 523.665 -663.843 0 549.052 -686.996 0 579.26 -712.099 0 613.554 -740.558 0 644.251 -772.121 0 669.307 -804.243 0 689.527 -834.233 0 722.634 -862.16 0 775.877 -893.465 0 848.823 -934.194 0 907.7 -985.958 0 931.291 -1038.09 0 919.596 -1077.84 0 938.057 -1098.97 0 1052.12 -1121.48 0 1261.77 -1171.88 0 1461.13 -1267.2 0 1481.62 -1369.09 0 1321.07 -1419.12 0 1168.68 -1371.77 0 1486.88 -1293.87 0 2296.69 -1310.13 0 3329 -1530.33 0 3571.93 -1855.13 0 2928.58 -2034.45 0 1838.04 -1833.76 0 2934.8 -1451.95 0 6657.94 -1521.38 0 12475.5 -2678.82 0 14831.4 -4908.09 0 12247.9 -7286.92 0 4935.91 -8829.94 0 -2464.99 -8987.59 0 -8056.8 -8056.8 0 -11834.6 -6431.77 0 -13414.3 -4508.86 0 -12554.7 -2690.51 0 -9255.64 -1380.16 0 -5574.54 -849.496 0 -3568.71 -843.098 0 -3238.13 -973.768 0 -3736.01 -914.368 0 -3714.35 -688.484 0 -3155.87 -446.65 0 -2302.48 -323.619 0 -1745.51 -315.264 0 -1511.82 -345.95 0 -1519.19 -343.847 0 -1458.45 -296.833 0 -1300.01 -235.817 0 -1063.78 -191.715 0 -869.394 -173.78 0 -736.78 -169.609 0 -660.996 -166.004 0 -590.391 -156.574 0 -511.231 -144.37 0 -423.988 -133.128 0 -339.065 -125.156 0 -260.72 -119.987 0 -188.953 -116.835 0 -123.762 -114.916 0 -65.1486 -113.445 0 -13.1126 -111.636 0 0.0161676 -275.645 0 10.0306 -275.874 0 20.0703 -276.544 0 30.1352 -277.658 0 40.2254 -279.22 0 50.3407 -281.234 0 60.4813 -283.703 0 70.662 -286.631 0 80.9196 -290.019 0 91.2556 -293.872 0 101.67 -298.189 0 112.163 -302.973 0 122.734 -308.227 0 133.394 -313.953 0 144.204 -320.158 0 155.172 -326.856 0 166.3 -334.059 0 177.587 -341.783 0 189.034 -350.04 0 200.643 -358.844 0 212.503 -368.206 0 224.648 -378.134 0 237.078 -388.635 0 249.794 -399.718 0 262.794 -411.388 0 276.08 -423.655 0 289.777 -436.535 0 304.01 -450.095 0 318.78 -464.409 0 334.035 -479.541 0 349.697 -495.467 0 365.764 -512.13 0 382.443 -529.498 0 400.24 -547.725 0 419.178 -567.06 0 439.084 -587.724 0 459.304 -609.545 0 479.775 -632.068 0 500.883 -654.87 0 524.946 -678.427 0 552.347 -704.116 0 582.663 -733.312 0 611.439 -765.668 0 637.491 -798.449 0 661.325 -828.767 0 694.06 -856.83 0 740.248 -888.851 0 799.618 -931.727 0 851.167 -987.202 0 881.701 -1042.77 0 891.221 -1083.5 0 922.83 -1102.36 0 1019.63 -1124.01 0 1181.63 -1181.01 0 1339.94 -1294.4 0 1384.92 -1418 0 1315.16 -1481.26 0 1260.14 -1429.75 0 1536.37 -1349.68 0 2158.22 -1399.66 0 2942.2 -1719.55 0 3198.39 -2186.85 0 2860.72 -2489.9 0 2235.54 -2337.2 0 3160.97 -1996.2 0 5943.36 -2293.31 0 10188.7 -4059.94 0 11782.5 -7253.29 0 9630.29 -10617.5 0 3891.03 -12812.4 0 -1939.67 -13086.9 0 -6431.77 -11834.6 0 -9580.57 -9580.57 0 -11019.4 -6861.7 0 -10518 -4247.67 0 -8076.36 -2313.7 0 -5270.41 -1452.73 0 -3676.16 -1328.32 0 -3293.63 -1421.72 0 -3520.31 -1293.26 0 -3397.17 -965.09 0 -2911.91 -626.52 0 -2232.16 -446.872 0 -1767.68 -419.402 0 -1537.1 -446.716 0 -1482.79 -436.268 0 -1388.12 -371.498 0 -1232.36 -290.61 0 -1028.92 -231.846 0 -858.429 -206.56 0 -734.31 -199.209 0 -653.001 -193.272 0 -577.254 -180.665 0 -497.163 -165.01 0 -413.04 -150.78 0 -331.775 -140.719 0 -256.183 -134.216 0 -186.266 -130.273 0 -122.023 -127.893 0 -63.4548 -126.079 0 -10.5604 -123.833 0 0.00669062 -267.394 0 9.58628 -267.618 0 19.1875 -268.275 0 28.8104 -269.367 0 38.455 -270.899 0 48.1212 -272.873 0 57.809 -275.294 0 67.5339 -278.165 0 77.3333 -281.488 0 87.2088 -285.267 0 97.1605 -289.503 0 107.188 -294.199 0 117.293 -299.359 0 127.482 -304.983 0 137.808 -311.082 0 148.279 -317.667 0 158.896 -324.754 0 169.659 -332.355 0 180.568 -340.484 0 191.626 -349.156 0 202.924 -358.382 0 214.5 -368.173 0 226.352 -378.536 0 238.482 -389.481 0 250.889 -401.017 0 263.573 -413.154 0 276.629 -425.91 0 290.15 -439.339 0 304.138 -453.506 0 318.577 -468.469 0 333.444 -484.248 0 348.737 -500.848 0 364.609 -518.284 0 381.425 -536.638 0 399.204 -556.029 0 417.874 -576.561 0 437.166 -598.139 0 457.055 -620.528 0 477.725 -643.516 0 500.286 -667.536 0 524.923 -693.668 0 551.488 -722.99 0 578.436 -755.171 0 605.355 -787.929 0 632.46 -818.863 0 664.472 -848.269 0 703.324 -881.691 0 748.911 -925.268 0 793.058 -980.505 0 830.631 -1036.1 0 861.631 -1078.56 0 905.872 -1101.75 0 983.171 -1128.94 0 1093.53 -1190.77 0 1206.9 -1307.11 0 1275.47 -1435.02 0 1298.62 -1508.8 0 1341.37 -1478.25 0 1562.62 -1428.28 0 1969.59 -1513.37 0 2471.35 -1869.99 0 2725.93 -2382.69 0 2700.6 -2754.41 0 2554.29 -2708.06 0 3240.55 -2517.54 0 4918.32 -3007.8 0 7352.54 -5008.03 0 8088.17 -8454.81 0 6472.27 -12046.2 0 2603.3 -14393.9 0 -1352.48 -14717.2 0 -4508.86 -13414.3 0 -6861.7 -11019.4 0 -8086.79 -8086.79 0 -7980.44 -5226.97 0 -6542.66 -3060.19 0 -4778.21 -2015.13 0 -3691.85 -1754.48 0 -3283.59 -1749.42 0 -3227.65 -1550.51 0 -3005.46 -1171.87 0 -2610.37 -795.433 0 -2128.86 -583.708 0 -1772.29 -528.312 0 -1550.28 -532.866 0 -1432.24 -505.735 0 -1303.18 -429.562 0 -1152.08 -340.521 0 -985.402 -274.847 0 -841.834 -243.025 0 -727.827 -229.78 0 -641.31 -218.905 0 -560.655 -202.422 0 -480.111 -183.78 0 -399.818 -167.254 0 -322.885 -155.431 0 -250.581 -147.62 0 -182.908 -142.754 0 -119.864 -139.766 0 -61.4507 -137.587 0 -7.66723 -135.15 0 -0.00126655 -258.841 0 9.15189 -259.059 0 18.3234 -259.7 0 27.5134 -260.767 0 36.7217 -262.265 0 45.9484 -264.195 0 55.1935 -266.561 0 64.4724 -269.365 0 73.8229 -272.611 0 83.2466 -276.302 0 92.7436 -280.442 0 102.314 -285.034 0 111.958 -290.081 0 121.682 -295.587 0 131.531 -301.56 0 141.512 -308.013 0 151.625 -314.959 0 161.871 -322.41 0 172.248 -330.381 0 182.762 -338.884 0 193.505 -347.932 0 204.514 -357.538 0 215.79 -367.712 0 227.333 -378.468 0 239.142 -389.817 0 251.218 -401.772 0 263.631 -414.352 0 276.451 -427.602 0 289.679 -441.576 0 303.312 -456.325 0 317.349 -471.89 0 331.788 -488.311 0 346.764 -505.626 0 362.608 -523.883 0 379.334 -543.134 0 396.917 -563.425 0 415.262 -584.727 0 434.36 -606.959 0 454.258 -630.054 0 475.243 -654.356 0 497.363 -680.615 0 520.681 -709.582 0 545.846 -741.05 0 573.034 -773.496 0 602.227 -805.31 0 633.073 -836.765 0 665.426 -871.785 0 699.315 -914.71 0 736.914 -966.644 0 779.592 -1019.76 0 827.347 -1064.68 0 880.674 -1097.34 0 940.069 -1134.72 0 1005.53 -1199.11 0 1079.34 -1305.07 0 1165.13 -1422.11 0 1262.96 -1503.41 0 1382.54 -1513.71 0 1547.66 -1518.37 0 1759.41 -1634.57 0 2006 -1966.16 0 2243.05 -2430.4 0 2466.33 -2810.07 0 2705.28 -2903.27 0 3136.54 -2929.57 0 3789.56 -3529.95 0 4574.18 -5347.93 0 4548.72 -8311.33 0 3462.74 -11355 0 1359.05 -13344.6 0 -820.47 -13639 0 -2690.51 -12554.7 0 -4247.67 -10518 0 -5226.97 -7980.44 0 -5461.97 -5461.97 0 -4952.67 -3494.48 0 -4167.89 -2450.97 0 -3576.47 -2069.24 0 -3178.4 -1928.29 0 -2895.33 -1669.09 0 -2602.53 -1294.67 0 -2298.42 -939.09 0 -1999.26 -721.862 0 -1744.84 -634.144 0 -1536.98 -601.015 0 -1368.69 -551.183 0 -1213.79 -469.999 0 -1069.75 -383.639 0 -937.052 -318.345 0 -818.533 -281.206 0 -714.665 -260.154 0 -624.696 -242.431 0 -540.781 -221.726 0 -460.835 -200.672 0 -384.845 -182.55 0 -312.548 -169.291 0 -243.838 -160.2 0 -178.713 -154.28 0 -117.176 -150.535 0 -59.2244 -147.969 0 -4.85943 -145.587 0 -0.00616106 -249.985 0 8.72916 -250.195 0 17.4803 -250.819 0 26.2472 -251.859 0 35.03 -253.319 0 43.8285 -255.199 0 52.6429 -257.502 0 61.4882 -260.23 0 70.4011 -263.387 0 79.3834 -266.978 0 88.4352 -271.007 0 97.5563 -275.478 0 106.747 -280.395 0 116.013 -285.765 0 125.393 -291.593 0 134.892 -297.893 0 144.511 -304.675 0 154.25 -311.95 0 164.109 -319.731 0 174.092 -328.028 0 184.29 -336.856 0 194.74 -346.229 0 205.443 -356.164 0 216.399 -366.678 0 227.606 -377.787 0 239.067 -389.508 0 250.833 -401.861 0 262.959 -414.883 0 275.446 -428.618 0 288.292 -443.108 0 301.499 -458.394 0 315.065 -474.519 0 329.126 -491.525 0 344.009 -509.46 0 359.728 -528.374 0 376.274 -548.316 0 393.609 -569.309 0 411.731 -591.361 0 430.608 -614.486 0 450.063 -638.888 0 470.064 -664.957 0 490.794 -693.087 0 514.136 -723.307 0 540.591 -755.149 0 570.015 -788.108 0 599.237 -822.317 0 626.957 -859.133 0 653.277 -900.053 0 685.969 -945.62 0 729.917 -993.74 0 785.121 -1041.87 0 841.274 -1089.12 0 888.069 -1141.34 0 925.508 -1206.03 0 973.847 -1288.28 0 1065.33 -1379.26 0 1200.39 -1465.09 0 1355.95 -1536.12 0 1475.69 -1619.94 0 1557.04 -1763.25 0 1634.54 -2008.05 0 1838.06 -2329.98 0 2180.03 -2656.85 0 2610.09 -2922.84 0 2825.99 -3232.29 0 2777.37 -3859.76 0 2470.48 -5079.63 0 1970.44 -6822.86 0 1294.57 -8543.99 0 447.91 -9664.48 0 -458.77 -9852.53 0 -1380.16 -9255.64 0 -2313.7 -8076.36 0 -3060.19 -6542.66 0 -3494.48 -4952.67 0 -3616.56 -3616.56 0 -3520.23 -2760.23 0 -3299.25 -2272.6 0 -2953.63 -1958.32 0 -2562.51 -1649 0 -2251.86 -1333.47 0 -2023.32 -1057.49 0 -1851.1 -861.334 0 -1672.24 -736.897 0 -1483.86 -651.163 0 -1293.58 -572.611 0 -1129.94 -492.81 0 -995.673 -419.965 0 -887.717 -362.339 0 -787.651 -321.103 0 -692.402 -290.329 0 -602.084 -263.85 0 -517.881 -238.575 0 -440.106 -215.685 0 -368.643 -196.669 0 -300.917 -182.3 0 -235.876 -171.954 0 -173.521 -164.849 0 -113.85 -160.2 0 -56.8643 -157.227 0 -2.56354 -155.144 0 -0.00692092 -240.904 0 8.31954 -241.105 0 16.6602 -241.71 0 25.0151 -242.721 0 33.3842 -244.139 0 41.7675 -245.965 0 50.165 -248.2 0 58.5908 -250.846 0 67.0793 -253.906 0 75.6322 -257.387 0 84.2494 -261.293 0 92.9309 -265.632 0 101.677 -270.407 0 110.492 -275.625 0 119.412 -281.294 0 128.441 -287.423 0 137.578 -294.021 0 146.826 -301.099 0 156.182 -308.666 0 165.652 -316.731 0 175.32 -325.309 0 185.222 -334.419 0 195.358 -344.081 0 205.728 -354.316 0 216.331 -365.145 0 227.169 -376.588 0 238.285 -388.668 0 249.723 -401.415 0 261.484 -414.864 0 273.568 -429.046 0 285.974 -443.995 0 298.703 -459.744 0 311.882 -476.328 0 325.819 -493.81 0 340.529 -512.266 0 356.008 -531.771 0 372.242 -552.389 0 389.23 -574.175 0 406.917 -597.183 0 424.976 -621.483 0 443.351 -647.161 0 462.237 -674.305 0 483.66 -703.163 0 508.162 -734.204 0 535.594 -767.91 0 562.751 -804.278 0 588.32 -842.362 0 612.395 -881.112 0 642.28 -920.571 0 682.565 -963.802 0 733.251 -1014.39 0 784.452 -1074.31 0 826.284 -1139.2 0 858.747 -1203.08 0 901.05 -1262.44 0 983.769 -1328.14 0 1107.3 -1416.28 0 1246.49 -1540.44 0 1339.87 -1692.46 0 1384.66 -1853.03 0 1416.99 -2006.02 0 1572.81 -2180.51 0 1865.11 -2438.12 0 2233.46 -2838.2 0 2315.11 -3371.74 0 2049.61 -3961.31 0 1468.56 -4526.98 0 901.818 -5010.07 0 437.13 -5381.33 0 68.2598 -5613.7 0 -341.917 -5683.68 0 -849.496 -5574.54 0 -1452.73 -5270.41 0 -2015.13 -4778.21 0 -2450.97 -4167.89 0 -2760.23 -3520.23 0 -2906.76 -2906.76 0 -2854.37 -2362.23 0 -2603.06 -1912.2 0 -2260.55 -1575.3 0 -1998.29 -1329.87 0 -1818.47 -1139.62 0 -1692.11 -971.324 0 -1548.4 -818.195 0 -1384.12 -687.099 0 -1208.84 -584.377 0 -1058.59 -507.792 0 -936.806 -448.922 0 -840.198 -399.392 0 -748.966 -354.986 0 -659.813 -315.65 0 -573.082 -281.505 0 -492.364 -252.514 0 -418.613 -228.418 0 -351.675 -208.941 0 -288.159 -193.728 0 -226.678 -182.269 0 -167.232 -174.039 0 -109.821 -168.511 0 -54.4445 -165.158 0 -1.10278 -163.453 0 -0.00435748 -231.676 0 7.9236 -231.868 0 15.865 -232.454 0 23.8197 -233.433 0 31.7879 -234.806 0 39.7694 -236.574 0 47.7644 -238.737 0 55.7854 -241.296 0 63.8633 -244.255 0 71.9996 -247.621 0 80.1942 -251.4 0 88.4471 -255.598 0 96.7584 -260.223 0 105.133 -265.279 0 113.603 -270.774 0 122.173 -276.718 0 130.844 -283.117 0 139.614 -289.982 0 148.485 -297.319 0 157.46 -305.137 0 166.615 -313.451 0 175.981 -322.281 0 185.56 -331.651 0 195.35 -341.585 0 205.352 -352.106 0 215.565 -363.238 0 226.031 -375.004 0 236.79 -387.429 0 247.843 -400.542 0 259.189 -414.366 0 270.828 -428.93 0 282.76 -444.258 0 295.097 -460.383 0 308.109 -477.374 0 321.809 -495.326 0 336.196 -514.329 0 351.265 -534.472 0 367.017 -555.841 0 383.407 -578.515 0 400.171 -602.494 0 417.265 -627.694 0 434.83 -654.036 0 454.333 -681.839 0 476.166 -711.98 0 500.258 -745.366 0 525.049 -781.997 0 549.901 -820.099 0 574.857 -857.703 0 603.199 -894.634 0 636.986 -935.691 0 676.22 -986.523 0 717.967 -1050.1 0 759.295 -1118.68 0 800.203 -1181.84 0 847.756 -1233.24 0 913.196 -1290.39 0 996.668 -1379.42 0 1089.28 -1521.58 0 1169.32 -1695.4 0 1235.79 -1857.48 0 1299.81 -1970.4 0 1403.24 -2081.09 0 1550.08 -2297.21 0 1712.85 -2720.82 0 1726.76 -3293.95 0 1564.34 -3798.65 0 1236.72 -4013.84 0 860.278 -3893.61 0 465.959 -3635.09 0 53.5298 -3452.48 0 -382.125 -3458.48 0 -843.098 -3568.71 0 -1328.32 -3676.16 0 -1754.48 -3691.85 0 -2069.24 -3576.47 0 -2272.6 -3299.25 0 -2362.23 -2854.37 0 -2335.83 -2335.83 0 -2193.39 -1862.6 0 -1989.75 -1533.06 0 -1812.21 -1325.44 0 -1661.88 -1174.48 0 -1530.04 -1021.03 0 -1395.37 -859.664 0 -1256.9 -712.616 0 -1118.49 -600.837 0 -994.617 -524.74 0 -886.661 -469.934 0 -793.113 -422.064 0 -704.888 -375.124 0 -620.473 -331.458 0 -540.032 -293.74 0 -465.295 -263.088 0 -396.719 -238.47 0 -334.164 -218.694 0 -274.501 -202.843 0 -216.452 -190.53 0 -160.016 -181.43 0 -105.193 -175.216 0 -51.9835 -171.564 0 -0.387162 -170.148 0 0.000247031 -222.299 0 7.54168 -222.484 0 15.0962 -223.049 0 22.6638 -223.994 0 30.2445 -225.319 0 37.8383 -227.025 0 45.4452 -229.112 0 53.0761 -231.58 0 60.7576 -234.434 0 68.4909 -237.68 0 76.276 -241.326 0 84.113 -245.378 0 92.0017 -249.842 0 99.9474 -254.725 0 107.98 -260.035 0 116.105 -265.779 0 124.323 -271.964 0 132.632 -278.599 0 141.034 -285.69 0 149.532 -293.246 0 158.189 -301.28 0 167.035 -309.815 0 176.068 -318.875 0 185.289 -328.486 0 194.697 -338.672 0 204.293 -349.459 0 214.117 -360.869 0 224.21 -372.926 0 234.573 -385.652 0 245.205 -399.068 0 256.107 -413.198 0 267.277 -428.063 0 278.808 -443.69 0 290.92 -460.154 0 303.623 -477.554 0 316.916 -495.99 0 330.8 -515.559 0 345.273 -536.359 0 360.318 -558.483 0 375.826 -581.92 0 391.78 -606.556 0 408.248 -632.278 0 425.956 -659.335 0 445.096 -688.474 0 465.681 -720.476 0 487.975 -755.474 0 512.086 -792.345 0 538.004 -829.825 0 564.9 -867.81 0 592.251 -909.408 0 620.057 -958.274 0 652.323 -1016.48 0 693.054 -1079.77 0 742.249 -1142.3 0 794.816 -1200.7 0 842.645 -1266.02 0 885.633 -1354.52 0 932.054 -1479.55 0 1002.13 -1628.76 0 1096.78 -1776.61 0 1201.07 -1901.21 0 1258.84 -2031.72 0 1264.7 -2234.13 0 1228.9 -2570.68 0 1212.97 -2998.94 0 1227.15 -3371.8 0 1253.57 -3540.2 0 1105.45 -3473.49 0 733.121 -3305.3 0 145.91 -3180.8 0 -451.029 -3176.93 0 -973.768 -3238.13 0 -1421.72 -3293.63 0 -1749.42 -3283.59 0 -1928.29 -3178.4 0 -1958.32 -2953.63 0 -1912.2 -2603.06 0 -1862.6 -2193.39 0 -1809.52 -1809.52 0 -1742.61 -1522.27 0 -1645.41 -1320.19 0 -1517.71 -1162.06 0 -1372.61 -1010.46 0 -1242.18 -861.303 0 -1127.87 -727.711 0 -1027.05 -621.991 0 -929.875 -543.656 0 -835.39 -483.002 0 -744.04 -430.355 0 -658.48 -381.516 0 -579.152 -337.754 0 -505.96 -300.554 0 -437.901 -270.298 0 -374.708 -245.841 0 -316.271 -225.929 0 -260.184 -209.646 0 -205.462 -196.736 0 -152.105 -187.019 0 -100.113 -180.316 0 -49.4858 -176.445 0 -0.223411 -175.227 0 0.00561042 -212.775 0 7.17413 -212.952 0 14.3556 -213.495 0 21.5501 -214.404 0 28.7576 -215.679 0 35.9781 -217.319 0 43.2115 -219.326 0 50.467 -221.699 0 57.7666 -224.443 0 65.1114 -227.566 0 72.5012 -231.072 0 79.9363 -234.97 0 87.4164 -239.265 0 94.9467 -243.965 0 102.557 -249.076 0 110.252 -254.605 0 118.031 -260.561 0 125.896 -266.95 0 133.845 -273.78 0 141.882 -281.058 0 150.06 -288.797 0 158.4 -297.02 0 166.903 -305.753 0 175.569 -315.019 0 184.398 -324.843 0 193.389 -335.25 0 202.586 -346.263 0 212.031 -357.905 0 221.725 -370.194 0 231.667 -383.153 0 241.857 -396.8 0 252.295 -411.157 0 263.05 -426.249 0 274.291 -442.149 0 286.023 -458.954 0 298.248 -476.762 0 310.965 -495.669 0 324.173 -515.772 0 337.88 -537.163 0 352.118 -559.86 0 366.895 -583.799 0 382.232 -608.921 0 398.371 -635.337 0 415.376 -663.402 0 433.291 -693.487 0 453.114 -725.899 0 475.252 -760.818 0 499.677 -798.409 0 524.251 -838.786 0 547.631 -881.916 0 569.816 -927.739 0 596.308 -976.614 0 632.609 -1030.57 0 678.719 -1092.03 0 726.564 -1162.98 0 763.293 -1242.55 0 788.741 -1328.88 0 814.746 -1420.95 0 870.245 -1525.01 0 956.554 -1651.11 0 1052.89 -1808.38 0 1081.11 -1993.37 0 1033.72 -2193.55 0 931.401 -2396.86 0 898.082 -2606.17 0 954.425 -2839.32 0 1076.23 -3114.05 0 1010.68 -3414.13 0 690.565 -3676.19 0 126.769 -3833.61 0 -440.908 -3848.05 0 -914.368 -3736.01 0 -1293.26 -3520.31 0 -1550.51 -3227.65 0 -1669.09 -2895.33 0 -1649 -2562.51 0 -1575.3 -2260.55 0 -1533.06 -1989.75 0 -1522.27 -1742.61 0 -1513.08 -1513.08 0 -1458 -1303.52 0 -1356.41 -1119.35 0 -1226.62 -965.13 0 -1113.37 -838.084 0 -1018.7 -731.648 0 -938.573 -639.478 0 -857.828 -558.656 0 -775.014 -488.735 0 -691.163 -429.3 0 -612.465 -379.478 0 -539.95 -337.937 0 -473.452 -303.329 0 -411.232 -274.498 0 -352.828 -250.559 0 -298.158 -230.645 0 -245.449 -214.136 0 -193.974 -200.887 0 -143.734 -190.809 0 -94.7277 -183.81 0 -46.9558 -179.8 0 -0.418254 -178.691 0 0.0104505 -203.103 0 6.82129 -203.273 0 13.6449 -203.794 0 20.4813 -204.664 0 27.3305 -205.885 0 34.1925 -207.456 0 41.0673 -209.379 0 47.9622 -211.653 0 54.8949 -214.283 0 61.8663 -217.276 0 68.8763 -220.638 0 75.925 -224.374 0 83.0123 -228.492 0 90.1432 -232.997 0 97.3466 -237.896 0 104.627 -243.197 0 111.986 -248.908 0 119.421 -255.036 0 126.934 -261.588 0 134.526 -268.573 0 142.24 -276.002 0 150.093 -283.898 0 158.085 -292.284 0 166.215 -301.183 0 174.484 -310.617 0 182.892 -320.611 0 191.483 -331.187 0 200.302 -342.366 0 209.349 -354.169 0 218.623 -366.619 0 228.125 -379.735 0 237.854 -393.541 0 247.86 -408.06 0 258.259 -423.361 0 269.057 -439.532 0 280.254 -456.661 0 291.849 -474.837 0 303.844 -494.147 0 316.26 -514.678 0 329.23 -536.469 0 342.776 -559.509 0 356.902 -583.787 0 371.649 -609.348 0 387.029 -636.308 0 403.075 -664.792 0 420.543 -695.165 0 439.741 -728.254 0 460.654 -764.939 0 482.164 -805.473 0 503.564 -848.381 0 524.857 -891.89 0 548.697 -935.514 0 577.741 -983.923 0 611.989 -1043.07 0 647.689 -1117.17 0 678.873 -1200.16 0 705.463 -1282.31 0 732.014 -1356.27 0 769.657 -1435.85 0 818.897 -1545.74 0 869.325 -1707.79 0 881.79 -1903.94 0 852.547 -2087.44 0 790.022 -2213.79 0 744.79 -2305.81 0 725.28 -2453.64 0 720.333 -2748.13 0 613.409 -3181.38 0 373.513 -3608.41 0 6.26928 -3874.72 0 -364.601 -3894.33 0 -688.484 -3714.35 0 -965.09 -3397.17 0 -1171.87 -3005.46 0 -1294.67 -2602.53 0 -1333.47 -2251.86 0 -1329.87 -1998.29 0 -1325.44 -1812.21 0 -1320.19 -1645.41 0 -1303.52 -1458 0 -1258.59 -1258.59 0 -1185.17 -1073.37 0 -1093.23 -925.689 0 -1007.12 -813.841 0 -927.932 -723.253 0 -854.347 -639.993 0 -781.356 -560.377 0 -708.481 -488.105 0 -636.221 -426.909 0 -567.571 -377.469 0 -503.032 -337.415 0 -442.529 -304.261 0 -385.299 -276.256 0 -331.138 -252.669 0 -279.987 -232.843 0 -230.537 -216.314 0 -182.253 -202.984 0 -135.136 -192.797 0 -89.1839 -185.698 0 -44.3981 -181.631 0 -0.778418 -180.539 0 0.013485 -193.283 0 6.48351 -193.447 0 12.9657 -193.944 0 19.4602 -194.773 0 25.9668 -195.937 0 32.4856 -197.435 0 39.0167 -199.27 0 45.5657 -201.441 0 52.1469 -203.953 0 58.7608 -206.812 0 65.4075 -210.023 0 72.087 -213.591 0 78.7992 -217.522 0 85.5488 -221.822 0 92.3634 -226.496 0 99.2474 -231.555 0 106.201 -237.005 0 113.224 -242.855 0 120.316 -249.114 0 127.48 -255.79 0 134.747 -262.895 0 142.131 -270.447 0 149.633 -278.469 0 157.251 -286.978 0 164.987 -295.996 0 172.84 -305.543 0 180.853 -315.639 0 189.072 -326.309 0 197.496 -337.577 0 206.124 -349.467 0 214.957 -362.005 0 223.996 -375.214 0 233.271 -389.124 0 242.86 -403.791 0 252.767 -419.288 0 262.992 -435.687 0 273.535 -453.062 0 284.396 -471.486 0 295.605 -491.03 0 307.346 -511.749 0 319.649 -533.685 0 332.515 -556.875 0 345.943 -581.36 0 359.934 -607.185 0 374.495 -634.396 0 389.789 -663.296 0 405.88 -694.689 0 422.778 -729.433 0 441.01 -767.845 0 460.911 -808.742 0 482.48 -850.687 0 504.643 -893.246 0 526.325 -940.01 0 547.528 -995.577 0 570.248 -1063.23 0 597.664 -1138.6 0 629.816 -1214.53 0 662.118 -1285.64 0 683.351 -1361.93 0 693.005 -1461.33 0 694.109 -1599.61 0 698.049 -1762.63 0 705.915 -1914.65 0 709.247 -2021.66 0 657.287 -2100.32 0 541.576 -2217.99 0 367.506 -2442.59 0 191.423 -2768.37 0 28.3112 -3087.35 0 -122.613 -3284.42 0 -278.583 -3295.55 0 -446.65 -3155.87 0 -626.52 -2911.91 0 -795.433 -2610.37 0 -939.09 -2298.42 0 -1057.49 -2023.32 0 -1139.62 -1818.47 0 -1174.48 -1661.88 0 -1162.06 -1517.71 0 -1119.35 -1356.41 0 -1073.37 -1185.17 0 -1024.48 -1024.48 0 -971.591 -892.654 0 -912.039 -788.879 0 -845.706 -702.509 0 -774.671 -623.363 0 -706.751 -548.697 0 -642.693 -481.125 0 -582.237 -423.286 0 -523.807 -375.598 0 -467.14 -336.259 0 -412.284 -303.38 0 -359.736 -275.579 0 -309.628 -252.17 0 -261.919 -232.523 0 -215.689 -216.18 0 -170.564 -203.027 0 -126.544 -192.986 0 -83.6284 -185.981 0 -41.8172 -181.935 0 -1.11063 -180.773 0 0.0135872 -183.344 0 6.16113 -183.502 0 12.3196 -183.973 0 18.4891 -184.761 0 24.6696 -185.865 0 30.861 -187.288 0 37.0634 -189.031 0 43.2815 -191.096 0 49.5269 -193.486 0 55.8001 -196.207 0 62.1011 -199.262 0 68.4299 -202.656 0 74.7865 -206.393 0 81.175 -210.479 0 87.62 -214.919 0 94.1258 -219.724 0 100.692 -224.902 0 107.319 -230.462 0 114.007 -236.415 0 120.757 -242.769 0 127.594 -249.535 0 134.531 -256.731 0 141.567 -264.371 0 148.701 -272.473 0 155.934 -281.053 0 163.267 -290.126 0 170.737 -299.713 0 178.386 -309.839 0 186.212 -320.534 0 194.217 -331.827 0 202.399 -343.748 0 210.759 -356.326 0 219.319 -369.591 0 228.131 -383.591 0 237.198 -398.376 0 246.52 -414.002 0 256.097 -430.522 0 265.93 -447.988 0 276.047 -466.456 0 286.635 -485.992 0 297.722 -506.681 0 309.31 -528.606 0 321.397 -551.851 0 333.985 -576.499 0 347.063 -602.634 0 360.419 -630.429 0 373.966 -660.224 0 387.721 -692.38 0 402.959 -727.208 0 420.484 -764.877 0 440.294 -805.537 0 459.814 -849.371 0 476.467 -896.703 0 490.254 -947.896 0 505.07 -1003.45 0 527.112 -1064.65 0 556.462 -1133.08 0 585.584 -1210.13 0 596.062 -1295.44 0 587.059 -1387.78 0 566.316 -1486.04 0 562.941 -1590.86 0 579.722 -1704.16 0 602.785 -1827.59 0 548.904 -1956.36 0 404.207 -2079.21 0 179.919 -2184.7 0 -6.71904 -2265.32 0 -124.524 -2319.04 0 -176.691 -2344.25 0 -233.475 -2339.29 0 -323.619 -2302.48 0 -446.872 -2232.16 0 -583.708 -2128.86 0 -721.862 -1999.26 0 -861.334 -1851.1 0 -971.324 -1692.11 0 -1021.03 -1530.04 0 -1010.46 -1372.61 0 -965.13 -1226.62 0 -925.689 -1093.23 0 -892.654 -971.591 0 -860.912 -860.912 0 -817.955 -761.056 0 -763.217 -672.221 0 -699.847 -594.533 0 -639.693 -527.162 0 -583.888 -468.589 0 -531.978 -417.302 0 -481.232 -372.386 0 -431.194 -333.516 0 -381.939 -300.391 0 -334.241 -272.548 0 -288.308 -249.303 0 -244.115 -229.953 0 -201.136 -213.978 0 -159.157 -201.205 0 -118.178 -191.502 0 -78.1991 -184.737 0 -39.2196 -180.779 0 -1.23982 -179.495 0 0.0109823 -173.355 0 5.85458 -173.506 0 11.7073 -173.952 0 17.5692 -174.697 0 23.4402 -175.742 0 29.3204 -177.088 0 35.2098 -178.739 0 41.1123 -180.696 0 47.0382 -182.962 0 52.9878 -185.541 0 58.9611 -188.438 0 64.9581 -191.654 0 70.9788 -195.195 0 77.0267 -199.064 0 83.1223 -203.268 0 89.2688 -207.816 0 95.4665 -212.719 0 101.715 -217.985 0 108.015 -223.627 0 114.367 -229.652 0 120.793 -236.072 0 127.304 -242.9 0 133.899 -250.15 0 140.578 -257.834 0 147.341 -265.966 0 154.189 -274.56 0 161.152 -283.632 0 168.262 -293.21 0 175.518 -303.328 0 182.922 -314.017 0 190.473 -325.31 0 198.171 -337.238 0 206.033 -349.834 0 214.103 -363.135 0 222.383 -377.179 0 230.873 -392.003 0 239.572 -407.646 0 248.481 -424.145 0 257.623 -441.54 0 267.141 -459.909 0 277.059 -479.362 0 287.377 -500.016 0 298.095 -521.986 0 309.212 -545.384 0 320.717 -570.327 0 332.349 -596.896 0 344.001 -625.109 0 355.686 -654.979 0 368.381 -686.759 0 382.703 -721.378 0 398.65 -759.877 0 414.446 -802.815 0 428.314 -848.811 0 440.253 -895.999 0 452.231 -943.367 0 467.381 -994.883 0 485.741 -1056.32 0 502.874 -1132.28 0 507.928 -1217.23 0 500.41 -1300.44 0 484.143 -1372.38 0 473.508 -1440.99 0 469.883 -1526.78 0 465.442 -1649.03 0 413.24 -1792.49 0 305.454 -1907.37 0 148.555 -1943.32 0 10.144 -1892.7 0 -91.8006 -1807.14 0 -158.963 -1742.39 0 -228.398 -1728.51 0 -315.264 -1745.51 0 -419.402 -1767.68 0 -528.312 -1772.29 0 -634.144 -1744.84 0 -736.897 -1672.24 0 -818.195 -1548.4 0 -859.664 -1395.37 0 -861.303 -1242.18 0 -838.084 -1113.37 0 -813.841 -1007.12 0 -788.879 -912.039 0 -761.056 -817.955 0 -725.137 -725.137 0 -680.883 -639.237 0 -630.242 -565.583 0 -580.537 -504.441 0 -532.47 -452.437 0 -485.942 -406.196 0 -440.375 -364.214 0 -395.669 -326.86 0 -351.842 -294.574 0 -309.055 -267.367 0 -267.353 -244.649 0 -226.727 -225.789 0 -187.015 -210.302 0 -148.149 -197.983 0 -110.13 -188.661 0 -72.9567 -182.163 0 -36.6299 -178.319 0 -1.14944 -176.957 0 0.00659204 -163.319 0 5.56429 -163.462 0 11.1289 -163.883 0 16.7005 -164.585 0 22.2791 -165.57 0 27.8646 -166.84 0 33.4571 -168.397 0 39.0603 -170.244 0 44.6834 -172.384 0 50.3268 -174.819 0 55.9905 -177.554 0 61.6746 -180.59 0 67.379 -183.932 0 73.1063 -187.582 0 78.872 -191.547 0 84.6789 -195.836 0 90.5268 -200.461 0 96.4159 -205.431 0 102.346 -210.756 0 108.318 -216.445 0 114.354 -222.51 0 120.461 -228.962 0 126.64 -235.811 0 132.892 -243.068 0 139.215 -250.745 0 145.61 -258.853 0 152.099 -267.406 0 158.701 -276.435 0 165.418 -285.972 0 172.249 -296.051 0 179.193 -306.704 0 186.252 -317.966 0 193.443 -329.869 0 200.809 -342.442 0 208.353 -355.712 0 216.074 -369.707 0 223.973 -384.453 0 232.049 -399.978 0 240.315 -416.31 0 248.844 -433.53 0 257.649 -451.767 0 266.728 -471.152 0 276.084 -491.817 0 285.715 -513.893 0 295.616 -537.512 0 305.673 -562.713 0 315.838 -589.356 0 326.116 -617.282 0 336.72 -646.644 0 347.784 -678.452 0 359.31 -713.863 0 371.127 -753.53 0 383.064 -796.098 0 395.121 -839.704 0 406.271 -883.247 0 414.879 -930.06 0 420.924 -985.079 0 424.717 -1052.22 0 427.017 -1126.46 0 427.86 -1198.18 0 424.741 -1258.86 0 408.248 -1315.39 0 377.477 -1385.72 0 333.777 -1486.77 0 285.221 -1605.02 0 233.158 -1696.57 0 176.257 -1717.05 0 100.644 -1660.55 0 2.62743 -1574.52 0 -116.805 -1510.14 0 -235.957 -1495.17 0 -345.95 -1511.82 0 -446.716 -1537.1 0 -532.866 -1550.28 0 -601.015 -1536.98 0 -651.163 -1483.86 0 -687.099 -1384.12 0 -712.616 -1256.9 0 -727.711 -1127.87 0 -731.648 -1018.7 0 -723.253 -927.932 0 -702.509 -845.706 0 -672.221 -763.217 0 -639.237 -680.883 0 -603.871 -603.871 0 -566.256 -537.062 0 -526.895 -480.927 0 -485.839 -432.758 0 -443.46 -389.842 0 -402.003 -350.918 0 -361.842 -316.186 0 -322.924 -285.899 0 -284.701 -260.043 0 -247.028 -238.235 0 -209.907 -220.062 0 -173.417 -205.181 0 -137.589 -193.383 0 -102.424 -184.476 0 -67.9218 -178.267 0 -34.0819 -174.563 0 -0.904553 -173.171 0 0.00134373 -153.236 0 5.29071 -153.371 0 10.5847 -153.767 0 15.8833 -154.426 0 21.1865 -155.35 0 26.4943 -156.543 0 31.8068 -158.006 0 37.1274 -159.741 0 42.465 -161.752 0 47.82 -164.041 0 53.1924 -166.61 0 58.5822 -169.463 0 63.9894 -172.603 0 69.4156 -176.032 0 74.8713 -179.756 0 80.3582 -183.785 0 85.8762 -188.13 0 91.4254 -192.799 0 97.0058 -197.802 0 102.618 -203.15 0 108.284 -208.851 0 114.011 -214.916 0 119.8 -221.354 0 125.65 -228.175 0 131.563 -235.389 0 137.536 -243.005 0 143.582 -251.037 0 149.708 -259.513 0 155.915 -268.466 0 162.204 -277.929 0 168.573 -287.933 0 175.024 -298.512 0 181.576 -309.696 0 188.28 -321.511 0 195.137 -333.977 0 202.149 -347.115 0 209.315 -360.944 0 216.635 -375.487 0 224.107 -390.766 0 231.721 -406.858 0 239.478 -423.895 0 247.375 -442.013 0 255.413 -461.345 0 263.593 -482.025 0 271.919 -504.189 0 280.488 -527.87 0 289.342 -552.916 0 298.475 -579.149 0 307.429 -606.593 0 315.918 -635.824 0 323.941 -667.512 0 332.317 -702.178 0 341.865 -739.756 0 352.585 -780.03 0 362.003 -822.865 0 366.183 -868.602 0 365.072 -917.756 0 361.229 -970.742 0 360.905 -1027.15 0 364.385 -1086.13 0 366.326 -1146.89 0 346.644 -1209.23 0 303.417 -1273.43 0 242.372 -1339.6 0 197.872 -1404.78 0 175.643 -1462.87 0 170.663 -1507.73 0 130.464 -1536.45 0 41.0907 -1550.61 0 -95.2555 -1552.12 0 -230.169 -1541.94 0 -343.847 -1519.19 0 -436.268 -1482.79 0 -505.735 -1432.24 0 -551.183 -1368.69 0 -572.611 -1293.58 0 -584.377 -1208.84 0 -600.837 -1118.49 0 -621.991 -1027.05 0 -639.478 -938.573 0 -639.993 -854.347 0 -623.363 -774.671 0 -594.533 -699.847 0 -565.583 -630.242 0 -537.062 -566.256 0 -508.26 -508.26 0 -476.501 -456.257 0 -441.53 -409.983 0 -403.89 -369.159 0 -366.839 -333.365 0 -330.919 -302.029 0 -296.072 -274.58 0 -261.685 -250.634 0 -227.593 -230.066 0 -193.802 -212.771 0 -160.43 -198.613 0 -127.525 -187.405 0 -95.0867 -178.948 0 -63.1147 -173.049 0 -31.6095 -169.511 0 -0.570887 -168.137 0 -0.00383526 -143.106 0 5.03429 -143.232 0 10.0748 -143.602 0 15.1176 -144.218 0 20.1627 -145.083 0 25.2103 -146.197 0 30.2601 -147.565 0 35.3158 -149.187 0 40.3858 -151.066 0 45.4705 -153.205 0 50.5698 -155.607 0 55.6839 -158.274 0 60.8126 -161.209 0 65.9569 -164.414 0 71.1221 -167.896 0 76.309 -171.663 0 81.5176 -175.724 0 86.748 -180.089 0 92.0001 -184.766 0 97.275 -189.765 0 102.594 -195.094 0 107.964 -200.763 0 113.388 -206.781 0 118.863 -213.156 0 124.391 -219.898 0 129.971 -227.016 0 135.603 -234.523 0 141.284 -242.444 0 147.014 -250.81 0 152.795 -259.65 0 158.626 -268.995 0 164.506 -278.874 0 170.46 -289.315 0 176.546 -300.342 0 182.766 -311.973 0 189.122 -324.225 0 195.612 -337.119 0 202.237 -350.672 0 208.981 -364.906 0 215.752 -379.89 0 222.534 -395.747 0 229.328 -412.599 0 236.132 -430.569 0 242.948 -449.781 0 249.788 -470.357 0 256.951 -492.339 0 264.557 -515.612 0 272.596 -540.042 0 280.24 -565.587 0 286.97 -592.453 0 292.786 -620.89 0 298.539 -651.248 0 305.081 -684.273 0 312.414 -720.814 0 318.588 -761.388 0 320.503 -804.585 0 318.121 -848.295 0 313.124 -890.859 0 309.628 -934.527 0 307.82 -983.565 0 303.915 -1041.66 0 283.683 -1104.38 0 245.763 -1161.45 0 194.249 -1203.04 0 153.72 -1232.56 0 128.272 -1266.69 0 114.43 -1322.27 0 75.9031 -1398.47 0 3.03812 -1469.96 0 -102.624 -1509.7 0 -207.202 -1502.88 0 -296.833 -1458.45 0 -371.498 -1388.12 0 -429.562 -1303.18 0 -469.999 -1213.79 0 -492.81 -1129.94 0 -507.792 -1058.59 0 -524.74 -994.617 0 -543.656 -929.875 0 -558.656 -857.828 0 -560.377 -781.356 0 -548.697 -706.751 0 -527.162 -639.693 0 -504.441 -580.537 0 -480.927 -526.895 0 -456.257 -476.501 0 -429.066 -429.066 0 -399.224 -385.727 0 -367.101 -347.608 0 -334.922 -314.808 0 -303.056 -286.403 0 -271.503 -261.434 0 -240.239 -239.349 0 -209.259 -220.158 0 -178.563 -203.916 0 -148.146 -190.6 0 -118.006 -180.048 0 -88.1423 -172.078 0 -58.556 -166.509 0 -29.2466 -163.162 0 -0.214178 -161.855 0 -0.00801756 -132.929 0 4.79546 -133.046 0 9.59931 -133.39 0 14.4036 -133.963 0 19.2082 -134.767 0 24.0132 -135.803 0 28.8185 -137.074 0 33.6276 -138.581 0 38.4483 -140.326 0 43.281 -142.313 0 48.1257 -144.544 0 52.9824 -147.022 0 57.8512 -149.749 0 62.7321 -152.729 0 67.6262 -155.966 0 72.5334 -159.468 0 77.454 -163.244 0 82.3877 -167.301 0 87.3347 -171.648 0 92.2959 -176.291 0 97.2919 -181.24 0 102.331 -186.503 0 107.413 -192.09 0 112.539 -198.01 0 117.708 -204.272 0 122.92 -210.886 0 128.164 -217.864 0 133.431 -225.228 0 138.72 -233.004 0 144.031 -241.216 0 149.364 -249.89 0 154.719 -259.052 0 160.123 -268.726 0 165.639 -278.935 0 171.27 -289.699 0 177.017 -301.04 0 182.879 -312.978 0 188.856 -325.534 0 194.922 -338.731 0 200.914 -352.629 0 206.806 -367.322 0 212.598 -382.91 0 218.289 -399.49 0 223.879 -417.16 0 229.389 -436.017 0 235.254 -456.115 0 241.653 -477.426 0 248.575 -499.911 0 255.078 -523.529 0 260.573 -548.24 0 265.061 -574.005 0 268.915 -600.976 0 272.51 -630.076 0 275.846 -662.423 0 278.317 -698.737 0 278.958 -737.44 0 277.755 -776.119 0 274.337 -812.856 0 267.787 -850.052 0 258.064 -892.332 0 244.64 -943.679 0 225.521 -999.083 0 200.519 -1047.06 0 169.682 -1076.65 0 133.318 -1092.29 0 91.4775 -1113.82 0 44.2798 -1161.33 0 -7.02059 -1234.95 0 -62.0902 -1307.17 0 -120.755 -1348.56 0 -179.186 -1342.95 0 -235.817 -1300.01 0 -290.61 -1232.36 0 -340.521 -1152.08 0 -383.639 -1069.75 0 -419.965 -995.673 0 -448.922 -936.806 0 -469.934 -886.661 0 -483.002 -835.39 0 -488.735 -775.014 0 -488.105 -708.481 0 -481.125 -642.693 0 -468.589 -583.888 0 -452.437 -532.47 0 -432.758 -485.839 0 -409.983 -441.53 0 -385.727 -399.224 0 -360.147 -360.147 0 -333.33 -325.517 0 -305.803 -295.559 0 -277.654 -269.501 0 -248.95 -246.539 0 -220.403 -226.208 0 -192.201 -208.513 0 -164.338 -193.497 0 -136.652 -181.142 0 -109.078 -171.313 0 -81.6163 -163.863 0 -54.2659 -158.647 0 -27.0272 -155.517 0 0.0998399 -154.325 0 -0.0103072 -122.711 0 4.57466 -122.818 0 9.15855 -123.135 0 13.7414 -123.665 0 18.3231 -124.408 0 22.9038 -125.366 0 27.4834 -126.539 0 32.0647 -127.93 0 36.655 -129.539 0 41.2544 -131.372 0 45.863 -133.429 0 50.4808 -135.715 0 55.1077 -138.233 0 59.7434 -140.984 0 64.3856 -143.975 0 69.0338 -147.211 0 73.6882 -150.699 0 78.3486 -154.445 0 83.0151 -158.456 0 87.6885 -162.738 0 92.3877 -167.299 0 97.1205 -172.149 0 101.887 -177.297 0 106.686 -182.753 0 111.52 -188.529 0 116.387 -194.634 0 121.27 -201.08 0 126.153 -207.884 0 131.036 -215.066 0 135.919 -222.645 0 140.802 -230.64 0 145.684 -239.071 0 150.592 -247.957 0 155.589 -257.323 0 160.678 -267.196 0 165.857 -277.602 0 171.129 -288.569 0 176.492 -300.122 0 181.913 -312.29 0 187.187 -325.117 0 192.282 -338.663 0 197.196 -352.99 0 201.93 -368.158 0 206.483 -384.228 0 210.878 -401.262 0 215.587 -419.332 0 220.802 -438.527 0 226.514 -458.94 0 231.878 -480.595 0 236.365 -503.323 0 239.976 -526.921 0 242.549 -551.338 0 243.925 -577.127 0 244.104 -604.991 0 243.475 -635.466 0 242.662 -668.112 0 241.672 -702.136 0 238.824 -736.875 0 230.015 -772.805 0 215.057 -810.986 0 195.675 -852.241 0 178.353 -894.059 0 163.71 -931.534 0 148.941 -959.95 0 117.206 -980.293 0 65.6981 -999.251 0 -3.02237 -1023.61 0 -62.2192 -1053.47 0 -104.782 -1079.68 0 -131.439 -1092.43 0 -158.229 -1086.2 0 -191.715 -1063.78 0 -231.846 -1028.92 0 -274.847 -985.402 0 -318.345 -937.052 0 -362.339 -887.717 0 -399.392 -840.198 0 -422.064 -793.113 0 -430.355 -744.04 0 -429.3 -691.163 0 -426.909 -636.221 0 -423.286 -582.237 0 -417.302 -531.978 0 -406.196 -485.942 0 -389.842 -443.46 0 -369.159 -403.89 0 -347.608 -367.101 0 -325.517 -333.33 0 -302.813 -302.813 0 -279.037 -275.563 0 -254.114 -251.376 0 -228.147 -230.038 0 -202.21 -211.377 0 -176.589 -195.279 0 -151.273 -181.635 0 -126.038 -170.339 0 -100.791 -161.292 0 -75.5336 -154.396 0 -50.2646 -149.551 0 -24.9842 -146.66 0 0.307465 -145.624 0 -0.0105293 -112.486 0 4.37203 -112.582 0 8.75262 -112.873 0 13.1312 -113.36 0 17.5079 -114.042 0 21.8825 -114.92 0 26.2552 -115.996 0 30.6282 -117.27 0 35.007 -118.744 0 39.392 -120.422 0 43.783 -122.306 0 48.1802 -124.4 0 52.5834 -126.707 0 56.992 -129.23 0 61.4017 -131.974 0 65.8118 -134.942 0 70.2221 -138.141 0 74.6328 -141.576 0 79.0438 -145.251 0 83.4559 -149.172 0 87.8847 -153.345 0 92.3365 -157.782 0 96.8114 -162.492 0 101.309 -167.486 0 105.83 -172.775 0 110.375 -178.369 0 114.922 -184.281 0 119.452 -190.522 0 123.966 -197.108 0 128.463 -204.053 0 132.944 -211.369 0 137.407 -219.072 0 141.876 -227.176 0 146.405 -235.708 0 150.996 -244.698 0 155.65 -254.178 0 160.366 -264.179 0 165.144 -274.734 0 169.948 -285.872 0 174.563 -297.625 0 178.954 -310.022 0 183.119 -323.095 0 187.059 -336.871 0 190.774 -351.382 0 194.283 -366.658 0 197.99 -382.777 0 202.061 -399.911 0 206.49 -418.242 0 210.662 -437.85 0 214.195 -458.53 0 217.088 -480.028 0 218.819 -502.181 0 218.867 -525.183 0 217.232 -549.323 0 214.543 -574.896 0 211.799 -602.263 0 209.014 -631.805 0 204.572 -663.773 0 194.521 -697.282 0 178.681 -730.859 0 159.117 -763.1 0 143.589 -793.56 0 132.84 -822.489 0 123.655 -850.072 0 96.7437 -874.68 0 48.8918 -892.871 0 -17.1357 -901.196 0 -72.4571 -899.488 0 -109.391 -892.134 0 -128.727 -883.838 0 -147.823 -876.974 0 -173.78 -869.394 0 -206.56 -858.429 0 -243.025 -841.834 0 -281.206 -818.533 0 -321.103 -787.651 0 -354.986 -748.966 0 -375.124 -704.888 0 -381.516 -658.48 0 -379.478 -612.465 0 -377.469 -567.571 0 -375.598 -523.807 0 -372.386 -481.232 0 -364.214 -440.375 0 -350.918 -402.003 0 -333.365 -366.839 0 -314.808 -334.922 0 -295.559 -305.803 0 -275.563 -279.037 0 -254.49 -254.49 0 -232.284 -232.343 0 -209.035 -212.787 0 -185.685 -195.853 0 -162.483 -181.343 0 -139.422 -169.048 0 -116.34 -158.805 0 -93.1703 -150.545 0 -69.912 -144.213 0 -46.5656 -139.751 0 -23.131 -137.103 0 0.391759 -136.212 0 -0.00923034 -102.259 0 4.18744 -102.345 0 8.38167 -102.61 0 12.5735 -103.052 0 16.7628 -103.673 0 20.9497 -104.472 0 25.1342 -105.45 0 29.3177 -106.608 0 33.504 -107.946 0 37.6933 -109.47 0 41.8854 -111.182 0 46.0806 -113.084 0 50.2786 -115.181 0 54.4787 -117.475 0 58.6755 -119.97 0 62.8681 -122.671 0 67.0565 -125.58 0 71.2407 -128.702 0 75.4206 -132.042 0 79.5969 -135.602 0 83.7808 -139.39 0 87.9771 -143.416 0 92.1856 -147.69 0 96.4065 -152.223 0 100.64 -157.026 0 104.885 -162.11 0 109.122 -167.485 0 113.331 -173.162 0 117.511 -179.149 0 121.663 -185.458 0 125.786 -192.098 0 129.881 -199.078 0 133.963 -206.411 0 138.073 -214.121 0 142.213 -222.244 0 146.382 -230.812 0 150.581 -239.859 0 154.81 -249.419 0 159.034 -259.524 0 163.049 -270.196 0 166.821 -281.442 0 170.351 -293.268 0 173.638 -305.681 0 176.682 -318.689 0 179.496 -332.298 0 182.357 -346.584 0 185.378 -361.746 0 188.555 -378.003 0 191.543 -395.472 0 194.127 -414.001 0 196.305 -433.393 0 197.377 -453.478 0 196.644 -474.205 0 194.103 -495.553 0 190.195 -517.583 0 185.616 -540.838 0 180.377 -566.036 0 173.589 -593.693 0 163.082 -622.566 0 148.758 -650.507 0 131.978 -675.549 0 117.859 -698.294 0 106.89 -721.193 0 96.817 -746.532 0 74.1175 -771.796 0 36.5373 -789.67 0 -14.1448 -792.782 0 -59.3513 -780.578 0 -94.1414 -761.967 0 -118.93 -746.515 0 -142.841 -739.318 0 -169.609 -736.78 0 -199.209 -734.31 0 -229.78 -727.827 0 -260.154 -714.665 0 -290.329 -692.402 0 -315.65 -659.813 0 -331.458 -620.473 0 -337.754 -579.152 0 -337.937 -539.95 0 -337.415 -503.032 0 -336.259 -467.14 0 -333.516 -431.194 0 -326.86 -395.669 0 -316.186 -361.842 0 -302.029 -330.919 0 -286.403 -303.056 0 -269.501 -277.654 0 -251.376 -254.114 0 -232.343 -232.284 0 -212.454 -212.454 0 -191.763 -194.93 0 -170.841 -179.801 0 -149.837 -166.854 0 -128.751 -155.856 0 -107.55 -146.64 0 -86.2203 -139.165 0 -64.7622 -133.405 0 -43.1758 -129.336 0 -21.4608 -126.931 0 0.382547 -126.165 0 -0.0069881 -92.0292 0 4.02072 -92.1069 0 8.04583 -92.3449 0 12.0683 -92.7433 0 16.0882 -93.3023 0 20.1055 -94.0218 0 24.1202 -94.9019 0 28.133 -95.9429 0 32.1455 -97.1469 0 36.1578 -98.5169 0 40.1699 -100.056 0 44.1818 -101.767 0 48.1935 -103.654 0 52.2041 -105.719 0 56.2079 -107.965 0 60.2038 -110.396 0 64.192 -113.015 0 68.1724 -115.824 0 72.145 -118.828 0 76.1101 -122.03 0 80.0742 -125.434 0 84.0399 -129.051 0 88.0073 -132.891 0 91.9763 -136.965 0 95.947 -141.283 0 99.9193 -145.856 0 103.874 -150.693 0 107.792 -155.802 0 111.673 -161.189 0 115.518 -166.862 0 119.326 -172.826 0 123.097 -179.09 0 126.84 -185.661 0 130.578 -192.564 0 134.312 -199.834 0 138.042 -207.504 0 141.767 -215.607 0 145.488 -224.177 0 149.176 -233.248 0 152.651 -242.831 0 155.884 -252.921 0 158.876 -263.508 0 161.627 -274.587 0 164.135 -286.147 0 166.408 -298.183 0 168.577 -310.752 0 170.694 -324.038 0 172.759 -338.239 0 174.634 -353.496 0 176.231 -369.787 0 177.55 -387.064 0 177.893 -405.25 0 176.56 -424.152 0 173.55 -443.55 0 169.043 -463.281 0 163.326 -483.516 0 156.401 -504.545 0 148.024 -526.56 0 137.598 -548.872 0 125.096 -570.345 0 111.072 -589.962 0 97.6116 -608.418 0 84.9133 -627.641 0 71.8846 -649.428 0 51.9674 -671.964 0 24.0686 -689.822 0 -11.0886 -697.515 0 -45.9528 -694.022 0 -78.5155 -684.52 0 -108.821 -674.619 0 -137.851 -667.396 0 -166.004 -660.996 0 -193.272 -653.001 0 -218.905 -641.31 0 -242.431 -624.696 0 -263.85 -602.084 0 -281.505 -573.082 0 -293.74 -540.032 0 -300.554 -505.96 0 -303.329 -473.452 0 -304.261 -442.529 0 -303.38 -412.284 0 -300.391 -381.939 0 -294.574 -351.842 0 -285.899 -322.924 0 -274.58 -296.072 0 -261.434 -271.503 0 -246.539 -248.95 0 -230.038 -228.147 0 -212.787 -209.035 0 -194.93 -191.763 0 -176.487 -176.487 0 -157.69 -163.227 0 -138.599 -151.812 0 -119.219 -142.06 0 -99.6532 -133.846 0 -79.9453 -127.151 0 -60.0949 -121.972 0 -40.1019 -118.304 0 -19.9664 -116.143 0 0.311687 -115.484 0 -0.00438035 -81.7978 0 3.87173 -81.8666 0 7.74524 -82.0782 0 11.6162 -82.4324 0 15.4845 -82.9294 0 19.3502 -83.5689 0 23.2133 -84.351 0 27.0737 -85.2759 0 30.9309 -86.3453 0 34.785 -87.5623 0 38.6359 -88.9295 0 42.4837 -90.4498 0 46.3283 -92.1262 0 50.1688 -93.9612 0 53.9996 -95.9578 0 57.8198 -98.1185 0 61.6293 -100.446 0 65.4282 -102.942 0 69.2164 -105.611 0 72.994 -108.454 0 76.7625 -111.476 0 80.5226 -114.687 0 84.2743 -118.096 0 88.0175 -121.712 0 91.7523 -125.546 0 95.4786 -129.607 0 99.1795 -133.904 0 102.838 -138.442 0 106.454 -143.227 0 110.028 -148.263 0 113.559 -153.555 0 117.048 -159.107 0 120.496 -164.927 0 123.906 -171.037 0 127.28 -177.469 0 130.616 -184.254 0 133.916 -191.423 0 137.179 -199.009 0 140.38 -207.042 0 143.376 -215.53 0 146.141 -224.46 0 148.677 -233.817 0 150.983 -243.588 0 153.059 -253.758 0 154.906 -264.312 0 156.521 -275.294 0 157.904 -286.85 0 159.055 -299.145 0 159.939 -312.314 0 160.532 -326.432 0 160.836 -341.559 0 160.293 -357.695 0 158.349 -374.591 0 155.003 -391.937 0 150.301 -409.445 0 144.318 -426.963 0 137.054 -444.387 0 128.461 -461.606 0 118.425 -478.449 0 106.94 -494.712 0 94.1492 -510.243 0 80.5894 -525.58 0 66.3122 -541.765 0 50.9422 -559.76 0 32.2266 -578.552 0 9.78982 -595.148 0 -16.1817 -606.507 0 -43.742 -611.4 0 -72.3735 -611.106 0 -101.976 -607.083 0 -130.343 -600.236 0 -156.574 -590.391 0 -180.665 -577.254 0 -202.422 -560.655 0 -221.726 -540.781 0 -238.575 -517.881 0 -252.514 -492.364 0 -263.088 -465.295 0 -270.298 -437.901 0 -274.498 -411.232 0 -276.256 -385.299 0 -275.579 -359.736 0 -272.548 -334.241 0 -267.367 -309.055 0 -260.043 -284.701 0 -250.634 -261.685 0 -239.349 -240.239 0 -226.208 -220.403 0 -211.377 -202.21 0 -195.853 -185.685 0 -179.801 -170.841 0 -163.227 -157.69 0 -146.19 -146.19 0 -128.706 -136.221 0 -110.786 -127.659 0 -92.6378 -120.421 0 -74.3494 -114.504 0 -55.9203 -109.913 0 -37.3506 -106.657 0 -18.6401 -104.74 0 0.211037 -104.17 0 -0.00198487 -71.5645 0 3.7403 -71.6248 0 7.48003 -71.8098 0 11.2172 -72.1197 0 14.9518 -72.5543 0 18.6839 -73.1136 0 22.4134 -73.7976 0 26.1395 -74.6064 0 29.8598 -75.5418 0 33.5744 -76.6061 0 37.2831 -77.8019 0 40.986 -79.1316 0 44.6831 -80.5976 0 48.3735 -82.2025 0 52.0518 -83.9486 0 55.717 -85.8381 0 59.3691 -87.8732 0 63.0082 -90.0562 0 66.6343 -92.3894 0 70.2472 -94.8749 0 73.8438 -97.517 0 77.4229 -100.324 0 80.9845 -103.303 0 84.5286 -106.464 0 88.0551 -109.815 0 91.5642 -113.364 0 95.0411 -117.119 0 98.4714 -121.084 0 101.855 -125.264 0 105.192 -129.662 0 108.482 -134.283 0 111.726 -139.13 0 114.917 -144.208 0 118.042 -149.539 0 121.101 -155.147 0 124.093 -161.061 0 127.019 -167.308 0 129.879 -173.915 0 132.653 -180.907 0 135.23 -188.292 0 137.592 -196.059 0 139.738 -204.194 0 141.668 -212.686 0 143.382 -221.52 0 144.876 -230.686 0 146.043 -240.211 0 146.839 -250.201 0 147.264 -260.77 0 147.316 -272.03 0 146.992 -284.08 0 146.293 -297.015 0 144.86 -310.867 0 142.337 -325.409 0 138.722 -340.349 0 134.02 -355.397 0 128.237 -370.291 0 121.371 -384.775 0 113.31 -398.627 0 103.776 -411.894 0 92.7547 -424.762 0 80.2584 -437.429 0 66.3291 -450.219 0 50.9709 -463.548 0 34.1703 -477.796 0 15.8469 -492.455 0 -4.01303 -506.13 0 -25.3946 -517.395 0 -48.1448 -525.155 0 -72.2228 -528.776 0 -97.5291 -527.664 0 -121.876 -521.622 0 -144.37 -511.231 0 -165.01 -497.163 0 -183.78 -480.111 0 -200.672 -460.835 0 -215.685 -440.106 0 -228.418 -418.613 0 -238.47 -396.719 0 -245.841 -374.708 0 -250.559 -352.828 0 -252.669 -331.138 0 -252.17 -309.628 0 -249.303 -288.308 0 -244.649 -267.353 0 -238.235 -247.028 0 -230.066 -227.593 0 -220.158 -209.259 0 -208.513 -192.201 0 -195.279 -176.589 0 -181.343 -162.483 0 -166.854 -149.837 0 -151.812 -138.599 0 -136.221 -128.706 0 -120.084 -120.084 0 -103.412 -112.654 0 -86.4911 -106.367 0 -69.4367 -101.223 0 -52.2492 -97.2296 0 -34.9285 -94.3934 0 -17.4746 -92.7215 0 0.112456 -92.2205 0 -0.000377074 -61.3293 0 3.62629 -61.3815 0 7.25035 -61.5401 0 10.8718 -61.8053 0 14.4907 -62.1772 0 18.107 -62.656 0 21.7206 -63.2417 0 25.3302 -63.9347 0 28.9319 -64.7364 0 32.5255 -65.6486 0 36.1111 -66.6734 0 39.6887 -67.8127 0 43.2582 -69.0685 0 46.8188 -70.4428 0 50.3651 -71.9376 0 53.8962 -73.5551 0 57.4121 -75.2972 0 60.9128 -77.1663 0 64.3983 -79.1642 0 67.8683 -81.2932 0 71.3159 -83.5569 0 74.7384 -85.9617 0 78.1358 -88.5143 0 81.5081 -91.2214 0 84.8552 -94.0899 0 88.1772 -97.1265 0 91.4614 -100.337 0 94.6949 -103.727 0 97.8777 -107.3 0 101.01 -111.061 0 104.092 -115.012 0 107.122 -119.159 0 110.092 -123.506 0 112.972 -128.07 0 115.761 -132.87 0 118.46 -137.927 0 121.069 -143.261 0 123.587 -148.893 0 126.001 -154.843 0 128.222 -161.12 0 130.235 -167.72 0 132.041 -174.642 0 133.64 -181.881 0 135.031 -189.435 0 136.207 -197.301 0 136.996 -205.496 0 137.326 -214.074 0 137.197 -223.095 0 136.611 -232.619 0 135.565 -242.705 0 134.062 -253.413 0 131.903 -264.762 0 128.891 -276.622 0 125.027 -288.821 0 120.311 -301.188 0 114.743 -313.552 0 108.322 -325.743 0 100.826 -337.606 0 91.7105 -349.121 0 80.9511 -360.343 0 68.5475 -371.325 0 54.4999 -382.119 0 38.8082 -392.778 0 21.6068 -403.343 0 3.70242 -413.526 0 -14.7705 -422.713 0 -33.812 -430.278 0 -53.4221 -435.592 0 -73.6007 -438.03 0 -94.2933 -436.965 0 -114.3 -432.137 0 -133.128 -423.988 0 -150.78 -413.04 0 -167.254 -399.818 0 -182.55 -384.845 0 -196.669 -368.643 0 -208.941 -351.675 0 -218.694 -334.164 0 -225.929 -316.271 0 -230.645 -298.158 0 -232.843 -279.987 0 -232.523 -261.919 0 -229.953 -244.115 0 -225.789 -226.727 0 -220.062 -209.907 0 -212.771 -193.802 0 -203.916 -178.563 0 -193.497 -164.338 0 -181.635 -151.273 0 -169.048 -139.422 0 -155.856 -128.751 0 -142.06 -119.219 0 -127.659 -110.786 0 -112.654 -103.412 0 -97.059 -97.059 0 -81.2002 -91.6979 0 -65.2112 -87.324 0 -49.0919 -83.9349 0 -32.8423 -81.5281 0 -16.4625 -80.1012 0 0.0476659 -79.6519 0 0.000151987 -51.097 0 3.5296 -51.1409 0 7.05625 -51.2731 0 10.5801 -51.4937 0 14.1011 -51.803 0 17.6194 -52.2014 0 21.1348 -52.689 0 24.6455 -53.2663 0 28.1466 -53.9343 0 31.638 -54.6946 0 35.1196 -55.5485 0 38.5915 -56.4977 0 42.0536 -57.5435 0 45.505 -58.6875 0 48.9401 -59.9313 0 52.3579 -61.2771 0 55.7585 -62.7267 0 59.1418 -64.2821 0 62.5078 -65.9455 0 65.8562 -67.7186 0 69.1774 -69.6046 0 72.4676 -71.6083 0 75.7267 -73.7348 0 78.9548 -75.9892 0 82.1518 -78.3767 0 85.3179 -80.9022 0 88.4409 -83.5709 0 91.509 -86.3871 0 94.5223 -89.3553 0 97.4806 -92.4797 0 100.384 -95.7649 0 103.233 -99.215 0 106.011 -102.835 0 108.684 -106.637 0 111.249 -110.633 0 113.707 -114.839 0 116.057 -119.269 0 118.299 -123.937 0 120.421 -128.856 0 122.347 -134.038 0 124.063 -139.487 0 125.571 -145.21 0 126.869 -151.213 0 127.959 -157.501 0 128.83 -164.081 0 129.288 -170.96 0 129.252 -178.153 0 128.723 -185.672 0 127.7 -193.533 0 126.184 -201.748 0 124.173 -210.331 0 121.544 -219.286 0 118.17 -228.572 0 114.051 -238.137 0 109.187 -247.929 0 103.578 -257.896 0 97.2241 -267.987 0 89.89 -278.142 0 81.0002 -288.236 0 70.5285 -298.107 0 58.475 -307.596 0 44.8396 -316.543 0 29.6223 -324.787 0 12.9988 -332.166 0 -3.9771 -338.509 0 -21.1298 -343.632 0 -38.4593 -347.351 0 -55.9655 -349.481 0 -73.6485 -349.837 0 -91.4762 -348.238 0 -108.742 -344.604 0 -125.156 -339.065 0 -140.719 -331.775 0 -155.431 -322.885 0 -169.291 -312.548 0 -182.3 -300.917 0 -193.728 -288.159 0 -202.843 -274.501 0 -209.646 -260.184 0 -214.136 -245.449 0 -216.314 -230.537 0 -216.18 -215.689 0 -213.978 -201.136 0 -210.302 -187.015 0 -205.181 -173.417 0 -198.613 -160.43 0 -190.6 -148.146 0 -181.142 -136.652 0 -170.339 -126.038 0 -158.805 -116.34 0 -146.64 -107.55 0 -133.846 -99.6532 0 -120.421 -92.6378 0 -106.367 -86.4911 0 -91.6979 -81.2002 0 -76.7531 -76.7531 0 -61.6709 -73.1385 0 -46.4512 -70.3455 0 -31.0942 -68.3629 0 -15.5998 -67.1798 0 0.0320856 -66.7851 0 -0.000136415 -40.8693 0 3.45032 -40.9049 0 6.89767 -41.0105 0 10.3419 -41.1867 0 13.783 -41.4337 0 17.221 -41.7519 0 20.6558 -42.1417 0 24.0853 -42.6033 0 27.5041 -43.1378 0 30.9118 -43.7461 0 34.3085 -44.4292 0 37.6942 -45.1883 0 41.0688 -46.0244 0 44.4314 -46.9386 0 47.7759 -47.9322 0 51.1012 -49.0071 0 54.4074 -50.165 0 57.6944 -51.4078 0 60.9623 -52.7372 0 64.2105 -54.155 0 67.4279 -55.6635 0 70.6098 -57.2664 0 73.7564 -58.9672 0 76.8676 -60.7697 0 79.9434 -62.6774 0 82.9838 -64.694 0 85.9768 -66.8233 0 88.9107 -69.0694 0 91.7853 -71.4365 0 94.6006 -73.9289 0 97.3568 -76.5508 0 100.054 -79.3065 0 102.675 -82.2006 0 105.178 -85.2405 0 107.562 -88.4355 0 109.827 -91.7947 0 111.973 -95.3273 0 114 -99.0422 0 115.895 -102.949 0 117.585 -107.057 0 119.057 -111.377 0 120.312 -115.921 0 121.349 -120.697 0 122.168 -125.718 0 122.761 -130.994 0 122.939 -136.528 0 122.625 -142.307 0 121.819 -148.318 0 120.521 -154.546 0 118.731 -160.977 0 116.448 -167.598 0 113.553 -174.401 0 109.925 -181.401 0 105.563 -188.619 0 100.468 -196.076 0 94.6386 -203.793 0 88.0763 -211.793 0 80.6048 -220.075 0 71.795 -228.462 0 61.6273 -236.684 0 50.1016 -244.472 0 37.2181 -251.555 0 22.9766 -257.663 0 7.52902 -262.533 0 -8.21402 -266.075 0 -24.1007 -268.371 0 -40.1311 -269.513 0 -56.3051 -269.588 0 -72.6229 -268.688 0 -89.054 -266.903 0 -104.933 -264.268 0 -119.987 -260.72 0 -134.216 -256.183 0 -147.62 -250.581 0 -160.2 -243.838 0 -171.954 -235.876 0 -182.269 -226.678 0 -190.53 -216.452 0 -196.736 -205.462 0 -200.887 -193.974 0 -202.984 -182.253 0 -203.027 -170.564 0 -201.205 -159.157 0 -197.983 -148.149 0 -193.383 -137.589 0 -187.405 -127.525 0 -180.048 -118.006 0 -171.313 -109.078 0 -161.292 -100.791 0 -150.545 -93.1703 0 -139.165 -86.2203 0 -127.151 -79.9453 0 -114.504 -74.3494 0 -101.223 -69.4367 0 -87.324 -65.2112 0 -73.1385 -61.6709 0 -58.8023 -58.8023 0 -44.3155 -56.5909 0 -29.6779 -55.0217 0 -14.8895 -54.0802 0 0.0494651 -53.7514 0 -0.000917552 -30.6463 0 3.38853 -30.6733 0 6.7745 -30.7525 0 10.157 -30.8844 0 13.536 -31.0693 0 16.9115 -31.3076 0 20.2835 -31.5996 0 23.6497 -31.9458 0 27.0042 -32.3467 0 30.3469 -32.803 0 33.6777 -33.3154 0 36.9966 -33.8846 0 40.3036 -34.5113 0 43.5976 -35.1962 0 46.8719 -35.9403 0 50.1254 -36.7452 0 53.3581 -37.6124 0 56.57 -38.5433 0 59.7611 -39.5394 0 62.9308 -40.6023 0 66.0671 -41.7337 0 69.165 -42.936 0 72.2245 -44.2115 0 75.2455 -45.5628 0 78.2282 -46.9921 0 81.1724 -48.5018 0 84.0658 -50.0947 0 86.896 -51.7742 0 89.6629 -53.5441 0 92.3665 -55.4081 0 95.0069 -57.37 0 97.584 -59.4335 0 100.08 -61.6025 0 102.452 -63.8819 0 104.697 -66.2769 0 106.816 -68.793 0 108.809 -71.4354 0 110.676 -74.2096 0 112.403 -77.1209 0 113.914 -80.1777 0 115.196 -83.3913 0 116.249 -86.7731 0 117.073 -90.3346 0 117.668 -94.087 0 118.026 -98.0416 0 117.981 -102.199 0 117.465 -106.537 0 116.477 -111.031 0 115.017 -115.658 0 113.085 -120.394 0 110.683 -125.214 0 107.658 -130.107 0 103.861 -135.108 0 99.2926 -140.266 0 93.9519 -145.628 0 87.8392 -151.244 0 80.9545 -157.16 0 73.2123 -163.404 0 64.4035 -169.8 0 54.5187 -176.075 0 43.5577 -181.952 0 31.5206 -187.155 0 18.4075 -191.407 0 4.31523 -194.443 0 -10.1745 -196.222 0 -24.9647 -196.93 0 -40.0553 -196.762 0 -55.4465 -195.915 0 -71.1382 -194.582 0 -87.091 -192.96 0 -102.441 -191.129 0 -116.835 -188.953 0 -130.273 -186.266 0 -142.754 -182.908 0 -154.28 -178.713 0 -164.849 -173.521 0 -174.039 -167.232 0 -181.43 -160.016 0 -187.019 -152.105 0 -190.809 -143.734 0 -192.797 -135.136 0 -192.986 -126.544 0 -191.502 -118.178 0 -188.661 -110.13 0 -184.476 -102.424 0 -178.948 -95.0867 0 -172.078 -88.1423 0 -163.863 -81.6163 0 -154.396 -75.5336 0 -144.213 -69.912 0 -133.405 -64.7622 0 -121.972 -60.0949 0 -109.913 -55.9203 0 -97.2296 -52.2492 0 -83.9349 -49.0919 0 -70.3455 -46.4512 0 -56.5909 -44.3155 0 -42.671 -42.671 0 -28.586 -41.5045 0 -14.3356 -40.8023 0 0.0799164 -40.551 0 -0.0018667 -20.428 0 3.34431 -20.4461 0 6.68665 -20.4989 0 10.0252 -20.5867 0 13.3598 -20.7097 0 16.6907 -20.8683 0 20.0177 -21.0629 0 23.3385 -21.2937 0 26.6471 -21.561 0 29.9433 -21.8654 0 33.2271 -22.2071 0 36.4984 -22.5866 0 39.7574 -23.0042 0 43.0027 -23.4603 0 46.2271 -23.9557 0 49.4294 -24.4914 0 52.6096 -25.0686 0 55.7676 -25.6885 0 58.9036 -26.3521 0 62.0168 -27.0606 0 65.0949 -27.8151 0 68.1327 -28.6171 0 71.1303 -29.4677 0 74.0875 -30.3685 0 77.0046 -31.3207 0 79.8813 -32.3257 0 82.7046 -33.3851 0 85.4613 -34.5016 0 88.1514 -35.678 0 90.7748 -36.9172 0 93.3317 -38.2222 0 95.8219 -39.5959 0 98.2276 -41.0411 0 100.505 -42.5607 0 102.652 -44.1574 0 104.669 -45.8342 0 106.555 -47.5937 0 108.312 -49.4387 0 109.924 -51.3722 0 111.311 -53.3996 0 112.459 -55.5287 0 113.367 -57.7676 0 114.037 -60.1242 0 114.468 -62.6066 0 114.652 -65.2227 0 114.447 -67.9726 0 113.791 -70.8417 0 112.686 -73.8133 0 111.131 -76.871 0 109.126 -79.9983 0 106.672 -83.1787 0 103.585 -86.4031 0 99.6839 -89.6931 0 94.9683 -93.0777 0 89.4383 -96.5859 0 83.0939 -100.247 0 75.935 -104.089 0 67.9544 -108.128 0 59.1343 -112.25 0 49.474 -116.279 0 38.9734 -120.035 0 27.6326 -123.342 0 15.4514 -126.019 0 2.47527 -127.897 0 -11.0246 -128.951 0 -25.003 -129.308 0 -39.4598 -129.101 0 -54.3951 -128.46 0 -69.8089 -127.519 0 -85.6517 -126.41 0 -100.836 -125.188 0 -114.916 -123.762 0 -127.893 -122.023 0 -139.766 -119.864 0 -150.535 -117.176 0 -160.2 -113.85 0 -168.511 -109.821 0 -175.216 -105.193 0 -180.316 -100.113 0 -183.81 -94.7277 0 -185.698 -89.1839 0 -185.981 -83.6284 0 -184.737 -78.1991 0 -182.163 -72.9567 0 -178.267 -67.9218 0 -173.049 -63.1147 0 -166.509 -58.556 0 -158.647 -54.2659 0 -149.551 -50.2646 0 -139.751 -46.5656 0 -129.336 -43.1758 0 -118.304 -40.1019 0 -106.657 -37.3506 0 -94.3934 -34.9285 0 -81.5281 -32.8423 0 -68.3629 -31.0942 0 -55.0217 -29.6779 0 -41.5045 -28.586 0 -27.8112 -27.8112 0 -13.9419 -27.3463 0 0.103552 -27.1839 0 -0.00265912 -10.2143 0 3.31774 -10.2235 0 6.63403 -10.2498 0 9.94623 -10.2936 0 13.2543 -10.355 0 16.5583 -10.4342 0 19.8582 -10.5315 0 23.1516 -10.647 0 26.4326 -10.7809 0 29.7009 -10.9333 0 32.9566 -11.1043 0 36.1996 -11.2942 0 39.4299 -11.503 0 42.6462 -11.7309 0 45.8408 -11.9782 0 49.0124 -12.2456 0 52.161 -12.5339 0 55.2866 -12.8436 0 58.3892 -13.1753 0 61.4681 -13.5299 0 64.511 -13.9078 0 67.5127 -14.3096 0 70.4733 -14.7358 0 73.3927 -15.1869 0 76.2709 -15.6633 0 79.1079 -16.1657 0 81.8898 -16.6946 0 84.6029 -17.2515 0 87.247 -17.8382 0 89.8221 -18.4564 0 92.3283 -19.1076 0 94.7656 -19.7937 0 97.1161 -20.5163 0 99.3362 -21.2769 0 101.424 -22.077 0 103.379 -22.9182 0 105.203 -23.8019 0 106.893 -24.7297 0 108.438 -25.703 0 109.753 -26.7228 0 110.824 -27.7896 0 111.651 -28.904 0 112.235 -30.0665 0 112.575 -31.2774 0 112.665 -32.5374 0 112.368 -33.8496 0 111.625 -35.2222 0 110.439 -36.6639 0 108.807 -38.1835 0 106.732 -39.7898 0 104.212 -41.4916 0 101.062 -43.2901 0 97.098 -45.1567 0 92.319 -47.0552 0 86.7253 -48.9493 0 80.3169 -50.803 0 73.0938 -52.58 0 65.073 -54.2483 0 56.296 -55.8126 0 46.7647 -57.2963 0 36.479 -58.723 0 25.4391 -60.1163 0 13.6448 -61.4997 0 1.12692 -62.8944 0 -11.9306 -64.2623 0 -25.4969 -65.5063 0 -39.5722 -66.5269 0 -54.1564 -67.2245 0 -69.2495 -67.4994 0 -84.8004 -67.2525 0 -99.6854 -66.444 0 -113.445 -65.1486 0 -126.079 -63.4548 0 -137.587 -61.4507 0 -147.969 -59.2244 0 -157.227 -56.8643 0 -165.158 -54.4445 0 -171.564 -51.9835 0 -176.445 -49.4858 0 -179.8 -46.9558 0 -181.631 -44.3981 0 -181.935 -41.8172 0 -180.779 -39.2196 0 -178.319 -36.6299 0 -174.563 -34.0819 0 -169.511 -31.6095 0 -163.162 -29.2466 0 -155.517 -27.0272 0 -146.66 -24.9842 0 -137.103 -23.131 0 -126.931 -21.4608 0 -116.143 -19.9664 0 -104.74 -18.6401 0 -92.7215 -17.4746 0 -80.1012 -16.4625 0 -67.1798 -15.5998 0 -54.0802 -14.8895 0 -40.8023 -14.3356 0 -27.3463 -13.9419 0 -13.712 -13.712 0 0.100483 -13.6499 0 -0.00297009 -0.00535422 0 3.3089 -0.00530058 0 6.61656 -0.00523512 0 9.91999 -0.00518707 0 13.2192 -0.00518565 0 16.5142 -0.00526006 0 19.805 -0.00543955 0 23.0891 -0.00574759 0 26.3608 -0.0061579 0 29.6198 -0.00661854 0 32.8662 -0.00707735 0 36.0998 -0.0074822 0 39.3206 -0.00778094 0 42.5275 -0.00792489 0 45.7123 -0.00794544 0 48.8736 -0.00795403 0 52.0116 -0.00806559 0 55.1261 -0.00839502 0 58.2172 -0.00905727 0 61.2844 -0.0101665 0 64.3153 -0.0117519 0 67.3048 -0.0136773 0 70.253 -0.0157875 0 73.1599 -0.0179273 0 76.0254 -0.0199417 0 78.8496 -0.0216754 0 81.6182 -0.0230172 0 84.317 -0.0240309 0 86.9458 -0.0248245 0 89.5048 -0.0255058 0 91.994 -0.0261826 0 94.4133 -0.0269626 0 96.7447 -0.0280485 0 98.9444 -0.030467 0 101.01 -0.0356695 0 102.943 -0.0451107 0 104.741 -0.0602453 0 106.406 -0.0825282 0 107.924 -0.113152 0 109.217 -0.14729 0 110.271 -0.174093 0 111.086 -0.18245 0 111.662 -0.161252 0 112 -0.0993883 0 112.091 0.0140878 0 111.776 0.170308 0 110.987 0.321924 0 109.725 0.417162 0 107.989 0.404252 0 105.781 0.231423 0 103.099 -0.153096 0 99.817 -0.767871 0 95.8085 -1.49864 0 91.0732 -2.19794 0 85.6113 -2.7183 0 79.4226 -2.91225 0 72.5072 -2.63232 0 64.8101 -1.76458 0 56.1971 -0.486809 0 46.662 0.872975 0 36.2047 1.98552 0 24.8255 2.52157 0 12.5241 2.15187 0 -0.611986 0.56445 0 -14.0585 -2.15517 0 -27.7279 -5.52397 0 -41.6204 -9.04166 0 -55.7359 -12.2079 0 -70.0744 -14.5225 0 -84.6015 -15.4875 0 -98.5587 -14.8971 0 -111.636 -13.1126 0 -123.833 -10.5604 0 -135.15 -7.66723 0 -145.587 -4.85943 0 -155.144 -2.56354 0 -163.453 -1.10278 0 -170.148 -0.387162 0 -175.227 -0.223411 0 -178.691 -0.418254 0 -180.539 -0.778418 0 -180.773 -1.11063 0 -179.495 -1.23982 0 -176.957 -1.14944 0 -173.171 -0.904553 0 -168.137 -0.570887 0 -161.855 -0.214178 0 -154.325 0.0998399 0 -145.624 0.307465 0 -136.212 0.391759 0 -126.165 0.382547 0 -115.484 0.311687 0 -104.17 0.211037 0 -92.2205 0.112456 0 -79.6519 0.0476659 0 -66.7851 0.0320856 0 -53.7514 0.0494651 0 -40.551 0.0799164 0 -27.1839 0.103552 0 -13.6499 0.100483 0 0.0508212 0.0508212 0 </DataArray> 
</PointData> 
<Points> 
<DataArray type="Float32" NumberOfComponents="3"> 
0 0 0 0.1 0 0 0.2 0 0 0.3 0 0 0.4 0 0 0.5 0 0 0.6 0 0 0.7 0 0 0.8 0 0 0.9 0 0 1 0 0 1.1 0 0 1.2 0 0 1.3 0 0 1.4 0 0 1.5 0 0 1.6 0 0 1.7 0 0 1.8 0 0 1.9 0 0 2 0 0 2.1 0 0 2.2 0 0 2.3 0 0 2.4 0 0 2.5 0 0 2.6 0 0 2.7 0 0 2.8 0 0 2.9 0 0 3 0 0 3.1 0 0 3.2 0 0 3.3 0 0 3.4 0 0 3.5 0 0 3.6 0 0 3.7 0 0 3.8 0 0 3.9 0 0 4 0 0 4.1 0 0 4.2 0 0 4.3 0 0 4.4 0 0 4.5 0 0 4.6 0 0 4.7 0 0 4.8 0 0 4.9 0 0 5 0 0 5.1 0 0 5.2 0 0 5.3 0 0 5.4 0 0 5.5 0 0 5.6 0 0 5.7 0 0 5.8 0 0 5.9 0 0 6 0 0 6.1 0 0 6.2 0 0 6.3 0 0 6.4 0 0 6.5 0 0 6.6 0 0 6.7 0 0 6.8 0 0 6.9 0 0 7 0 0 7.1 0 0 7.2 0 0 7.3 0 0 7.4 0 0 7.5 0 0 7.6 0 0 7.7 0 0 7.8 0 0 7.9 0 0 8 0 0 8.1 0 0 8.2 0 0 8.3 0 0 8.4 0 0 8.5 0 0 8.6 0 0 8.7 0 0 8.8 0 0 8.9 0 0 9 0 0 9.1 0 0 9.2 0 0 9.3 0 0 9.4 0 0 9.5 0 0 9.6 0 0 9.7 0 0 9.8 0 0 9.9 0 0 10 0 0 0 0.1 0 0.1 0.1 0 0.2 0.1 0 0.3 0.1 0 0.4 0.1 0 0.5 0.1 0 0.6 0.1 0 0.7 0.1 0 0.8 0.1 0 0.9 0.1 0 1 0.1 0 1.1 0.1 0 1.2 0.1 0 1.3 0.1 0 1.4 0.1 0 1.5 0.1 0 1.6 0.1 0 1.7 0.1 0 1.8 0.1 0 1.9 0.1 0 2 0.1 0 2.1 0.1 0 2.2 0.1 0 2.3 0.1 0 2.4 0.1 0 2.5 0.1 0 2.6 0.1 0 2.7 0.1 0 2.8 0.1 0 2.9 0.1 0 3 0.1 0 3.1 0.1 0 3.2 0.1 0 3.3 0.1 0 3.4 0.1 0 3.5 0.1 0 3.6 0.1 0 3.7 0.1 0 3.8 0.1 0 3.9 0.1 0 4 0.1 0 4.1 0.1 0 4.2 0.1 0 4.3 0.1 0 4.4 0.1 0 4.5 0.1 0 4.6 0.1 0 4.7 0.1 0 4.8 0.1 0 4.9 0.1 0 5 0.1 0 5.1 0.1 0 5.2 0.1 0 5.3 0.1 0 5.4 0.1 0 5.5 0.1 0 5.6 0.1 0 5.7 0.1 0 5.8 0.1 0 5.9 0.1 0 6 0.1 0 6.1 0.1 0 6.2 0.1 0 6.3 0.1 0 6.4 0.1 0 6.5 0.1 0 6.6 0.1 0 6.7 0.1 0 6.8 0.1 0 6.9 0.1 0 7 0.1 0 7.1 0.1 0 7.2 0.1 0 7.3 0.1 0 7.4 0.1 0 7.5 0.1 0 7.6 0.1 0 7.7 0.1 0 7.8 0.1 0 7.9 0.1 0 8 0.1 0 8.1 0.1 0 8.2 0.1 0 8.3 0.1 0 8.4 0.1 0 8.5 0.1 0 8.6 0.1 0 8.7 0.1 0 8.8 0.1 0 8.9 0.1 0 9 0.1 0 9.1 0.1 0 9.2 0.1 0 9.3 0.1 0 9.4 0.1 0 9.5 0.1 0 9.6 0.1 0 9.7 0.1 0 9.8 0.1 0 9.9 0.1 0 10 0.1 0 0 0.2 0 0.1 0.2 0 0.2 0.2 0 0.3 0.2 0 0.4 0.2 0 0.5 0.2 0 0.6 0.2 0 0.7 0.2 0 0.8 0.2 0 0.9 0.2 0 1 0.2 0 1.1 0.2 0 1.2 0.2 0 1.3 0.2 0 1.4 0.2 0 1.5 0.2 0 1.6 0.2 0 1.7 0.2 0 1.8 0.2 0 1.9 0.2 0 2 0.2 0 2.1 0.2 0 2.2 0.2 0 2.3 0.2 0 2.4 0.2 0 2.5 0.2 0 2.6 0.2 0 2.7 0.2 0 2.8 0.2 0 2.9 0.2 0 3 0.2 0 3.1 0.2 0 3.2 0.2 0 3.3 0.2 0 3.4 0.2 0 3.5 0.2 0 3.6 0.2 0 3.7 0.2 0 3.8 0.2 0 3.9 0.2 0 4 0.2 0 4.1 0.2 0 4.2 0.2 0 4.3 0.2 0 4.4 0.2 0 4.5 0.2 0 4.6 0.2 0 4.7 0.2 0 4.8 0.2 0 4.9 0.2 0 5 0.2 0 5.1 0.2 0 5.2 0.2 0 5.3 0.2 0 5.4 0.2 0 5.5 0.2 0 5.6 0.2 0 5.7 0.2 0 5.8 0.2 0 5.9 0.2 0 6 0.2 0 6.1 0.2 0 6.2 0.2 0 6.3 0.2 0 6.4 0.2 0 6.5 0.2 0 6.6 0.2 0 6.7 0.2 0 6.8 0.2 0 6.9 0.2 0 7 0.2 0 7.1 0.2 0 7.2 0.2 0 7.3 0.2 0 7.4 0.2 0 7.5 0.2 0 7.6 0.2 0 7.7 0.2 0 7.8 0.2 0 7.9 0.2 0 8 0.2 0 8.1 0.2 0 8.2 0.2 0 8.3 0.2 0 8.4 0.2 0 8.5 0.2 0 8.6 0.2 0 8.7 0.2 0 8.8 0.2 0 8.9 0.2 0 9 0.2 0 9.1 0.2 0 9.2 0.2 0 9.3 0.2 0 9.4 0.2 0 9.5 0.2 0 9.6 0.2 0 9.7 0.2 0 9.8 0.2 0 9.9 0.2 0 10 0.2 0 0 0.3 0 0.1 0.3 0 0.2 0.3 0 0.3 0.3 0 0.4 0.3 0 0.5 0.3 0 0.6 0.3 0 0.7 0.3 0 0.8 0.3 0 0.9 0.3 0 1 0.3 0 1.1 0.3 0 1.2 0.3 0 1.3 0.3 0 1.4 0.3 0 1.5 0.3 0 1.6 0.3 0 1.7 0.3 0 1.8 0.3 0 1.9 0.3 0 2 0.3 0 2.1 0.3 0 2.2 0.3 0 2.3 0.3 0 2.4 0.3 0 2.5 0.3 0 2.6 0.3 0 2.7 0.3 0 2.8 0.3 0 2.9 0.3 0 3 0.3 0 3.1 0.3 0 3.2 0.3 0 3.3 0.3 0 3.4 0.3 0 3.5 0.3 0 3.6 0.3 0 3.7 0.3 0 3.8 0.3 0 3.9 0.3 0 4 0.3 0 4.1 0.3 0 4.2 0.3 0 4.3 0.3 0 4.4 0.3 0 4.5 0.3 0 4.6 0.3 0 4.7 0.3 0 4.8 0.3 0 4.9 0.3 0 5 0.3 0 5.1 0.3 0 5.2 0.3 0 5.3 0.3 0 5.4 0.3 0 5.5 0.3 0 5.6 0.3 0 5.7 0.3 0 5.8 0.3 0 5.9 0.3 0 6 0.3 0 6.1 0.3 0 6.2 0.3 0 6.3 0.3 0 6.4 0.3 0 6.5 0.3 0 6.6 0.3 0 6.7 0.3 0 6.8 0.3 0 6.9 0.3 0 7 0.3 0 7.1 0.3 0 7.2 0.3 0 7.3 0.3 0 7.4 0.3 0 7.5 0.3 0 7.6 0.3 0 7.7 0.3 0 7.8 0.3 0 7.9 0.3 0 8 0.3 0 8.1 0.3 0 8.2 0.3 0 8.3 0.3 0 8.4 0.3 0 8.5 0.3 0 8.6 0.3 0 8.7 0.3 0 8.8 0.3 0 8.9 0.3 0 9 0.3 0 9.1 0.3 0 9.2 0.3 0 9.3 0.3 0 9.4 0.3 0 9.5 0.3 0 9.6 0.3 0 9.7 0.3 0 9.8 0.3 0 9.9 0.3 0 10 0.3 0 0 0.4 0 0.1 0.4 0 0.2 0.4 0 0.3 0.4 0 0.4 0.4 0 0.5 0.4 0 0.6 0.4 0 0.7 0.4 0 0.8 0.4 0 0.9 0.4 0 1 0.4 0 1.1 0.4 0 1.2 0.4 0 1.3 0.4 0 1.4 0.4 0 1.5 0.4 0 1.6 0.4 0 1.7 0.4 0 1.8 0.4 0 1.9 0.4 0 2 0.4 0 2.1 0.4 0 2.2 0.4 0 2.3 0.4 0 2.4 0.4 0 2.5 0.4 0 2.6 0.4 0 2.7 0.4 0 2.8 0.4 0 2.9 0.4 0 3 0.4 0 3.1 0.4 0 3.2 0.4 0 3.3 0.4 0 3.4 0.4 0 3.5 0.4 0 3.6 0.4 0 3.7 0.4 0 3.8 0.4 0 3.9 0.4 0 4 0.4 0 4.1 0.4 0 4.2 0.4 0 4.3 0.4 0 4.4 0.4 0 4.5 0.4 0 4.6 0.4 0 4.7 0.4 0 4.8 0.4 0 4.9 0.4 0 5 0.4 0 5.1 0.4 0 5.2 0.4 0 5.3 0.4 0 5.4 0.4 0 5.5 0.4 0 5.6 0.4 0 5.7 0.4 0 5.8 0.4 0 5.9 0.4 0 6 0.4 0 6.1 0.4 0 6.2 0.4 0 6.3 0.4 0 6.4 0.4 0 6.5 0.4 0 6.6 0.4 0 6.7 0.4 0 6.8 0.4 0 6.9 0.4 0 7 0.4 0 7.1 0.4 0 7.2 0.4 0 7.3 0.4 0 7.4 0.4 0 7.5 0.4 0 7.6 0.4 0 7.7 0.4 0 7.8 0.4 0 7.9 0.4 0 8 0.4 0 8.1 0.4 0 8.2 0.4 0 8.3 0.4 0 8.4 0.4 0 8.5 0.4 0 8.6 0.4 0 8.7 0.4 0 8.8 0.4 0 8.9 0.4 0 9 0.4 0 9.1 0.4 0 9.2 0.4 0 9.3 0.4 0 9.4 0.4 0 9.5 0.4 0 9.6 0.4 0 9.7 0.4 0 9.8 0.4 0 9.9 0.4 0 10 0.4 0 0 0.5 0 0.1 0.5 0 0.2 0.5 0 0.3 0.5 0 0.4 0.5 0 0.5 0.5 0 0.6 0.5 0 0.7 0.5 0 0.8 0.5 0 0.9 0.5 0 1 0.5 0 1.1 0.5 0 1.2 0.5 0 1.3 0.5 0 1.4 0.5 0 1.5 0.5 0 1.6 0.5 0 1.7 0.5 0 1.8 0.5 0 1.9 0.5 0 2 0.5 0 2.1 0.5 0 2.2 0.5 0 2.3 0.5 0 2.4 0.5 0 2.5 0.5 0 2.6 0.5 0 2.7 0.5 0 2.8 0.5 0 2.9 0.5 0 3 0.5 0 3.1 0.5 0 3.2 0.5 0 3.3 0.5 0 3.4 0.5 0 3.5 0.5 0 3.6 0.5 0 3.7 0.5 0 3.8 0.5 0 3.9 0.5 0 4 0.5 0 4.1 0.5 0 4.2 0.5 0 4.3 0.5 0 4.4 0.5 0 4.5 0.5 0 4.6 0.5 0 4.7 0.5 0 4.8 0.5 0 4.9 0.5 0 5 0.5 0 5.1 0.5 0 5.2 0.5 0 5.3 0.5 0 5.4 0.5 0 5.5 0.5 0 5.6 0.5 0 5.7 0.5 0 5.8 0.5 0 5.9 0.5 0 6 0.5 0 6.1 0.5 0 6.2 0.5 0 6.3 0.5 0 6.4 0.5 0 6.5 0.5 0 6.6 0.5 0 6.7 0.5 0 6.8 0.5 0 6.9 0.5 0 7 0.5 0 7.1 0.5 0 7.2 0.5 0 7.3 0.5 0 7.4 0.5 0 7.5 0.5 0 7.6 0.5 0 7.7 0.5 0 7.8 0.5 0 7.9 0.5 0 8 0.5 0 8.1 0.5 0 8.2 0.5 0 8.3 0.5 0 8.4 0.5 0 8.5 0.5 0 8.6 0.5 0 8.7 0.5 0 8.8 0.5 0 8.9 0.5 0 9 0.5 0 9.1 0.5 0 9.2 0.5 0 9.3 0.5 0 9.4 0.5 0 9.5 0.5 0 9.6 0.5 0 9.7 0.5 0 9.8 0.5 0 9.9 0.5 0 10 0.5 0 0 0.6 0 0.1 0.6 0 0.2 0.6 0 0.3 0.6 0 0.4 0.6 0 0.5 0.6 0 0.6 0.6 0 0.7 0.6 0 0.8 0.6 0 0.9 0.6 0 1 0.6 0 1.1 0.6 0 1.2 0.6 0 1.3 0.6 0 1.4 0.6 0 1.5 0.6 0 1.6 0.6 0 1.7 0.6 0 1.8 0.6 0 1.9 0.6 0 2 0.6 0 2.1 0.6 0 2.2 0.6 0 2.3 0.6 0 2.4 0.6 0 2.5 0.6 0 2.6 0.6 0 2.7 0.6 0 2.8 0.6 0 2.9 0.6 0 3 0.6 0 3.1 0.6 0 3.2 0.6 0 3.3 0.6 0 3.4 0.6 0 3.5 0.6 0 3.6 0.6 0 3.7 0.6 0 3.8 0.6 0 3.9 0.6 0 4 0.6 0 4.1 0.6 0 4.2 0.6 0 4.3 0.6 0 4.4 0.6 0 4.5 0.6 0 4.6 0.6 0 4.7 0.6 0 4.8 0.6 0 4.9 0.6 0 5 0.6 0 5.1 0.6 0 5.2 0.6 0 5.3 0.6 0 5.4 0.6 0 5.5 0.6 0 5.6 0.6 0 5.7 0.6 0 5.8 0.6 0 5.9 0.6 0 6 0.6 0 6.1 0.6 0 6.2 0.6 0 6.3 0.6 0 6.4 0.6 0 6.5 0.6 0 6.6 0.6 0 6.7 0.6 0 6.8 0.6 0 6.9 0.6 0 7 0.6 0 7.1 0.6 0 7.2 0.6 0 7.3 0.6 0 7.4 0.6 0 7.5 0.6 0 7.6 0.6 0 7.7 0.6 0 7.8 0.6 0 7.9 0.6 0 8 0.6 0 8.1 0.6 0 8.2 0.6 0 8.3 0.6 0 8.4 0.6 0 8.5 0.6 0 8.6 0.6 0 8.7 0.6 0 8.8 0.6 0 8.9 0.6 0 9 0.6 0 9.1 0.6 0 9.2 0.6 0 9.3 0.6 0 9.4 0.6 0 9.5 0.6 0 9.6 0.6 0 9.7 0.6 0 9.8 0.6 0 9.9 0.6 0 10 0.6 0 0 0.7 0 0.1 0.7 0 0.2 0.7 0 0.3 0.7 0 0.4 0.7 0 0.5 0.7 0 0.6 0.7 0 0.7 0.7 0 0.8 0.7 0 0.9 0.7 0 1 0.7 0 1.1 0.7 0 1.2 0.7 0 1.3 0.7 0 1.4 0.7 0 1.5 0.7 0 1.6 0.7 0 1.7 0.7 0 1.8 0.7 0 1.9 0.7 0 2 0.7 0 2.1 0.7 0 2.2 0.7 0 2.3 0.7 0 2.4 0.7 0 2.5 0.7 0 2.6 0.7 0 2.7 0.7 0 2.8 0.7 0 2.9 0.7 0 3 0.7 0 3.1 0.7 0 3.2 0.7 0 3.3 0.7 0 3.4 0.7 0 3.5 0.7 0 3.6 0.7 0 3.7 0.7 0 3.8 0.7 0 3.9 0.7 0 4 0.7 0 4.1 0.7 0 4.2 0.7 0 4.3 0.7 0 4.4 0.7 0 4.5 0.7 0 4.6 0.7 0 4.7 0.7 0 4.8 0.7 0 4.9 0.7 0 5 0.7 0 5.1 0.7 0 5.2 0.7 0 5.3 0.7 0 5.4 0.7 0 5.5 0.7 0 5.6 0.7 0 5.7 0.7 0 5.8 0.7 0 5.9 0.7 0 6 0.7 0 6.1 0.7 0 6.2 0.7 0 6.3 0.7 0 6.4 0.7 0 6.5 0.7 0 6.6 0.7 0 6.7 0.7 0 6.8 0.7 0 6.9 0.7 0 7 0.7 0 7.1 0.7 0 7.2 0.7 0 7.3 0.7 0 7.4 0.7 0 7.5 0.7 0 7.6 0.7 0 7.7 0.7 0 7.8 0.7 0 7.9 0.7 0 8 0.7 0 8.1 0.7 0 8.2 0.7 0 8.3 0.7 0 8.4 0.7 0 8.5 0.7 0 8.6 0.7 0 8.7 0.7 0 8.8 0.7 0 8.9 0.7 0 9 0.7 0 9.1 0.7 0 9.2 0.7 0 9.3 0.7 0 9.4 0.7 0 9.5 0.7 0 9.6 0.7 0 9.7 0.7 0 9.8 0.7 0 9.9 0.7 0 10 0.7 0 0 0.8 0 0.1 0.8 0 0.2 0.8 0 0.3 0.8 0 0.4 0.8 0 0.5 0.8 0 0.6 0.8 0 0.7 0.8 0 0.8 0.8 0 0.9 0.8 0 1 0.8 0 1.1 0.8 0 1.2 0.8 0 1.3 0.8 0 1.4 0.8 0 1.5 0.8 0 1.6 0.8 0 1.7 0.8 0 1.8 0.8 0 1.9 0.8 0 2 0.8 0 2.1 0.8 0 2.2 0.8 0 2.3 0.8 0 2.4 0.8 0 2.5 0.8 0 2.6 0.8 0 2.7 0.8 0 2.8 0.8 0 2.9 0.8 0 3 0.8 0 3.1 0.8 0 3.2 0.8 0 3.3 0.8 0 3.4 0.8 0 3.5 0.8 0 3.6 0.8 0 3.7 0.8 0 3.8 0.8 0 3.9 0.8 0 4 0.8 0 4.1 0.8 0 4.2 0.8 0 4.3 0.8 0 4.4 0.8 0 4.5 0.8 0 4.6 0.8 0 4.7 0.8 0 4.8 0.8 0 4.9 0.8 0 5 0.8 0 5.1 0.8 0 5.2 0.8 0 5.3 0.8 0 5.4 0.8 0 5.5 0.8 0 5.6 0.8 0 5.7 0.8 0 5.8 0.8 0 5.9 0.8 0 6 0.8 0 6.1 0.8 0 6.2 0.8 0 6.3 0.8 0 6.4 0.8 0 6.5 0.8 0 6.6 0.8 0 6.7 0.8 0 6.8 0.8 0 6.9 0.8 0 7 0.8 0 7.1 0.8 0 7.2 0.8 0 7.3 0.8 0 7.4 0.8 0 7.5 0.8 0 7.6 0.8 0 7.7 0.8 0 7.8 0.8 0 7.9 0.8 0 8 0.8 0 8.1 0.8 0 8.2 0.8 0 8.3 0.8 0 8.4 0.8 0 8.5 0.8 0 8.6 0.8 0 8.7 0.8 0 8.8 0.8 0 8.9 0.8 0 9 0.8 0 9.1 0.8 0 9.2 0.8 0 9.3 0.8 0 9.4 0.8 0 9.5 0.8 0 9.6 0.8 0 9.7 0.8 0 9.8 0.8 0 9.9 0.8 0 10 0.8 0 0 0.9 0 0.1 0.9 0 0.2 0.9 0 0.3 0.9 0 0.4 0.9 0 0.5 0.9 0 0.6 0.9 0 0.7 0.9 0 0.8 0.9 0 0.9 0.9 0 1 0.9 0 1.1 0.9 0 1.2 0.9 0 1.3 0.9 0 1.4 0.9 0 1.5 0.9 0 1.6 0.9 0 1.7 0.9 0 1.8 0.9 0 1.9 0.9 0 2 0.9 0 2.1 0.9 0 2.2 0.9 0 2.3 0.9 0 2.4 0.9 0 2.5 0.9 0 2.6 0.9 0 2.7 0.9 0 2.8 0.9 0 2.9 0.9 0 3 0.9 0 3.1 0.9 0 3.2 0.9 0 3.3 0.9 0 3.4 0.9 0 3.5 0.9 0 3.6 0.9 0 3.7 0.9 0 3.8 0.9 0 3.9 0.9 0 4 0.9 0 4.1 0.9 0 4.2 0.9 0 4.3 0.9 0 4.4 0.9 0 4.5 0.9 0 4.6 0.9 0 4.7 0.9 0 4.8 0.9 0 4.9 0.9 0 5 0.9 0 5.1 0.9 0 5.2 0.9 0 5.3 0.9 0 5.4 0.9 0 5.5 0.9 0 5.6 0.9 0 5.7 0.9 0 5.8 0.9 0 5.9 0.9 0 6 0.9 0 6.1 0.9 0 6.2 0.9 0 6.3 0.9 0 6.4 0.9 0 6.5 0.9 0 6.6 0.9 0 6.7 0.9 0 6.8 0.9 0 6.9 0.9 0 7 0.9 0 7.1 0.9 0 7.2 0.9 0 7.3 0.9 0 7.4 0.9 0 7.5 0.9 0 7.6 0.9 0 7.7 0.9 0 7.8 0.9 0 7.9 0.9 0 8 0.9 0 8.1 0.9 0 8.2 0.9 0 8.3 0.9 0 8.4 0.9 0 8.5 0.9 0 8.6 0.9 0 8.7 0.9 0 8.8 0.9 0 8.9 0.9 0 9 0.9 0 9.1 0.9 0 9.2 0.9 0 9.3 0.9 0 9.4 0.9 0 9.5 0.9 0 9.6 0.9 0 9.7 0.9 0 9.8 0.9 0 9.9 0.9 0 10 0.9 0 0 1 0 0.1 1 0 0.2 1 0 0.3 1 0 0.4 1 0 0.5 1 0 0.6 1 0 0.7 1 0 0.8 1 0 0.9 1 0 1 1 0 1.1 1 0 1.2 1 0 1.3 1 0 1.4 1 0 1.5 1 0 1.6 1 0 1.7 1 0 1.8 1 0 1.9 1 0 2 1 0 2.1 1 0 2.2 1 0 2.3 1 0 2.4 1 0 2.5 1 0 2.6 1 0 2.7 1 0 2.8 1 0 2.9 1 0 3 1 0 3.1 1 0 3.2 1 0 3.3 1 0 3.4 1 0 3.5 1 0 3.6 1 0 3.7 1 0 3.8 1 0 3.9 1 0 4 1 0 4.1 1 0 4.2 1 0 4.3 1 0 4.4 1 0 4.5 1 0 4.6 1 0 4.7 1 0 4.8 1 0 4.9 1 0 5 1 0 5.1 1 0 5.2 1 0 5.3 1 0 5.4 1 0 5.5 1 0 5.6 1 0 5.7 1 0 5.8 1 0 5.9 1 0 6 1 0 6.1 1 0 6.2 1 0 6.3 1 0 6.4 1 0 6.5 1 0 6.6 1 0 6.7 1 0 6.8 1 0 6.9 1 0 7 1 0 7.1 1 0 7.2 1 0 7.3 1 0 7.4 1 0 7.5 1 0 7.6 1 0 7.7 1 0 7.8 1 0 7.9 1 0 8 1 0 8.1 1 0 8.2 1 0 8.3 1 0 8.4 1 0 8.5 1 0 8.6 1 0 8.7 1 0 8.8 1 0 8.9 1 0 9 1 0 9.1 1 0 9.2 1 0 9.3 1 0 9.4 1 0 9.5 1 0 9.6 1 0 9.7 1 0 9.8 1 0 9.9 1 0 10 1 0 0 1.1 0 0.1 1.1 0 0.2 1.1 0 0.3 1.1 0 0.4 1.1 0 0.5 1.1 0 0.6 1.1 0 0.7 1.1 0 0.8 1.1 0 0.9 1.1 0 1 1.1 0 1.1 1.1 0 1.2 1.1 0 1.3 1.1 0 1.4 1.1 0 1.5 1.1 0 1.6 1.1 0 1.7 1.1 0 1.8 1.1 0 1.9 1.1 0 2 1.1 0 2.1 1.1 0 2.2 1.1 0 2.3 1.1 0 2.4 1.1 0 2.5 1.1 0 2.6 1.1 0 2.7 1.1 0 2.8 1.1 0 2.9 1.1 0 3 1.1 0 3.1 1.1 0 3.2 1.1 0 3.3 1.1 0 3.4 1.1 0 3.5 1.1 0 3.6 1.1 0 3.7 1.1 0 3.8 1.1 0 3.9 1.1 0 4 1.1 0 4.1 1.1 0 4.2 1.1 0 4.3 1.1 0 4.4 1.1 0 4.5 1.1 0 4.6 1.1 0 4.7 1.1 0 4.8 1.1 0 4.9 1.1 0 5 1.1 0 5.1 1.1 0 5.2 1.1 0 5.3 1.1 0 5.4 1.1 0 5.5 1.1 0 5.6 1.1 0 5.7 1.1 0 5.8 1.1 0 5.9 1.1 0 6 1.1 0 6.1 1.1 0 6.2 1.1 0 6.3 1.1 0 6.4 1.1 0 6.5 1.1 0 6.6 1.1 0 6.7 1.1 0 6.8 1.1 0 6.9 1.1 0 7 1.1 0 7.1 1.1 0 7.2 1.1 0 7.3 1.1 0 7.4 1.1 0 7.5 1.1 0 7.6 1.1 0 7.7 1.1 0 7.8 1.1 0 7.9 1.1 0 8 1.1 0 8.1 1.1 0 8.2 1.1 0 8.3 1.1 0 8.4 1.1 0 8.5 1.1 0 8.6 1.1 0 8.7 1.1 0 8.8 1.1 0 8.9 1.1 0 9 1.1 0 9.1 1.1 0 9.2 1.1 0 9.3 1.1 0 9.4 1.1 0 9.5 1.1 0 9.6 1.1 0 9.7 1.1 0 9.8 1.1 0 9.9 1.1 0 10 1.1 0 0 1.2 0 0.1 1.2 0 0.2 1.2 0 0.3 1.2 0 0.4 1.2 0 0.5 1.2 0 0.6 1.2 0 0.7 1.2 0 0.8 1.2 0 0.9 1.2 0 1 1.2 0 1.1 1.2 0 1.2 1.2 0 1.3 1.2 0 1.4 1.2 0 1.5 1.2 0 1.6 1.2 0 1.7 1.2 0 1.8 1.2 0 1.9 1.2 0 2 1.2 0 2.1 1.2 0 2.2 1.2 0 2.3 1.2 0 2.4 1.2 0 2.5 1.2 0 2.6 1.2 0 2.7 1.2 0 2.8 1.2 0 2.9 1.2 0 3 1.2 0 3.1 1.2 0 3.2 1.2 0 3.3 1.2 0 3.4 1.2 0 3.5 1.2 0 3.6 1.2 0 3.7 1.2 0 3.8 1.2 0 3.9 1.2 0 4 1.2 0 4.1 1.2 0 4.2 1.2 0 4.3 1.2 0 4.4 1.2 0 4.5 1.2 0 4.6 1.2 0 4.7 1.2 0 4.8 1.2 0 4.9 1.2 0 5 1.2 0 5.1 1.2 0 5.2 1.2 0 5.3 1.2 0 5.4 1.2 0 5.5 1.2 0 5.6 1.2 0 5.7 1.2 0 5.8 1.2 0 5.9 1.2 0 6 1.2 0 6.1 1.2 0 6.2 1.2 0 6.3 1.2 0 6.4 1.2 0 6.5 1.2 0 6.6 1.2 0 6.7 1.2 0 6.8 1.2 0 6.9 1.2 0 7 1.2 0 7.1 1.2 0 7.2 1.2 0 7.3 1.2 0 7.4 1.2 0 7.5 1.2 0 7.6 1.2 0 7.7 1.2 0 7.8 1.2 0 7.9 1.2 0 8 1.2 0 8.1 1.2 0 8.2 1.2 0 8.3 1.2 0 8.4 1.2 0 8.5 1.2 0 8.6 1.2 0 8.7 1.2 0 8.8 1.2 0 8.9 1.2 0 9 1.2 0 9.1 1.2 0 9.2 1.2 0 9.3 1.2 0 9.4 1.2 0 9.5 1.2 0 9.6 1.2 0 9.7 1.2 0 9.8 1.2 0 9.9 1.2 0 10 1.2 0 0 1.3 0 0.1 1.3 0 0.2 1.3 0 0.3 1.3 0 0.4 1.3 0 0.5 1.3 0 0.6 1.3 0 0.7 1.3 0 0.8 1.3 0 0.9 1.3 0 1 1.3 0 1.1 1.3 0 1.2 1.3 0 1.3 1.3 0 1.4 1.3 0 1.5 1.3 0 1.6 1.3 0 1.7 1.3 0 1.8 1.3 0 1.9 1.3 0 2 1.3 0 2.1 1.3 0 2.2 1.3 0 2.3 1.3 0 2.4 1.3 0 2.5 1.3 0 2.6 1.3 0 2.7 1.3 0 2.8 1.3 0 2.9 1.3 0 3 1.3 0 3.1 1.3 0 3.2 1.3 0 3.3 1.3 0 3.4 1.3 0 3.5 1.3 0 3.6 1.3 0 3.7 1.3 0 3.8 1.3 0 3.9 1.3 0 4 1.3 0 4.1 1.3 0 4.2 1.3 0 4.3 1.3 0 4.4 1.3 0 4.5 1.3 0 4.6 1.3 0 4.7 1.3 0 4.8 1.3 0 4.9 1.3 0 5 1.3 0 5.1 1.3 0 5.2 1.3 0 5.3 1.3 0 5.4 1.3 0 5.5 1.3 0 5.6 1.3 0 5.7 1.3 0 5.8 1.3 0 5.9 1.3 0 6 1.3 0 6.1 1.3 0 6.2 1.3 0 6.3 1.3 0 6.4 1.3 0 6.5 1.3 0 6.6 1.3 0 6.7 1.3 0 6.8 1.3 0 6.9 1.3 0 7 1.3 0 7.1 1.3 0 7.2 1.3 0 7.3 1.3 0 7.4 1.3 0 7.5 1.3 0 7.6 1.3 0 7.7 1.3 0 7.8 1.3 0 7.9 1.3 0 8 1.3 0 8.1 1.3 0 8.2 1.3 0 8.3 1.3 0 8.4 1.3 0 8.5 1.3 0 8.6 1.3 0 8.7 1.3 0 8.8 1.3 0 8.9 1.3 0 9 1.3 0 9.1 1.3 0 9.2 1.3 0 9.3 1.3 0 9.4 1.3 0 9.5 1.3 0 9.6 1.3 0 9.7 1.3 0 9.8 1.3 0 9.9 1.3 0 10 1.3 0 0 1.4 0 0.1 1.4 0 0.2 1.4 0 0.3 1.4 0 0.4 1.4 0 0.5 1.4 0 0.6 1.4 0 0.7 1.4 0 0.8 1.4 0 0.9 1.4 0 1 1.4 0 1.1 1.4 0 1.2 1.4 0 1.3 1.4 0 1.4 1.4 0 1.5 1.4 0 1.6 1.4 0 1.7 1.4 0 1.8 1.4 0 1.9 1.4 0 2 1.4 0 2.1 1.4 0 2.2 1.4 0 2.3 1.4 0 2.4 1.4 0 2.5 1.4 0 2.6 1.4 0 2.7 1.4 0 2.8 1.4 0 2.9 1.4 0 3 1.4 0 3.1 1.4 0 3.2 1.4 0 3.3 1.4 0 3.4 1.4 0 3.5 1.4 0 3.6 1.4 0 3.7 1.4 0 3.8 1.4 0 3.9 1.4 0 4 1.4 0 4.1 1.4 0 4.2 1.4 0 4.3 1.4 0 4.4 1.4 0 4.5 1.4 0 4.6 1.4 0 4.7 1.4 0 4.8 1.4 0 4.9 1.4 0 5 1.4 0 5.1 1.4 0 5.2 1.4 0 5.3 1.4 0 5.4 1.4 0 5.5 1.4 0 5.6 1.4 0 5.7 1.4 0 5.8 1.4 0 5.9 1.4 0 6 1.4 0 6.1 1.4 0 6.2 1.4 0 6.3 1.4 0 6.4 1.4 0 6.5 1.4 0 6.6 1.4 0 6.7 1.4 0 6.8 1.4 0 6.9 1.4 0 7 1.4 0 7.1 1.4 0 7.2 1.4 0 7.3 1.4 0 7.4 1.4 0 7.5 1.4 0 7.6 1.4 0 7.7 1.4 0 7.8 1.4 0 7.9 1.4 0 8 1.4 0 8.1 1.4 0 8.2 1.4 0 8.3 1.4 0 8.4 1.4 0 8.5 1.4 0 8.6 1.4 0 8.7 1.4 0 8.8 1.4 0 8.9 1.4 0 9 1.4 0 9.1 1.4 0 9.2 1.4 0 9.3 1.4 0 9.4 1.4 0 9.5 1.4 0 9.6 1.4 0 9.7 1.4 0 9.8 1.4 0 9.9 1.4 0 10 1.4 0 0 1.5 0 0.1 1.5 0 0.2 1.5 0 0.3 1.5 0 0.4 1.5 0 0.5 1.5 0 0.6 1.5 0 0.7 1.5 0 0.8 1.5 0 0.9 1.5 0 1 1.5 0 1.1 1.5 0 1.2 1.5 0 1.3 1.5 0 1.4 1.5 0 1.5 1.5 0 1.6 1.5 0 1.7 1.5 0 1.8 1.5 0 1.9 1.5 0 2 1.5 0 2.1 1.5 0 2.2 1.5 0 2.3 1.5 0 2.4 1.5 0 2.5 1.5 0 2.6 1.5 0 2.7 1.5 0 2.8 1.5 0 2.9 1.5 0 3 1.5 0 3.1 1.5 0 3.2 1.5 0 3.3 1.5 0 3.4 1.5 0 3.5 1.5 0 3.6 1.5 0 3.7 1.5 0 3.8 1.5 0 3.9 1.5 0 4 1.5 0 4.1 1.5 0 4.2 1.5 0 4.3 1.5 0 4.4 1.5 0 4.5 1.5 0 4.6 1.5 0 4.7 1.5 0 4.8 1.5 0 4.9 1.5 0 5 1.5 0 5.1 1.5 0 5.2 1.5 0 5.3 1.5 0 5.4 1.5 0 5.5 1.5 0 5.6 1.5 0 5.7 1.5 0 5.8 1.5 0 5.9 1.5 0 6 1.5 0 6.1 1.5 0 6.2 1.5 0 6.3 1.5 0 6.4 1.5 0 6.5 1.5 0 6.6 1.5 0 6.7 1.5 0 6.8 1.5 0 6.9 1.5 0 7 1.5 0 7.1 1.5 0 7.2 1.5 0 7.3 1.5 0 7.4 1.5 0 7.5 1.5 0 7.6 1.5 0 7.7 1.5 0 7.8 1.5 0 7.9 1.5 0 8 1.5 0 8.1 1.5 0 8.2 1.5 0 8.3 1.5 0 8.4 1.5 0 8.5 1.5 0 8.6 1.5 0 8.7 1.5 0 8.8 1.5 0 8.9 1.5 0 9 1.5 0 9.1 1.5 0 9.2 1.5 0 9.3 1.5 0 9.4 1.5 0 9.5 1.5 0 9.6 1.5 0 9.7 1.5 0 9.8 1.5 0 9.9 1.5 0 10 1.5 0 0 1.6 0 0.1 1.6 0 0.2 1.6 0 0.3 1.6 0 0.4 1.6 0 0.5 1.6 0 0.6 1.6 0 0.7 1.6 0 0.8 1.6 0 0.9 1.6 0 1 1.6 0 1.1 1.6 0 1.2 1.6 0 1.3 1.6 0 1.4 1.6 0 1.5 1.6 0 1.6 1.6 0 1.7 1.6 0 1.8 1.6 0 1.9 1.6 0 2 1.6 0 2.1 1.6 0 2.2 1.6 0 2.3 1.6 0 2.4 1.6 0 2.5 1.6 0 2.6 1.6 0 2.7 1.6 0 2.8 1.6 0 2.9 1.6 0 3 1.6 0 3.1 1.6 0 3.2 1.6 0 3.3 1.6 0 3.4 1.6 0 3.5 1.6 0 3.6 1.6 0 3.7 1.6 0 3.8 1.6 0 3.9 1.6 0 4 1.6 0 4.1 1.6 0 4.2 1.6 0 4.3 1.6 0 4.4 1.6 0 4.5 1.6 0 4.6 1.6 0 4.7 1.6 0 4.8 1.6 0 4.9 1.6 0 5 1.6 0 5.1 1.6 0 5.2 1.6 0 5.3 1.6 0 5.4 1.6 0 5.5 1.6 0 5.6 1.6 0 5.7 1.6 0 5.8 1.6 0 5.9 1.6 0 6 1.6 0 6.1 1.6 0 6.2 1.6 0 6.3 1.6 0 6.4 1.6 0 6.5 1.6 0 6.6 1.6 0 6.7 1.6 0 6.8 1.6 0 6.9 1.6 0 7 1.6 0 7.1 1.6 0 7.2 1.6 0 7.3 1.6 0 7.4 1.6 0 7.5 1.6 0 7.6 1.6 0 7.7 1.6 0 7.8 1.6 0 7.9 1.6 0 8 1.6 0 8.1 1.6 0 8.2 1.6 0 8.3 1.6 0 8.4 1.6 0 8.5 1.6 0 8.6 1.6 0 8.7 1.6 0 8.8 1.6 0 8.9 1.6 0 9 1.6 0 9.1 1.6 0 9.2 1.6 0 9.3 1.6 0 9.4 1.6 0 9.5 1.6 0 9.6 1.6 0 9.7 1.6 0 9.8 1.6 0 9.9 1.6 0 10 1.6 0 0 1.7 0 0.1 1.7 0 0.2 1.7 0 0.3 1.7 0 0.4 1.7 0 0.5 1.7 0 0.6 1.7 0 0.7 1.7 0 0.8 1.7 0 0.9 1.7 0 1 1.7 0 1.1 1.7 0 1.2 1.7 0 1.3 1.7 0 1.4 1.7 0 1.5 1.7 0 1.6 1.7 0 1.7 1.7 0 1.8 1.7 0 1.9 1.7 0 2 1.7 0 2.1 1.7 0 2.2 1.7 0 2.3 1.7 0 2.4 1.7 0 2.5 1.7 0 2.6 1.7 0 2.7 1.7 0 2.8 1.7 0 2.9 1.7 0 3 1.7 0 3.1 1.7 0 3.2 1.7 0 3.3 1.7 0 3.4 1.7 0 3.5 1.7 0 3.6 1.7 0 3.7 1.7 0 3.8 1.7 0 3.9 1.7 0 4 1.7 0 4.1 1.7 0 4.2 1.7 0 4.3 1.7 0 4.4 1.7 0 4.5 1.7 0 4.6 1.7 0 4.7 1.7 0 4.8 1.7 0 4.9 1.7 0 5 1.7 0 5.1 1.7 0 5.2 1.7 0 5.3 1.7 0 5.4 1.7 0 5.5 1.7 0 5.6 1.7 0 5.7 1.7 0 5.8 1.7 0 5.9 1.7 0 6 1.7 0 6.1 1.7 0 6.2 1.7 0 6.3 1.7 0 6.4 1.7 0 6.5 1.7 0 6.6 1.7 0 6.7 1.7 0 6.8 1.7 0 6.9 1.7 0 7 1.7 0 7.1 1.7 0 7.2 1.7 0 7.3 1.7 0 7.4 1.7 0 7.5 1.7 0 7.6 1.7 0 7.7 1.7 0 7.8 1.7 0 7.9 1.7 0 8 1.7 0 8.1 1.7 0 8.2 1.7 0 8.3 1.7 0 8.4 1.7 0 8.5 1.7 0 8.6 1.7 0 8.7 1.7 0 8.8 1.7 0 8.9 1.7 0 9 1.7 0 9.1 1.7 0 9.2 1.7 0 9.3 1.7 0 9.4 1.7 0 9.5 1.7 0 9.6 1.7 0 9.7 1.7 0 9.8 1.7 0 9.9 1.7 0 10 1.7 0 0 1.8 0 0.1 1.8 0 0.2 1.8 0 0.3 1.8 0 0.4 1.8 0 0.5 1.8 0 0.6 1.8 0 0.7 1.8 0 0.8 1.8 0 0.9 1.8 0 1 1.8 0 1.1 1.8 0 1.2 1.8 0 1.3 1.8 0 1.4 1.8 0 1.5 1.8 0 1.6 1.8 0 1.7 1.8 0 1.8 1.8 0 1.9 1.8 0 2 1.8 0 2.1 1.8 0 2.2 1.8 0 2.3 1.8 0 2.4 1.8 0 2.5 1.8 0 2.6 1.8 0 2.7 1.8 0 2.8 1.8 0 2.9 1.8 0 3 1.8 0 3.1 1.8 0 3.2 1.8 0 3.3 1.8 0 3.4 1.8 0 3.5 1.8 0 3.6 1.8 0 3.7 1.8 0 3.8 1.8 0 3.9 1.8 0 4 1.8 0 4.1 1.8 0 4.2 1.8 0 4.3 1.8 0 4.4 1.8 0 4.5 1.8 0 4.6 1.8 0 4.7 1.8 0 4.8 1.8 0 4.9 1.8 0 5 1.8 0 5.1 1.8 0 5.2 1.8 0 5.3 1.8 0 5.4 1.8 0 5.5 1.8 0 5.6 1.8 0 5.7 1.8 0 5.8 1.8 0 5.9 1.8 0 6 1.8 0 6.1 1.8 0 6.2 1.8 0 6.3 1.8 0 6.4 1.8 0 6.5 1.8 0 6.6 1.8 0 6.7 1.8 0 6.8 1.8 0 6.9 1.8 0 7 1.8 0 7.1 1.8 0 7.2 1.8 0 7.3 1.8 0 7.4 1.8 0 7.5 1.8 0 7.6 1.8 0 7.7 1.8 0 7.8 1.8 0 7.9 1.8 0 8 1.8 0 8.1 1.8 0 8.2 1.8 0 8.3 1.8 0 8.4 1.8 0 8.5 1.8 0 8.6 1.8 0 8.7 1.8 0 8.8 1.8 0 8.9 1.8 0 9 1.8 0 9.1 1.8 0 9.2 1.8 0 9.3 1.8 0 9.4 1.8 0 9.5 1.8 0 9.6 1.8 0 9.7 1.8 0 9.8 1.8 0 9.9 1.8 0 10 1.8 0 0 1.9 0 0.1 1.9 0 0.2 1.9 0 0.3 1.9 0 0.4 1.9 0 0.5 1.9 0 0.6 1.9 0 0.7 1.9 0 0.8 1.9 0 0.9 1.9 0 1 1.9 0 1.1 1.9 0 1.2 1.9 0 1.3 1.9 0 1.4 1.9 0 1.5 1.9 0 1.6 1.9 0 1.7 1.9 0 1.8 1.9 0 1.9 1.9 0 2 1.9 0 2.1 1.9 0 2.2 1.9 0 2.3 1.9 0 2.4 1.9 0 2.5 1.9 0 2.6 1.9 0 2.7 1.9 0 2.8 1.9 0 2.9 1.9 0 3 1.9 0 3.1 1.9 0 3.2 1.9 0 3.3 1.9 0 3.4 1.9 0 3.5 1.9 0 3.6 1.9 0 3.7 1.9 0 3.8 1.9 0 3.9 1.9 0 4 1.9 0 4.1 1.9 0 4.2 1.9 0 4.3 1.9 0 4.4 1.9 0 4.5 1.9 0 4.6 1.9 0 4.7 1.9 0 4.8 1.9 0 4.9 1.9 0 5 1.9 0 5.1 1.9 0 5.2 1.9 0 5.3 1.9 0 5.4 1.9 0 5.5 1.9 0 5.6 1.9 0 5.7 1.9 0 5.8 1.9 0 5.9 1.9 0 6 1.9 0 6.1 1.9 0 6.2 1.9 0 6.3 1.9 0 6.4 1.9 0 6.5 1.9 0 6.6 1.9 0 6.7 1.9 0 6.8 1.9 0 6.9 1.9 0 7 1.9 0 7.1 1.9 0 7.2 1.9 0 7.3 1.9 0 7.4 1.9 0 7.5 1.9 0 7.6 1.9 0 7.7 1.9 0 7.8 1.9 0 7.9 1.9 0 8 1.9 0 8.1 1.9 0 8.2 1.9 0 8.3 1.9 0 8.4 1.9 0 8.5 1.9 0 8.6 1.9 0 8.7 1.9 0 8.8 1.9 0 8.9 1.9 0 9 1.9 0 9.1 1.9 0 9.2 1.9 0 9.3 1.9 0 9.4 1.9 0 9.5 1.9 0 9.6 1.9 0 9.7 1.9 0 9.8 1.9 0 9.9 1.9 0 10 1.9 0 0 2 0 0.1 2 0 0.2 2 0 0.3 2 0 0.4 2 0 0.5 2 0 0.6 2 0 0.7 2 0 0.8 2 0 0.9 2 0 1 2 0 1.1 2 0 1.2 2 0 1.3 2 0 1.4 2 0 1.5 2 0 1.6 2 0 1.7 2 0 1.8 2 0 1.9 2 0 2 2 0 2.1 2 0 2.2 2 0 2.3 2 0 2.4 2 0 2.5 2 0 2.6 2 0 2.7 2 0 2.8 2 0 2.9 2 0 3 2 0 3.1 2 0 3.2 2 0 3.3 2 0 3.4 2 0 3.5 2 0 3.6 2 0 3.7 2 0 3.8 2 0 3.9 2 0 4 2 0 4.1 2 0 4.2 2 0 4.3 2 0 4.4 2 0 4.5 2 0 4.6 2 0 4.7 2 0 4.8 2 0 4.9 2 0 5 2 0 5.1 2 0 5.2 2 0 5.3 2 0 5.4 2 0 5.5 2 0 5.6 2 0 5.7 2 0 5.8 2 0 5.9 2 0 6 2 0 6.1 2 0 6.2 2 0 6.3 2 0 6.4 2 0 6.5 2 0 6.6 2 0 6.7 2 0 6.8 2 0 6.9 2 0 7 2 0 7.1 2 0 7.2 2 0 7.3 2 0 7.4 2 0 7.5 2 0 7.6 2 0 7.7 2 0 7.8 2 0 7.9 2 0 8 2 0 8.1 2 0 8.2 2 0 8.3 2 0 8.4 2 0 8.5 2 0 8.6 2 0 8.7 2 0 8.8 2 0 8.9 2 0 9 2 0 9.1 2 0 9.2 2 0 9.3 2 0 9.4 2 0 9.5 2 0 9.6 2 0 9.7 2 0 9.8 2 0 9.9 2 0 10 2 0 0 2.1 0 0.1 2.1 0 0.2 2.1 0 0.3 2.1 0 0.4 2.1 0 0.5 2.1 0 0.6 2.1 0 0.7 2.1 0 0.8 2.1 0 0.9 2.1 0 1 2.1 0 1.1 2.1 0 1.2 2.1 0 1.3 2.1 0 1.4 2.1 0 1.5 2.1 0 1.6 2.1 0 1.7 2.1 0 1.8 2.1 0 1.9 2.1 0 2 2.1 0 2.1 2.1 0 2.2 2.1 0 2.3 2.1 0 2.4 2.1 0 2.5 2.1 0 2.6 2.1 0 2.7 2.1 0 2.8 2.1 0 2.9 2.1 0 3 2.1 0 3.1 2.1 0 3.2 2.1 0 3.3 2.1 0 3.4 2.1 0 3.5 2.1 0 3.6 2.1 0 3.7 2.1 0 3.8 2.1 0 3.9 2.1 0 4 2.1 0 4.1 2.1 0 4.2 2.1 0 4.3 2.1 0 4.4 2.1 0 4.5 2.1 0 4.6 2.1 0 4.7 2.1 0 4.8 2.1 0 4.9 2.1 0 5 2.1 0 5.1 2.1 0 5.2 2.1 0 5.3 2.1 0 5.4 2.1 0 5.5 2.1 0 5.6 2.1 0 5.7 2.1 0 5.8 2.1 0 5.9 2.1 0 6 2.1 0 6.1 2.1 0 6.2 2.1 0 6.3 2.1 0 6.4 2.1 0 6.5 2.1 0 6.6 2.1 0 6.7 2.1 0 6.8 2.1 0 6.9 2.1 0 7 2.1 0 7.1 2.1 0 7.2 2.1 0 7.3 2.1 0 7.4 2.1 0 7.5 2.1 0 7.6 2.1 0 7.7 2.1 0 7.8 2.1 0 7.9 2.1 0 8 2.1 0 8.1 2.1 0 8.2 2.1 0 8.3 2.1 0 8.4 2.1 0 8.5 2.1 0 8.6 2.1 0 8.7 2.1 0 8.8 2.1 0 8.9 2.1 0 9 2.1 0 9.1 2.1 0 9.2 2.1 0 9.3 2.1 0 9.4 2.1 0 9.5 2.1 0 9.6 2.1 0 9.7 2.1 0 9.8 2.1 0 9.9 2.1 0 10 2.1 0 0 2.2 0 0.1 2.2 0 0.2 2.2 0 0.3 2.2 0 0.4 2.2 0 0.5 2.2 0 0.6 2.2 0 0.7 2.2 0 0.8 2.2 0 0.9 2.2 0 1 2.2 0 1.1 2.2 0 1.2 2.2 0 1.3 2.2 0 1.4 2.2 0 1.5 2.2 0 1.6 2.2 0 1.7 2.2 0 1.8 2.2 0 1.9 2.2 0 2 2.2 0 2.1 2.2 0 2.2 2.2 0 2.3 2.2 0 2.4 2.2 0 2.5 2.2 0 2.6 2.2 0 2.7 2.2 0 2.8 2.2 0 2.9 2.2 0 3 2.2 0 3.1 2.2 0 3.2 2.2 0 3.3 2.2 0 3.4 2.2 0 3.5 2.2 0 3.6 2.2 0 3.7 2.2 0 3.8 2.2 0 3.9 2.2 0 4 2.2 0 4.1 2.2 0 4.2 2.2 0 4.3 2.2 0 4.4 2.2 0 4.5 2.2 0 4.6 2.2 0 4.7 2.2 0 4.8 2.2 0 4.9 2.2 0 5 2.2 0 5.1 2.2 0 5.2 2.2 0 5.3 2.2 0 5.4 2.2 0 5.5 2.2 0 5.6 2.2 0 5.7 2.2 0 5.8 2.2 0 5.9 2.2 0 6 2.2 0 6.1 2.2 0 6.2 2.2 0 6.3 2.2 0 6.4 2.2 0 6.5 2.2 0 6.6 2.2 0 6.7 2.2 0 6.8 2.2 0 6.9 2.2 0 7 2.2 0 7.1 2.2 0 7.2 2.2 0 7.3 2.2 0 7.4 2.2 0 7.5 2.2 0 7.6 2.2 0 7.7 2.2 0 7.8 2.2 0 7.9 2.2 0 8 2.2 0 8.1 2.2 0 8.2 2.2 0 8.3 2.2 0 8.4 2.2 0 8.5 2.2 0 8.6 2.2 0 8.7 2.2 0 8.8 2.2 0 8.9 2.2 0 9 2.2 0 9.1 2.2 0 9.2 2.2 0 9.3 2.2 0 9.4 2.2 0 9.5 2.2 0 9.6 2.2 0 9.7 2.2 0 9.8 2.2 0 9.9 2.2 0 10 2.2 0 0 2.3 0 0.1 2.3 0 0.2 2.3 0 0.3 2.3 0 0.4 2.3 0 0.5 2.3 0 0.6 2.3 0 0.7 2.3 0 0.8 2.3 0 0.9 2.3 0 1 2.3 0 1.1 2.3 0 1.2 2.3 0 1.3 2.3 0 1.4 2.3 0 1.5 2.3 0 1.6 2.3 0 1.7 2.3 0 1.8 2.3 0 1.9 2.3 0 2 2.3 0 2.1 2.3 0 2.2 2.3 0 2.3 2.3 0 2.4 2.3 0 2.5 2.3 0 2.6 2.3 0 2.7 2.3 0 2.8 2.3 0 2.9 2.3 0 3 2.3 0 3.1 2.3 0 3.2 2.3 0 3.3 2.3 0 3.4 2.3 0 3.5 2.3 0 3.6 2.3 0 3.7 2.3 0 3.8 2.3 0 3.9 2.3 0 4 2.3 0 4.1 2.3 0 4.2 2.3 0 4.3 2.3 0 4.4 2.3 0 4.5 2.3 0 4.6 2.3 0 4.7 2.3 0 4.8 2.3 0 4.9 2.3 0 5 2.3 0 5.1 2.3 0 5.2 2.3 0 5.3 2.3 0 5.4 2.3 0 5.5 2.3 0 5.6 2.3 0 5.7 2.3 0 5.8 2.3 0 5.9 2.3 0 6 2.3 0 6.1 2.3 0 6.2 2.3 0 6.3 2.3 0 6.4 2.3 0 6.5 2.3 0 6.6 2.3 0 6.7 2.3 0 6.8 2.3 0 6.9 2.3 0 7 2.3 0 7.1 2.3 0 7.2 2.3 0 7.3 2.3 0 7.4 2.3 0 7.5 2.3 0 7.6 2.3 0 7.7 2.3 0 7.8 2.3 0 7.9 2.3 0 8 2.3 0 8.1 2.3 0 8.2 2.3 0 8.3 2.3 0 8.4 2.3 0 8.5 2.3 0 8.6 2.3 0 8.7 2.3 0 8.8 2.3 0 8.9 2.3 0 9 2.3 0 9.1 2.3 0 9.2 2.3 0 9.3 2.3 0 9.4 2.3 0 9.5 2.3 0 9.6 2.3 0 9.7 2.3 0 9.8 2.3 0 9.9 2.3 0 10 2.3 0 0 2.4 0 0.1 2.4 0 0.2 2.4 0 0.3 2.4 0 0.4 2.4 0 0.5 2.4 0 0.6 2.4 0 0.7 2.4 0 0.8 2.4 0 0.9 2.4 0 1 2.4 0 1.1 2.4 0 1.2 2.4 0 1.3 2.4 0 1.4 2.4 0 1.5 2.4 0 1.6 2.4 0 1.7 2.4 0 1.8 2.4 0 1.9 2.4 0 2 2.4 0 2.1 2.4 0 2.2 2.4 0 2.3 2.4 0 2.4 2.4 0 2.5 2.4 0 2.6 2.4 0 2.7 2.4 0 2.8 2.4 0 2.9 2.4 0 3 2.4 0 3.1 2.4 0 3.2 2.4 0 3.3 2.4 0 3.4 2.4 0 3.5 2.4 0 3.6 2.4 0 3.7 2.4 0 3.8 2.4 0 3.9 2.4 0 4 2.4 0 4.1 2.4 0 4.2 2.4 0 4.3 2.4 0 4.4 2.4 0 4.5 2.4 0 4.6 2.4 0 4.7 2.4 0 4.8 2.4 0 4.9 2.4 0 5 2.4 0 5.1 2.4 0 5.2 2.4 0 5.3 2.4 0 5.4 2.4 0 5.5 2.4 0 5.6 2.4 0 5.7 2.4 0 5.8 2.4 0 5.9 2.4 0 6 2.4 0 6.1 2.4 0 6.2 2.4 0 6.3 2.4 0 6.4 2.4 0 6.5 2.4 0 6.6 2.4 0 6.7 2.4 0 6.8 2.4 0 6.9 2.4 0 7 2.4 0 7.1 2.4 0 7.2 2.4 0 7.3 2.4 0 7.4 2.4 0 7.5 2.4 0 7.6 2.4 0 7.7 2.4 0 7.8 2.4 0 7.9 2.4 0 8 2.4 0 8.1 2.4 0 8.2 2.4 0 8.3 2.4 0 8.4 2.4 0 8.5 2.4 0 8.6 2.4 0 8.7 2.4 0 8.8 2.4 0 8.9 2.4 0 9 2.4 0 9.1 2.4 0 9.2 2.4 0 9.3 2.4 0 9.4 2.4 0 9.5 2.4 0 9.6 2.4 0 9.7 2.4 0 9.8 2.4 0 9.9 2.4 0 10 2.4 0 0 2.5 0 0.1 2.5 0 0.2 2.5 0 0.3 2.5 0 0.4 2.5 0 0.5 2.5 0 0.6 2.5 0 0.7 2.5 0 0.8 2.5 0 0.9 2.5 0 1 2.5 0 1.1 2.5 0 1.2 2.5 0 1.3 2.5 0 1.4 2.5 0 1.5 2.5 0 1.6 2.5 0 1.7 2.5 0 1.8 2.5 0 1.9 2.5 0 2 2.5 0 2.1 2.5 0 2.2 2.5 0 2.3 2.5 0 2.4 2.5 0 2.5 2.5 0 2.6 2.5 0 2.7 2.5 0 2.8 2.5 0 2.9 2.5 0 3 2.5 0 3.1 2.5 0 3.2 2.5 0 3.3 2.5 0 3.4 2.5 0 3.5 2.5 0 3.6 2.5 0 3.7 2.5 0 3.8 2.5 0 3.9 2.5 0 4 2.5 0 4.1 2.5 0 4.2 2.5 0 4.3 2.5 0 4.4 2.5 0 4.5 2.5 0 4.6 2.5 0 4.7 2.5 0 4.8 2.5 0 4.9 2.5 0 5 2.5 0 5.1 2.5 0 5.2 2.5 0 5.3 2.5 0 5.4 2.5 0 5.5 2.5 0 5.6 2.5 0 5.7 2.5 0 5.8 2.5 0 5.9 2.5 0 6 2.5 0 6.1 2.5 0 6.2 2.5 0 6.3 2.5 0 6.4 2.5 0 6.5 2.5 0 6.6 2.5 0 6.7 2.5 0 6.8 2.5 0 6.9 2.5 0 7 2.5 0 7.1 2.5 0 7.2 2.5 0 7.3 2.5 0 7.4 2.5 0 7.5 2.5 0 7.6 2.5 0 7.7 2.5 0 7.8 2.5 0 7.9 2.5 0 8 2.5 0 8.1 2.5 0 8.2 2.5 0 8.3 2.5 0 8.4 2.5 0 8.5 2.5 0 8.6 2.5 0 8.7 2.5 0 8.8 2.5 0 8.9 2.5 0 9 2.5 0 9.1 2.5 0 9.2 2.5 0 9.3 2.5 0 9.4 2.5 0 9.5 2.5 0 9.6 2.5 0 9.7 2.5 0 9.8 2.5 0 9.9 2.5 0 10 2.5 0 0 2.6 0 0.1 2.6 0 0.2 2.6 0 0.3 2.6 0 0.4 2.6 0 0.5 2.6 0 0.6 2.6 0 0.7 2.6 0 0.8 2.6 0 0.9 2.6 0 1 2.6 0 1.1 2.6 0 1.2 2.6 0 1.3 2.6 0 1.4 2.6 0 1.5 2.6 0 1.6 2.6 0 1.7 2.6 0 1.8 2.6 0 1.9 2.6 0 2 2.6 0 2.1 2.6 0 2.2 2.6 0 2.3 2.6 0 2.4 2.6 0 2.5 2.6 0 2.6 2.6 0 2.7 2.6 0 2.8 2.6 0 2.9 2.6 0 3 2.6 0 3.1 2.6 0 3.2 2.6 0 3.3 2.6 0 3.4 2.6 0 3.5 2.6 0 3.6 2.6 0 3.7 2.6 0 3.8 2.6 0 3.9 2.6 0 4 2.6 0 4.1 2.6 0 4.2 2.6 0 4.3 2.6 0 4.4 2.6 0 4.5 2.6 0 4.6 2.6 0 4.7 2.6 0 4.8 2.6 0 4.9 2.6 0 5 2.6 0 5.1 2.6 0 5.2 2.6 0 5.3 2.6 0 5.4 2.6 0 5.5 2.6 0 5.6 2.6 0 5.7 2.6 0 5.8 2.6 0 5.9 2.6 0 6 2.6 0 6.1 2.6 0 6.2 2.6 0 6.3 2.6 0 6.4 2.6 0 6.5 2.6 0 6.6 2.6 0 6.7 2.6 0 6.8 2.6 0 6.9 2.6 0 7 2.6 0 7.1 2.6 0 7.2 2.6 0 7.3 2.6 0 7.4 2.6 0 7.5 2.6 0 7.6 2.6 0 7.7 2.6 0 7.8 2.6 0 7.9 2.6 0 8 2.6 0 8.1 2.6 0 8.2 2.6 0 8.3 2.6 0 8.4 2.6 0 8.5 2.6 0 8.6 2.6 0 8.7 2.6 0 8.8 2.6 0 8.9 2.6 0 9 2.6 0 9.1 2.6 0 9.2 2.6 0 9.3 2.6 0 9.4 2.6 0 9.5 2.6 0 9.6 2.6 0 9.7 2.6 0 9.8 2.6 0 9.9 2.6 0 10 2.6 0 0 2.7 0 0.1 2.7 0 0.2 2.7 0 0.3 2.7 0 0.4 2.7 0 0.5 2.7 0 0.6 2.7 0 0.7 2.7 0 0.8 2.7 0 0.9 2.7 0 1 2.7 0 1.1 2.7 0 1.2 2.7 0 1.3 2.7 0 1.4 2.7 0 1.5 2.7 0 1.6 2.7 0 1.7 2.7 0 1.8 2.7 0 1.9 2.7 0 2 2.7 0 2.1 2.7 0 2.2 2.7 0 2.3 2.7 0 2.4 2.7 0 2.5 2.7 0 2.6 2.7 0 2.7 2.7 0 2.8 2.7 0 2.9 2.7 0 3 2.7 0 3.1 2.7 0 3.2 2.7 0 3.3 2.7 0 3.4 2.7 0 3.5 2.7 0 3.6 2.7 0 3.7 2.7 0 3.8 2.7 0 3.9 2.7 0 4 2.7 0 4.1 2.7 0 4.2 2.7 0 4.3 2.7 0 4.4 2.7 0 4.5 2.7 0 4.6 2.7 0 4.7 2.7 0 4.8 2.7 0 4.9 2.7 0 5 2.7 0 5.1 2.7 0 5.2 2.7 0 5.3 2.7 0 5.4 2.7 0 5.5 2.7 0 5.6 2.7 0 5.7 2.7 0 5.8 2.7 0 5.9 2.7 0 6 2.7 0 6.1 2.7 0 6.2 2.7 0 6.3 2.7 0 6.4 2.7 0 6.5 2.7 0 6.6 2.7 0 6.7 2.7 0 6.8 2.7 0 6.9 2.7 0 7 2.7 0 7.1 2.7 0 7.2 2.7 0 7.3 2.7 0 7.4 2.7 0 7.5 2.7 0 7.6 2.7 0 7.7 2.7 0 7.8 2.7 0 7.9 2.7 0 8 2.7 0 8.1 2.7 0 8.2 2.7 0 8.3 2.7 0 8.4 2.7 0 8.5 2.7 0 8.6 2.7 0 8.7 2.7 0 8.8 2.7 0 8.9 2.7 0 9 2.7 0 9.1 2.7 0 9.2 2.7 0 9.3 2.7 0 9.4 2.7 0 9.5 2.7 0 9.6 2.7 0 9.7 2.7 0 9.8 2.7 0 9.9 2.7 0 10 2.7 0 0 2.8 0 0.1 2.8 0 0.2 2.8 0 0.3 2.8 0 0.4 2.8 0 0.5 2.8 0 0.6 2.8 0 0.7 2.8 0 0.8 2.8 0 0.9 2.8 0 1 2.8 0 1.1 2.8 0 1.2 2.8 0 1.3 2.8 0 1.4 2.8 0 1.5 2.8 0 1.6 2.8 0 1.7 2.8 0 1.8 2.8 0 1.9 2.8 0 2 2.8 0 2.1 2.8 0 2.2 2.8 0 2.3 2.8 0 2.4 2.8 0 2.5 2.8 0 2.6 2.8 0 2.7 2.8 0 2.8 2.8 0 2.9 2.8 0 3 2.8 0 3.1 2.8 0 3.2 2.8 0 3.3 2.8 0 3.4 2.8 0 3.5 2.8 0 3.6 2.8 0 3.7 2.8 0 3.8 2.8 0 3.9 2.8 0 4 2.8 0 4.1 2.8 0 4.2 2.8 0 4.3 2.8 0 4.4 2.8 0 4.5 2.8 0 4.6 2.8 0 4.7 2.8 0 4.8 2.8 0 4.9 2.8 0 5 2.8 0 5.1 2.8 0 5.2 2.8 0 5.3 2.8 0 5.4 2.8 0 5.5 2.8 0 5.6 2.8 0 5.7 2.8 0 5.8 2.8 0 5.9 2.8 0 6 2.8 0 6.1 2.8 0 6.2 2.8 0 6.3 2.8 0 6.4 2.8 0 6.5 2.8 0 6.6 2.8 0 6.7 2.8 0 6.8 2.8 0 6.9 2.8 0 7 2.8 0 7.1 2.8 0 7.2 2.8 0 7.3 2.8 0 7.4 2.8 0 7.5 2.8 0 7.6 2.8 0 7.7 2.8 0 7.8 2.8 0 7.9 2.8 0 8 2.8 0 8.1 2.8 0 8.2 2.8 0 8.3 2.8 0 8.4 2.8 0 8.5 2.8 0 8.6 2.8 0 8.7 2.8 0 8.8 2.8 0 8.9 2.8 0 9 2.8 0 9.1 2.8 0 9.2 2.8 0 9.3 2.8 0 9.4 2.8 0 9.5 2.8 0 9.6 2.8 0 9.7 2.8 0 9.8 2.8 0 9.9 2.8 0 10 2.8 0 0 2.9 0 0.1 2.9 0 0.2 2.9 0 0.3 2.9 0 0.4 2.9 0 0.5 2.9 0 0.6 2.9 0 0.7 2.9 0 0.8 2.9 0 0.9 2.9 0 1 2.9 0 1.1 2.9 0 1.2 2.9 0 1.3 2.9 0 1.4 2.9 0 1.5 2.9 0 1.6 2.9 0 1.7 2.9 0 1.8 2.9 0 1.9 2.9 0 2 2.9 0 2.1 2.9 0 2.2 2.9 0 2.3 2.9 0 2.4 2.9 0 2.5 2.9 0 2.6 2.9 0 2.7 2.9 0 2.8 2.9 0 2.9 2.9 0 3 2.9 0 3.1 2.9 0 3.2 2.9 0 3.3 2.9 0 3.4 2.9 0 3.5 2.9 0 3.6 2.9 0 3.7 2.9 0 3.8 2.9 0 3.9 2.9 0 4 2.9 0 4.1 2.9 0 4.2 2.9 0 4.3 2.9 0 4.4 2.9 0 4.5 2.9 0 4.6 2.9 0 4.7 2.9 0 4.8 2.9 0 4.9 2.9 0 5 2.9 0 5.1 2.9 0 5.2 2.9 0 5.3 2.9 0 5.4 2.9 0 5.5 2.9 0 5.6 2.9 0 5.7 2.9 0 5.8 2.9 0 5.9 2.9 0 6 2.9 0 6.1 2.9 0 6.2 2.9 0 6.3 2.9 0 6.4 2.9 0 6.5 2.9 0 6.6 2.9 0 6.7 2.9 0 6.8 2.9 0 6.9 2.9 0 7 2.9 0 7.1 2.9 0 7.2 2.9 0 7.3 2.9 0 7.4 2.9 0 7.5 2.9 0 7.6 2.9 0 7.7 2.9 0 7.8 2.9 0 7.9 2.9 0 8 2.9 0 8.1 2.9 0 8.2 2.9 0 8.3 2.9 0 8.4 2.9 0 8.5 2.9 0 8.6 2.9 0 8.7 2.9 0 8.8 2.9 0 8.9 2.9 0 9 2.9 0 9.1 2.9 0 9.2 2.9 0 9.3 2.9 0 9.4 2.9 0 9.5 2.9 0 9.6 2.9 0 9.7 2.9 0 9.8 2.9 0 9.9 2.9 0 10 2.9 0 0 3 0 0.1 3 0 0.2 3 0 0.3 3 0 0.4 3 0 0.5 3 0 0.6 3 0 0.7 3 0 0.8 3 0 0.9 3 0 1 3 0 1.1 3 0 1.2 3 0 1.3 3 0 1.4 3 0 1.5 3 0 1.6 3 0 1.7 3 0 1.8 3 0 1.9 3 0 2 3 0 2.1 3 0 2.2 3 0 2.3 3 0 2.4 3 0 2.5 3 0 2.6 3 0 2.7 3 0 2.8 3 0 2.9 3 0 3 3 0 3.1 3 0 3.2 3 0 3.3 3 0 3.4 3 0 3.5 3 0 3.6 3 0 3.7 3 0 3.8 3 0 3.9 3 0 4 3 0 4.1 3 0 4.2 3 0 4.3 3 0 4.4 3 0 4.5 3 0 4.6 3 0 4.7 3 0 4.8 3 0 4.9 3 0 5 3 0 5.1 3 0 5.2 3 0 5.3 3 0 5.4 3 0 5.5 3 0 5.6 3 0 5.7 3 0 5.8 3 0 5.9 3 0 6 3 0 6.1 3 0 6.2 3 0 6.3 3 0 6.4 3 0 6.5 3 0 6.6 3 0 6.7 3 0 6.8 3 0 6.9 3 0 7 3 0 7.1 3 0 7.2 3 0 7.3 3 0 7.4 3 0 7.5 3 0 7.6 3 0 7.7 3 0 7.8 3 0 7.9 3 0 8 3 0 8.1 3 0 8.2 3 0 8.3 3 0 8.4 3 0 8.5 3 0 8.6 3 0 8.7 3 0 8.8 3 0 8.9 3 0 9 3 0 9.1 3 0 9.2 3 0 9.3 3 0 9.4 3 0 9.5 3 0 9.6 3 0 9.7 3 0 9.8 3 0 9.9 3 0 10 3 0 0 3.1 0 0.1 3.1 0 0.2 3.1 0 0.3 3.1 0 0.4 3.1 0 0.5 3.1 0 0.6 3.1 0 0.7 3.1 0 0.8 3.1 0 0.9 3.1 0 1 3.1 0 1.1 3.1 0 1.2 3.1 0 1.3 3.1 0 1.4 3.1 0 1.5 3.1 0 1.6 3.1 0 1.7 3.1 0 1.8 3.1 0 1.9 3.1 0 2 3.1 0 2.1 3.1 0 2.2 3.1 0 2.3 3.1 0 2.4 3.1 0 2.5 3.1 0 2.6 3.1 0 2.7 3.1 0 2.8 3.1 0 2.9 3.1 0 3 3.1 0 3.1 3.1 0 3.2 3.1 0 3.3 3.1 0 3.4 3.1 0 3.5 3.1 0 3.6 3.1 0 3.7 3.1 0 3.8 3.1 0 3.9 3.1 0 4 3.1 0 4.1 3.1 0 4.2 3.1 0 4.3 3.1 0 4.4 3.1 0 4.5 3.1 0 4.6 3.1 0 4.7 3.1 0 4.8 3.1 0 4.9 3.1 0 5 3.1 0 5.1 3.1 0 5.2 3.1 0 5.3 3.1 0 5.4 3.1 0 5.5 3.1 0 5.6 3.1 0 5.7 3.1 0 5.8 3.1 0 5.9 3.1 0 6 3.1 0 6.1 3.1 0 6.2 3.1 0 6.3 3.1 0 6.4 3.1 0 6.5 3.1 0 6.6 3.1 0 6.7 3.1 0 6.8 3.1 0 6.9 3.1 0 7 3.1 0 7.1 3.1 0 7.2 3.1 0 7.3 3.1 0 7.4 3.1 0 7.5 3.1 0 7.6 3.1 0 7.7 3.1 0 7.8 3.1 0 7.9 3.1 0 8 3.1 0 8.1 3.1 0 8.2 3.1 0 8.3 3.1 0 8.4 3.1 0 8.5 3.1 0 8.6 3.1 0 8.7 3.1 0 8.8 3.1 0 8.9 3.1 0 9 3.1 0 9.1 3.1 0 9.2 3.1 0 9.3 3.1 0 9.4 3.1 0 9.5 3.1 0 9.6 3.1 0 9.7 3.1 0 9.8 3.1 0 9.9 3.1 0 10 3.1 0 0 3.2 0 0.1 3.2 0 0.2 3.2 0 0.3 3.2 0 0.4 3.2 0 0.5 3.2 0 0.6 3.2 0 0.7 3.2 0 0.8 3.2 0 0.9 3.2 0 1 3.2 0 1.1 3.2 0 1.2 3.2 0 1.3 3.2 0 1.4 3.2 0 1.5 3.2 0 1.6 3.2 0 1.7 3.2 0 1.8 3.2 0 1.9 3.2 0 2 3.2 0 2.1 3.2 0 2.2 3.2 0 2.3 3.2 0 2.4 3.2 0 2.5 3.2 0 2.6 3.2 0 2.7 3.2 0 2.8 3.2 0 2.9 3.2 0 3 3.2 0 3.1 3.2 0 3.2 3.2 0 3.3 3.2 0 3.4 3.2 0 3.5 3.2 0 3.6 3.2 0 3.7 3.2 0 3.8 3.2 0 3.9 3.2 0 4 3.2 0 4.1 3.2 0 4.2 3.2 0 4.3 3.2 0 4.4 3.2 0 4.5 3.2 0 4.6 3.2 0 4.7 3.2 0 4.8 3.2 0 4.9 3.2 0 5 3.2 0 5.1 3.2 0 5.2 3.2 0 5.3 3.2 0 5.4 3.2 0 5.5 3.2 0 5.6 3.2 0 5.7 3.2 0 5.8 3.2 0 5.9 3.2 0 6 3.2 0 6.1 3.2 0 6.2 3.2 0 6.3 3.2 0 6.4 3.2 0 6.5 3.2 0 6.6 3.2 0 6.7 3.2 0 6.8 3.2 0 6.9 3.2 0 7 3.2 0 7.1 3.2 0 7.2 3.2 0 7.3 3.2 0 7.4 3.2 0 7.5 3.2 0 7.6 3.2 0 7.7 3.2 0 7.8 3.2 0 7.9 3.2 0 8 3.2 0 8.1 3.2 0 8.2 3.2 0 8.3 3.2 0 8.4 3.2 0 8.5 3.2 0 8.6 3.2 0 8.7 3.2 0 8.8 3.2 0 8.9 3.2 0 9 3.2 0 9.1 3.2 0 9.2 3.2 0 9.3 3.2 0 9.4 3.2 0 9.5 3.2 0 9.6 3.2 0 9.7 3.2 0 9.8 3.2 0 9.9 3.2 0 10 3.2 0 0 3.3 0 0.1 3.3 0 0.2 3.3 0 0.3 3.3 0 0.4 3.3 0 0.5 3.3 0 0.6 3.3 0 0.7 3.3 0 0.8 3.3 0 0.9 3.3 0 1 3.3 0 1.1 3.3 0 1.2 3.3 0 1.3 3.3 0 1.4 3.3 0 1.5 3.3 0 1.6 3.3 0 1.7 3.3 0 1.8 3.3 0 1.9 3.3 0 2 3.3 0 2.1 3.3 0 2.2 3.3 0 2.3 3.3 0 2.4 3.3 0 2.5 3.3 0 2.6 3.3 0 2.7 3.3 0 2.8 3.3 0 2.9 3.3 0 3 3.3 0 3.1 3.3 0 3.2 3.3 0 3.3 3.3 0 3.4 3.3 0 3.5 3.3 0 3.6 3.3 0 3.7 3.3 0 3.8 3.3 0 3.9 3.3 0 4 3.3 0 4.1 3.3 0 4.2 3.3 0 4.3 3.3 0 4.4 3.3 0 4.5 3.3 0 4.6 3.3 0 4.7 3.3 0 4.8 3.3 0 4.9 3.3 0 5 3.3 0 5.1 3.3 0 5.2 3.3 0 5.3 3.3 0 5.4 3.3 0 5.5 3.3 0 5.6 3.3 0 5.7 3.3 0 5.8 3.3 0 5.9 3.3 0 6 3.3 0 6.1 3.3 0 6.2 3.3 0 6.3 3.3 0 6.4 3.3 0 6.5 3.3 0 6.6 3.3 0 6.7 3.3 0 6.8 3.3 0 6.9 3.3 0 7 3.3 0 7.1 3.3 0 7.2 3.3 0 7.3 3.3 0 7.4 3.3 0 7.5 3.3 0 7.6 3.3 0 7.7 3.3 0 7.8 3.3 0 7.9 3.3 0 8 3.3 0 8.1 3.3 0 8.2 3.3 0 8.3 3.3 0 8.4 3.3 0 8.5 3.3 0 8.6 3.3 0 8.7 3.3 0 8.8 3.3 0 8.9 3.3 0 9 3.3 0 9.1 3.3 0 9.2 3.3 0 9.3 3.3 0 9.4 3.3 0 9.5 3.3 0 9.6 3.3 0 9.7 3.3 0 9.8 3.3 0 9.9 3.3 0 10 3.3 0 0 3.4 0 0.1 3.4 0 0.2 3.4 0 0.3 3.4 0 0.4 3.4 0 0.5 3.4 0 0.6 3.4 0 0.7 3.4 0 0.8 3.4 0 0.9 3.4 0 1 3.4 0 1.1 3.4 0 1.2 3.4 0 1.3 3.4 0 1.4 3.4 0 1.5 3.4 0 1.6 3.4 0 1.7 3.4 0 1.8 3.4 0 1.9 3.4 0 2 3.4 0 2.1 3.4 0 2.2 3.4 0 2.3 3.4 0 2.4 3.4 0 2.5 3.4 0 2.6 3.4 0 2.7 3.4 0 2.8 3.4 0 2.9 3.4 0 3 3.4 0 3.1 3.4 0 3.2 3.4 0 3.3 3.4 0 3.4 3.4 0 3.5 3.4 0 3.6 3.4 0 3.7 3.4 0 3.8 3.4 0 3.9 3.4 0 4 3.4 0 4.1 3.4 0 4.2 3.4 0 4.3 3.4 0 4.4 3.4 0 4.5 3.4 0 4.6 3.4 0 4.7 3.4 0 4.8 3.4 0 4.9 3.4 0 5 3.4 0 5.1 3.4 0 5.2 3.4 0 5.3 3.4 0 5.4 3.4 0 5.5 3.4 0 5.6 3.4 0 5.7 3.4 0 5.8 3.4 0 5.9 3.4 0 6 3.4 0 6.1 3.4 0 6.2 3.4 0 6.3 3.4 0 6.4 3.4 0 6.5 3.4 0 6.6 3.4 0 6.7 3.4 0 6.8 3.4 0 6.9 3.4 0 7 3.4 0 7.1 3.4 0 7.2 3.4 0 7.3 3.4 0 7.4 3.4 0 7.5 3.4 0 7.6 3.4 0 7.7 3.4 0 7.8 3.4 0 7.9 3.4 0 8 3.4 0 8.1 3.4 0 8.2 3.4 0 8.3 3.4 0 8.4 3.4 0 8.5 3.4 0 8.6 3.4 0 8.7 3.4 0 8.8 3.4 0 8.9 3.4 0 9 3.4 0 9.1 3.4 0 9.2 3.4 0 9.3 3.4 0 9.4 3.4 0 9.5 3.4 0 9.6 3.4 0 9.7 3.4 0 9.8 3.4 0 9.9 3.4 0 10 3.4 0 0 3.5 0 0.1 3.5 0 0.2 3.5 0 0.3 3.5 0 0.4 3.5 0 0.5 3.5 0 0.6 3.5 0 0.7 3.5 0 0.8 3.5 0 0.9 3.5 0 1 3.5 0 1.1 3.5 0 1.2 3.5 0 1.3 3.5 0 1.4 3.5 0 1.5 3.5 0 1.6 3.5 0 1.7 3.5 0 1.8 3.5 0 1.9 3.5 0 2 3.5 0 2.1 3.5 0 2.2 3.5 0 2.3 3.5 0 2.4 3.5 0 2.5 3.5 0 2.6 3.5 0 2.7 3.5 0 2.8 3.5 0 2.9 3.5 0 3 3.5 0 3.1 3.5 0 3.2 3.5 0 3.3 3.5 0 3.4 3.5 0 3.5 3.5 0 3.6 3.5 0 3.7 3.5 0 3.8 3.5 0 3.9 3.5 0 4 3.5 0 4.1 3.5 0 4.2 3.5 0 4.3 3.5 0 4.4 3.5 0 4.5 3.5 0 4.6 3.5 0 4.7 3.5 0 4.8 3.5 0 4.9 3.5 0 5 3.5 0 5.1 3.5 0 5.2 3.5 0 5.3 3.5 0 5.4 3.5 0 5.5 3.5 0 5.6 3.5 0 5.7 3.5 0 5.8 3.5 0 5.9 3.5 0 6 3.5 0 6.1 3.5 0 6.2 3.5 0 6.3 3.5 0 6.4 3.5 0 6.5 3.5 0 6.6 3.5 0 6.7 3.5 0 6.8 3.5 0 6.9 3.5 0 7 3.5 0 7.1 3.5 0 7.2 3.5 0 7.3 3.5 0 7.4 3.5 0 7.5 3.5 0 7.6 3.5 0 7.7 3.5 0 7.8 3.5 0 7.9 3.5 0 8 3.5 0 8.1 3.5 0 8.2 3.5 0 8.3 3.5 0 8.4 3.5 0 8.5 3.5 0 8.6 3.5 0 8.7 3.5 0 8.8 3.5 0 8.9 3.5 0 9 3.5 0 9.1 3.5 0 9.2 3.5 0 9.3 3.5 0 9.4 3.5 0 9.5 3.5 0 9.6 3.5 0 9.7 3.5 0 9.8 3.5 0 9.9 3.5 0 10 3.5 0 0 3.6 0 0.1 3.6 0 0.2 3.6 0 0.3 3.6 0 0.4 3.6 0 0.5 3.6 0 0.6 3.6 0 0.7 3.6 0 0.8 3.6 0 0.9 3.6 0 1 3.6 0 1.1 3.6 0 1.2 3.6 0 1.3 3.6 0 1.4 3.6 0 1.5 3.6 0 1.6 3.6 0 1.7 3.6 0 1.8 3.6 0 1.9 3.6 0 2 3.6 0 2.1 3.6 0 2.2 3.6 0 2.3 3.6 0 2.4 3.6 0 2.5 3.6 0 2.6 3.6 0 2.7 3.6 0 2.8 3.6 0 2.9 3.6 0 3 3.6 0 3.1 3.6 0 3.2 3.6 0 3.3 3.6 0 3.4 3.6 0 3.5 3.6 0 3.6 3.6 0 3.7 3.6 0 3.8 3.6 0 3.9 3.6 0 4 3.6 0 4.1 3.6 0 4.2 3.6 0 4.3 3.6 0 4.4 3.6 0 4.5 3.6 0 4.6 3.6 0 4.7 3.6 0 4.8 3.6 0 4.9 3.6 0 5 3.6 0 5.1 3.6 0 5.2 3.6 0 5.3 3.6 0 5.4 3.6 0 5.5 3.6 0 5.6 3.6 0 5.7 3.6 0 5.8 3.6 0 5.9 3.6 0 6 3.6 0 6.1 3.6 0 6.2 3.6 0 6.3 3.6 0 6.4 3.6 0 6.5 3.6 0 6.6 3.6 0 6.7 3.6 0 6.8 3.6 0 6.9 3.6 0 7 3.6 0 7.1 3.6 0 7.2 3.6 0 7.3 3.6 0 7.4 3.6 0 7.5 3.6 0 7.6 3.6 0 7.7 3.6 0 7.8 3.6 0 7.9 3.6 0 8 3.6 0 8.1 3.6 0 8.2 3.6 0 8.3 3.6 0 8.4 3.6 0 8.5 3.6 0 8.6 3.6 0 8.7 3.6 0 8.8 3.6 0 8.9 3.6 0 9 3.6 0 9.1 3.6 0 9.2 3.6 0 9.3 3.6 0 9.4 3.6 0 9.5 3.6 0 9.6 3.6 0 9.7 3.6 0 9.8 3.6 0 9.9 3.6 0 10 3.6 0 0 3.7 0 0.1 3.7 0 0.2 3.7 0 0.3 3.7 0 0.4 3.7 0 0.5 3.7 0 0.6 3.7 0 0.7 3.7 0 0.8 3.7 0 0.9 3.7 0 1 3.7 0 1.1 3.7 0 1.2 3.7 0 1.3 3.7 0 1.4 3.7 0 1.5 3.7 0 1.6 3.7 0 1.7 3.7 0 1.8 3.7 0 1.9 3.7 0 2 3.7 0 2.1 3.7 0 2.2 3.7 0 2.3 3.7 0 2.4 3.7 0 2.5 3.7 0 2.6 3.7 0 2.7 3.7 0 2.8 3.7 0 2.9 3.7 0 3 3.7 0 3.1 3.7 0 3.2 3.7 0 3.3 3.7 0 3.4 3.7 0 3.5 3.7 0 3.6 3.7 0 3.7 3.7 0 3.8 3.7 0 3.9 3.7 0 4 3.7 0 4.1 3.7 0 4.2 3.7 0 4.3 3.7 0 4.4 3.7 0 4.5 3.7 0 4.6 3.7 0 4.7 3.7 0 4.8 3.7 0 4.9 3.7 0 5 3.7 0 5.1 3.7 0 5.2 3.7 0 5.3 3.7 0 5.4 3.7 0 5.5 3.7 0 5.6 3.7 0 5.7 3.7 0 5.8 3.7 0 5.9 3.7 0 6 3.7 0 6.1 3.7 0 6.2 3.7 0 6.3 3.7 0 6.4 3.7 0 6.5 3.7 0 6.6 3.7 0 6.7 3.7 0 6.8 3.7 0 6.9 3.7 0 7 3.7 0 7.1 3.7 0 7.2 3.7 0 7.3 3.7 0 7.4 3.7 0 7.5 3.7 0 7.6 3.7 0 7.7 3.7 0 7.8 3.7 0 7.9 3.7 0 8 3.7 0 8.1 3.7 0 8.2 3.7 0 8.3 3.7 0 8.4 3.7 0 8.5 3.7 0 8.6 3.7 0 8.7 3.7 0 8.8 3.7 0 8.9 3.7 0 9 3.7 0 9.1 3.7 0 9.2 3.7 0 9.3 3.7 0 9.4 3.7 0 9.5 3.7 0 9.6 3.7 0 9.7 3.7 0 9.8 3.7 0 9.9 3.7 0 10 3.7 0 0 3.8 0 0.1 3.8 0 0.2 3.8 0 0.3 3.8 0 0.4 3.8 0 0.5 3.8 0 0.6 3.8 0 0.7 3.8 0 0.8 3.8 0 0.9 3.8 0 1 3.8 0 1.1 3.8 0 1.2 3.8 0 1.3 3.8 0 1.4 3.8 0 1.5 3.8 0 1.6 3.8 0 1.7 3.8 0 1.8 3.8 0 1.9 3.8 0 2 3.8 0 2.1 3.8 0 2.2 3.8 0 2.3 3.8 0 2.4 3.8 0 2.5 3.8 0 2.6 3.8 0 2.7 3.8 0 2.8 3.8 0 2.9 3.8 0 3 3.8 0 3.1 3.8 0 3.2 3.8 0 3.3 3.8 0 3.4 3.8 0 3.5 3.8 0 3.6 3.8 0 3.7 3.8 0 3.8 3.8 0 3.9 3.8 0 4 3.8 0 4.1 3.8 0 4.2 3.8 0 4.3 3.8 0 4.4 3.8 0 4.5 3.8 0 4.6 3.8 0 4.7 3.8 0 4.8 3.8 0 4.9 3.8 0 5 3.8 0 5.1 3.8 0 5.2 3.8 0 5.3 3.8 0 5.4 3.8 0 5.5 3.8 0 5.6 3.8 0 5.7 3.8 0 5.8 3.8 0 5.9 3.8 0 6 3.8 0 6.1 3.8 0 6.2 3.8 0 6.3 3.8 0 6.4 3.8 0 6.5 3.8 0 6.6 3.8 0 6.7 3.8 0 6.8 3.8 0 6.9 3.8 0 7 3.8 0 7.1 3.8 0 7.2 3.8 0 7.3 3.8 0 7.4 3.8 0 7.5 3.8 0 7.6 3.8 0 7.7 3.8 0 7.8 3.8 0 7.9 3.8 0 8 3.8 0 8.1 3.8 0 8.2 3.8 0 8.3 3.8 0 8.4 3.8 0 8.5 3.8 0 8.6 3.8 0 8.7 3.8 0 8.8 3.8 0 8.9 3.8 0 9 3.8 0 9.1 3.8 0 9.2 3.8 0 9.3 3.8 0 9.4 3.8 0 9.5 3.8 0 9.6 3.8 0 9.7 3.8 0 9.8 3.8 0 9.9 3.8 0 10 3.8 0 0 3.9 0 0.1 3.9 0 0.2 3.9 0 0.3 3.9 0 0.4 3.9 0 0.5 3.9 0 0.6 3.9 0 0.7 3.9 0 0.8 3.9 0 0.9 3.9 0 1 3.9 0 1.1 3.9 0 1.2 3.9 0 1.3 3.9 0 1.4 3.9 0 1.5 3.9 0 1.6 3.9 0 1.7 3.9 0 1.8 3.9 0 1.9 3.9 0 2 3.9 0 2.1 3.9 0 2.2 3.9 0 2.3 3.9 0 2.4 3.9 0 2.5 3.9 0 2.6 3.9 0 2.7 3.9 0 2.8 3.9 0 2.9 3.9 0 3 3.9 0 3.1 3.9 0 3.2 3.9 0 3.3 3.9 0 3.4 3.9 0 3.5 3.9 0 3.6 3.9 0 3.7 3.9 0 3.8 3.9 0 3.9 3.9 0 4 3.9 0 4.1 3.9 0 4.2 3.9 0 4.3 3.9 0 4.4 3.9 0 4.5 3.9 0 4.6 3.9 0 4.7 3.9 0 4.8 3.9 0 4.9 3.9 0 5 3.9 0 5.1 3.9 0 5.2 3.9 0 5.3 3.9 0 5.4 3.9 0 5.5 3.9 0 5.6 3.9 0 5.7 3.9 0 5.8 3.9 0 5.9 3.9 0 6 3.9 0 6.1 3.9 0 6.2 3.9 0 6.3 3.9 0 6.4 3.9 0 6.5 3.9 0 6.6 3.9 0 6.7 3.9 0 6.8 3.9 0 6.9 3.9 0 7 3.9 0 7.1 3.9 0 7.2 3.9 0 7.3 3.9 0 7.4 3.9 0 7.5 3.9 0 7.6 3.9 0 7.7 3.9 0 7.8 3.9 0 7.9 3.9 0 8 3.9 0 8.1 3.9 0 8.2 3.9 0 8.3 3.9 0 8.4 3.9 0 8.5 3.9 0 8.6 3.9 0 8.7 3.9 0 8.8 3.9 0 8.9 3.9 0 9 3.9 0 9.1 3.9 0 9.2 3.9 0 9.3 3.9 0 9.4 3.9 0 9.5 3.9 0 9.6 3.9 0 9.7 3.9 0 9.8 3.9 0 9.9 3.9 0 10 3.9 0 0 4 0 0.1 4 0 0.2 4 0 0.3 4 0 0.4 4 0 0.5 4 0 0.6 4 0 0.7 4 0 0.8 4 0 0.9 4 0 1 4 0 1.1 4 0 1.2 4 0 1.3 4 0 1.4 4 0 1.5 4 0 1.6 4 0 1.7 4 0 1.8 4 0 1.9 4 0 2 4 0 2.1 4 0 2.2 4 0 2.3 4 0 2.4 4 0 2.5 4 0 2.6 4 0 2.7 4 0 2.8 4 0 2.9 4 0 3 4 0 3.1 4 0 3.2 4 0 3.3 4 0 3.4 4 0 3.5 4 0 3.6 4 0 3.7 4 0 3.8 4 0 3.9 4 0 4 4 0 4.1 4 0 4.2 4 0 4.3 4 0 4.4 4 0 4.5 4 0 4.6 4 0 4.7 4 0 4.8 4 0 4.9 4 0 5 4 0 5.1 4 0 5.2 4 0 5.3 4 0 5.4 4 0 5.5 4 0 5.6 4 0 5.7 4 0 5.8 4 0 5.9 4 0 6 4 0 6.1 4 0 6.2 4 0 6.3 4 0 6.4 4 0 6.5 4 0 6.6 4 0 6.7 4 0 6.8 4 0 6.9 4 0 7 4 0 7.1 4 0 7.2 4 0 7.3 4 0 7.4 4 0 7.5 4 0 7.6 4 0 7.7 4 0 7.8 4 0 7.9 4 0 8 4 0 8.1 4 0 8.2 4 0 8.3 4 0 8.4 4 0 8.5 4 0 8.6 4 0 8.7 4 0 8.8 4 0 8.9 4 0 9 4 0 9.1 4 0 9.2 4 0 9.3 4 0 9.4 4 0 9.5 4 0 9.6 4 0 9.7 4 0 9.8 4 0 9.9 4 0 10 4 0 0 4.1 0 0.1 4.1 0 0.2 4.1 0 0.3 4.1 0 0.4 4.1 0 0.5 4.1 0 0.6 4.1 0 0.7 4.1 0 0.8 4.1 0 0.9 4.1 0 1 4.1 0 1.1 4.1 0 1.2 4.1 0 1.3 4.1 0 1.4 4.1 0 1.5 4.1 0 1.6 4.1 0 1.7 4.1 0 1.8 4.1 0 1.9 4.1 0 2 4.1 0 2.1 4.1 0 2.2 4.1 0 2.3 4.1 0 2.4 4.1 0 2.5 4.1 0 2.6 4.1 0 2.7 4.1 0 2.8 4.1 0 2.9 4.1 0 3 4.1 0 3.1 4.1 0 3.2 4.1 0 3.3 4.1 0 3.4 4.1 0 3.5 4.1 0 3.6 4.1 0 3.7 4.1 0 3.8 4.1 0 3.9 4.1 0 4 4.1 0 4.1 4.1 0 4.2 4.1 0 4.3 4.1 0 4.4 4.1 0 4.5 4.1 0 4.6 4.1 0 4.7 4.1 0 4.8 4.1 0 4.9 4.1 0 5 4.1 0 5.1 4.1 0 5.2 4.1 0 5.3 4.1 0 5.4 4.1 0 5.5 4.1 0 5.6 4.1 0 5.7 4.1 0 5.8 4.1 0 5.9 4.1 0 6 4.1 0 6.1 4.1 0 6.2 4.1 0 6.3 4.1 0 6.4 4.1 0 6.5 4.1 0 6.6 4.1 0 6.7 4.1 0 6.8 4.1 0 6.9 4.1 0 7 4.1 0 7.1 4.1 0 7.2 4.1 0 7.3 4.1 0 7.4 4.1 0 7.5 4.1 0 7.6 4.1 0 7.7 4.1 0 7.8 4.1 0 7.9 4.1 0 8 4.1 0 8.1 4.1 0 8.2 4.1 0 8.3 4.1 0 8.4 4.1 0 8.5 4.1 0 8.6 4.1 0 8.7 4.1 0 8.8 4.1 0 8.9 4.1 0 9 4.1 0 9.1 4.1 0 9.2 4.1 0 9.3 4.1 0 9.4 4.1 0 9.5 4.1 0 9.6 4.1 0 9.7 4.1 0 9.8 4.1 0 9.9 4.1 0 10 4.1 0 0 4.2 0 0.1 4.2 0 0.2 4.2 0 0.3 4.2 0 0.4 4.2 0 0.5 4.2 0 0.6 4.2 0 0.7 4.2 0 0.8 4.2 0 0.9 4.2 0 1 4.2 0 1.1 4.2 0 1.2 4.2 0 1.3 4.2 0 1.4 4.2 0 1.5 4.2 0 1.6 4.2 0 1.7 4.2 0 1.8 4.2 0 1.9 4.2 0 2 4.2 0 2.1 4.2 0 2.2 4.2 0 2.3 4.2 0 2.4 4.2 0 2.5 4.2 0 2.6 4.2 0 2.7 4.2 0 2.8 4.2 0 2.9 4.2 0 3 4.2 0 3.1 4.2 0 3.2 4.2 0 3.3 4.2 0 3.4 4.2 0 3.5 4.2 0 3.6 4.2 0 3.7 4.2 0 3.8 4.2 0 3.9 4.2 0 4 4.2 0 4.1 4.2 0 4.2 4.2 0 4.3 4.2 0 4.4 4.2 0 4.5 4.2 0 4.6 4.2 0 4.7 4.2 0 4.8 4.2 0 4.9 4.2 0 5 4.2 0 5.1 4.2 0 5.2 4.2 0 5.3 4.2 0 5.4 4.2 0 5.5 4.2 0 5.6 4.2 0 5.7 4.2 0 5.8 4.2 0 5.9 4.2 0 6 4.2 0 6.1 4.2 0 6.2 4.2 0 6.3 4.2 0 6.4 4.2 0 6.5 4.2 0 6.6 4.2 0 6.7 4.2 0 6.8 4.2 0 6.9 4.2 0 7 4.2 0 7.1 4.2 0 7.2 4.2 0 7.3 4.2 0 7.4 4.2 0 7.5 4.2 0 7.6 4.2 0 7.7 4.2 0 7.8 4.2 0 7.9 4.2 0 8 4.2 0 8.1 4.2 0 8.2 4.2 0 8.3 4.2 0 8.4 4.2 0 8.5 4.2 0 8.6 4.2 0 8.7 4.2 0 8.8 4.2 0 8.9 4.2 0 9 4.2 0 9.1 4.2 0 9.2 4.2 0 9.3 4.2 0 9.4 4.2 0 9.5 4.2 0 9.6 4.2 0 9.7 4.2 0 9.8 4.2 0 9.9 4.2 0 10 4.2 0 0 4.3 0 0.1 4.3 0 0.2 4.3 0 0.3 4.3 0 0.4 4.3 0 0.5 4.3 0 0.6 4.3 0 0.7 4.3 0 0.8 4.3 0 0.9 4.3 0 1 4.3 0 1.1 4.3 0 1.2 4.3 0 1.3 4.3 0 1.4 4.3 0 1.5 4.3 0 1.6 4.3 0 1.7 4.3 0 1.8 4.3 0 1.9 4.3 0 2 4.3 0 2.1 4.3 0 2.2 4.3 0 2.3 4.3 0 2.4 4.3 0 2.5 4.3 0 2.6 4.3 0 2.7 4.3 0 2.8 4.3 0 2.9 4.3 0 3 4.3 0 3.1 4.3 0 3.2 4.3 0 3.3 4.3 0 3.4 4.3 0 3.5 4.3 0 3.6 4.3 0 3.7 4.3 0 3.8 4.3 0 3.9 4.3 0 4 4.3 0 4.1 4.3 0 4.2 4.3 0 4.3 4.3 0 4.4 4.3 0 4.5 4.3 0 4.6 4.3 0 4.7 4.3 0 4.8 4.3 0 4.9 4.3 0 5 4.3 0 5.1 4.3 0 5.2 4.3 0 5.3 4.3 0 5.4 4.3 0 5.5 4.3 0 5.6 4.3 0 5.7 4.3 0 5.8 4.3 0 5.9 4.3 0 6 4.3 0 6.1 4.3 0 6.2 4.3 0 6.3 4.3 0 6.4 4.3 0 6.5 4.3 0 6.6 4.3 0 6.7 4.3 0 6.8 4.3 0 6.9 4.3 0 7 4.3 0 7.1 4.3 0 7.2 4.3 0 7.3 4.3 0 7.4 4.3 0 7.5 4.3 0 7.6 4.3 0 7.7 4.3 0 7.8 4.3 0 7.9 4.3 0 8 4.3 0 8.1 4.3 0 8.2 4.3 0 8.3 4.3 0 8.4 4.3 0 8.5 4.3 0 8.6 4.3 0 8.7 4.3 0 8.8 4.3 0 8.9 4.3 0 9 4.3 0 9.1 4.3 0 9.2 4.3 0 9.3 4.3 0 9.4 4.3 0 9.5 4.3 0 9.6 4.3 0 9.7 4.3 0 9.8 4.3 0 9.9 4.3 0 10 4.3 0 0 4.4 0 0.1 4.4 0 0.2 4.4 0 0.3 4.4 0 0.4 4.4 0 0.5 4.4 0 0.6 4.4 0 0.7 4.4 0 0.8 4.4 0 0.9 4.4 0 1 4.4 0 1.1 4.4 0 1.2 4.4 0 1.3 4.4 0 1.4 4.4 0 1.5 4.4 0 1.6 4.4 0 1.7 4.4 0 1.8 4.4 0 1.9 4.4 0 2 4.4 0 2.1 4.4 0 2.2 4.4 0 2.3 4.4 0 2.4 4.4 0 2.5 4.4 0 2.6 4.4 0 2.7 4.4 0 2.8 4.4 0 2.9 4.4 0 3 4.4 0 3.1 4.4 0 3.2 4.4 0 3.3 4.4 0 3.4 4.4 0 3.5 4.4 0 3.6 4.4 0 3.7 4.4 0 3.8 4.4 0 3.9 4.4 0 4 4.4 0 4.1 4.4 0 4.2 4.4 0 4.3 4.4 0 4.4 4.4 0 4.5 4.4 0 4.6 4.4 0 4.7 4.4 0 4.8 4.4 0 4.9 4.4 0 5 4.4 0 5.1 4.4 0 5.2 4.4 0 5.3 4.4 0 5.4 4.4 0 5.5 4.4 0 5.6 4.4 0 5.7 4.4 0 5.8 4.4 0 5.9 4.4 0 6 4.4 0 6.1 4.4 0 6.2 4.4 0 6.3 4.4 0 6.4 4.4 0 6.5 4.4 0 6.6 4.4 0 6.7 4.4 0 6.8 4.4 0 6.9 4.4 0 7 4.4 0 7.1 4.4 0 7.2 4.4 0 7.3 4.4 0 7.4 4.4 0 7.5 4.4 0 7.6 4.4 0 7.7 4.4 0 7.8 4.4 0 7.9 4.4 0 8 4.4 0 8.1 4.4 0 8.2 4.4 0 8.3 4.4 0 8.4 4.4 0 8.5 4.4 0 8.6 4.4 0 8.7 4.4 0 8.8 4.4 0 8.9 4.4 0 9 4.4 0 9.1 4.4 0 9.2 4.4 0 9.3 4.4 0 9.4 4.4 0 9.5 4.4 0 9.6 4.4 0 9.7 4.4 0 9.8 4.4 0 9.9 4.4 0 10 4.4 0 0 4.5 0 0.1 4.5 0 0.2 4.5 0 0.3 4.5 0 0.4 4.5 0 0.5 4.5 0 0.6 4.5 0 0.7 4.5 0 0.8 4.5 0 0.9 4.5 0 1 4.5 0 1.1 4.5 0 1.2 4.5 0 1.3 4.5 0 1.4 4.5 0 1.5 4.5 0 1.6 4.5 0 1.7 4.5 0 1.8 4.5 0 1.9 4.5 0 2 4.5 0 2.1 4.5 0 2.2 4.5 0 2.3 4.5 0 2.4 4.5 0 2.5 4.5 0 2.6 4.5 0 2.7 4.5 0 2.8 4.5 0 2.9 4.5 0 3 4.5 0 3.1 4.5 0 3.2 4.5 0 3.3 4.5 0 3.4 4.5 0 3.5 4.5 0 3.6 4.5 0 3.7 4.5 0 3.8 4.5 0 3.9 4.5 0 4 4.5 0 4.1 4.5 0 4.2 4.5 0 4.3 4.5 0 4.4 4.5 0 4.5 4.5 0 4.6 4.5 0 4.7 4.5 0 4.8 4.5 0 4.9 4.5 0 5 4.5 0 5.1 4.5 0 5.2 4.5 0 5.3 4.5 0 5.4 4.5 0 5.5 4.5 0 5.6 4.5 0 5.7 4.5 0 5.8 4.5 0 5.9 4.5 0 6 4.5 0 6.1 4.5 0 6.2 4.5 0 6.3 4.5 0 6.4 4.5 0 6.5 4.5 0 6.6 4.5 0 6.7 4.5 0 6.8 4.5 0 6.9 4.5 0 7 4.5 0 7.1 4.5 0 7.2 4.5 0 7.3 4.5 0 7.4 4.5 0 7.5 4.5 0 7.6 4.5 0 7.7 4.5 0 7.8 4.5 0 7.9 4.5 0 8 4.5 0 8.1 4.5 0 8.2 4.5 0 8.3 4.5 0 8.4 4.5 0 8.5 4.5 0 8.6 4.5 0 8.7 4.5 0 8.8 4.5 0 8.9 4.5 0 9 4.5 0 9.1 4.5 0 9.2 4.5 0 9.3 4.5 0 9.4 4.5 0 9.5 4.5 0 9.6 4.5 0 9.7 4.5 0 9.8 4.5 0 9.9 4.5 0 10 4.5 0 0 4.6 0 0.1 4.6 0 0.2 4.6 0 0.3 4.6 0 0.4 4.6 0 0.5 4.6 0 0.6 4.6 0 0.7 4.6 0 0.8 4.6 0 0.9 4.6 0 1 4.6 0 1.1 4.6 0 1.2 4.6 0 1.3 4.6 0 1.4 4.6 0 1.5 4.6 0 1.6 4.6 0 1.7 4.6 0 1.8 4.6 0 1.9 4.6 0 2 4.6 0 2.1 4.6 0 2.2 4.6 0 2.3 4.6 0 2.4 4.6 0 2.5 4.6 0 2.6 4.6 0 2.7 4.6 0 2.8 4.6 0 2.9 4.6 0 3 4.6 0 3.1 4.6 0 3.2 4.6 0 3.3 4.6 0 3.4 4.6 0 3.5 4.6 0 3.6 4.6 0 3.7 4.6 0 3.8 4.6 0 3.9 4.6 0 4 4.6 0 4.1 4.6 0 4.2 4.6 0 4.3 4.6 0 4.4 4.6 0 4.5 4.6 0 4.6 4.6 0 4.7 4.6 0 4.8 4.6 0 4.9 4.6 0 5 4.6 0 5.1 4.6 0 5.2 4.6 0 5.3 4.6 0 5.4 4.6 0 5.5 4.6 0 5.6 4.6 0 5.7 4.6 0 5.8 4.6 0 5.9 4.6 0 6 4.6 0 6.1 4.6 0 6.2 4.6 0 6.3 4.6 0 6.4 4.6 0 6.5 4.6 0 6.6 4.6 0 6.7 4.6 0 6.8 4.6 0 6.9 4.6 0 7 4.6 0 7.1 4.6 0 7.2 4.6 0 7.3 4.6 0 7.4 4.6 0 7.5 4.6 0 7.6 4.6 0 7.7 4.6 0 7.8 4.6 0 7.9 4.6 0 8 4.6 0 8.1 4.6 0 8.2 4.6 0 8.3 4.6 0 8.4 4.6 0 8.5 4.6 0 8.6 4.6 0 8.7 4.6 0 8.8 4.6 0 8.9 4.6 0 9 4.6 0 9.1 4.6 0 9.2 4.6 0 9.3 4.6 0 9.4 4.6 0 9.5 4.6 0 9.6 4.6 0 9.7 4.6 0 9.8 4.6 0 9.9 4.6 0 10 4.6 0 0 4.7 0 0.1 4.7 0 0.2 4.7 0 0.3 4.7 0 0.4 4.7 0 0.5 4.7 0 0.6 4.7 0 0.7 4.7 0 0.8 4.7 0 0.9 4.7 0 1 4.7 0 1.1 4.7 0 1.2 4.7 0 1.3 4.7 0 1.4 4.7 0 1.5 4.7 0 1.6 4.7 0 1.7 4.7 0 1.8 4.7 0 1.9 4.7 0 2 4.7 0 2.1 4.7 0 2.2 4.7 0 2.3 4.7 0 2.4 4.7 0 2.5 4.7 0 2.6 4.7 0 2.7 4.7 0 2.8 4.7 0 2.9 4.7 0 3 4.7 0 3.1 4.7 0 3.2 4.7 0 3.3 4.7 0 3.4 4.7 0 3.5 4.7 0 3.6 4.7 0 3.7 4.7 0 3.8 4.7 0 3.9 4.7 0 4 4.7 0 4.1 4.7 0 4.2 4.7 0 4.3 4.7 0 4.4 4.7 0 4.5 4.7 0 4.6 4.7 0 4.7 4.7 0 4.8 4.7 0 4.9 4.7 0 5 4.7 0 5.1 4.7 0 5.2 4.7 0 5.3 4.7 0 5.4 4.7 0 5.5 4.7 0 5.6 4.7 0 5.7 4.7 0 5.8 4.7 0 5.9 4.7 0 6 4.7 0 6.1 4.7 0 6.2 4.7 0 6.3 4.7 0 6.4 4.7 0 6.5 4.7 0 6.6 4.7 0 6.7 4.7 0 6.8 4.7 0 6.9 4.7 0 7 4.7 0 7.1 4.7 0 7.2 4.7 0 7.3 4.7 0 7.4 4.7 0 7.5 4.7 0 7.6 4.7 0 7.7 4.7 0 7.8 4.7 0 7.9 4.7 0 8 4.7 0 8.1 4.7 0 8.2 4.7 0 8.3 4.7 0 8.4 4.7 0 8.5 4.7 0 8.6 4.7 0 8.7 4.7 0 8.8 4.7 0 8.9 4.7 0 9 4.7 0 9.1 4.7 0 9.2 4.7 0 9.3 4.7 0 9.4 4.7 0 9.5 4.7 0 9.6 4.7 0 9.7 4.7 0 9.8 4.7 0 9.9 4.7 0 10 4.7 0 0 4.8 0 0.1 4.8 0 0.2 4.8 0 0.3 4.8 0 0.4 4.8 0 0.5 4.8 0 0.6 4.8 0 0.7 4.8 0 0.8 4.8 0 0.9 4.8 0 1 4.8 0 1.1 4.8 0 1.2 4.8 0 1.3 4.8 0 1.4 4.8 0 1.5 4.8 0 1.6 4.8 0 1.7 4.8 0 1.8 4.8 0 1.9 4.8 0 2 4.8 0 2.1 4.8 0 2.2 4.8 0 2.3 4.8 0 2.4 4.8 0 2.5 4.8 0 2.6 4.8 0 2.7 4.8 0 2.8 4.8 0 2.9 4.8 0 3 4.8 0 3.1 4.8 0 3.2 4.8 0 3.3 4.8 0 3.4 4.8 0 3.5 4.8 0 3.6 4.8 0 3.7 4.8 0 3.8 4.8 0 3.9 4.8 0 4 4.8 0 4.1 4.8 0 4.2 4.8 0 4.3 4.8 0 4.4 4.8 0 4.5 4.8 0 4.6 4.8 0 4.7 4.8 0 4.8 4.8 0 4.9 4.8 0 5 4.8 0 5.1 4.8 0 5.2 4.8 0 5.3 4.8 0 5.4 4.8 0 5.5 4.8 0 5.6 4.8 0 5.7 4.8 0 5.8 4.8 0 5.9 4.8 0 6 4.8 0 6.1 4.8 0 6.2 4.8 0 6.3 4.8 0 6.4 4.8 0 6.5 4.8 0 6.6 4.8 0 6.7 4.8 0 6.8 4.8 0 6.9 4.8 0 7 4.8 0 7.1 4.8 0 7.2 4.8 0 7.3 4.8 0 7.4 4.8 0 7.5 4.8 0 7.6 4.8 0 7.7 4.8 0 7.8 4.8 0 7.9 4.8 0 8 4.8 0 8.1 4.8 0 8.2 4.8 0 8.3 4.8 0 8.4 4.8 0 8.5 4.8 0 8.6 4.8 0 8.7 4.8 0 8.8 4.8 0 8.9 4.8 0 9 4.8 0 9.1 4.8 0 9.2 4.8 0 9.3 4.8 0 9.4 4.8 0 9.5 4.8 0 9.6 4.8 0 9.7 4.8 0 9.8 4.8 0 9.9 4.8 0 10 4.8 0 0 4.9 0 0.1 4.9 0 0.2 4.9 0 0.3 4.9 0 0.4 4.9 0 0.5 4.9 0 0.6 4.9 0 0.7 4.9 0 0.8 4.9 0 0.9 4.9 0 1 4.9 0 1.1 4.9 0 1.2 4.9 0 1.3 4.9 0 1.4 4.9 0 1.5 4.9 0 1.6 4.9 0 1.7 4.9 0 1.8 4.9 0 1.9 4.9 0 2 4.9 0 2.1 4.9 0 2.2 4.9 0 2.3 4.9 0 2.4 4.9 0 2.5 4.9 0 2.6 4.9 0 2.7 4.9 0 2.8 4.9 0 2.9 4.9 0 3 4.9 0 3.1 4.9 0 3.2 4.9 0 3.3 4.9 0 3.4 4.9 0 3.5 4.9 0 3.6 4.9 0 3.7 4.9 0 3.8 4.9 0 3.9 4.9 0 4 4.9 0 4.1 4.9 0 4.2 4.9 0 4.3 4.9 0 4.4 4.9 0 4.5 4.9 0 4.6 4.9 0 4.7 4.9 0 4.8 4.9 0 4.9 4.9 0 5 4.9 0 5.1 4.9 0 5.2 4.9 0 5.3 4.9 0 5.4 4.9 0 5.5 4.9 0 5.6 4.9 0 5.7 4.9 0 5.8 4.9 0 5.9 4.9 0 6 4.9 0 6.1 4.9 0 6.2 4.9 0 6.3 4.9 0 6.4 4.9 0 6.5 4.9 0 6.6 4.9 0 6.7 4.9 0 6.8 4.9 0 6.9 4.9 0 7 4.9 0 7.1 4.9 0 7.2 4.9 0 7.3 4.9 0 7.4 4.9 0 7.5 4.9 0 7.6 4.9 0 7.7 4.9 0 7.8 4.9 0 7.9 4.9 0 8 4.9 0 8.1 4.9 0 8.2 4.9 0 8.3 4.9 0 8.4 4.9 0 8.5 4.9 0 8.6 4.9 0 8.7 4.9 0 8.8 4.9 0 8.9 4.9 0 9 4.9 0 9.1 4.9 0 9.2 4.9 0 9.3 4.9 0 9.4 4.9 0 9.5 4.9 0 9.6 4.9 0 9.7 4.9 0 9.8 4.9 0 9.9 4.9 0 10 4.9 0 0 5 0 0.1 5 0 0.2 5 0 0.3 5 0 0.4 5 0 0.5 5 0 0.6 5 0 0.7 5 0 0.8 5 0 0.9 5 0 1 5 0 1.1 5 0 1.2 5 0 1.3 5 0 1.4 5 0 1.5 5 0 1.6 5 0 1.7 5 0 1.8 5 0 1.9 5 0 2 5 0 2.1 5 0 2.2 5 0 2.3 5 0 2.4 5 0 2.5 5 0 2.6 5 0 2.7 5 0 2.8 5 0 2.9 5 0 3 5 0 3.1 5 0 3.2 5 0 3.3 5 0 3.4 5 0 3.5 5 0 3.6 5 0 3.7 5 0 3.8 5 0 3.9 5 0 4 5 0 4.1 5 0 4.2 5 0 4.3 5 0 4.4 5 0 4.5 5 0 4.6 5 0 4.7 5 0 4.8 5 0 4.9 5 0 5 5 0 5.1 5 0 5.2 5 0 5.3 5 0 5.4 5 0 5.5 5 0 5.6 5 0 5.7 5 0 5.8 5 0 5.9 5 0 6 5 0 6.1 5 0 6.2 5 0 6.3 5 0 6.4 5 0 6.5 5 0 6.6 5 0 6.7 5 0 6.8 5 0 6.9 5 0 7 5 0 7.1 5 0 7.2 5 0 7.3 5 0 7.4 5 0 7.5 5 0 7.6 5 0 7.7 5 0 7.8 5 0 7.9 5 0 8 5 0 8.1 5 0 8.2 5 0 8.3 5 0 8.4 5 0 8.5 5 0 8.6 5 0 8.7 5 0 8.8 5 0 8.9 5 0 9 5 0 9.1 5 0 9.2 5 0 9.3 5 0 9.4 5 0 9.5 5 0 9.6 5 0 9.7 5 0 9.8 5 0 9.9 5 0 10 5 0 0 5.1 0 0.1 5.1 0 0.2 5.1 0 0.3 5.1 0 0.4 5.1 0 0.5 5.1 0 0.6 5.1 0 0.7 5.1 0 0.8 5.1 0 0.9 5.1 0 1 5.1 0 1.1 5.1 0 1.2 5.1 0 1.3 5.1 0 1.4 5.1 0 1.5 5.1 0 1.6 5.1 0 1.7 5.1 0 1.8 5.1 0 1.9 5.1 0 2 5.1 0 2.1 5.1 0 2.2 5.1 0 2.3 5.1 0 2.4 5.1 0 2.5 5.1 0 2.6 5.1 0 2.7 5.1 0 2.8 5.1 0 2.9 5.1 0 3 5.1 0 3.1 5.1 0 3.2 5.1 0 3.3 5.1 0 3.4 5.1 0 3.5 5.1 0 3.6 5.1 0 3.7 5.1 0 3.8 5.1 0 3.9 5.1 0 4 5.1 0 4.1 5.1 0 4.2 5.1 0 4.3 5.1 0 4.4 5.1 0 4.5 5.1 0 4.6 5.1 0 4.7 5.1 0 4.8 5.1 0 4.9 5.1 0 5 5.1 0 5.1 5.1 0 5.2 5.1 0 5.3 5.1 0 5.4 5.1 0 5.5 5.1 0 5.6 5.1 0 5.7 5.1 0 5.8 5.1 0 5.9 5.1 0 6 5.1 0 6.1 5.1 0 6.2 5.1 0 6.3 5.1 0 6.4 5.1 0 6.5 5.1 0 6.6 5.1 0 6.7 5.1 0 6.8 5.1 0 6.9 5.1 0 7 5.1 0 7.1 5.1 0 7.2 5.1 0 7.3 5.1 0 7.4 5.1 0 7.5 5.1 0 7.6 5.1 0 7.7 5.1 0 7.8 5.1 0 7.9 5.1 0 8 5.1 0 8.1 5.1 0 8.2 5.1 0 8.3 5.1 0 8.4 5.1 0 8.5 5.1 0 8.6 5.1 0 8.7 5.1 0 8.8 5.1 0 8.9 5.1 0 9 5.1 0 9.1 5.1 0 9.2 5.1 0 9.3 5.1 0 9.4 5.1 0 9.5 5.1 0 9.6 5.1 0 9.7 5.1 0 9.8 5.1 0 9.9 5.1 0 10 5.1 0 0 5.2 0 0.1 5.2 0 0.2 5.2 0 0.3 5.2 0 0.4 5.2 0 0.5 5.2 0 0.6 5.2 0 0.7 5.2 0 0.8 5.2 0 0.9 5.2 0 1 5.2 0 1.1 5.2 0 1.2 5.2 0 1.3 5.2 0 1.4 5.2 0 1.5 5.2 0 1.6 5.2 0 1.7 5.2 0 1.8 5.2 0 1.9 5.2 0 2 5.2 0 2.1 5.2 0 2.2 5.2 0 2.3 5.2 0 2.4 5.2 0 2.5 5.2 0 2.6 5.2 0 2.7 5.2 0 2.8 5.2 0 2.9 5.2 0 3 5.2 0 3.1 5.2 0 3.2 5.2 0 3.3 5.2 0 3.4 5.2 0 3.5 5.2 0 3.6 5.2 0 3.7 5.2 0 3.8 5.2 0 3.9 5.2 0 4 5.2 0 4.1 5.2 0 4.2 5.2 0 4.3 5.2 0 4.4 5.2 0 4.5 5.2 0 4.6 5.2 0 4.7 5.2 0 4.8 5.2 0 4.9 5.2 0 5 5.2 0 5.1 5.2 0 5.2 5.2 0 5.3 5.2 0 5.4 5.2 0 5.5 5.2 0 5.6 5.2 0 5.7 5.2 0 5.8 5.2 0 5.9 5.2 0 6 5.2 0 6.1 5.2 0 6.2 5.2 0 6.3 5.2 0 6.4 5.2 0 6.5 5.2 0 6.6 5.2 0 6.7 5.2 0 6.8 5.2 0 6.9 5.2 0 7 5.2 0 7.1 5.2 0 7.2 5.2 0 7.3 5.2 0 7.4 5.2 0 7.5 5.2 0 7.6 5.2 0 7.7 5.2 0 7.8 5.2 0 7.9 5.2 0 8 5.2 0 8.1 5.2 0 8.2 5.2 0 8.3 5.2 0 8.4 5.2 0 8.5 5.2 0 8.6 5.2 0 8.7 5.2 0 8.8 5.2 0 8.9 5.2 0 9 5.2 0 9.1 5.2 0 9.2 5.2 0 9.3 5.2 0 9.4 5.2 0 9.5 5.2 0 9.6 5.2 0 9.7 5.2 0 9.8 5.2 0 9.9 5.2 0 10 5.2 0 0 5.3 0 0.1 5.3 0 0.2 5.3 0 0.3 5.3 0 0.4 5.3 0 0.5 5.3 0 0.6 5.3 0 0.7 5.3 0 0.8 5.3 0 0.9 5.3 0 1 5.3 0 1.1 5.3 0 1.2 5.3 0 1.3 5.3 0 1.4 5.3 0 1.5 5.3 0 1.6 5.3 0 1.7 5.3 0 1.8 5.3 0 1.9 5.3 0 2 5.3 0 2.1 5.3 0 2.2 5.3 0 2.3 5.3 0 2.4 5.3 0 2.5 5.3 0 2.6 5.3 0 2.7 5.3 0 2.8 5.3 0 2.9 5.3 0 3 5.3 0 3.1 5.3 0 3.2 5.3 0 3.3 5.3 0 3.4 5.3 0 3.5 5.3 0 3.6 5.3 0 3.7 5.3 0 3.8 5.3 0 3.9 5.3 0 4 5.3 0 4.1 5.3 0 4.2 5.3 0 4.3 5.3 0 4.4 5.3 0 4.5 5.3 0 4.6 5.3 0 4.7 5.3 0 4.8 5.3 0 4.9 5.3 0 5 5.3 0 5.1 5.3 0 5.2 5.3 0 5.3 5.3 0 5.4 5.3 0 5.5 5.3 0 5.6 5.3 0 5.7 5.3 0 5.8 5.3 0 5.9 5.3 0 6 5.3 0 6.1 5.3 0 6.2 5.3 0 6.3 5.3 0 6.4 5.3 0 6.5 5.3 0 6.6 5.3 0 6.7 5.3 0 6.8 5.3 0 6.9 5.3 0 7 5.3 0 7.1 5.3 0 7.2 5.3 0 7.3 5.3 0 7.4 5.3 0 7.5 5.3 0 7.6 5.3 0 7.7 5.3 0 7.8 5.3 0 7.9 5.3 0 8 5.3 0 8.1 5.3 0 8.2 5.3 0 8.3 5.3 0 8.4 5.3 0 8.5 5.3 0 8.6 5.3 0 8.7 5.3 0 8.8 5.3 0 8.9 5.3 0 9 5.3 0 9.1 5.3 0 9.2 5.3 0 9.3 5.3 0 9.4 5.3 0 9.5 5.3 0 9.6 5.3 0 9.7 5.3 0 9.8 5.3 0 9.9 5.3 0 10 5.3 0 0 5.4 0 0.1 5.4 0 0.2 5.4 0 0.3 5.4 0 0.4 5.4 0 0.5 5.4 0 0.6 5.4 0 0.7 5.4 0 0.8 5.4 0 0.9 5.4 0 1 5.4 0 1.1 5.4 0 1.2 5.4 0 1.3 5.4 0 1.4 5.4 0 1.5 5.4 0 1.6 5.4 0 1.7 5.4 0 1.8 5.4 0 1.9 5.4 0 2 5.4 0 2.1 5.4 0 2.2 5.4 0 2.3 5.4 0 2.4 5.4 0 2.5 5.4 0 2.6 5.4 0 2.7 5.4 0 2.8 5.4 0 2.9 5.4 0 3 5.4 0 3.1 5.4 0 3.2 5.4 0 3.3 5.4 0 3.4 5.4 0 3.5 5.4 0 3.6 5.4 0 3.7 5.4 0 3.8 5.4 0 3.9 5.4 0 4 5.4 0 4.1 5.4 0 4.2 5.4 0 4.3 5.4 0 4.4 5.4 0 4.5 5.4 0 4.6 5.4 0 4.7 5.4 0 4.8 5.4 0 4.9 5.4 0 5 5.4 0 5.1 5.4 0 5.2 5.4 0 5.3 5.4 0 5.4 5.4 0 5.5 5.4 0 5.6 5.4 0 5.7 5.4 0 5.8 5.4 0 5.9 5.4 0 6 5.4 0 6.1 5.4 0 6.2 5.4 0 6.3 5.4 0 6.4 5.4 0 6.5 5.4 0 6.6 5.4 0 6.7 5.4 0 6.8 5.4 0 6.9 5.4 0 7 5.4 0 7.1 5.4 0 7.2 5.4 0 7.3 5.4 0 7.4 5.4 0 7.5 5.4 0 7.6 5.4 0 7.7 5.4 0 7.8 5.4 0 7.9 5.4 0 8 5.4 0 8.1 5.4 0 8.2 5.4 0 8.3 5.4 0 8.4 5.4 0 8.5 5.4 0 8.6 5.4 0 8.7 5.4 0 8.8 5.4 0 8.9 5.4 0 9 5.4 0 9.1 5.4 0 9.2 5.4 0 9.3 5.4 0 9.4 5.4 0 9.5 5.4 0 9.6 5.4 0 9.7 5.4 0 9.8 5.4 0 9.9 5.4 0 10 5.4 0 0 5.5 0 0.1 5.5 0 0.2 5.5 0 0.3 5.5 0 0.4 5.5 0 0.5 5.5 0 0.6 5.5 0 0.7 5.5 0 0.8 5.5 0 0.9 5.5 0 1 5.5 0 1.1 5.5 0 1.2 5.5 0 1.3 5.5 0 1.4 5.5 0 1.5 5.5 0 1.6 5.5 0 1.7 5.5 0 1.8 5.5 0 1.9 5.5 0 2 5.5 0 2.1 5.5 0 2.2 5.5 0 2.3 5.5 0 2.4 5.5 0 2.5 5.5 0 2.6 5.5 0 2.7 5.5 0 2.8 5.5 0 2.9 5.5 0 3 5.5 0 3.1 5.5 0 3.2 5.5 0 3.3 5.5 0 3.4 5.5 0 3.5 5.5 0 3.6 5.5 0 3.7 5.5 0 3.8 5.5 0 3.9 5.5 0 4 5.5 0 4.1 5.5 0 4.2 5.5 0 4.3 5.5 0 4.4 5.5 0 4.5 5.5 0 4.6 5.5 0 4.7 5.5 0 4.8 5.5 0 4.9 5.5 0 5 5.5 0 5.1 5.5 0 5.2 5.5 0 5.3 5.5 0 5.4 5.5 0 5.5 5.5 0 5.6 5.5 0 5.7 5.5 0 5.8 5.5 0 5.9 5.5 0 6 5.5 0 6.1 5.5 0 6.2 5.5 0 6.3 5.5 0 6.4 5.5 0 6.5 5.5 0 6.6 5.5 0 6.7 5.5 0 6.8 5.5 0 6.9 5.5 0 7 5.5 0 7.1 5.5 0 7.2 5.5 0 7.3 5.5 0 7.4 5.5 0 7.5 5.5 0 7.6 5.5 0 7.7 5.5 0 7.8 5.5 0 7.9 5.5 0 8 5.5 0 8.1 5.5 0 8.2 5.5 0 8.3 5.5 0 8.4 5.5 0 8.5 5.5 0 8.6 5.5 0 8.7 5.5 0 8.8 5.5 0 8.9 5.5 0 9 5.5 0 9.1 5.5 0 9.2 5.5 0 9.3 5.5 0 9.4 5.5 0 9.5 5.5 0 9.6 5.5 0 9.7 5.5 0 9.8 5.5 0 9.9 5.5 0 10 5.5 0 0 5.6 0 0.1 5.6 0 0.2 5.6 0 0.3 5.6 0 0.4 5.6 0 0.5 5.6 0 0.6 5.6 0 0.7 5.6 0 0.8 5.6 0 0.9 5.6 0 1 5.6 0 1.1 5.6 0 1.2 5.6 0 1.3 5.6 0 1.4 5.6 0 1.5 5.6 0 1.6 5.6 0 1.7 5.6 0 1.8 5.6 0 1.9 5.6 0 2 5.6 0 2.1 5.6 0 2.2 5.6 0 2.3 5.6 0 2.4 5.6 0 2.5 5.6 0 2.6 5.6 0 2.7 5.6 0 2.8 5.6 0 2.9 5.6 0 3 5.6 0 3.1 5.6 0 3.2 5.6 0 3.3 5.6 0 3.4 5.6 0 3.5 5.6 0 3.6 5.6 0 3.7 5.6 0 3.8 5.6 0 3.9 5.6 0 4 5.6 0 4.1 5.6 0 4.2 5.6 0 4.3 5.6 0 4.4 5.6 0 4.5 5.6 0 4.6 5.6 0 4.7 5.6 0 4.8 5.6 0 4.9 5.6 0 5 5.6 0 5.1 5.6 0 5.2 5.6 0 5.3 5.6 0 5.4 5.6 0 5.5 5.6 0 5.6 5.6 0 5.7 5.6 0 5.8 5.6 0 5.9 5.6 0 6 5.6 0 6.1 5.6 0 6.2 5.6 0 6.3 5.6 0 6.4 5.6 0 6.5 5.6 0 6.6 5.6 0 6.7 5.6 0 6.8 5.6 0 6.9 5.6 0 7 5.6 0 7.1 5.6 0 7.2 5.6 0 7.3 5.6 0 7.4 5.6 0 7.5 5.6 0 7.6 5.6 0 7.7 5.6 0 7.8 5.6 0 7.9 5.6 0 8 5.6 0 8.1 5.6 0 8.2 5.6 0 8.3 5.6 0 8.4 5.6 0 8.5 5.6 0 8.6 5.6 0 8.7 5.6 0 8.8 5.6 0 8.9 5.6 0 9 5.6 0 9.1 5.6 0 9.2 5.6 0 9.3 5.6 0 9.4 5.6 0 9.5 5.6 0 9.6 5.6 0 9.7 5.6 0 9.8 5.6 0 9.9 5.6 0 10 5.6 0 0 5.7 0 0.1 5.7 0 0.2 5.7 0 0.3 5.7 0 0.4 5.7 0 0.5 5.7 0 0.6 5.7 0 0.7 5.7 0 0.8 5.7 0 0.9 5.7 0 1 5.7 0 1.1 5.7 0 1.2 5.7 0 1.3 5.7 0 1.4 5.7 0 1.5 5.7 0 1.6 5.7 0 1.7 5.7 0 1.8 5.7 0 1.9 5.7 0 2 5.7 0 2.1 5.7 0 2.2 5.7 0 2.3 5.7 0 2.4 5.7 0 2.5 5.7 0 2.6 5.7 0 2.7 5.7 0 2.8 5.7 0 2.9 5.7 0 3 5.7 0 3.1 5.7 0 3.2 5.7 0 3.3 5.7 0 3.4 5.7 0 3.5 5.7 0 3.6 5.7 0 3.7 5.7 0 3.8 5.7 0 3.9 5.7 0 4 5.7 0 4.1 5.7 0 4.2 5.7 0 4.3 5.7 0 4.4 5.7 0 4.5 5.7 0 4.6 5.7 0 4.7 5.7 0 4.8 5.7 0 4.9 5.7 0 5 5.7 0 5.1 5.7 0 5.2 5.7 0 5.3 5.7 0 5.4 5.7 0 5.5 5.7 0 5.6 5.7 0 5.7 5.7 0 5.8 5.7 0 5.9 5.7 0 6 5.7 0 6.1 5.7 0 6.2 5.7 0 6.3 5.7 0 6.4 5.7 0 6.5 5.7 0 6.6 5.7 0 6.7 5.7 0 6.8 5.7 0 6.9 5.7 0 7 5.7 0 7.1 5.7 0 7.2 5.7 0 7.3 5.7 0 7.4 5.7 0 7.5 5.7 0 7.6 5.7 0 7.7 5.7 0 7.8 5.7 0 7.9 5.7 0 8 5.7 0 8.1 5.7 0 8.2 5.7 0 8.3 5.7 0 8.4 5.7 0 8.5 5.7 0 8.6 5.7 0 8.7 5.7 0 8.8 5.7 0 8.9 5.7 0 9 5.7 0 9.1 5.7 0 9.2 5.7 0 9.3 5.7 0 9.4 5.7 0 9.5 5.7 0 9.6 5.7 0 9.7 5.7 0 9.8 5.7 0 9.9 5.7 0 10 5.7 0 0 5.8 0 0.1 5.8 0 0.2 5.8 0 0.3 5.8 0 0.4 5.8 0 0.5 5.8 0 0.6 5.8 0 0.7 5.8 0 0.8 5.8 0 0.9 5.8 0 1 5.8 0 1.1 5.8 0 1.2 5.8 0 1.3 5.8 0 1.4 5.8 0 1.5 5.8 0 1.6 5.8 0 1.7 5.8 0 1.8 5.8 0 1.9 5.8 0 2 5.8 0 2.1 5.8 0 2.2 5.8 0 2.3 5.8 0 2.4 5.8 0 2.5 5.8 0 2.6 5.8 0 2.7 5.8 0 2.8 5.8 0 2.9 5.8 0 3 5.8 0 3.1 5.8 0 3.2 5.8 0 3.3 5.8 0 3.4 5.8 0 3.5 5.8 0 3.6 5.8 0 3.7 5.8 0 3.8 5.8 0 3.9 5.8 0 4 5.8 0 4.1 5.8 0 4.2 5.8 0 4.3 5.8 0 4.4 5.8 0 4.5 5.8 0 4.6 5.8 0 4.7 5.8 0 4.8 5.8 0 4.9 5.8 0 5 5.8 0 5.1 5.8 0 5.2 5.8 0 5.3 5.8 0 5.4 5.8 0 5.5 5.8 0 5.6 5.8 0 5.7 5.8 0 5.8 5.8 0 5.9 5.8 0 6 5.8 0 6.1 5.8 0 6.2 5.8 0 6.3 5.8 0 6.4 5.8 0 6.5 5.8 0 6.6 5.8 0 6.7 5.8 0 6.8 5.8 0 6.9 5.8 0 7 5.8 0 7.1 5.8 0 7.2 5.8 0 7.3 5.8 0 7.4 5.8 0 7.5 5.8 0 7.6 5.8 0 7.7 5.8 0 7.8 5.8 0 7.9 5.8 0 8 5.8 0 8.1 5.8 0 8.2 5.8 0 8.3 5.8 0 8.4 5.8 0 8.5 5.8 0 8.6 5.8 0 8.7 5.8 0 8.8 5.8 0 8.9 5.8 0 9 5.8 0 9.1 5.8 0 9.2 5.8 0 9.3 5.8 0 9.4 5.8 0 9.5 5.8 0 9.6 5.8 0 9.7 5.8 0 9.8 5.8 0 9.9 5.8 0 10 5.8 0 0 5.9 0 0.1 5.9 0 0.2 5.9 0 0.3 5.9 0 0.4 5.9 0 0.5 5.9 0 0.6 5.9 0 0.7 5.9 0 0.8 5.9 0 0.9 5.9 0 1 5.9 0 1.1 5.9 0 1.2 5.9 0 1.3 5.9 0 1.4 5.9 0 1.5 5.9 0 1.6 5.9 0 1.7 5.9 0 1.8 5.9 0 1.9 5.9 0 2 5.9 0 2.1 5.9 0 2.2 5.9 0 2.3 5.9 0 2.4 5.9 0 2.5 5.9 0 2.6 5.9 0 2.7 5.9 0 2.8 5.9 0 2.9 5.9 0 3 5.9 0 3.1 5.9 0 3.2 5.9 0 3.3 5.9 0 3.4 5.9 0 3.5 5.9 0 3.6 5.9 0 3.7 5.9 0 3.8 5.9 0 3.9 5.9 0 4 5.9 0 4.1 5.9 0 4.2 5.9 0 4.3 5.9 0 4.4 5.9 0 4.5 5.9 0 4.6 5.9 0 4.7 5.9 0 4.8 5.9 0 4.9 5.9 0 5 5.9 0 5.1 5.9 0 5.2 5.9 0 5.3 5.9 0 5.4 5.9 0 5.5 5.9 0 5.6 5.9 0 5.7 5.9 0 5.8 5.9 0 5.9 5.9 0 6 5.9 0 6.1 5.9 0 6.2 5.9 0 6.3 5.9 0 6.4 5.9 0 6.5 5.9 0 6.6 5.9 0 6.7 5.9 0 6.8 5.9 0 6.9 5.9 0 7 5.9 0 7.1 5.9 0 7.2 5.9 0 7.3 5.9 0 7.4 5.9 0 7.5 5.9 0 7.6 5.9 0 7.7 5.9 0 7.8 5.9 0 7.9 5.9 0 8 5.9 0 8.1 5.9 0 8.2 5.9 0 8.3 5.9 0 8.4 5.9 0 8.5 5.9 0 8.6 5.9 0 8.7 5.9 0 8.8 5.9 0 8.9 5.9 0 9 5.9 0 9.1 5.9 0 9.2 5.9 0 9.3 5.9 0 9.4 5.9 0 9.5 5.9 0 9.6 5.9 0 9.7 5.9 0 9.8 5.9 0 9.9 5.9 0 10 5.9 0 0 6 0 0.1 6 0 0.2 6 0 0.3 6 0 0.4 6 0 0.5 6 0 0.6 6 0 0.7 6 0 0.8 6 0 0.9 6 0 1 6 0 1.1 6 0 1.2 6 0 1.3 6 0 1.4 6 0 1.5 6 0 1.6 6 0 1.7 6 0 1.8 6 0 1.9 6 0 2 6 0 2.1 6 0 2.2 6 0 2.3 6 0 2.4 6 0 2.5 6 0 2.6 6 0 2.7 6 0 2.8 6 0 2.9 6 0 3 6 0 3.1 6 0 3.2 6 0 3.3 6 0 3.4 6 0 3.5 6 0 3.6 6 0 3.7 6 0 3.8 6 0 3.9 6 0 4 6 0 4.1 6 0 4.2 6 0 4.3 6 0 4.4 6 0 4.5 6 0 4.6 6 0 4.7 6 0 4.8 6 0 4.9 6 0 5 6 0 5.1 6 0 5.2 6 0 5.3 6 0 5.4 6 0 5.5 6 0 5.6 6 0 5.7 6 0 5.8 6 0 5.9 6 0 6 6 0 6.1 6 0 6.2 6 0 6.3 6 0 6.4 6 0 6.5 6 0 6.6 6 0 6.7 6 0 6.8 6 0 6.9 6 0 7 6 0 7.1 6 0 7.2 6 0 7.3 6 0 7.4 6 0 7.5 6 0 7.6 6 0 7.7 6 0 7.8 6 0 7.9 6 0 8 6 0 8.1 6 0 8.2 6 0 8.3 6 0 8.4 6 0 8.5 6 0 8.6 6 0 8.7 6 0 8.8 6 0 8.9 6 0 9 6 0 9.1 6 0 9.2 6 0 9.3 6 0 9.4 6 0 9.5 6 0 9.6 6 0 9.7 6 0 9.8 6 0 9.9 6 0 10 6 0 0 6.1 0 0.1 6.1 0 0.2 6.1 0 0.3 6.1 0 0.4 6.1 0 0.5 6.1 0 0.6 6.1 0 0.7 6.1 0 0.8 6.1 0 0.9 6.1 0 1 6.1 0 1.1 6.1 0 1.2 6.1 0 1.3 6.1 0 1.4 6.1 0 1.5 6.1 0 1.6 6.1 0 1.7 6.1 0 1.8 6.1 0 1.9 6.1 0 2 6.1 0 2.1 6.1 0 2.2 6.1 0 2.3 6.1 0 2.4 6.1 0 2.5 6.1 0 2.6 6.1 0 2.7 6.1 0 2.8 6.1 0 2.9 6.1 0 3 6.1 0 3.1 6.1 0 3.2 6.1 0 3.3 6.1 0 3.4 6.1 0 3.5 6.1 0 3.6 6.1 0 3.7 6.1 0 3.8 6.1 0 3.9 6.1 0 4 6.1 0 4.1 6.1 0 4.2 6.1 0 4.3 6.1 0 4.4 6.1 0 4.5 6.1 0 4.6 6.1 0 4.7 6.1 0 4.8 6.1 0 4.9 6.1 0 5 6.1 0 5.1 6.1 0 5.2 6.1 0 5.3 6.1 0 5.4 6.1 0 5.5 6.1 0 5.6 6.1 0 5.7 6.1 0 5.8 6.1 0 5.9 6.1 0 6 6.1 0 6.1 6.1 0 6.2 6.1 0 6.3 6.1 0 6.4 6.1 0 6.5 6.1 0 6.6 6.1 0 6.7 6.1 0 6.8 6.1 0 6.9 6.1 0 7 6.1 0 7.1 6.1 0 7.2 6.1 0 7.3 6.1 0 7.4 6.1 0 7.5 6.1 0 7.6 6.1 0 7.7 6.1 0 7.8 6.1 0 7.9 6.1 0 8 6.1 0 8.1 6.1 0 8.2 6.1 0 8.3 6.1 0 8.4 6.1 0 8.5 6.1 0 8.6 6.1 0 8.7 6.1 0 8.8 6.1 0 8.9 6.1 0 9 6.1 0 9.1 6.1 0 9.2 6.1 0 9.3 6.1 0 9.4 6.1 0 9.5 6.1 0 9.6 6.1 0 9.7 6.1 0 9.8 6.1 0 9.9 6.1 0 10 6.1 0 0 6.2 0 0.1 6.2 0 0.2 6.2 0 0.3 6.2 0 0.4 6.2 0 0.5 6.2 0 0.6 6.2 0 0.7 6.2 0 0.8 6.2 0 0.9 6.2 0 1 6.2 0 1.1 6.2 0 1.2 6.2 0 1.3 6.2 0 1.4 6.2 0 1.5 6.2 0 1.6 6.2 0 1.7 6.2 0 1.8 6.2 0 1.9 6.2 0 2 6.2 0 2.1 6.2 0 2.2 6.2 0 2.3 6.2 0 2.4 6.2 0 2.5 6.2 0 2.6 6.2 0 2.7 6.2 0 2.8 6.2 0 2.9 6.2 0 3 6.2 0 3.1 6.2 0 3.2 6.2 0 3.3 6.2 0 3.4 6.2 0 3.5 6.2 0 3.6 6.2 0 3.7 6.2 0 3.8 6.2 0 3.9 6.2 0 4 6.2 0 4.1 6.2 0 4.2 6.2 0 4.3 6.2 0 4.4 6.2 0 4.5 6.2 0 4.6 6.2 0 4.7 6.2 0 4.8 6.2 0 4.9 6.2 0 5 6.2 0 5.1 6.2 0 5.2 6.2 0 5.3 6.2 0 5.4 6.2 0 5.5 6.2 0 5.6 6.2 0 5.7 6.2 0 5.8 6.2 0 5.9 6.2 0 6 6.2 0 6.1 6.2 0 6.2 6.2 0 6.3 6.2 0 6.4 6.2 0 6.5 6.2 0 6.6 6.2 0 6.7 6.2 0 6.8 6.2 0 6.9 6.2 0 7 6.2 0 7.1 6.2 0 7.2 6.2 0 7.3 6.2 0 7.4 6.2 0 7.5 6.2 0 7.6 6.2 0 7.7 6.2 0 7.8 6.2 0 7.9 6.2 0 8 6.2 0 8.1 6.2 0 8.2 6.2 0 8.3 6.2 0 8.4 6.2 0 8.5 6.2 0 8.6 6.2 0 8.7 6.2 0 8.8 6.2 0 8.9 6.2 0 9 6.2 0 9.1 6.2 0 9.2 6.2 0 9.3 6.2 0 9.4 6.2 0 9.5 6.2 0 9.6 6.2 0 9.7 6.2 0 9.8 6.2 0 9.9 6.2 0 10 6.2 0 0 6.3 0 0.1 6.3 0 0.2 6.3 0 0.3 6.3 0 0.4 6.3 0 0.5 6.3 0 0.6 6.3 0 0.7 6.3 0 0.8 6.3 0 0.9 6.3 0 1 6.3 0 1.1 6.3 0 1.2 6.3 0 1.3 6.3 0 1.4 6.3 0 1.5 6.3 0 1.6 6.3 0 1.7 6.3 0 1.8 6.3 0 1.9 6.3 0 2 6.3 0 2.1 6.3 0 2.2 6.3 0 2.3 6.3 0 2.4 6.3 0 2.5 6.3 0 2.6 6.3 0 2.7 6.3 0 2.8 6.3 0 2.9 6.3 0 3 6.3 0 3.1 6.3 0 3.2 6.3 0 3.3 6.3 0 3.4 6.3 0 3.5 6.3 0 3.6 6.3 0 3.7 6.3 0 3.8 6.3 0 3.9 6.3 0 4 6.3 0 4.1 6.3 0 4.2 6.3 0 4.3 6.3 0 4.4 6.3 0 4.5 6.3 0 4.6 6.3 0 4.7 6.3 0 4.8 6.3 0 4.9 6.3 0 5 6.3 0 5.1 6.3 0 5.2 6.3 0 5.3 6.3 0 5.4 6.3 0 5.5 6.3 0 5.6 6.3 0 5.7 6.3 0 5.8 6.3 0 5.9 6.3 0 6 6.3 0 6.1 6.3 0 6.2 6.3 0 6.3 6.3 0 6.4 6.3 0 6.5 6.3 0 6.6 6.3 0 6.7 6.3 0 6.8 6.3 0 6.9 6.3 0 7 6.3 0 7.1 6.3 0 7.2 6.3 0 7.3 6.3 0 7.4 6.3 0 7.5 6.3 0 7.6 6.3 0 7.7 6.3 0 7.8 6.3 0 7.9 6.3 0 8 6.3 0 8.1 6.3 0 8.2 6.3 0 8.3 6.3 0 8.4 6.3 0 8.5 6.3 0 8.6 6.3 0 8.7 6.3 0 8.8 6.3 0 8.9 6.3 0 9 6.3 0 9.1 6.3 0 9.2 6.3 0 9.3 6.3 0 9.4 6.3 0 9.5 6.3 0 9.6 6.3 0 9.7 6.3 0 9.8 6.3 0 9.9 6.3 0 10 6.3 0 0 6.4 0 0.1 6.4 0 0.2 6.4 0 0.3 6.4 0 0.4 6.4 0 0.5 6.4 0 0.6 6.4 0 0.7 6.4 0 0.8 6.4 0 0.9 6.4 0 1 6.4 0 1.1 6.4 0 1.2 6.4 0 1.3 6.4 0 1.4 6.4 0 1.5 6.4 0 1.6 6.4 0 1.7 6.4 0 1.8 6.4 0 1.9 6.4 0 2 6.4 0 2.1 6.4 0 2.2 6.4 0 2.3 6.4 0 2.4 6.4 0 2.5 6.4 0 2.6 6.4 0 2.7 6.4 0 2.8 6.4 0 2.9 6.4 0 3 6.4 0 3.1 6.4 0 3.2 6.4 0 3.3 6.4 0 3.4 6.4 0 3.5 6.4 0 3.6 6.4 0 3.7 6.4 0 3.8 6.4 0 3.9 6.4 0 4 6.4 0 4.1 6.4 0 4.2 6.4 0 4.3 6.4 0 4.4 6.4 0 4.5 6.4 0 4.6 6.4 0 4.7 6.4 0 4.8 6.4 0 4.9 6.4 0 5 6.4 0 5.1 6.4 0 5.2 6.4 0 5.3 6.4 0 5.4 6.4 0 5.5 6.4 0 5.6 6.4 0 5.7 6.4 0 5.8 6.4 0 5.9 6.4 0 6 6.4 0 6.1 6.4 0 6.2 6.4 0 6.3 6.4 0 6.4 6.4 0 6.5 6.4 0 6.6 6.4 0 6.7 6.4 0 6.8 6.4 0 6.9 6.4 0 7 6.4 0 7.1 6.4 0 7.2 6.4 0 7.3 6.4 0 7.4 6.4 0 7.5 6.4 0 7.6 6.4 0 7.7 6.4 0 7.8 6.4 0 7.9 6.4 0 8 6.4 0 8.1 6.4 0 8.2 6.4 0 8.3 6.4 0 8.4 6.4 0 8.5 6.4 0 8.6 6.4 0 8.7 6.4 0 8.8 6.4 0 8.9 6.4 0 9 6.4 0 9.1 6.4 0 9.2 6.4 0 9.3 6.4 0 9.4 6.4 0 9.5 6.4 0 9.6 6.4 0 9.7 6.4 0 9.8 6.4 0 9.9 6.4 0 10 6.4 0 0 6.5 0 0.1 6.5 0 0.2 6.5 0 0.3 6.5 0 0.4 6.5 0 0.5 6.5 0 0.6 6.5 0 0.7 6.5 0 0.8 6.5 0 0.9 6.5 0 1 6.5 0 1.1 6.5 0 1.2 6.5 0 1.3 6.5 0 1.4 6.5 0 1.5 6.5 0 1.6 6.5 0 1.7 6.5 0 1.8 6.5 0 1.9 6.5 0 2 6.5 0 2.1 6.5 0 2.2 6.5 0 2.3 6.5 0 2.4 6.5 0 2.5 6.5 0 2.6 6.5 0 2.7 6.5 0 2.8 6.5 0 2.9 6.5 0 3 6.5 0 3.1 6.5 0 3.2 6.5 0 3.3 6.5 0 3.4 6.5 0 3.5 6.5 0 3.6 6.5 0 3.7 6.5 0 3.8 6.5 0 3.9 6.5 0 4 6.5 0 4.1 6.5 0 4.2 6.5 0 4.3 6.5 0 4.4 6.5 0 4.5 6.5 0 4.6 6.5 0 4.7 6.5 0 4.8 6.5 0 4.9 6.5 0 5 6.5 0 5.1 6.5 0 5.2 6.5 0 5.3 6.5 0 5.4 6.5 0 5.5 6.5 0 5.6 6.5 0 5.7 6.5 0 5.8 6.5 0 5.9 6.5 0 6 6.5 0 6.1 6.5 0 6.2 6.5 0 6.3 6.5 0 6.4 6.5 0 6.5 6.5 0 6.6 6.5 0 6.7 6.5 0 6.8 6.5 0 6.9 6.5 0 7 6.5 0 7.1 6.5 0 7.2 6.5 0 7.3 6.5 0 7.4 6.5 0 7.5 6.5 0 7.6 6.5 0 7.7 6.5 0 7.8 6.5 0 7.9 6.5 0 8 6.5 0 8.1 6.5 0 8.2 6.5 0 8.3 6.5 0 8.4 6.5 0 8.5 6.5 0 8.6 6.5 0 8.7 6.5 0 8.8 6.5 0 8.9 6.5 0 9 6.5 0 9.1 6.5 0 9.2 6.5 0 9.3 6.5 0 9.4 6.5 0 9.5 6.5 0 9.6 6.5 0 9.7 6.5 0 9.8 6.5 0 9.9 6.5 0 10 6.5 0 0 6.6 0 0.1 6.6 0 0.2 6.6 0 0.3 6.6 0 0.4 6.6 0 0.5 6.6 0 0.6 6.6 0 0.7 6.6 0 0.8 6.6 0 0.9 6.6 0 1 6.6 0 1.1 6.6 0 1.2 6.6 0 1.3 6.6 0 1.4 6.6 0 1.5 6.6 0 1.6 6.6 0 1.7 6.6 0 1.8 6.6 0 1.9 6.6 0 2 6.6 0 2.1 6.6 0 2.2 6.6 0 2.3 6.6 0 2.4 6.6 0 2.5 6.6 0 2.6 6.6 0 2.7 6.6 0 2.8 6.6 0 2.9 6.6 0 3 6.6 0 3.1 6.6 0 3.2 6.6 0 3.3 6.6 0 3.4 6.6 0 3.5 6.6 0 3.6 6.6 0 3.7 6.6 0 3.8 6.6 0 3.9 6.6 0 4 6.6 0 4.1 6.6 0 4.2 6.6 0 4.3 6.6 0 4.4 6.6 0 4.5 6.6 0 4.6 6.6 0 4.7 6.6 0 4.8 6.6 0 4.9 6.6 0 5 6.6 0 5.1 6.6 0 5.2 6.6 0 5.3 6.6 0 5.4 6.6 0 5.5 6.6 0 5.6 6.6 0 5.7 6.6 0 5.8 6.6 0 5.9 6.6 0 6 6.6 0 6.1 6.6 0 6.2 6.6 0 6.3 6.6 0 6.4 6.6 0 6.5 6.6 0 6.6 6.6 0 6.7 6.6 0 6.8 6.6 0 6.9 6.6 0 7 6.6 0 7.1 6.6 0 7.2 6.6 0 7.3 6.6 0 7.4 6.6 0 7.5 6.6 0 7.6 6.6 0 7.7 6.6 0 7.8 6.6 0 7.9 6.6 0 8 6.6 0 8.1 6.6 0 8.2 6.6 0 8.3 6.6 0 8.4 6.6 0 8.5 6.6 0 8.6 6.6 0 8.7 6.6 0 8.8 6.6 0 8.9 6.6 0 9 6.6 0 9.1 6.6 0 9.2 6.6 0 9.3 6.6 0 9.4 6.6 0 9.5 6.6 0 9.6 6.6 0 9.7 6.6 0 9.8 6.6 0 9.9 6.6 0 10 6.6 0 0 6.7 0 0.1 6.7 0 0.2 6.7 0 0.3 6.7 0 0.4 6.7 0 0.5 6.7 0 0.6 6.7 0 0.7 6.7 0 0.8 6.7 0 0.9 6.7 0 1 6.7 0 1.1 6.7 0 1.2 6.7 0 1.3 6.7 0 1.4 6.7 0 1.5 6.7 0 1.6 6.7 0 1.7 6.7 0 1.8 6.7 0 1.9 6.7 0 2 6.7 0 2.1 6.7 0 2.2 6.7 0 2.3 6.7 0 2.4 6.7 0 2.5 6.7 0 2.6 6.7 0 2.7 6.7 0 2.8 6.7 0 2.9 6.7 0 3 6.7 0 3.1 6.7 0 3.2 6.7 0 3.3 6.7 0 3.4 6.7 0 3.5 6.7 0 3.6 6.7 0 3.7 6.7 0 3.8 6.7 0 3.9 6.7 0 4 6.7 0 4.1 6.7 0 4.2 6.7 0 4.3 6.7 0 4.4 6.7 0 4.5 6.7 0 4.6 6.7 0 4.7 6.7 0 4.8 6.7 0 4.9 6.7 0 5 6.7 0 5.1 6.7 0 5.2 6.7 0 5.3 6.7 0 5.4 6.7 0 5.5 6.7 0 5.6 6.7 0 5.7 6.7 0 5.8 6.7 0 5.9 6.7 0 6 6.7 0 6.1 6.7 0 6.2 6.7 0 6.3 6.7 0 6.4 6.7 0 6.5 6.7 0 6.6 6.7 0 6.7 6.7 0 6.8 6.7 0 6.9 6.7 0 7 6.7 0 7.1 6.7 0 7.2 6.7 0 7.3 6.7 0 7.4 6.7 0 7.5 6.7 0 7.6 6.7 0 7.7 6.7 0 7.8 6.7 0 7.9 6.7 0 8 6.7 0 8.1 6.7 0 8.2 6.7 0 8.3 6.7 0 8.4 6.7 0 8.5 6.7 0 8.6 6.7 0 8.7 6.7 0 8.8 6.7 0 8.9 6.7 0 9 6.7 0 9.1 6.7 0 9.2 6.7 0 9.3 6.7 0 9.4 6.7 0 9.5 6.7 0 9.6 6.7 0 9.7 6.7 0 9.8 6.7 0 9.9 6.7 0 10 6.7 0 0 6.8 0 0.1 6.8 0 0.2 6.8 0 0.3 6.8 0 0.4 6.8 0 0.5 6.8 0 0.6 6.8 0 0.7 6.8 0 0.8 6.8 0 0.9 6.8 0 1 6.8 0 1.1 6.8 0 1.2 6.8 0 1.3 6.8 0 1.4 6.8 0 1.5 6.8 0 1.6 6.8 0 1.7 6.8 0 1.8 6.8 0 1.9 6.8 0 2 6.8 0 2.1 6.8 0 2.2 6.8 0 2.3 6.8 0 2.4 6.8 0 2.5 6.8 0 2.6 6.8 0 2.7 6.8 0 2.8 6.8 0 2.9 6.8 0 3 6.8 0 3.1 6.8 0 3.2 6.8 0 3.3 6.8 0 3.4 6.8 0 3.5 6.8 0 3.6 6.8 0 3.7 6.8 0 3.8 6.8 0 3.9 6.8 0 4 6.8 0 4.1 6.8 0 4.2 6.8 0 4.3 6.8 0 4.4 6.8 0 4.5 6.8 0 4.6 6.8 0 4.7 6.8 0 4.8 6.8 0 4.9 6.8 0 5 6.8 0 5.1 6.8 0 5.2 6.8 0 5.3 6.8 0 5.4 6.8 0 5.5 6.8 0 5.6 6.8 0 5.7 6.8 0 5.8 6.8 0 5.9 6.8 0 6 6.8 0 6.1 6.8 0 6.2 6.8 0 6.3 6.8 0 6.4 6.8 0 6.5 6.8 0 6.6 6.8 0 6.7 6.8 0 6.8 6.8 0 6.9 6.8 0 7 6.8 0 7.1 6.8 0 7.2 6.8 0 7.3 6.8 0 7.4 6.8 0 7.5 6.8 0 7.6 6.8 0 7.7 6.8 0 7.8 6.8 0 7.9 6.8 0 8 6.8 0 8.1 6.8 0 8.2 6.8 0 8.3 6.8 0 8.4 6.8 0 8.5 6.8 0 8.6 6.8 0 8.7 6.8 0 8.8 6.8 0 8.9 6.8 0 9 6.8 0 9.1 6.8 0 9.2 6.8 0 9.3 6.8 0 9.4 6.8 0 9.5 6.8 0 9.6 6.8 0 9.7 6.8 0 9.8 6.8 0 9.9 6.8 0 10 6.8 0 0 6.9 0 0.1 6.9 0 0.2 6.9 0 0.3 6.9 0 0.4 6.9 0 0.5 6.9 0 0.6 6.9 0 0.7 6.9 0 0.8 6.9 0 0.9 6.9 0 1 6.9 0 1.1 6.9 0 1.2 6.9 0 1.3 6.9 0 1.4 6.9 0 1.5 6.9 0 1.6 6.9 0 1.7 6.9 0 1.8 6.9 0 1.9 6.9 0 2 6.9 0 2.1 6.9 0 2.2 6.9 0 2.3 6.9 0 2.4 6.9 0 2.5 6.9 0 2.6 6.9 0 2.7 6.9 0 2.8 6.9 0 2.9 6.9 0 3 6.9 0 3.1 6.9 0 3.2 6.9 0 3.3 6.9 0 3.4 6.9 0 3.5 6.9 0 3.6 6.9 0 3.7 6.9 0 3.8 6.9 0 3.9 6.9 0 4 6.9 0 4.1 6.9 0 4.2 6.9 0 4.3 6.9 0 4.4 6.9 0 4.5 6.9 0 4.6 6.9 0 4.7 6.9 0 4.8 6.9 0 4.9 6.9 0 5 6.9 0 5.1 6.9 0 5.2 6.9 0 5.3 6.9 0 5.4 6.9 0 5.5 6.9 0 5.6 6.9 0 5.7 6.9 0 5.8 6.9 0 5.9 6.9 0 6 6.9 0 6.1 6.9 0 6.2 6.9 0 6.3 6.9 0 6.4 6.9 0 6.5 6.9 0 6.6 6.9 0 6.7 6.9 0 6.8 6.9 0 6.9 6.9 0 7 6.9 0 7.1 6.9 0 7.2 6.9 0 7.3 6.9 0 7.4 6.9 0 7.5 6.9 0 7.6 6.9 0 7.7 6.9 0 7.8 6.9 0 7.9 6.9 0 8 6.9 0 8.1 6.9 0 8.2 6.9 0 8.3 6.9 0 8.4 6.9 0 8.5 6.9 0 8.6 6.9 0 8.7 6.9 0 8.8 6.9 0 8.9 6.9 0 9 6.9 0 9.1 6.9 0 9.2 6.9 0 9.3 6.9 0 9.4 6.9 0 9.5 6.9 0 9.6 6.9 0 9.7 6.9 0 9.8 6.9 0 9.9 6.9 0 10 6.9 0 0 7 0 0.1 7 0 0.2 7 0 0.3 7 0 0.4 7 0 0.5 7 0 0.6 7 0 0.7 7 0 0.8 7 0 0.9 7 0 1 7 0 1.1 7 0 1.2 7 0 1.3 7 0 1.4 7 0 1.5 7 0 1.6 7 0 1.7 7 0 1.8 7 0 1.9 7 0 2 7 0 2.1 7 0 2.2 7 0 2.3 7 0 2.4 7 0 2.5 7 0 2.6 7 0 2.7 7 0 2.8 7 0 2.9 7 0 3 7 0 3.1 7 0 3.2 7 0 3.3 7 0 3.4 7 0 3.5 7 0 3.6 7 0 3.7 7 0 3.8 7 0 3.9 7 0 4 7 0 4.1 7 0 4.2 7 0 4.3 7 0 4.4 7 0 4.5 7 0 4.6 7 0 4.7 7 0 4.8 7 0 4.9 7 0 5 7 0 5.1 7 0 5.2 7 0 5.3 7 0 5.4 7 0 5.5 7 0 5.6 7 0 5.7 7 0 5.8 7 0 5.9 7 0 6 7 0 6.1 7 0 6.2 7 0 6.3 7 0 6.4 7 0 6.5 7 0 6.6 7 0 6.7 7 0 6.8 7 0 6.9 7 0 7 7 0 7.1 7 0 7.2 7 0 7.3 7 0 7.4 7 0 7.5 7 0 7.6 7 0 7.7 7 0 7.8 7 0 7.9 7 0 8 7 0 8.1 7 0 8.2 7 0 8.3 7 0 8.4 7 0 8.5 7 0 8.6 7 0 8.7 7 0 8.8 7 0 8.9 7 0 9 7 0 9.1 7 0 9.2 7 0 9.3 7 0 9.4 7 0 9.5 7 0 9.6 7 0 9.7 7 0 9.8 7 0 9.9 7 0 10 7 0 0 7.1 0 0.1 7.1 0 0.2 7.1 0 0.3 7.1 0 0.4 7.1 0 0.5 7.1 0 0.6 7.1 0 0.7 7.1 0 0.8 7.1 0 0.9 7.1 0 1 7.1 0 1.1 7.1 0 1.2 7.1 0 1.3 7.1 0 1.4 7.1 0 1.5 7.1 0 1.6 7.1 0 1.7 7.1 0 1.8 7.1 0 1.9 7.1 0 2 7.1 0 2.1 7.1 0 2.2 7.1 0 2.3 7.1 0 2.4 7.1 0 2.5 7.1 0 2.6 7.1 0 2.7 7.1 0 2.8 7.1 0 2.9 7.1 0 3 7.1 0 3.1 7.1 0 3.2 7.1 0 3.3 7.1 0 3.4 7.1 0 3.5 7.1 0 3.6 7.1 0 3.7 7.1 0 3.8 7.1 0 3.9 7.1 0 4 7.1 0 4.1 7.1 0 4.2 7.1 0 4.3 7.1 0 4.4 7.1 0 4.5 7.1 0 4.6 7.1 0 4.7 7.1 0 4.8 7.1 0 4.9 7.1 0 5 7.1 0 5.1 7.1 0 5.2 7.1 0 5.3 7.1 0 5.4 7.1 0 5.5 7.1 0 5.6 7.1 0 5.7 7.1 0 5.8 7.1 0 5.9 7.1 0 6 7.1 0 6.1 7.1 0 6.2 7.1 0 6.3 7.1 0 6.4 7.1 0 6.5 7.1 0 6.6 7.1 0 6.7 7.1 0 6.8 7.1 0 6.9 7.1 0 7 7.1 0 7.1 7.1 0 7.2 7.1 0 7.3 7.1 0 7.4 7.1 0 7.5 7.1 0 7.6 7.1 0 7.7 7.1 0 7.8 7.1 0 7.9 7.1 0 8 7.1 0 8.1 7.1 0 8.2 7.1 0 8.3 7.1 0 8.4 7.1 0 8.5 7.1 0 8.6 7.1 0 8.7 7.1 0 8.8 7.1 0 8.9 7.1 0 9 7.1 0 9.1 7.1 0 9.2 7.1 0 9.3 7.1 0 9.4 7.1 0 9.5 7.1 0 9.6 7.1 0 9.7 7.1 0 9.8 7.1 0 9.9 7.1 0 10 7.1 0 0 7.2 0 0.1 7.2 0 0.2 7.2 0 0.3 7.2 0 0.4 7.2 0 0.5 7.2 0 0.6 7.2 0 0.7 7.2 0 0.8 7.2 0 0.9 7.2 0 1 7.2 0 1.1 7.2 0 1.2 7.2 0 1.3 7.2 0 1.4 7.2 0 1.5 7.2 0 1.6 7.2 0 1.7 7.2 0 1.8 7.2 0 1.9 7.2 0 2 7.2 0 2.1 7.2 0 2.2 7.2 0 2.3 7.2 0 2.4 7.2 0 2.5 7.2 0 2.6 7.2 0 2.7 7.2 0 2.8 7.2 0 2.9 7.2 0 3 7.2 0 3.1 7.2 0 3.2 7.2 0 3.3 7.2 0 3.4 7.2 0 3.5 7.2 0 3.6 7.2 0 3.7 7.2 0 3.8 7.2 0 3.9 7.2 0 4 7.2 0 4.1 7.2 0 4.2 7.2 0 4.3 7.2 0 4.4 7.2 0 4.5 7.2 0 4.6 7.2 0 4.7 7.2 0 4.8 7.2 0 4.9 7.2 0 5 7.2 0 5.1 7.2 0 5.2 7.2 0 5.3 7.2 0 5.4 7.2 0 5.5 7.2 0 5.6 7.2 0 5.7 7.2 0 5.8 7.2 0 5.9 7.2 0 6 7.2 0 6.1 7.2 0 6.2 7.2 0 6.3 7.2 0 6.4 7.2 0 6.5 7.2 0 6.6 7.2 0 6.7 7.2 0 6.8 7.2 0 6.9 7.2 0 7 7.2 0 7.1 7.2 0 7.2 7.2 0 7.3 7.2 0 7.4 7.2 0 7.5 7.2 0 7.6 7.2 0 7.7 7.2 0 7.8 7.2 0 7.9 7.2 0 8 7.2 0 8.1 7.2 0 8.2 7.2 0 8.3 7.2 0 8.4 7.2 0 8.5 7.2 0 8.6 7.2 0 8.7 7.2 0 8.8 7.2 0 8.9 7.2 0 9 7.2 0 9.1 7.2 0 9.2 7.2 0 9.3 7.2 0 9.4 7.2 0 9.5 7.2 0 9.6 7.2 0 9.7 7.2 0 9.8 7.2 0 9.9 7.2 0 10 7.2 0 0 7.3 0 0.1 7.3 0 0.2 7.3 0 0.3 7.3 0 0.4 7.3 0 0.5 7.3 0 0.6 7.3 0 0.7 7.3 0 0.8 7.3 0 0.9 7.3 0 1 7.3 0 1.1 7.3 0 1.2 7.3 0 1.3 7.3 0 1.4 7.3 0 1.5 7.3 0 1.6 7.3 0 1.7 7.3 0 1.8 7.3 0 1.9 7.3 0 2 7.3 0 2.1 7.3 0 2.2 7.3 0 2.3 7.3 0 2.4 7.3 0 2.5 7.3 0 2.6 7.3 0 2.7 7.3 0 2.8 7.3 0 2.9 7.3 0 3 7.3 0 3.1 7.3 0 3.2 7.3 0 3.3 7.3 0 3.4 7.3 0 3.5 7.3 0 3.6 7.3 0 3.7 7.3 0 3.8 7.3 0 3.9 7.3 0 4 7.3 0 4.1 7.3 0 4.2 7.3 0 4.3 7.3 0 4.4 7.3 0 4.5 7.3 0 4.6 7.3 0 4.7 7.3 0 4.8 7.3 0 4.9 7.3 0 5 7.3 0 5.1 7.3 0 5.2 7.3 0 5.3 7.3 0 5.4 7.3 0 5.5 7.3 0 5.6 7.3 0 5.7 7.3 0 5.8 7.3 0 5.9 7.3 0 6 7.3 0 6.1 7.3 0 6.2 7.3 0 6.3 7.3 0 6.4 7.3 0 6.5 7.3 0 6.6 7.3 0 6.7 7.3 0 6.8 7.3 0 6.9 7.3 0 7 7.3 0 7.1 7.3 0 7.2 7.3 0 7.3 7.3 0 7.4 7.3 0 7.5 7.3 0 7.6 7.3 0 7.7 7.3 0 7.8 7.3 0 7.9 7.3 0 8 7.3 0 8.1 7.3 0 8.2 7.3 0 8.3 7.3 0 8.4 7.3 0 8.5 7.3 0 8.6 7.3 0 8.7 7.3 0 8.8 7.3 0 8.9 7.3 0 9 7.3 0 9.1 7.3 0 9.2 7.3 0 9.3 7.3 0 9.4 7.3 0 9.5 7.3 0 9.6 7.3 0 9.7 7.3 0 9.8 7.3 0 9.9 7.3 0 10 7.3 0 0 7.4 0 0.1 7.4 0 0.2 7.4 0 0.3 7.4 0 0.4 7.4 0 0.5 7.4 0 0.6 7.4 0 0.7 7.4 0 0.8 7.4 0 0.9 7.4 0 1 7.4 0 1.1 7.4 0 1.2 7.4 0 1.3 7.4 0 1.4 7.4 0 1.5 7.4 0 1.6 7.4 0 1.7 7.4 0 1.8 7.4 0 1.9 7.4 0 2 7.4 0 2.1 7.4 0 2.2 7.4 0 2.3 7.4 0 2.4 7.4 0 2.5 7.4 0 2.6 7.4 0 2.7 7.4 0 2.8 7.4 0 2.9 7.4 0 3 7.4 0 3.1 7.4 0 3.2 7.4 0 3.3 7.4 0 3.4 7.4 0 3.5 7.4 0 3.6 7.4 0 3.7 7.4 0 3.8 7.4 0 3.9 7.4 0 4 7.4 0 4.1 7.4 0 4.2 7.4 0 4.3 7.4 0 4.4 7.4 0 4.5 7.4 0 4.6 7.4 0 4.7 7.4 0 4.8 7.4 0 4.9 7.4 0 5 7.4 0 5.1 7.4 0 5.2 7.4 0 5.3 7.4 0 5.4 7.4 0 5.5 7.4 0 5.6 7.4 0 5.7 7.4 0 5.8 7.4 0 5.9 7.4 0 6 7.4 0 6.1 7.4 0 6.2 7.4 0 6.3 7.4 0 6.4 7.4 0 6.5 7.4 0 6.6 7.4 0 6.7 7.4 0 6.8 7.4 0 6.9 7.4 0 7 7.4 0 7.1 7.4 0 7.2 7.4 0 7.3 7.4 0 7.4 7.4 0 7.5 7.4 0 7.6 7.4 0 7.7 7.4 0 7.8 7.4 0 7.9 7.4 0 8 7.4 0 8.1 7.4 0 8.2 7.4 0 8.3 7.4 0 8.4 7.4 0 8.5 7.4 0 8.6 7.4 0 8.7 7.4 0 8.8 7.4 0 8.9 7.4 0 9 7.4 0 9.1 7.4 0 9.2 7.4 0 9.3 7.4 0 9.4 7.4 0 9.5 7.4 0 9.6 7.4 0 9.7 7.4 0 9.8 7.4 0 9.9 7.4 0 10 7.4 0 0 7.5 0 0.1 7.5 0 0.2 7.5 0 0.3 7.5 0 0.4 7.5 0 0.5 7.5 0 0.6 7.5 0 0.7 7.5 0 0.8 7.5 0 0.9 7.5 0 1 7.5 0 1.1 7.5 0 1.2 7.5 0 1.3 7.5 0 1.4 7.5 0 1.5 7.5 0 1.6 7.5 0 1.7 7.5 0 1.8 7.5 0 1.9 7.5 0 2 7.5 0 2.1 7.5 0 2.2 7.5 0 2.3 7.5 0 2.4 7.5 0 2.5 7.5 0 2.6 7.5 0 2.7 7.5 0 2.8 7.5 0 2.9 7.5 0 3 7.5 0 3.1 7.5 0 3.2 7.5 0 3.3 7.5 0 3.4 7.5 0 3.5 7.5 0 3.6 7.5 0 3.7 7.5 0 3.8 7.5 0 3.9 7.5 0 4 7.5 0 4.1 7.5 0 4.2 7.5 0 4.3 7.5 0 4.4 7.5 0 4.5 7.5 0 4.6 7.5 0 4.7 7.5 0 4.8 7.5 0 4.9 7.5 0 5 7.5 0 5.1 7.5 0 5.2 7.5 0 5.3 7.5 0 5.4 7.5 0 5.5 7.5 0 5.6 7.5 0 5.7 7.5 0 5.8 7.5 0 5.9 7.5 0 6 7.5 0 6.1 7.5 0 6.2 7.5 0 6.3 7.5 0 6.4 7.5 0 6.5 7.5 0 6.6 7.5 0 6.7 7.5 0 6.8 7.5 0 6.9 7.5 0 7 7.5 0 7.1 7.5 0 7.2 7.5 0 7.3 7.5 0 7.4 7.5 0 7.5 7.5 0 7.6 7.5 0 7.7 7.5 0 7.8 7.5 0 7.9 7.5 0 8 7.5 0 8.1 7.5 0 8.2 7.5 0 8.3 7.5 0 8.4 7.5 0 8.5 7.5 0 8.6 7.5 0 8.7 7.5 0 8.8 7.5 0 8.9 7.5 0 9 7.5 0 9.1 7.5 0 9.2 7.5 0 9.3 7.5 0 9.4 7.5 0 9.5 7.5 0 9.6 7.5 0 9.7 7.5 0 9.8 7.5 0 9.9 7.5 0 10 7.5 0 0 7.6 0 0.1 7.6 0 0.2 7.6 0 0.3 7.6 0 0.4 7.6 0 0.5 7.6 0 0.6 7.6 0 0.7 7.6 0 0.8 7.6 0 0.9 7.6 0 1 7.6 0 1.1 7.6 0 1.2 7.6 0 1.3 7.6 0 1.4 7.6 0 1.5 7.6 0 1.6 7.6 0 1.7 7.6 0 1.8 7.6 0 1.9 7.6 0 2 7.6 0 2.1 7.6 0 2.2 7.6 0 2.3 7.6 0 2.4 7.6 0 2.5 7.6 0 2.6 7.6 0 2.7 7.6 0 2.8 7.6 0 2.9 7.6 0 3 7.6 0 3.1 7.6 0 3.2 7.6 0 3.3 7.6 0 3.4 7.6 0 3.5 7.6 0 3.6 7.6 0 3.7 7.6 0 3.8 7.6 0 3.9 7.6 0 4 7.6 0 4.1 7.6 0 4.2 7.6 0 4.3 7.6 0 4.4 7.6 0 4.5 7.6 0 4.6 7.6 0 4.7 7.6 0 4.8 7.6 0 4.9 7.6 0 5 7.6 0 5.1 7.6 0 5.2 7.6 0 5.3 7.6 0 5.4 7.6 0 5.5 7.6 0 5.6 7.6 0 5.7 7.6 0 5.8 7.6 0 5.9 7.6 0 6 7.6 0 6.1 7.6 0 6.2 7.6 0 6.3 7.6 0 6.4 7.6 0 6.5 7.6 0 6.6 7.6 0 6.7 7.6 0 6.8 7.6 0 6.9 7.6 0 7 7.6 0 7.1 7.6 0 7.2 7.6 0 7.3 7.6 0 7.4 7.6 0 7.5 7.6 0 7.6 7.6 0 7.7 7.6 0 7.8 7.6 0 7.9 7.6 0 8 7.6 0 8.1 7.6 0 8.2 7.6 0 8.3 7.6 0 8.4 7.6 0 8.5 7.6 0 8.6 7.6 0 8.7 7.6 0 8.8 7.6 0 8.9 7.6 0 9 7.6 0 9.1 7.6 0 9.2 7.6 0 9.3 7.6 0 9.4 7.6 0 9.5 7.6 0 9.6 7.6 0 9.7 7.6 0 9.8 7.6 0 9.9 7.6 0 10 7.6 0 0 7.7 0 0.1 7.7 0 0.2 7.7 0 0.3 7.7 0 0.4 7.7 0 0.5 7.7 0 0.6 7.7 0 0.7 7.7 0 0.8 7.7 0 0.9 7.7 0 1 7.7 0 1.1 7.7 0 1.2 7.7 0 1.3 7.7 0 1.4 7.7 0 1.5 7.7 0 1.6 7.7 0 1.7 7.7 0 1.8 7.7 0 1.9 7.7 0 2 7.7 0 2.1 7.7 0 2.2 7.7 0 2.3 7.7 0 2.4 7.7 0 2.5 7.7 0 2.6 7.7 0 2.7 7.7 0 2.8 7.7 0 2.9 7.7 0 3 7.7 0 3.1 7.7 0 3.2 7.7 0 3.3 7.7 0 3.4 7.7 0 3.5 7.7 0 3.6 7.7 0 3.7 7.7 0 3.8 7.7 0 3.9 7.7 0 4 7.7 0 4.1 7.7 0 4.2 7.7 0 4.3 7.7 0 4.4 7.7 0 4.5 7.7 0 4.6 7.7 0 4.7 7.7 0 4.8 7.7 0 4.9 7.7 0 5 7.7 0 5.1 7.7 0 5.2 7.7 0 5.3 7.7 0 5.4 7.7 0 5.5 7.7 0 5.6 7.7 0 5.7 7.7 0 5.8 7.7 0 5.9 7.7 0 6 7.7 0 6.1 7.7 0 6.2 7.7 0 6.3 7.7 0 6.4 7.7 0 6.5 7.7 0 6.6 7.7 0 6.7 7.7 0 6.8 7.7 0 6.9 7.7 0 7 7.7 0 7.1 7.7 0 7.2 7.7 0 7.3 7.7 0 7.4 7.7 0 7.5 7.7 0 7.6 7.7 0 7.7 7.7 0 7.8 7.7 0 7.9 7.7 0 8 7.7 0 8.1 7.7 0 8.2 7.7 0 8.3 7.7 0 8.4 7.7 0 8.5 7.7 0 8.6 7.7 0 8.7 7.7 0 8.8 7.7 0 8.9 7.7 0 9 7.7 0 9.1 7.7 0 9.2 7.7 0 9.3 7.7 0 9.4 7.7 0 9.5 7.7 0 9.6 7.7 0 9.7 7.7 0 9.8 7.7 0 9.9 7.7 0 10 7.7 0 0 7.8 0 0.1 7.8 0 0.2 7.8 0 0.3 7.8 0 0.4 7.8 0 0.5 7.8 0 0.6 7.8 0 0.7 7.8 0 0.8 7.8 0 0.9 7.8 0 1 7.8 0 1.1 7.8 0 1.2 7.8 0 1.3 7.8 0 1.4 7.8 0 1.5 7.8 0 1.6 7.8 0 1.7 7.8 0 1.8 7.8 0 1.9 7.8 0 2 7.8 0 2.1 7.8 0 2.2 7.8 0 2.3 7.8 0 2.4 7.8 0 2.5 7.8 0 2.6 7.8 0 2.7 7.8 0 2.8 7.8 0 2.9 7.8 0 3 7.8 0 3.1 7.8 0 3.2 7.8 0 3.3 7.8 0 3.4 7.8 0 3.5 7.8 0 3.6 7.8 0 3.7 7.8 0 3.8 7.8 0 3.9 7.8 0 4 7.8 0 4.1 7.8 0 4.2 7.8 0 4.3 7.8 0 4.4 7.8 0 4.5 7.8 0 4.6 7.8 0 4.7 7.8 0 4.8 7.8 0 4.9 7.8 0 5 7.8 0 5.1 7.8 0 5.2 7.8 0 5.3 7.8 0 5.4 7.8 0 5.5 7.8 0 5.6 7.8 0 5.7 7.8 0 5.8 7.8 0 5.9 7.8 0 6 7.8 0 6.1 7.8 0 6.2 7.8 0 6.3 7.8 0 6.4 7.8 0 6.5 7.8 0 6.6 7.8 0 6.7 7.8 0 6.8 7.8 0 6.9 7.8 0 7 7.8 0 7.1 7.8 0 7.2 7.8 0 7.3 7.8 0 7.4 7.8 0 7.5 7.8 0 7.6 7.8 0 7.7 7.8 0 7.8 7.8 0 7.9 7.8 0 8 7.8 0 8.1 7.8 0 8.2 7.8 0 8.3 7.8 0 8.4 7.8 0 8.5 7.8 0 8.6 7.8 0 8.7 7.8 0 8.8 7.8 0 8.9 7.8 0 9 7.8 0 9.1 7.8 0 9.2 7.8 0 9.3 7.8 0 9.4 7.8 0 9.5 7.8 0 9.6 7.8 0 9.7 7.8 0 9.8 7.8 0 9.9 7.8 0 10 7.8 0 0 7.9 0 0.1 7.9 0 0.2 7.9 0 0.3 7.9 0 0.4 7.9 0 0.5 7.9 0 0.6 7.9 0 0.7 7.9 0 0.8 7.9 0 0.9 7.9 0 1 7.9 0 1.1 7.9 0 1.2 7.9 0 1.3 7.9 0 1.4 7.9 0 1.5 7.9 0 1.6 7.9 0 1.7 7.9 0 1.8 7.9 0 1.9 7.9 0 2 7.9 0 2.1 7.9 0 2.2 7.9 0 2.3 7.9 0 2.4 7.9 0 2.5 7.9 0 2.6 7.9 0 2.7 7.9 0 2.8 7.9 0 2.9 7.9 0 3 7.9 0 3.1 7.9 0 3.2 7.9 0 3.3 7.9 0 3.4 7.9 0 3.5 7.9 0 3.6 7.9 0 3.7 7.9 0 3.8 7.9 0 3.9 7.9 0 4 7.9 0 4.1 7.9 0 4.2 7.9 0 4.3 7.9 0 4.4 7.9 0 4.5 7.9 0 4.6 7.9 0 4.7 7.9 0 4.8 7.9 0 4.9 7.9 0 5 7.9 0 5.1 7.9 0 5.2 7.9 0 5.3 7.9 0 5.4 7.9 0 5.5 7.9 0 5.6 7.9 0 5.7 7.9 0 5.8 7.9 0 5.9 7.9 0 6 7.9 0 6.1 7.9 0 6.2 7.9 0 6.3 7.9 0 6.4 7.9 0 6.5 7.9 0 6.6 7.9 0 6.7 7.9 0 6.8 7.9 0 6.9 7.9 0 7 7.9 0 7.1 7.9 0 7.2 7.9 0 7.3 7.9 0 7.4 7.9 0 7.5 7.9 0 7.6 7.9 0 7.7 7.9 0 7.8 7.9 0 7.9 7.9 0 8 7.9 0 8.1 7.9 0 8.2 7.9 0 8.3 7.9 0 8.4 7.9 0 8.5 7.9 0 8.6 7.9 0 8.7 7.9 0 8.8 7.9 0 8.9 7.9 0 9 7.9 0 9.1 7.9 0 9.2 7.9 0 9.3 7.9 0 9.4 7.9 0 9.5 7.9 0 9.6 7.9 0 9.7 7.9 0 9.8 7.9 0 9.9 7.9 0 10 7.9 0 0 8 0 0.1 8 0 0.2 8 0 0.3 8 0 0.4 8 0 0.5 8 0 0.6 8 0 0.7 8 0 0.8 8 0 0.9 8 0 1 8 0 1.1 8 0 1.2 8 0 1.3 8 0 1.4 8 0 1.5 8 0 1.6 8 0 1.7 8 0 1.8 8 0 1.9 8 0 2 8 0 2.1 8 0 2.2 8 0 2.3 8 0 2.4 8 0 2.5 8 0 2.6 8 0 2.7 8 0 2.8 8 0 2.9 8 0 3 8 0 3.1 8 0 3.2 8 0 3.3 8 0 3.4 8 0 3.5 8 0 3.6 8 0 3.7 8 0 3.8 8 0 3.9 8 0 4 8 0 4.1 8 0 4.2 8 0 4.3 8 0 4.4 8 0 4.5 8 0 4.6 8 0 4.7 8 0 4.8 8 0 4.9 8 0 5 8 0 5.1 8 0 5.2 8 0 5.3 8 0 5.4 8 0 5.5 8 0 5.6 8 0 5.7 8 0 5.8 8 0 5.9 8 0 6 8 0 6.1 8 0 6.2 8 0 6.3 8 0 6.4 8 0 6.5 8 0 6.6 8 0 6.7 8 0 6.8 8 0 6.9 8 0 7 8 0 7.1 8 0 7.2 8 0 7.3 8 0 7.4 8 0 7.5 8 0 7.6 8 0 7.7 8 0 7.8 8 0 7.9 8 0 8 8 0 8.1 8 0 8.2 8 0 8.3 8 0 8.4 8 0 8.5 8 0 8.6 8 0 8.7 8 0 8.8 8 0 8.9 8 0 9 8 0 9.1 8 0 9.2 8 0 9.3 8 0 9.4 8 0 9.5 8 0 9.6 8 0 9.7 8 0 9.8 8 0 9.9 8 0 10 8 0 0 8.1 0 0.1 8.1 0 0.2 8.1 0 0.3 8.1 0 0.4 8.1 0 0.5 8.1 0 0.6 8.1 0 0.7 8.1 0 0.8 8.1 0 0.9 8.1 0 1 8.1 0 1.1 8.1 0 1.2 8.1 0 1.3 8.1 0 1.4 8.1 0 1.5 8.1 0 1.6 8.1 0 1.7 8.1 0 1.8 8.1 0 1.9 8.1 0 2 8.1 0 2.1 8.1 0 2.2 8.1 0 2.3 8.1 0 2.4 8.1 0 2.5 8.1 0 2.6 8.1 0 2.7 8.1 0 2.8 8.1 0 2.9 8.1 0 3 8.1 0 3.1 8.1 0 3.2 8.1 0 3.3 8.1 0 3.4 8.1 0 3.5 8.1 0 3.6 8.1 0 3.7 8.1 0 3.8 8.1 0 3.9 8.1 0 4 8.1 0 4.1 8.1 0 4.2 8.1 0 4.3 8.1 0 4.4 8.1 0 4.5 8.1 0 4.6 8.1 0 4.7 8.1 0 4.8 8.1 0 4.9 8.1 0 5 8.1 0 5.1 8.1 0 5.2 8.1 0 5.3 8.1 0 5.4 8.1 0 5.5 8.1 0 5.6 8.1 0 5.7 8.1 0 5.8 8.1 0 5.9 8.1 0 6 8.1 0 6.1 8.1 0 6.2 8.1 0 6.3 8.1 0 6.4 8.1 0 6.5 8.1 0 6.6 8.1 0 6.7 8.1 0 6.8 8.1 0 6.9 8.1 0 7 8.1 0 7.1 8.1 0 7.2 8.1 0 7.3 8.1 0 7.4 8.1 0 7.5 8.1 0 7.6 8.1 0 7.7 8.1 0 7.8 8.1 0 7.9 8.1 0 8 8.1 0 8.1 8.1 0 8.2 8.1 0 8.3 8.1 0 8.4 8.1 0 8.5 8.1 0 8.6 8.1 0 8.7 8.1 0 8.8 8.1 0 8.9 8.1 0 9 8.1 0 9.1 8.1 0 9.2 8.1 0 9.3 8.1 0 9.4 8.1 0 9.5 8.1 0 9.6 8.1 0 9.7 8.1 0 9.8 8.1 0 9.9 8.1 0 10 8.1 0 0 8.2 0 0.1 8.2 0 0.2 8.2 0 0.3 8.2 0 0.4 8.2 0 0.5 8.2 0 0.6 8.2 0 0.7 8.2 0 0.8 8.2 0 0.9 8.2 0 1 8.2 0 1.1 8.2 0 1.2 8.2 0 1.3 8.2 0 1.4 8.2 0 1.5 8.2 0 1.6 8.2 0 1.7 8.2 0 1.8 8.2 0 1.9 8.2 0 2 8.2 0 2.1 8.2 0 2.2 8.2 0 2.3 8.2 0 2.4 8.2 0 2.5 8.2 0 2.6 8.2 0 2.7 8.2 0 2.8 8.2 0 2.9 8.2 0 3 8.2 0 3.1 8.2 0 3.2 8.2 0 3.3 8.2 0 3.4 8.2 0 3.5 8.2 0 3.6 8.2 0 3.7 8.2 0 3.8 8.2 0 3.9 8.2 0 4 8.2 0 4.1 8.2 0 4.2 8.2 0 4.3 8.2 0 4.4 8.2 0 4.5 8.2 0 4.6 8.2 0 4.7 8.2 0 4.8 8.2 0 4.9 8.2 0 5 8.2 0 5.1 8.2 0 5.2 8.2 0 5.3 8.2 0 5.4 8.2 0 5.5 8.2 0 5.6 8.2 0 5.7 8.2 0 5.8 8.2 0 5.9 8.2 0 6 8.2 0 6.1 8.2 0 6.2 8.2 0 6.3 8.2 0 6.4 8.2 0 6.5 8.2 0 6.6 8.2 0 6.7 8.2 0 6.8 8.2 0 6.9 8.2 0 7 8.2 0 7.1 8.2 0 7.2 8.2 0 7.3 8.2 0 7.4 8.2 0 7.5 8.2 0 7.6 8.2 0 7.7 8.2 0 7.8 8.2 0 7.9 8.2 0 8 8.2 0 8.1 8.2 0 8.2 8.2 0 8.3 8.2 0 8.4 8.2 0 8.5 8.2 0 8.6 8.2 0 8.7 8.2 0 8.8 8.2 0 8.9 8.2 0 9 8.2 0 9.1 8.2 0 9.2 8.2 0 9.3 8.2 0 9.4 8.2 0 9.5 8.2 0 9.6 8.2 0 9.7 8.2 0 9.8 8.2 0 9.9 8.2 0 10 8.2 0 0 8.3 0 0.1 8.3 0 0.2 8.3 0 0.3 8.3 0 0.4 8.3 0 0.5 8.3 0 0.6 8.3 0 0.7 8.3 0 0.8 8.3 0 0.9 8.3 0 1 8.3 0 1.1 8.3 0 1.2 8.3 0 1.3 8.3 0 1.4 8.3 0 1.5 8.3 0 1.6 8.3 0 1.7 8.3 0 1.8 8.3 0 1.9 8.3 0 2 8.3 0 2.1 8.3 0 2.2 8.3 0 2.3 8.3 0 2.4 8.3 0 2.5 8.3 0 2.6 8.3 0 2.7 8.3 0 2.8 8.3 0 2.9 8.3 0 3 8.3 0 3.1 8.3 0 3.2 8.3 0 3.3 8.3 0 3.4 8.3 0 3.5 8.3 0 3.6 8.3 0 3.7 8.3 0 3.8 8.3 0 3.9 8.3 0 4 8.3 0 4.1 8.3 0 4.2 8.3 0 4.3 8.3 0 4.4 8.3 0 4.5 8.3 0 4.6 8.3 0 4.7 8.3 0 4.8 8.3 0 4.9 8.3 0 5 8.3 0 5.1 8.3 0 5.2 8.3 0 5.3 8.3 0 5.4 8.3 0 5.5 8.3 0 5.6 8.3 0 5.7 8.3 0 5.8 8.3 0 5.9 8.3 0 6 8.3 0 6.1 8.3 0 6.2 8.3 0 6.3 8.3 0 6.4 8.3 0 6.5 8.3 0 6.6 8.3 0 6.7 8.3 0 6.8 8.3 0 6.9 8.3 0 7 8.3 0 7.1 8.3 0 7.2 8.3 0 7.3 8.3 0 7.4 8.3 0 7.5 8.3 0 7.6 8.3 0 7.7 8.3 0 7.8 8.3 0 7.9 8.3 0 8 8.3 0 8.1 8.3 0 8.2 8.3 0 8.3 8.3 0 8.4 8.3 0 8.5 8.3 0 8.6 8.3 0 8.7 8.3 0 8.8 8.3 0 8.9 8.3 0 9 8.3 0 9.1 8.3 0 9.2 8.3 0 9.3 8.3 0 9.4 8.3 0 9.5 8.3 0 9.6 8.3 0 9.7 8.3 0 9.8 8.3 0 9.9 8.3 0 10 8.3 0 0 8.4 0 0.1 8.4 0 0.2 8.4 0 0.3 8.4 0 0.4 8.4 0 0.5 8.4 0 0.6 8.4 0 0.7 8.4 0 0.8 8.4 0 0.9 8.4 0 1 8.4 0 1.1 8.4 0 1.2 8.4 0 1.3 8.4 0 1.4 8.4 0 1.5 8.4 0 1.6 8.4 0 1.7 8.4 0 1.8 8.4 0 1.9 8.4 0 2 8.4 0 2.1 8.4 0 2.2 8.4 0 2.3 8.4 0 2.4 8.4 0 2.5 8.4 0 2.6 8.4 0 2.7 8.4 0 2.8 8.4 0 2.9 8.4 0 3 8.4 0 3.1 8.4 0 3.2 8.4 0 3.3 8.4 0 3.4 8.4 0 3.5 8.4 0 3.6 8.4 0 3.7 8.4 0 3.8 8.4 0 3.9 8.4 0 4 8.4 0 4.1 8.4 0 4.2 8.4 0 4.3 8.4 0 4.4 8.4 0 4.5 8.4 0 4.6 8.4 0 4.7 8.4 0 4.8 8.4 0 4.9 8.4 0 5 8.4 0 5.1 8.4 0 5.2 8.4 0 5.3 8.4 0 5.4 8.4 0 5.5 8.4 0 5.6 8.4 0 5.7 8.4 0 5.8 8.4 0 5.9 8.4 0 6 8.4 0 6.1 8.4 0 6.2 8.4 0 6.3 8.4 0 6.4 8.4 0 6.5 8.4 0 6.6 8.4 0 6.7 8.4 0 6.8 8.4 0 6.9 8.4 0 7 8.4 0 7.1 8.4 0 7.2 8.4 0 7.3 8.4 0 7.4 8.4 0 7.5 8.4 0 7.6 8.4 0 7.7 8.4 0 7.8 8.4 0 7.9 8.4 0 8 8.4 0 8.1 8.4 0 8.2 8.4 0 8.3 8.4 0 8.4 8.4 0 8.5 8.4 0 8.6 8.4 0 8.7 8.4 0 8.8 8.4 0 8.9 8.4 0 9 8.4 0 9.1 8.4 0 9.2 8.4 0 9.3 8.4 0 9.4 8.4 0 9.5 8.4 0 9.6 8.4 0 9.7 8.4 0 9.8 8.4 0 9.9 8.4 0 10 8.4 0 0 8.5 0 0.1 8.5 0 0.2 8.5 0 0.3 8.5 0 0.4 8.5 0 0.5 8.5 0 0.6 8.5 0 0.7 8.5 0 0.8 8.5 0 0.9 8.5 0 1 8.5 0 1.1 8.5 0 1.2 8.5 0 1.3 8.5 0 1.4 8.5 0 1.5 8.5 0 1.6 8.5 0 1.7 8.5 0 1.8 8.5 0 1.9 8.5 0 2 8.5 0 2.1 8.5 0 2.2 8.5 0 2.3 8.5 0 2.4 8.5 0 2.5 8.5 0 2.6 8.5 0 2.7 8.5 0 2.8 8.5 0 2.9 8.5 0 3 8.5 0 3.1 8.5 0 3.2 8.5 0 3.3 8.5 0 3.4 8.5 0 3.5 8.5 0 3.6 8.5 0 3.7 8.5 0 3.8 8.5 0 3.9 8.5 0 4 8.5 0 4.1 8.5 0 4.2 8.5 0 4.3 8.5 0 4.4 8.5 0 4.5 8.5 0 4.6 8.5 0 4.7 8.5 0 4.8 8.5 0 4.9 8.5 0 5 8.5 0 5.1 8.5 0 5.2 8.5 0 5.3 8.5 0 5.4 8.5 0 5.5 8.5 0 5.6 8.5 0 5.7 8.5 0 5.8 8.5 0 5.9 8.5 0 6 8.5 0 6.1 8.5 0 6.2 8.5 0 6.3 8.5 0 6.4 8.5 0 6.5 8.5 0 6.6 8.5 0 6.7 8.5 0 6.8 8.5 0 6.9 8.5 0 7 8.5 0 7.1 8.5 0 7.2 8.5 0 7.3 8.5 0 7.4 8.5 0 7.5 8.5 0 7.6 8.5 0 7.7 8.5 0 7.8 8.5 0 7.9 8.5 0 8 8.5 0 8.1 8.5 0 8.2 8.5 0 8.3 8.5 0 8.4 8.5 0 8.5 8.5 0 8.6 8.5 0 8.7 8.5 0 8.8 8.5 0 8.9 8.5 0 9 8.5 0 9.1 8.5 0 9.2 8.5 0 9.3 8.5 0 9.4 8.5 0 9.5 8.5 0 9.6 8.5 0 9.7 8.5 0 9.8 8.5 0 9.9 8.5 0 10 8.5 0 0 8.6 0 0.1 8.6 0 0.2 8.6 0 0.3 8.6 0 0.4 8.6 0 0.5 8.6 0 0.6 8.6 0 0.7 8.6 0 0.8 8.6 0 0.9 8.6 0 1 8.6 0 1.1 8.6 0 1.2 8.6 0 1.3 8.6 0 1.4 8.6 0 1.5 8.6 0 1.6 8.6 0 1.7 8.6 0 1.8 8.6 0 1.9 8.6 0 2 8.6 0 2.1 8.6 0 2.2 8.6 0 2.3 8.6 0 2.4 8.6 0 2.5 8.6 0 2.6 8.6 0 2.7 8.6 0 2.8 8.6 0 2.9 8.6 0 3 8.6 0 3.1 8.6 0 3.2 8.6 0 3.3 8.6 0 3.4 8.6 0 3.5 8.6 0 3.6 8.6 0 3.7 8.6 0 3.8 8.6 0 3.9 8.6 0 4 8.6 0 4.1 8.6 0 4.2 8.6 0 4.3 8.6 0 4.4 8.6 0 4.5 8.6 0 4.6 8.6 0 4.7 8.6 0 4.8 8.6 0 4.9 8.6 0 5 8.6 0 5.1 8.6 0 5.2 8.6 0 5.3 8.6 0 5.4 8.6 0 5.5 8.6 0 5.6 8.6 0 5.7 8.6 0 5.8 8.6 0 5.9 8.6 0 6 8.6 0 6.1 8.6 0 6.2 8.6 0 6.3 8.6 0 6.4 8.6 0 6.5 8.6 0 6.6 8.6 0 6.7 8.6 0 6.8 8.6 0 6.9 8.6 0 7 8.6 0 7.1 8.6 0 7.2 8.6 0 7.3 8.6 0 7.4 8.6 0 7.5 8.6 0 7.6 8.6 0 7.7 8.6 0 7.8 8.6 0 7.9 8.6 0 8 8.6 0 8.1 8.6 0 8.2 8.6 0 8.3 8.6 0 8.4 8.6 0 8.5 8.6 0 8.6 8.6 0 8.7 8.6 0 8.8 8.6 0 8.9 8.6 0 9 8.6 0 9.1 8.6 0 9.2 8.6 0 9.3 8.6 0 9.4 8.6 0 9.5 8.6 0 9.6 8.6 0 9.7 8.6 0 9.8 8.6 0 9.9 8.6 0 10 8.6 0 0 8.7 0 0.1 8.7 0 0.2 8.7 0 0.3 8.7 0 0.4 8.7 0 0.5 8.7 0 0.6 8.7 0 0.7 8.7 0 0.8 8.7 0 0.9 8.7 0 1 8.7 0 1.1 8.7 0 1.2 8.7 0 1.3 8.7 0 1.4 8.7 0 1.5 8.7 0 1.6 8.7 0 1.7 8.7 0 1.8 8.7 0 1.9 8.7 0 2 8.7 0 2.1 8.7 0 2.2 8.7 0 2.3 8.7 0 2.4 8.7 0 2.5 8.7 0 2.6 8.7 0 2.7 8.7 0 2.8 8.7 0 2.9 8.7 0 3 8.7 0 3.1 8.7 0 3.2 8.7 0 3.3 8.7 0 3.4 8.7 0 3.5 8.7 0 3.6 8.7 0 3.7 8.7 0 3.8 8.7 0 3.9 8.7 0 4 8.7 0 4.1 8.7 0 4.2 8.7 0 4.3 8.7 0 4.4 8.7 0 4.5 8.7 0 4.6 8.7 0 4.7 8.7 0 4.8 8.7 0 4.9 8.7 0 5 8.7 0 5.1 8.7 0 5.2 8.7 0 5.3 8.7 0 5.4 8.7 0 5.5 8.7 0 5.6 8.7 0 5.7 8.7 0 5.8 8.7 0 5.9 8.7 0 6 8.7 0 6.1 8.7 0 6.2 8.7 0 6.3 8.7 0 6.4 8.7 0 6.5 8.7 0 6.6 8.7 0 6.7 8.7 0 6.8 8.7 0 6.9 8.7 0 7 8.7 0 7.1 8.7 0 7.2 8.7 0 7.3 8.7 0 7.4 8.7 0 7.5 8.7 0 7.6 8.7 0 7.7 8.7 0 7.8 8.7 0 7.9 8.7 0 8 8.7 0 8.1 8.7 0 8.2 8.7 0 8.3 8.7 0 8.4 8.7 0 8.5 8.7 0 8.6 8.7 0 8.7 8.7 0 8.8 8.7 0 8.9 8.7 0 9 8.7 0 9.1 8.7 0 9.2 8.7 0 9.3 8.7 0 9.4 8.7 0 9.5 8.7 0 9.6 8.7 0 9.7 8.7 0 9.8 8.7 0 9.9 8.7 0 10 8.7 0 0 8.8 0 0.1 8.8 0 0.2 8.8 0 0.3 8.8 0 0.4 8.8 0 0.5 8.8 0 0.6 8.8 0 0.7 8.8 0 0.8 8.8 0 0.9 8.8 0 1 8.8 0 1.1 8.8 0 1.2 8.8 0 1.3 8.8 0 1.4 8.8 0 1.5 8.8 0 1.6 8.8 0 1.7 8.8 0 1.8 8.8 0 1.9 8.8 0 2 8.8 0 2.1 8.8 0 2.2 8.8 0 2.3 8.8 0 2.4 8.8 0 2.5 8.8 0 2.6 8.8 0 2.7 8.8 0 2.8 8.8 0 2.9 8.8 0 3 8.8 0 3.1 8.8 0 3.2 8.8 0 3.3 8.8 0 3.4 8.8 0 3.5 8.8 0 3.6 8.8 0 3.7 8.8 0 3.8 8.8 0 3.9 8.8 0 4 8.8 0 4.1 8.8 0 4.2 8.8 0 4.3 8.8 0 4.4 8.8 0 4.5 8.8 0 4.6 8.8 0 4.7 8.8 0 4.8 8.8 0 4.9 8.8 0 5 8.8 0 5.1 8.8 0 5.2 8.8 0 5.3 8.8 0 5.4 8.8 0 5.5 8.8 0 5.6 8.8 0 5.7 8.8 0 5.8 8.8 0 5.9 8.8 0 6 8.8 0 6.1 8.8 0 6.2 8.8 0 6.3 8.8 0 6.4 8.8 0 6.5 8.8 0 6.6 8.8 0 6.7 8.8 0 6.8 8.8 0 6.9 8.8 0 7 8.8 0 7.1 8.8 0 7.2 8.8 0 7.3 8.8 0 7.4 8.8 0 7.5 8.8 0 7.6 8.8 0 7.7 8.8 0 7.8 8.8 0 7.9 8.8 0 8 8.8 0 8.1 8.8 0 8.2 8.8 0 8.3 8.8 0 8.4 8.8 0 8.5 8.8 0 8.6 8.8 0 8.7 8.8 0 8.8 8.8 0 8.9 8.8 0 9 8.8 0 9.1 8.8 0 9.2 8.8 0 9.3 8.8 0 9.4 8.8 0 9.5 8.8 0 9.6 8.8 0 9.7 8.8 0 9.8 8.8 0 9.9 8.8 0 10 8.8 0 0 8.9 0 0.1 8.9 0 0.2 8.9 0 0.3 8.9 0 0.4 8.9 0 0.5 8.9 0 0.6 8.9 0 0.7 8.9 0 0.8 8.9 0 0.9 8.9 0 1 8.9 0 1.1 8.9 0 1.2 8.9 0 1.3 8.9 0 1.4 8.9 0 1.5 8.9 0 1.6 8.9 0 1.7 8.9 0 1.8 8.9 0 1.9 8.9 0 2 8.9 0 2.1 8.9 0 2.2 8.9 0 2.3 8.9 0 2.4 8.9 0 2.5 8.9 0 2.6 8.9 0 2.7 8.9 0 2.8 8.9 0 2.9 8.9 0 3 8.9 0 3.1 8.9 0 3.2 8.9 0 3.3 8.9 0 3.4 8.9 0 3.5 8.9 0 3.6 8.9 0 3.7 8.9 0 3.8 8.9 0 3.9 8.9 0 4 8.9 0 4.1 8.9 0 4.2 8.9 0 4.3 8.9 0 4.4 8.9 0 4.5 8.9 0 4.6 8.9 0 4.7 8.9 0 4.8 8.9 0 4.9 8.9 0 5 8.9 0 5.1 8.9 0 5.2 8.9 0 5.3 8.9 0 5.4 8.9 0 5.5 8.9 0 5.6 8.9 0 5.7 8.9 0 5.8 8.9 0 5.9 8.9 0 6 8.9 0 6.1 8.9 0 6.2 8.9 0 6.3 8.9 0 6.4 8.9 0 6.5 8.9 0 6.6 8.9 0 6.7 8.9 0 6.8 8.9 0 6.9 8.9 0 7 8.9 0 7.1 8.9 0 7.2 8.9 0 7.3 8.9 0 7.4 8.9 0 7.5 8.9 0 7.6 8.9 0 7.7 8.9 0 7.8 8.9 0 7.9 8.9 0 8 8.9 0 8.1 8.9 0 8.2 8.9 0 8.3 8.9 0 8.4 8.9 0 8.5 8.9 0 8.6 8.9 0 8.7 8.9 0 8.8 8.9 0 8.9 8.9 0 9 8.9 0 9.1 8.9 0 9.2 8.9 0 9.3 8.9 0 9.4 8.9 0 9.5 8.9 0 9.6 8.9 0 9.7 8.9 0 9.8 8.9 0 9.9 8.9 0 10 8.9 0 0 9 0 0.1 9 0 0.2 9 0 0.3 9 0 0.4 9 0 0.5 9 0 0.6 9 0 0.7 9 0 0.8 9 0 0.9 9 0 1 9 0 1.1 9 0 1.2 9 0 1.3 9 0 1.4 9 0 1.5 9 0 1.6 9 0 1.7 9 0 1.8 9 0 1.9 9 0 2 9 0 2.1 9 0 2.2 9 0 2.3 9 0 2.4 9 0 2.5 9 0 2.6 9 0 2.7 9 0 2.8 9 0 2.9 9 0 3 9 0 3.1 9 0 3.2 9 0 3.3 9 0 3.4 9 0 3.5 9 0 3.6 9 0 3.7 9 0 3.8 9 0 3.9 9 0 4 9 0 4.1 9 0 4.2 9 0 4.3 9 0 4.4 9 0 4.5 9 0 4.6 9 0 4.7 9 0 4.8 9 0 4.9 9 0 5 9 0 5.1 9 0 5.2 9 0 5.3 9 0 5.4 9 0 5.5 9 0 5.6 9 0 5.7 9 0 5.8 9 0 5.9 9 0 6 9 0 6.1 9 0 6.2 9 0 6.3 9 0 6.4 9 0 6.5 9 0 6.6 9 0 6.7 9 0 6.8 9 0 6.9 9 0 7 9 0 7.1 9 0 7.2 9 0 7.3 9 0 7.4 9 0 7.5 9 0 7.6 9 0 7.7 9 0 7.8 9 0 7.9 9 0 8 9 0 8.1 9 0 8.2 9 0 8.3 9 0 8.4 9 0 8.5 9 0 8.6 9 0 8.7 9 0 8.8 9 0 8.9 9 0 9 9 0 9.1 9 0 9.2 9 0 9.3 9 0 9.4 9 0 9.5 9 0 9.6 9 0 9.7 9 0 9.8 9 0 9.9 9 0 10 9 0 0 9.1 0 0.1 9.1 0 0.2 9.1 0 0.3 9.1 0 0.4 9.1 0 0.5 9.1 0 0.6 9.1 0 0.7 9.1 0 0.8 9.1 0 0.9 9.1 0 1 9.1 0 1.1 9.1 0 1.2 9.1 0 1.3 9.1 0 1.4 9.1 0 1.5 9.1 0 1.6 9.1 0 1.7 9.1 0 1.8 9.1 0 1.9 9.1 0 2 9.1 0 2.1 9.1 0 2.2 9.1 0 2.3 9.1 0 2.4 9.1 0 2.5 9.1 0 2.6 9.1 0 2.7 9.1 0 2.8 9.1 0 2.9 9.1 0 3 9.1 0 3.1 9.1 0 3.2 9.1 0 3.3 9.1 0 3.4 9.1 0 3.5 9.1 0 3.6 9.1 0 3.7 9.1 0 3.8 9.1 0 3.9 9.1 0 4 9.1 0 4.1 9.1 0 4.2 9.1 0 4.3 9.1 0 4.4 9.1 0 4.5 9.1 0 4.6 9.1 0 4.7 9.1 0 4.8 9.1 0 4.9 9.1 0 5 9.1 0 5.1 9.1 0 5.2 9.1 0 5.3 9.1 0 5.4 9.1 0 5.5 9.1 0 5.6 9.1 0 5.7 9.1 0 5.8 9.1 0 5.9 9.1 0 6 9.1 0 6.1 9.1 0 6.2 9.1 0 6.3 9.1 0 6.4 9.1 0 6.5 9.1 0 6.6 9.1 0 6.7 9.1 0 6.8 9.1 0 6.9 9.1 0 7 9.1 0 7.1 9.1 0 7.2 9.1 0 7.3 9.1 0 7.4 9.1 0 7.5 9.1 0 7.6 9.1 0 7.7 9.1 0 7.8 9.1 0 7.9 9.1 0 8 9.1 0 8.1 9.1 0 8.2 9.1 0 8.3 9.1 0 8.4 9.1 0 8.5 9.1 0 8.6 9.1 0 8.7 9.1 0 8.8 9.1 0 8.9 9.1 0 9 9.1 0 9.1 9.1 0 9.2 9.1 0 9.3 9.1 0 9.4 9.1 0 9.5 9.1 0 9.6 9.1 0 9.7 9.1 0 9.8 9.1 0 9.9 9.1 0 10 9.1 0 0 9.2 0 0.1 9.2 0 0.2 9.2 0 0.3 9.2 0 0.4 9.2 0 0.5 9.2 0 0.6 9.2 0 0.7 9.2 0 0.8 9.2 0 0.9 9.2 0 1 9.2 0 1.1 9.2 0 1.2 9.2 0 1.3 9.2 0 1.4 9.2 0 1.5 9.2 0 1.6 9.2 0 1.7 9.2 0 1.8 9.2 0 1.9 9.2 0 2 9.2 0 2.1 9.2 0 2.2 9.2 0 2.3 9.2 0 2.4 9.2 0 2.5 9.2 0 2.6 9.2 0 2.7 9.2 0 2.8 9.2 0 2.9 9.2 0 3 9.2 0 3.1 9.2 0 3.2 9.2 0 3.3 9.2 0 3.4 9.2 0 3.5 9.2 0 3.6 9.2 0 3.7 9.2 0 3.8 9.2 0 3.9 9.2 0 4 9.2 0 4.1 9.2 0 4.2 9.2 0 4.3 9.2 0 4.4 9.2 0 4.5 9.2 0 4.6 9.2 0 4.7 9.2 0 4.8 9.2 0 4.9 9.2 0 5 9.2 0 5.1 9.2 0 5.2 9.2 0 5.3 9.2 0 5.4 9.2 0 5.5 9.2 0 5.6 9.2 0 5.7 9.2 0 5.8 9.2 0 5.9 9.2 0 6 9.2 0 6.1 9.2 0 6.2 9.2 0 6.3 9.2 0 6.4 9.2 0 6.5 9.2 0 6.6 9.2 0 6.7 9.2 0 6.8 9.2 0 6.9 9.2 0 7 9.2 0 7.1 9.2 0 7.2 9.2 0 7.3 9.2 0 7.4 9.2 0 7.5 9.2 0 7.6 9.2 0 7.7 9.2 0 7.8 9.2 0 7.9 9.2 0 8 9.2 0 8.1 9.2 0 8.2 9.2 0 8.3 9.2 0 8.4 9.2 0 8.5 9.2 0 8.6 9.2 0 8.7 9.2 0 8.8 9.2 0 8.9 9.2 0 9 9.2 0 9.1 9.2 0 9.2 9.2 0 9.3 9.2 0 9.4 9.2 0 9.5 9.2 0 9.6 9.2 0 9.7 9.2 0 9.8 9.2 0 9.9 9.2 0 10 9.2 0 0 9.3 0 0.1 9.3 0 0.2 9.3 0 0.3 9.3 0 0.4 9.3 0 0.5 9.3 0 0.6 9.3 0 0.7 9.3 0 0.8 9.3 0 0.9 9.3 0 1 9.3 0 1.1 9.3 0 1.2 9.3 0 1.3 9.3 0 1.4 9.3 0 1.5 9.3 0 1.6 9.3 0 1.7 9.3 0 1.8 9.3 0 1.9 9.3 0 2 9.3 0 2.1 9.3 0 2.2 9.3 0 2.3 9.3 0 2.4 9.3 0 2.5 9.3 0 2.6 9.3 0 2.7 9.3 0 2.8 9.3 0 2.9 9.3 0 3 9.3 0 3.1 9.3 0 3.2 9.3 0 3.3 9.3 0 3.4 9.3 0 3.5 9.3 0 3.6 9.3 0 3.7 9.3 0 3.8 9.3 0 3.9 9.3 0 4 9.3 0 4.1 9.3 0 4.2 9.3 0 4.3 9.3 0 4.4 9.3 0 4.5 9.3 0 4.6 9.3 0 4.7 9.3 0 4.8 9.3 0 4.9 9.3 0 5 9.3 0 5.1 9.3 0 5.2 9.3 0 5.3 9.3 0 5.4 9.3 0 5.5 9.3 0 5.6 9.3 0 5.7 9.3 0 5.8 9.3 0 5.9 9.3 0 6 9.3 0 6.1 9.3 0 6.2 9.3 0 6.3 9.3 0 6.4 9.3 0 6.5 9.3 0 6.6 9.3 0 6.7 9.3 0 6.8 9.3 0 6.9 9.3 0 7 9.3 0 7.1 9.3 0 7.2 9.3 0 7.3 9.3 0 7.4 9.3 0 7.5 9.3 0 7.6 9.3 0 7.7 9.3 0 7.8 9.3 0 7.9 9.3 0 8 9.3 0 8.1 9.3 0 8.2 9.3 0 8.3 9.3 0 8.4 9.3 0 8.5 9.3 0 8.6 9.3 0 8.7 9.3 0 8.8 9.3 0 8.9 9.3 0 9 9.3 0 9.1 9.3 0 9.2 9.3 0 9.3 9.3 0 9.4 9.3 0 9.5 9.3 0 9.6 9.3 0 9.7 9.3 0 9.8 9.3 0 9.9 9.3 0 10 9.3 0 0 9.4 0 0.1 9.4 0 0.2 9.4 0 0.3 9.4 0 0.4 9.4 0 0.5 9.4 0 0.6 9.4 0 0.7 9.4 0 0.8 9.4 0 0.9 9.4 0 1 9.4 0 1.1 9.4 0 1.2 9.4 0 1.3 9.4 0 1.4 9.4 0 1.5 9.4 0 1.6 9.4 0 1.7 9.4 0 1.8 9.4 0 1.9 9.4 0 2 9.4 0 2.1 9.4 0 2.2 9.4 0 2.3 9.4 0 2.4 9.4 0 2.5 9.4 0 2.6 9.4 0 2.7 9.4 0 2.8 9.4 0 2.9 9.4 0 3 9.4 0 3.1 9.4 0 3.2 9.4 0 3.3 9.4 0 3.4 9.4 0 3.5 9.4 0 3.6 9.4 0 3.7 9.4 0 3.8 9.4 0 3.9 9.4 0 4 9.4 0 4.1 9.4 0 4.2 9.4 0 4.3 9.4 0 4.4 9.4 0 4.5 9.4 0 4.6 9.4 0 4.7 9.4 0 4.8 9.4 0 4.9 9.4 0 5 9.4 0 5.1 9.4 0 5.2 9.4 0 5.3 9.4 0 5.4 9.4 0 5.5 9.4 0 5.6 9.4 0 5.7 9.4 0 5.8 9.4 0 5.9 9.4 0 6 9.4 0 6.1 9.4 0 6.2 9.4 0 6.3 9.4 0 6.4 9.4 0 6.5 9.4 0 6.6 9.4 0 6.7 9.4 0 6.8 9.4 0 6.9 9.4 0 7 9.4 0 7.1 9.4 0 7.2 9.4 0 7.3 9.4 0 7.4 9.4 0 7.5 9.4 0 7.6 9.4 0 7.7 9.4 0 7.8 9.4 0 7.9 9.4 0 8 9.4 0 8.1 9.4 0 8.2 9.4 0 8.3 9.4 0 8.4 9.4 0 8.5 9.4 0 8.6 9.4 0 8.7 9.4 0 8.8 9.4 0 8.9 9.4 0 9 9.4 0 9.1 9.4 0 9.2 9.4 0 9.3 9.4 0 9.4 9.4 0 9.5 9.4 0 9.6 9.4 0 9.7 9.4 0 9.8 9.4 0 9.9 9.4 0 10 9.4 0 0 9.5 0 0.1 9.5 0 0.2 9.5 0 0.3 9.5 0 0.4 9.5 0 0.5 9.5 0 0.6 9.5 0 0.7 9.5 0 0.8 9.5 0 0.9 9.5 0 1 9.5 0 1.1 9.5 0 1.2 9.5 0 1.3 9.5 0 1.4 9.5 0 1.5 9.5 0 1.6 9.5 0 1.7 9.5 0 1.8 9.5 0 1.9 9.5 0 2 9.5 0 2.1 9.5 0 2.2 9.5 0 2.3 9.5 0 2.4 9.5 0 2.5 9.5 0 2.6 9.5 0 2.7 9.5 0 2.8 9.5 0 2.9 9.5 0 3 9.5 0 3.1 9.5 0 3.2 9.5 0 3.3 9.5 0 3.4 9.5 0 3.5 9.5 0 3.6 9.5 0 3.7 9.5 0 3.8 9.5 0 3.9 9.5 0 4 9.5 0 4.1 9.5 0 4.2 9.5 0 4.3 9.5 0 4.4 9.5 0 4.5 9.5 0 4.6 9.5 0 4.7 9.5 0 4.8 9.5 0 4.9 9.5 0 5 9.5 0 5.1 9.5 0 5.2 9.5 0 5.3 9.5 0 5.4 9.5 0 5.5 9.5 0 5.6 9.5 0 5.7 9.5 0 5.8 9.5 0 5.9 9.5 0 6 9.5 0 6.1 9.5 0 6.2 9.5 0 6.3 9.5 0 6.4 9.5 0 6.5 9.5 0 6.6 9.5 0 6.7 9.5 0 6.8 9.5 0 6.9 9.5 0 7 9.5 0 7.1 9.5 0 7.2 9.5 0 7.3 9.5 0 7.4 9.5 0 7.5 9.5 0 7.6 9.5 0 7.7 9.5 0 7.8 9.5 0 7.9 9.5 0 8 9.5 0 8.1 9.5 0 8.2 9.5 0 8.3 9.5 0 8.4 9.5 0 8.5 9.5 0 8.6 9.5 0 8.7 9.5 0 8.8 9.5 0 8.9 9.5 0 9 9.5 0 9.1 9.5 0 9.2 9.5 0 9.3 9.5 0 9.4 9.5 0 9.5 9.5 0 9.6 9.5 0 9.7 9.5 0 9.8 9.5 0 9.9 9.5 0 10 9.5 0 0 9.6 0 0.1 9.6 0 0.2 9.6 0 0.3 9.6 0 0.4 9.6 0 0.5 9.6 0 0.6 9.6 0 0.7 9.6 0 0.8 9.6 0 0.9 9.6 0 1 9.6 0 1.1 9.6 0 1.2 9.6 0 1.3 9.6 0 1.4 9.6 0 1.5 9.6 0 1.6 9.6 0 1.7 9.6 0 1.8 9.6 0 1.9 9.6 0 2 9.6 0 2.1 9.6 0 2.2 9.6 0 2.3 9.6 0 2.4 9.6 0 2.5 9.6 0 2.6 9.6 0 2.7 9.6 0 2.8 9.6 0 2.9 9.6 0 3 9.6 0 3.1 9.6 0 3.2 9.6 0 3.3 9.6 0 3.4 9.6 0 3.5 9.6 0 3.6 9.6 0 3.7 9.6 0 3.8 9.6 0 3.9 9.6 0 4 9.6 0 4.1 9.6 0 4.2 9.6 0 4.3 9.6 0 4.4 9.6 0 4.5 9.6 0 4.6 9.6 0 4.7 9.6 0 4.8 9.6 0 4.9 9.6 0 5 9.6 0 5.1 9.6 0 5.2 9.6 0 5.3 9.6 0 5.4 9.6 0 5.5 9.6 0 5.6 9.6 0 5.7 9.6 0 5.8 9.6 0 5.9 9.6 0 6 9.6 0 6.1 9.6 0 6.2 9.6 0 6.3 9.6 0 6.4 9.6 0 6.5 9.6 0 6.6 9.6 0 6.7 9.6 0 6.8 9.6 0 6.9 9.6 0 7 9.6 0 7.1 9.6 0 7.2 9.6 0 7.3 9.6 0 7.4 9.6 0 7.5 9.6 0 7.6 9.6 0 7.7 9.6 0 7.8 9.6 0 7.9 9.6 0 8 9.6 0 8.1 9.6 0 8.2 9.6 0 8.3 9.6 0 8.4 9.6 0 8.5 9.6 0 8.6 9.6 0 8.7 9.6 0 8.8 9.6 0 8.9 9.6 0 9 9.6 0 9.1 9.6 0 9.2 9.6 0 9.3 9.6 0 9.4 9.6 0 9.5 9.6 0 9.6 9.6 0 9.7 9.6 0 9.8 9.6 0 9.9 9.6 0 10 9.6 0 0 9.7 0 0.1 9.7 0 0.2 9.7 0 0.3 9.7 0 0.4 9.7 0 0.5 9.7 0 0.6 9.7 0 0.7 9.7 0 0.8 9.7 0 0.9 9.7 0 1 9.7 0 1.1 9.7 0 1.2 9.7 0 1.3 9.7 0 1.4 9.7 0 1.5 9.7 0 1.6 9.7 0 1.7 9.7 0 1.8 9.7 0 1.9 9.7 0 2 9.7 0 2.1 9.7 0 2.2 9.7 0 2.3 9.7 0 2.4 9.7 0 2.5 9.7 0 2.6 9.7 0 2.7 9.7 0 2.8 9.7 0 2.9 9.7 0 3 9.7 0 3.1 9.7 0 3.2 9.7 0 3.3 9.7 0 3.4 9.7 0 3.5 9.7 0 3.6 9.7 0 3.7 9.7 0 3.8 9.7 0 3.9 9.7 0 4 9.7 0 4.1 9.7 0 4.2 9.7 0 4.3 9.7 0 4.4 9.7 0 4.5 9.7 0 4.6 9.7 0 4.7 9.7 0 4.8 9.7 0 4.9 9.7 0 5 9.7 0 5.1 9.7 0 5.2 9.7 0 5.3 9.7 0 5.4 9.7 0 5.5 9.7 0 5.6 9.7 0 5.7 9.7 0 5.8 9.7 0 5.9 9.7 0 6 9.7 0 6.1 9.7 0 6.2 9.7 0 6.3 9.7 0 6.4 9.7 0 6.5 9.7 0 6.6 9.7 0 6.7 9.7 0 6.8 9.7 0 6.9 9.7 0 7 9.7 0 7.1 9.7 0 7.2 9.7 0 7.3 9.7 0 7.4 9.7 0 7.5 9.7 0 7.6 9.7 0 7.7 9.7 0 7.8 9.7 0 7.9 9.7 0 8 9.7 0 8.1 9.7 0 8.2 9.7 0 8.3 9.7 0 8.4 9.7 0 8.5 9.7 0 8.6 9.7 0 8.7 9.7 0 8.8 9.7 0 8.9 9.7 0 9 9.7 0 9.1 9.7 0 9.2 9.7 0 9.3 9.7 0 9.4 9.7 0 9.5 9.7 0 9.6 9.7 0 9.7 9.7 0 9.8 9.7 0 9.9 9.7 0 10 9.7 0 0 9.8 0 0.1 9.8 0 0.2 9.8 0 0.3 9.8 0 0.4 9.8 0 0.5 9.8 0 0.6 9.8 0 0.7 9.8 0 0.8 9.8 0 0.9 9.8 0 1 9.8 0 1.1 9.8 0 1.2 9.8 0 1.3 9.8 0 1.4 9.8 0 1.5 9.8 0 1.6 9.8 0 1.7 9.8 0 1.8 9.8 0 1.9 9.8 0 2 9.8 0 2.1 9.8 0 2.2 9.8 0 2.3 9.8 0 2.4 9.8 0 2.5 9.8 0 2.6 9.8 0 2.7 9.8 0 2.8 9.8 0 2.9 9.8 0 3 9.8 0 3.1 9.8 0 3.2 9.8 0 3.3 9.8 0 3.4 9.8 0 3.5 9.8 0 3.6 9.8 0 3.7 9.8 0 3.8 9.8 0 3.9 9.8 0 4 9.8 0 4.1 9.8 0 4.2 9.8 0 4.3 9.8 0 4.4 9.8 0 4.5 9.8 0 4.6 9.8 0 4.7 9.8 0 4.8 9.8 0 4.9 9.8 0 5 9.8 0 5.1 9.8 0 5.2 9.8 0 5.3 9.8 0 5.4 9.8 0 5.5 9.8 0 5.6 9.8 0 5.7 9.8 0 5.8 9.8 0 5.9 9.8 0 6 9.8 0 6.1 9.8 0 6.2 9.8 0 6.3 9.8 0 6.4 9.8 0 6.5 9.8 0 6.6 9.8 0 6.7 9.8 0 6.8 9.8 0 6.9 9.8 0 7 9.8 0 7.1 9.8 0 7.2 9.8 0 7.3 9.8 0 7.4 9.8 0 7.5 9.8 0 7.6 9.8 0 7.7 9.8 0 7.8 9.8 0 7.9 9.8 0 8 9.8 0 8.1 9.8 0 8.2 9.8 0 8.3 9.8 0 8.4 9.8 0 8.5 9.8 0 8.6 9.8 0 8.7 9.8 0 8.8 9.8 0 8.9 9.8 0 9 9.8 0 9.1 9.8 0 9.2 9.8 0 9.3 9.8 0 9.4 9.8 0 9.5 9.8 0 9.6 9.8 0 9.7 9.8 0 9.8 9.8 0 9.9 9.8 0 10 9.8 0 0 9.9 0 0.1 9.9 0 0.2 9.9 0 0.3 9.9 0 0.4 9.9 0 0.5 9.9 0 0.6 9.9 0 0.7 9.9 0 0.8 9.9 0 0.9 9.9 0 1 9.9 0 1.1 9.9 0 1.2 9.9 0 1.3 9.9 0 1.4 9.9 0 1.5 9.9 0 1.6 9.9 0 1.7 9.9 0 1.8 9.9 0 1.9 9.9 0 2 9.9 0 2.1 9.9 0 2.2 9.9 0 2.3 9.9 0 2.4 9.9 0 2.5 9.9 0 2.6 9.9 0 2.7 9.9 0 2.8 9.9 0 2.9 9.9 0 3 9.9 0 3.1 9.9 0 3.2 9.9 0 3.3 9.9 0 3.4 9.9 0 3.5 9.9 0 3.6 9.9 0 3.7 9.9 0 3.8 9.9 0 3.9 9.9 0 4 9.9 0 4.1 9.9 0 4.2 9.9 0 4.3 9.9 0 4.4 9.9 0 4.5 9.9 0 4.6 9.9 0 4.7 9.9 0 4.8 9.9 0 4.9 9.9 0 5 9.9 0 5.1 9.9 0 5.2 9.9 0 5.3 9.9 0 5.4 9.9 0 5.5 9.9 0 5.6 9.9 0 5.7 9.9 0 5.8 9.9 0 5.9 9.9 0 6 9.9 0 6.1 9.9 0 6.2 9.9 0 6.3 9.9 0 6.4 9.9 0 6.5 9.9 0 6.6 9.9 0 6.7 9.9 0 6.8 9.9 0 6.9 9.9 0 7 9.9 0 7.1 9.9 0 7.2 9.9 0 7.3 9.9 0 7.4 9.9 0 7.5 9.9 0 7.6 9.9 0 7.7 9.9 0 7.8 9.9 0 7.9 9.9 0 8 9.9 0 8.1 9.9 0 8.2 9.9 0 8.3 9.9 0 8.4 9.9 0 8.5 9.9 0 8.6 9.9 0 8.7 9.9 0 8.8 9.9 0 8.9 9.9 0 9 9.9 0 9.1 9.9 0 9.2 9.9 0 9.3 9.9 0 9.4 9.9 0 9.5 9.9 0 9.6 9.9 0 9.7 9.9 0 9.8 9.9 0 9.9 9.9 0 10 9.9 0 0 10 0 0.1 10 0 0.2 10 0 0.3 10 0 0.4 10 0 0.5 10 0 0.6 10 0 0.7 10 0 0.8 10 0 0.9 10 0 1 10 0 1.1 10 0 1.2 10 0 1.3 10 0 1.4 10 0 1.5 10 0 1.6 10 0 1.7 10 0 1.8 10 0 1.9 10 0 2 10 0 2.1 10 0 2.2 10 0 2.3 10 0 2.4 10 0 2.5 10 0 2.6 10 0 2.7 10 0 2.8 10 0 2.9 10 0 3 10 0 3.1 10 0 3.2 10 0 3.3 10 0 3.4 10 0 3.5 10 0 3.6 10 0 3.7 10 0 3.8 10 0 3.9 10 0 4 10 0 4.1 10 0 4.2 10 0 4.3 10 0 4.4 10 0 4.5 10 0 4.6 10 0 4.7 10 0 4.8 10 0 4.9 10 0 5 10 0 5.1 10 0 5.2 10 0 5.3 10 0 5.4 10 0 5.5 10 0 5.6 10 0 5.7 10 0 5.8 10 0 5.9 10 0 6 10 0 6.1 10 0 6.2 10 0 6.3 10 0 6.4 10 0 6.5 10 0 6.6 10 0 6.7 10 0 6.8 10 0 6.9 10 0 7 10 0 7.1 10 0 7.2 10 0 7.3 10 0 7.4 10 0 7.5 10 0 7.6 10 0 7.7 10 0 7.8 10 0 7.9 10 0 8 10 0 8.1 10 0 8.2 10 0 8.3 10 0 8.4 10 0 8.5 10 0 8.6 10 0 8.7 10 0 8.8 10 0 8.9 10 0 9 10 0 9.1 10 0 9.2 10 0 9.3 10 0 9.4 10 0 9.5 10 0 9.6 10 0 9.7 10 0 9.8 10 0 9.9 10 0 10 10 0 
</DataArray>
</Points> 
</Piece> 
</StructuredGrid> 
</VTKFile> 
