<?xml version="1.0"?> 
<VTKFile type="StructuredGrid" version="0.1"> 
<StructuredGrid WholeExtent="0 100 0 100 0 0"> 
<Piece Extent="0 100 0 100 0 0"> 
<PointData>
<DataArray type="Float32" Name="value" format="ascii" NumberOfComponents="1"> 
45.5038 45.5605 45.752 46.0678 46.4979 47.0346 47.6711 48.3996 49.202 50.0556 50.9373 51.8261 52.7018 53.5445 54.3274 55.0177 55.5824 55.9973 56.2506 56.3312 56.2304 55.9439 55.4681 54.8043 53.9675 52.9754 51.8465 50.604 49.2722 47.8748 46.4327 44.9656 43.4929 42.0302 40.5914 39.1898 37.8354 36.5355 35.2973 34.1243 33.0163 31.9731 30.9943 30.0798 29.229 28.4408 27.7121 27.0396 26.4199 25.8499 25.326 24.8453 24.4048 24.002 23.6341 23.2986 22.9926 22.7137 22.4598 22.2289 22.0192 21.829 21.6563 21.4994 21.3567 21.2273 21.1102 21.0041 20.9082 20.8213 20.7425 20.6713 20.6069 20.5488 20.4964 20.449 20.4061 20.3673 20.3322 20.3007 20.2724 20.2469 20.2239 20.2032 20.1847 20.1682 20.1534 20.1402 20.1284 20.1179 20.1086 20.1004 20.0934 20.0874 20.0823 20.0782 20.0749 20.0724 20.0706 20.0695 20.069 45.5605 45.6299 45.8186 46.1318 46.572 47.1268 47.7781 48.5089 49.3082 50.1683 51.0802 52.0135 52.9226 53.7626 54.5142 55.1835 55.7772 56.2759 56.6245 56.7651 56.6644 56.3364 55.8008 55.0783 54.1936 53.1722 52.0365 50.7984 49.4669 48.0536 46.5838 45.0879 43.5951 42.1211 40.6754 39.267 37.904 36.5935 35.3425 34.1558 33.0363 31.9867 31.0073 30.0948 29.2461 28.4579 27.7274 27.052 26.429 25.8555 25.329 24.8466 24.4055 24.0027 23.6352 23.3003 22.9948 22.716 22.4618 22.2305 22.0202 21.8293 21.6561 21.4989 21.3562 21.2268 21.1098 21.004 20.9083 20.8215 20.7428 20.6715 20.6071 20.5489 20.4963 20.4488 20.4058 20.367 20.332 20.3005 20.2722 20.2468 20.2238 20.2032 20.1847 20.1682 20.1534 20.1401 20.1283 20.1178 20.1085 20.1004 20.0933 20.0873 20.0823 20.0782 20.0749 20.0724 20.0706 20.0695 20.069 45.752 45.8186 46.0221 46.3536 46.805 47.3708 48.0464 48.8256 49.6864 50.5987 51.5332 52.4745 53.4169 54.3537 55.2451 56.0187 56.6015 56.9651 57.1427 57.1721 57.071 56.8194 56.3924 55.7716 54.9556 53.946 52.7523 51.416 49.987 48.5102 47.0048 45.4801 43.9465 42.4209 40.9238 39.475 38.0837 36.7516 35.4806 34.2735 33.1345 32.0681 31.075 30.1515 29.2935 28.4973 27.76 27.0788 26.4509 25.8734 25.3435 24.8584 24.415 24.0104 23.6415 23.3054 22.999 22.7195 22.4645 22.2325 22.0218 21.8305 21.6569 21.4994 21.3565 21.227 21.1099 21.0041 20.9083 20.8215 20.7428 20.6715 20.607 20.5487 20.4961 20.4486 20.4056 20.3668 20.3318 20.3004 20.2721 20.2466 20.2237 20.2031 20.1846 20.168 20.1533 20.14 20.1282 20.1177 20.1084 20.1003 20.0933 20.0873 20.0822 20.0781 20.0748 20.0723 20.0705 20.0694 20.0689 46.0678 46.1318 46.3536 46.7121 47.1892 47.7846 48.5044 49.3512 50.2947 51.288 52.2869 53.2848 54.3026 55.3584 56.399 57.2997 57.9343 58.2652 58.3772 58.3634 58.2712 58.0585 57.6727 57.0721 56.2442 55.1814 53.8901 52.4318 50.8816 49.3063 47.7216 46.1248 44.5155 42.9115 41.3401 39.8275 38.3843 37.0099 35.7034 34.4656 33.2995 32.2078 31.1908 30.2457 29.3693 28.5585 27.8098 27.1198 26.4852 25.9024 25.3681 24.879 24.432 24.0241 23.6523 23.3137 23.0052 22.7241 22.468 22.2352 22.0239 21.8322 21.6584 21.5006 21.3574 21.2277 21.1103 21.0042 20.9082 20.8213 20.7425 20.6711 20.6066 20.5484 20.4958 20.4483 20.4054 20.3666 20.3317 20.3002 20.2719 20.2465 20.2235 20.2029 20.1844 20.1679 20.1531 20.1399 20.1281 20.1176 20.1083 20.1002 20.0931 20.0871 20.0821 20.078 20.0747 20.0722 20.0705 20.0693 20.0688 46.4979 46.572 46.805 47.1892 47.7169 48.3807 49.1732 50.0858 51.0996 52.1905 53.3341 54.5041 55.6728 56.8122 57.8881 58.86 59.687 60.333 60.7677 60.9614 60.8941 60.5642 59.9723 59.1265 58.0564 56.7951 55.3756 53.8303 52.1915 50.4907 48.7547 47.0088 45.2773 43.5782 41.9258 40.3344 38.8131 37.3676 36.0035 34.722 33.5207 32.3968 31.3481 30.3735 29.4718 28.6409 27.8767 27.1749 26.5312 25.9415 25.4015 24.907 24.455 24.0426 23.6667 23.3247 23.0134 22.7301 22.4725 22.2386 22.0266 21.8345 21.6604 21.5023 21.3587 21.2286 21.1108 21.0043 20.908 20.8209 20.7419 20.6705 20.606 20.5479 20.4954 20.448 20.4051 20.3663 20.3314 20.2999 20.2716 20.2462 20.2233 20.2026 20.1842 20.1676 20.1528 20.1396 20.1279 20.1174 20.1081 20.1 20.093 20.087 20.082 20.0778 20.0746 20.0721 20.0703 20.0692 20.0687 47.0346 47.1268 47.3708 47.7846 48.3807 49.1395 50.0294 51.0225 52.1193 53.3349 54.6799 56.0964 57.4776 58.7196 59.8177 60.8659 61.9598 63.0679 63.9828 64.4847 64.4499 63.9414 63.0434 61.842 60.4277 58.8918 57.3047 55.6536 53.9048 52.0361 50.0919 48.1407 46.2458 44.4249 42.6716 40.9806 39.3584 37.8198 36.3794 35.04 33.7928 32.6283 31.541 30.5312 29.5992 28.744 27.9605 27.2438 26.5886 25.9898 25.4421 24.9408 24.4827 24.0647 23.6841 23.338 23.0234 22.7375 22.478 22.2429 22.03 21.8373 21.6627 21.5041 21.3601 21.2295 21.1112 21.0043 20.9077 20.8203 20.7412 20.6698 20.6053 20.5472 20.4948 20.4475 20.4046 20.3659 20.331 20.2995 20.2712 20.2458 20.2229 20.2023 20.1838 20.1673 20.1525 20.1393 20.1276 20.1171 20.1079 20.0998 20.0927 20.0868 20.0818 20.0777 20.0744 20.0719 20.0701 20.069 20.0685 47.6711 47.7781 48.0464 48.5044 49.1732 50.0294 51.0338 52.1518 53.3901 54.7769 56.3338 57.9913 59.6149 61.0737 62.363 63.6044 64.9212 66.2767 67.4118 68.0519 68.0433 67.4665 66.4291 65.0393 63.4075 61.6444 59.8354 57.9648 55.9915 53.8883 51.7091 49.5373 47.4492 45.4625 43.5642 41.7425 40.0021 38.3597 36.8316 35.42 34.1124 32.8961 31.7636 30.7146 29.7497 28.8671 28.0613 27.3265 26.6568 26.0461 25.4887 24.979 24.5136 24.0895 23.7038 23.3533 23.0352 22.7466 22.4849 22.2481 22.034 21.8403 21.6649 21.5058 21.3612 21.2301 21.1114 21.0042 20.9073 20.8197 20.7405 20.669 20.6045 20.5464 20.4941 20.4468 20.404 20.3653 20.3304 20.299 20.2707 20.2453 20.2224 20.2018 20.1834 20.1669 20.1521 20.139 20.1272 20.1168 20.1076 20.0995 20.0925 20.0865 20.0815 20.0774 20.0742 20.0717 20.0699 20.0688 20.0683 48.3996 48.5089 48.8256 49.3512 50.0858 51.0225 52.1518 53.4632 54.9396 56.56 58.3027 60.1324 62.0044 63.8726 65.6719 67.3172 68.7235 69.8266 70.5918 70.9866 70.9876 70.5897 69.7899 68.5968 67.0521 65.2031 63.1016 60.8184 58.4289 56.0038 53.5867 51.2108 48.9084 46.6978 44.5908 42.5987 40.7276 38.9803 37.3591 35.8605 34.4753 33.1941 32.01 30.92 29.9211 29.0093 28.1785 27.4226 26.735 26.1095 25.5398 25.02 24.5464 24.1158 23.7248 23.3703 23.0488 22.7573 22.4933 22.2544 22.0385 21.8435 21.667 21.507 21.3618 21.2302 21.1112 21.0038 20.9068 20.8191 20.7398 20.6682 20.6037 20.5455 20.4932 20.4459 20.4031 20.3644 20.3295 20.2982 20.2699 20.2446 20.2217 20.2012 20.1828 20.1663 20.1517 20.1385 20.1268 20.1164 20.1072 20.0991 20.0922 20.0862 20.0812 20.0772 20.0739 20.0714 20.0697 20.0686 20.068 49.202 49.3082 49.6864 50.2947 51.0996 52.1193 53.3901 54.9396 56.7148 58.6215 60.5727 62.5858 64.7533 67.1591 69.6539 71.8555 73.3774 74.1142 74.3498 74.3957 74.4133 74.2734 73.813 72.8993 71.481 69.5213 67.0291 64.1971 61.2641 58.4374 55.7415 53.1345 50.5811 48.1008 45.7417 43.5493 41.5318 39.6701 37.9453 36.3463 34.8703 33.5148 32.2749 31.1423 30.1087 29.1663 28.3084 27.5287 26.8206 26.1778 25.5939 25.0627 24.5803 24.1428 23.7467 23.3881 23.0634 22.7691 22.5025 22.2613 22.0434 21.8466 21.6688 21.5077 21.3618 21.2298 21.1106 21.0031 20.906 20.8183 20.739 20.6673 20.6027 20.5445 20.4921 20.4447 20.4019 20.3633 20.3285 20.2971 20.269 20.2437 20.2209 20.2005 20.1821 20.1657 20.1511 20.138 20.1264 20.116 20.1068 20.0988 20.0918 20.0859 20.0809 20.0768 20.0736 20.0711 20.0694 20.0683 20.0678 50.0556 50.1683 50.5987 51.288 52.1905 53.3349 54.7769 56.56 58.6215 60.8436 63.1187 65.4808 68.0658 70.9983 74.0959 76.8686 78.8207 79.8086 80.1769 80.3049 80.3869 80.2585 79.7146 78.5921 76.846 74.4512 71.4365 68.0466 64.5798 61.2939 58.2095 55.2614 52.3929 49.6227 47.0089 44.6057 42.4182 40.4152 38.5658 36.8547 35.2825 33.8501 32.5526 31.3762 30.3067 29.3321 28.4454 27.6403 26.9103 26.2488 25.6495 25.1062 24.6145 24.17 23.7686 23.4061 23.0782 22.781 22.5117 22.2681 22.048 21.8493 21.67 21.5079 21.3612 21.2289 21.1095 21.002 20.905 20.8173 20.738 20.6663 20.6016 20.5433 20.4907 20.4433 20.4005 20.3619 20.3272 20.2959 20.2679 20.2427 20.22 20.1996 20.1814 20.165 20.1505 20.1375 20.1258 20.1155 20.1063 20.0983 20.0914 20.0855 20.0805 20.0765 20.0733 20.0708 20.0691 20.068 20.0674 50.9373 51.0802 51.5332 52.2869 53.3341 54.6799 56.3338 58.3027 60.5727 63.1187 65.9151 68.9287 72.1205 75.4491 78.8137 82.0541 85.0078 87.5115 89.4018 90.5154 90.7457 90.0955 88.5804 86.2563 83.2904 79.869 76.1678 72.3199 68.4477 64.6633 61.0192 57.5465 54.2744 51.2173 48.3823 45.7752 43.3877 41.2013 39.1975 37.3647 35.6979 34.1925 32.838 31.6164 30.5088 29.5006 28.5841 27.7529 27.0003 26.3199 25.7051 25.1495 24.6483 24.1966 23.7899 23.4233 23.0923 22.7922 22.5201 22.2741 22.0519 21.8514 21.6707 21.5075 21.3602 21.2274 21.108 21.0004 20.9035 20.816 20.7366 20.6649 20.6001 20.5418 20.4892 20.4417 20.3989 20.3604 20.3257 20.2945 20.2666 20.2415 20.2189 20.1987 20.1805 20.1642 20.1497 20.1368 20.1252 20.1149 20.1058 20.0978 20.0909 20.085 20.0801 20.0761 20.0729 20.0704 20.0687 20.0676 20.0671 51.8261 52.0135 52.4745 53.2848 54.5041 56.0964 57.9913 60.1324 62.5858 65.4808 68.9287 72.7894 76.742 80.4765 84.0298 87.7857 92.1303 96.8823 101.073 103.678 104.115 102.656 99.6736 95.5702 90.8398 85.9917 81.4224 77.0769 72.7877 68.4266 64.0942 59.9745 56.233 52.8757 49.8261 47.0109 44.4029 42.0085 39.8343 37.8756 36.1163 34.5397 33.1272 31.8575 30.7093 29.6657 28.7189 27.8617 27.0873 26.3888 25.7591 25.1917 24.6811 24.2222 23.8099 23.4391 23.1046 22.8016 22.527 22.2786 22.0545 21.8525 21.6705 21.5065 21.3586 21.2255 21.1059 20.9984 20.9016 20.814 20.7348 20.663 20.5983 20.5399 20.4873 20.4399 20.3972 20.3587 20.3241 20.293 20.2652 20.2402 20.2178 20.1976 20.1795 20.1633 20.1489 20.136 20.1245 20.1143 20.1052 20.0973 20.0904 20.0846 20.0796 20.0756 20.0724 20.07 20.0683 20.0672 20.0667 52.7018 52.9226 53.4169 54.3026 55.6728 57.4776 59.6149 62.0044 64.7533 68.0658 72.1205 76.742 81.4996 85.9784 90.2603 94.9238 100.551 106.901 112.594 116.172 116.804 114.883 110.943 105.562 99.4353 93.2822 87.6559 82.4542 77.4105 72.3142 67.2827 62.5515 58.3314 54.6157 51.2856 48.2267 45.3984 42.8128 40.4825 38.4019 36.5472 34.8937 33.4172 32.0944 30.902 29.8216 28.8442 27.9622 27.1677 26.453 25.8101 25.2318 24.7122 24.2461 23.8279 23.4525 23.1143 22.8083 22.5313 22.281 22.0555 21.8523 21.6695 21.5048 21.3565 21.2232 21.1034 20.9958 20.8989 20.8115 20.7322 20.6606 20.5959 20.5376 20.4851 20.4379 20.3952 20.3568 20.3224 20.2914 20.2637 20.2388 20.2165 20.1964 20.1784 20.1623 20.148 20.1352 20.1238 20.1136 20.1046 20.0967 20.0898 20.084 20.0791 20.0751 20.0719 20.0695 20.0678 20.0667 20.0662 53.5445 53.7626 54.3537 55.3584 56.8122 58.7196 61.0737 63.8726 67.1591 70.9983 75.4491 80.4765 85.9784 91.851 97.9886 104.284 110.622 116.626 121.549 124.619 125.369 123.927 120.486 115.335 109.033 102.179 95.2949 88.5743 82.1297 76.0653 70.4359 65.2789 60.6251 56.4513 52.7061 49.3389 46.3106 43.59 41.1469 38.9563 36.9989 35.2557 33.705 32.3218 31.0809 29.962 28.9548 28.0499 27.2381 26.5101 25.8565 25.2688 24.741 24.2676 23.8433 23.4627 23.1205 22.8115 22.5323 22.2806 22.0542 21.8506 21.6675 21.5026 21.354 21.2204 21.1004 20.9926 20.8956 20.8081 20.7289 20.6574 20.5929 20.5349 20.4827 20.4356 20.3932 20.3549 20.3206 20.2898 20.2621 20.2374 20.2151 20.1951 20.1772 20.1612 20.147 20.1343 20.1229 20.1128 20.1038 20.096 20.0892 20.0834 20.0786 20.0746 20.0714 20.069 20.0673 20.0662 20.0658 54.3274 54.5142 55.2451 56.399 57.8881 59.8177 62.363 65.6719 69.6539 74.0959 78.8137 84.0298 90.2603 97.9886 106.801 115.388 122.416 127.289 130.433 132.349 133.242 132.751 130.447 126.093 119.97 112.448 103.961 95.1935 86.8944 79.6917 73.5159 68.0448 62.9848 58.2918 54.0508 50.3396 47.1298 44.3164 41.7945 39.5079 37.4488 35.6112 33.981 32.5329 31.2406 30.0828 29.047 28.1218 27.2959 26.5579 25.8965 25.3012 24.766 24.2857 23.8551 23.4692 23.1226 22.8106 22.5296 22.2771 22.0504 21.847 21.6642 21.4995 21.3509 21.2171 21.0968 20.9887 20.8915 20.8038 20.7248 20.6535 20.5893 20.5317 20.4798 20.4331 20.3909 20.3529 20.3187 20.288 20.2605 20.2358 20.2136 20.1937 20.1759 20.16 20.1459 20.1333 20.122 20.1119 20.103 20.0953 20.0885 20.0828 20.0779 20.074 20.0708 20.0685 20.0668 20.0657 20.0652 55.0177 55.1835 56.0187 57.2997 58.86 60.8659 63.6044 67.3172 71.8555 76.8686 82.0541 87.7857 94.9238 104.284 115.388 126.467 135.717 142.288 146.658 149.401 150.723 150.124 147.024 141.133 132.967 123.18 112.47 101.702 91.7885 83.4787 76.5951 70.6235 65.0954 59.9417 55.2997 51.2962 47.9005 44.9679 42.3541 39.9823 37.8431 35.9297 34.229 32.7188 31.3762 30.1811 29.1192 28.1766 27.3398 26.5948 25.9279 25.3269 24.7854 24.2988 23.8623 23.4711 23.1204 22.8057 22.5233 22.2704 22.0441 21.8414 21.6594 21.4952 21.3468 21.2129 21.0923 20.9839 20.8865 20.7988 20.7198 20.6489 20.5851 20.5279 20.4766 20.4303 20.3885 20.3507 20.3167 20.2861 20.2587 20.2341 20.212 20.1922 20.1745 20.1587 20.1447 20.1322 20.121 20.111 20.1022 20.0945 20.0878 20.0821 20.0773 20.0734 20.0702 20.0679 20.0662 20.0651 20.0647 55.5824 55.7772 56.6015 57.9343 59.687 61.9598 64.9212 68.7235 73.3774 78.8207 85.0078 92.1303 100.551 110.622 122.416 135.717 150.28 165.015 177.653 185.848 188.149 184.844 176.42 163.744 148.723 133.442 119.617 107.48 96.8938 87.7127 79.7461 72.7868 66.6388 61.2037 56.4331 52.2774 48.6677 45.5208 42.7541 40.3042 38.1273 36.1803 34.4327 32.8709 31.4825 30.2541 29.1697 28.2131 27.3682 26.6187 25.9486 25.3435 24.7972 24.3054 23.8637 23.4679 23.1137 22.7968 22.5135 22.2608 22.0353 21.8337 21.6528 21.4894 21.3414 21.2076 21.0869 20.9783 20.8806 20.7929 20.7142 20.6436 20.5804 20.5238 20.4729 20.4272 20.3857 20.3482 20.3144 20.284 20.2567 20.2322 20.2102 20.1905 20.173 20.1573 20.1434 20.131 20.1199 20.11 20.1013 20.0936 20.087 20.0813 20.0766 20.0727 20.0696 20.0672 20.0656 20.0645 20.0641 55.9973 56.2759 56.9651 58.2652 60.333 63.0679 66.2767 69.8266 74.1142 79.8086 87.5115 96.8823 106.901 116.626 127.289 142.288 165.015 194.173 221.961 240.125 243.904 235.311 217.143 192.624 166.176 142.422 124.815 112.123 101.942 92.2069 82.823 74.4115 67.5163 62.0068 57.4051 53.2533 49.4082 45.9533 42.9725 40.4525 38.2819 36.3464 34.5794 32.9806 31.5548 30.2991 29.197 28.2299 27.3797 26.628 25.9563 25.3489 24.7993 24.3037 23.8582 23.459 23.1022 22.7839 22.5004 22.2482 22.0238 21.8236 21.6441 21.4818 21.3343 21.2008 21.0802 20.9715 20.8739 20.7864 20.7079 20.6378 20.5752 20.5191 20.4689 20.4236 20.3826 20.3455 20.3119 20.2817 20.2545 20.2301 20.2083 20.1888 20.1713 20.1558 20.142 20.1297 20.1187 20.1089 20.1003 20.0927 20.0861 20.0805 20.0758 20.0719 20.0689 20.0666 20.0649 20.0639 20.0634 56.2506 56.6245 57.1427 58.3772 60.7677 63.9828 67.4118 70.5918 74.3498 80.1769 89.4018 101.073 112.594 121.549 130.433 146.658 177.653 221.961 265.795 294.515 299.784 285.514 257.026 220.104 181.823 149.478 128.333 115.53 106.18 96.1169 85.3769 75.5207 67.9331 62.4552 58.1332 54.0572 50.0044 46.2466 43.0569 40.4806 38.3354 36.4308 34.6614 33.04 31.588 30.3134 29.1994 28.2259 27.373 26.6207 25.9491 25.3409 24.7898 24.2923 23.8448 23.4438 23.0857 22.767 22.484 22.2328 22.0098 21.8111 21.633 21.4718 21.3252 21.1922 21.072 20.9636 20.8663 20.7791 20.7011 20.6315 20.5695 20.5141 20.4644 20.4197 20.3791 20.3423 20.309 20.279 20.2521 20.2279 20.2062 20.1868 20.1695 20.1542 20.1405 20.1283 20.1175 20.1078 20.0992 20.0917 20.0852 20.0796 20.075 20.0712 20.0681 20.0658 20.0642 20.0632 20.0628 56.3312 56.7651 57.1721 58.3634 60.9614 64.4847 68.0519 70.9866 74.3957 80.3049 90.5154 103.678 116.172 124.619 132.349 149.401 185.848 240.125 294.515 330.18 336.435 318.437 283.16 238.071 191.993 153.983 130.5 117.62 108.821 98.5536 86.9382 76.1479 68.116 62.6654 58.5325 54.5131 50.3317 46.3821 43.0594 40.4475 38.3197 36.4377 34.6715 33.0411 31.5772 30.2943 29.1755 28.1998 27.3466 26.5952 25.9247 25.3173 24.7667 24.2695 23.8223 23.4216 23.0641 22.7462 22.4644 22.2146 21.9931 21.7959 21.6193 21.4593 21.3138 21.1817 21.0622 20.9545 20.8577 20.7711 20.6938 20.6248 20.5634 20.5086 20.4595 20.4153 20.3751 20.3387 20.3058 20.2761 20.2494 20.2254 20.2039 20.1847 20.1676 20.1524 20.1389 20.1269 20.1161 20.1065 20.0981 20.0906 20.0842 20.0787 20.0741 20.0704 20.0674 20.0651 20.0635 20.0625 20.062 56.2304 56.6644 57.071 58.2712 60.8941 64.4499 68.0433 70.9876 74.4133 80.3869 90.7457 104.115 116.804 125.369 133.242 150.723 188.149 243.904 299.784 336.435 342.878 324.402 288.166 241.841 194.506 155.486 131.432 118.307 109.402 99.0071 87.2332 76.2997 68.1809 62.6956 58.5527 54.5215 50.3196 46.3474 43.0068 40.3845 38.2521 36.3698 34.606 32.9794 31.5195 30.24 29.1239 28.1506 27.2995 26.5502 25.8819 25.2769 24.729 24.2345 23.79 23.392 23.037 22.7214 22.4415 22.1936 21.9736 21.7779 21.6027 21.4441 21.2998 21.1689 21.0506 20.9439 20.8482 20.7625 20.686 20.6177 20.5569 20.5027 20.4541 20.4104 20.3706 20.3346 20.3021 20.2727 20.2463 20.2226 20.2014 20.1825 20.1656 20.1506 20.1372 20.1253 20.1147 20.1052 20.0969 20.0895 20.0832 20.0778 20.0732 20.0695 20.0665 20.0643 20.0627 20.0617 20.0613 55.9439 56.3364 56.8194 58.0585 60.5642 63.9414 67.4665 70.5897 74.2734 80.2585 90.0955 102.656 114.883 123.927 132.751 150.124 184.844 235.311 285.514 318.437 324.402 307.986 275.403 233.382 190.075 153.878 130.822 117.488 108.093 97.7051 86.3688 75.9298 68.028 62.4903 58.21 54.1319 50.0015 46.1417 42.8767 40.2694 38.1219 36.2268 34.4685 32.8581 31.4161 30.1504 29.0442 28.0778 27.2316 26.486 25.8213 25.2206 24.6773 24.1879 23.7484 23.3552 23.0044 22.6923 22.4152 22.1695 21.9513 21.7572 21.5833 21.4262 21.2834 21.1541 21.0373 20.9321 20.8377 20.7532 20.6776 20.6102 20.55 20.4963 20.4483 20.405 20.3657 20.3301 20.298 20.269 20.243 20.2196 20.1987 20.1801 20.1634 20.1486 20.1354 20.1237 20.1132 20.1039 20.0956 20.0884 20.0821 20.0768 20.0723 20.0686 20.0657 20.0635 20.0619 20.0609 20.0605 55.4681 55.8008 56.3924 57.6727 59.9723 63.0434 66.4291 69.7899 73.813 79.7146 88.5804 99.6736 110.943 120.486 130.447 147.024 176.42 217.143 257.026 283.16 288.166 275.403 249.463 215.43 179.746 149.087 128.318 115.062 105.136 94.9601 84.4957 74.9864 67.5331 61.9809 57.5286 53.4107 49.4231 45.766 42.6409 40.0738 37.9148 36.008 34.2631 32.6808 31.2685 30.0257 28.9358 27.9809 27.1427 26.4031 25.7438 25.1493 24.6128 24.1304 23.6979 23.3112 22.9661 22.6587 22.3851 22.1421 21.9261 21.7336 21.5614 21.4058 21.2648 21.1373 21.0224 20.919 20.8262 20.7431 20.6686 20.6021 20.5426 20.4895 20.442 20.3991 20.3603 20.3252 20.2935 20.265 20.2394 20.2164 20.1959 20.1775 20.1611 20.1465 20.1335 20.1219 20.1116 20.1024 20.0943 20.0871 20.081 20.0757 20.0713 20.0677 20.0648 20.0626 20.061 20.0601 20.0597 54.8043 55.0783 55.7716 57.0721 59.1265 61.842 65.0393 68.5968 72.8993 78.5921 86.2563 95.5702 105.562 115.335 126.093 141.133 163.744 192.624 220.104 238.071 241.841 233.382 215.43 191.153 164.922 141.313 123.749 111.038 100.835 91.1212 81.7951 73.4481 66.5981 61.1161 56.54 52.427 48.6321 45.225 42.2765 39.7736 37.6193 35.7136 33.9943 32.4514 31.0784 29.866 28.7985 27.8595 27.0327 26.3018 25.6503 25.064 24.5363 24.0627 23.6388 23.2601 22.922 22.6201 22.3509 22.1111 21.8977 21.7073 21.5369 21.3832 21.2443 21.1189 21.0061 20.9047 20.8137 20.7321 20.6589 20.5934 20.5347 20.4822 20.4352 20.3929 20.3546 20.32 20.2888 20.2608 20.2356 20.2131 20.1929 20.1748 20.1587 20.1443 20.1315 20.1201 20.11 20.1009 20.0929 20.0859 20.0798 20.0746 20.0702 20.0667 20.0638 20.0617 20.0602 20.0592 20.0588 53.9675 54.1936 54.9556 56.2442 58.0564 60.4277 63.4075 67.0521 71.481 76.846 83.2904 90.8398 99.4353 109.033 119.97 132.967 148.723 166.176 181.823 191.993 194.506 190.075 179.746 164.922 147.986 131.491 117.453 105.735 95.6621 86.639 78.5331 71.3791 65.1983 59.8912 55.2962 51.2565 47.6828 44.5353 41.7748 39.3567 37.2307 35.3467 33.6675 32.1737 30.8474 29.6716 28.6317 27.7132 26.9017 26.1826 25.5416 24.9658 24.4488 23.9857 23.5717 23.202 22.8718 22.5763 22.3122 22.0763 21.866 21.6781 21.51 21.3586 21.222 21.099 20.9884 20.8892 20.8002 20.7203 20.6484 20.584 20.5262 20.4744 20.428 20.3862 20.3485 20.3144 20.2838 20.2563 20.2316 20.2095 20.1897 20.1719 20.1561 20.142 20.1294 20.1182 20.1082 20.0993 20.0914 20.0845 20.0785 20.0734 20.0691 20.0656 20.0628 20.0607 20.0592 20.0583 20.0579 52.9754 53.1722 53.946 55.1814 56.7951 58.8918 61.6444 65.2031 69.5213 74.4512 79.869 85.9917 93.2822 102.179 112.448 123.18 133.442 142.422 149.478 153.983 155.486 153.878 149.087 141.313 131.491 120.686 109.855 99.5256 90.1204 81.9817 74.9899 68.8581 63.3215 58.3097 53.8527 49.9758 46.6306 43.7155 41.1295 38.8127 36.7457 34.911 33.288 31.8517 30.577 29.4426 28.435 27.5415 26.7494 26.0459 25.4185 24.8557 24.3512 23.9 23.4969 23.1371 22.8155 22.5271 22.2687 22.0375 21.8309 21.6462 21.4808 21.3321 21.1981 21.0776 20.9695 20.8726 20.7856 20.7074 20.6371 20.5738 20.517 20.466 20.4203 20.3792 20.3421 20.3086 20.2786 20.2516 20.2274 20.2058 20.1864 20.169 20.1534 20.1396 20.1272 20.1162 20.1064 20.0976 20.0899 20.0831 20.0772 20.0722 20.068 20.0646 20.0618 20.0597 20.0583 20.0574 20.0569 51.8465 52.0365 52.7523 53.8901 55.3756 57.3047 59.8354 63.1016 67.0291 71.4365 76.1678 81.4224 87.6559 95.2949 103.961 112.47 119.617 124.815 128.333 130.5 131.432 130.822 128.318 123.749 117.453 109.855 101.42 92.7859 84.629 77.52 71.3987 65.9769 60.9912 56.3966 52.2609 48.6456 45.5196 42.7847 40.343 38.1404 36.1663 34.412 32.8616 31.4895 30.2694 29.1799 28.2087 27.3446 26.5762 25.8925 25.282 24.7348 24.2445 23.8063 23.415 23.0656 22.7529 22.4723 22.2202 21.9944 21.7923 21.6115 21.4495 21.3038 21.1728 21.0551 20.9495 20.8549 20.77 20.6936 20.6247 20.5628 20.5071 20.4571 20.4122 20.3719 20.3354 20.3027 20.2732 20.2468 20.2231 20.2019 20.1829 20.1659 20.1506 20.137 20.1249 20.1141 20.1045 20.0959 20.0883 20.0816 20.0759 20.071 20.0668 20.0635 20.0608 20.0587 20.0573 20.0564 20.056 50.604 50.7984 51.416 52.4318 53.8303 55.6536 57.9648 60.8184 64.1971 68.0466 72.3199 77.0769 82.4542 88.5743 95.1935 101.702 107.48 112.123 115.53 117.62 118.307 117.488 115.062 111.038 105.735 99.5256 92.7859 85.9051 79.2759 73.2359 67.8031 62.8791 58.3736 54.2624 50.5557 47.2612 44.3497 41.7653 39.4521 37.3744 35.5164 33.8631 32.3961 31.0926 29.9294 28.8877 27.9563 27.1253 26.3845 25.7239 25.1335 24.6039 24.1296 23.7054 23.3265 22.9879 22.6847 22.4122 22.1672 21.9474 21.7505 21.5742 21.4161 21.274 21.1462 21.0314 20.9285 20.8362 20.7534 20.6788 20.6116 20.551 20.4966 20.4476 20.4037 20.3642 20.3286 20.2965 20.2677 20.2418 20.2187 20.1979 20.1793 20.1626 20.1477 20.1344 20.1225 20.112 20.1025 20.0941 20.0866 20.0801 20.0745 20.0697 20.0656 20.0623 20.0597 20.0577 20.0563 20.0554 20.055 49.2722 49.4669 49.987 50.8816 52.1915 53.9048 55.9915 58.4289 61.2641 64.5798 68.4477 72.7877 77.4105 82.1297 86.8944 91.7885 96.8938 101.942 106.18 108.821 109.402 108.093 105.136 100.835 95.6621 90.1204 84.629 79.2759 74.0658 69.0142 64.1993 59.7216 55.6707 52.0388 48.7679 45.8016 43.1095 40.6803 38.5024 36.5585 34.8254 33.2797 31.8998 30.6669 29.5624 28.5707 27.6819 26.887 26.1768 25.5423 24.9743 24.4644 24.0072 23.598 23.2321 22.9048 22.6115 22.3477 22.1102 21.897 21.7058 21.5345 21.3809 21.2427 21.1183 21.0066 20.9064 20.8165 20.7358 20.6632 20.5976 20.5386 20.4854 20.4377 20.3948 20.3562 20.3214 20.2901 20.262 20.2367 20.2141 20.1938 20.1756 20.1593 20.1447 20.1317 20.1201 20.1097 20.1005 20.0922 20.0849 20.0785 20.073 20.0683 20.0644 20.0611 20.0585 20.0566 20.0552 20.0543 20.0539 47.8748 48.0536 48.5102 49.3063 50.4907 52.0361 53.8883 56.0038 58.4374 61.2939 64.6633 68.4266 72.3142 76.0653 79.6917 83.4787 87.7127 92.2069 96.1169 98.5536 99.0071 97.7051 94.9601 91.1212 86.639 81.9817 77.52 73.2359 69.0142 64.7698 60.5946 56.6443 53.0591 49.8428 46.9292 44.2542 41.7937 39.5523 37.5344 35.731 34.1192 32.6758 31.3806 30.2183 29.1736 28.2337 27.3897 26.6332 25.9559 25.3496 24.8059 24.3171 23.8781 23.4847 23.1325 22.817 22.534 22.2792 22.0497 21.8436 21.6586 21.4928 21.3439 21.2099 21.0892 20.9808 20.8834 20.796 20.7175 20.6468 20.583 20.5255 20.4738 20.4273 20.3856 20.348 20.3141 20.2835 20.2561 20.2314 20.2094 20.1896 20.1718 20.1559 20.1416 20.1289 20.1175 20.1074 20.0984 20.0903 20.0832 20.0769 20.0715 20.0669 20.0631 20.0599 20.0574 20.0555 20.0541 20.0533 20.0529 46.4327 46.5838 47.0048 47.7216 48.7547 50.0919 51.7091 53.5867 55.7415 58.2095 61.0192 64.0942 67.2827 70.4359 73.5159 76.5951 79.7461 82.823 85.3769 86.9382 87.2332 86.3688 84.4957 81.7951 78.5331 74.9899 71.3987 67.8031 64.1993 60.5946 57.0598 53.6885 50.5662 47.7044 45.0764 42.6564 40.4322 38.4008 36.5597 34.8995 33.4041 32.0573 30.8444 29.7524 28.7685 27.8816 27.0838 26.3673 25.7245 25.1479 24.6298 24.1631 23.7433 23.3664 23.0283 22.7251 22.4527 22.2073 21.9863 21.7876 21.6093 21.4492 21.3053 21.1758 21.059 20.9539 20.8594 20.7746 20.6984 20.6297 20.5678 20.5119 20.4617 20.4166 20.376 20.3395 20.3065 20.2767 20.25 20.226 20.2045 20.1852 20.1679 20.1523 20.1384 20.126 20.1149 20.105 20.0962 20.0883 20.0814 20.0753 20.07 20.0655 20.0617 20.0586 20.0562 20.0543 20.053 20.0522 20.0518 44.9656 45.0879 45.4801 46.1248 47.0088 48.1407 49.5373 51.2108 53.1345 55.2614 57.5465 59.9745 62.5515 65.2789 68.0448 70.6235 72.7868 74.4115 75.5207 76.1479 76.2997 75.9298 74.9864 73.4481 71.3791 68.8581 65.9769 62.8791 59.7216 56.6443 53.6885 50.8602 48.1661 45.622 43.2481 41.0636 39.0674 37.2444 35.5793 34.0603 32.679 31.4274 30.2963 29.2749 28.3524 27.5193 26.7684 26.0927 25.4853 24.9391 24.4474 24.0035 23.6035 23.2436 22.9202 22.6297 22.3684 22.1328 21.9206 21.7296 21.558 21.4039 21.2654 21.1404 21.0277 20.9261 20.8347 20.7526 20.6787 20.6121 20.5521 20.4979 20.4493 20.4055 20.3661 20.3307 20.2986 20.2698 20.2438 20.2204 20.1995 20.1807 20.1638 20.1487 20.1351 20.123 20.1122 20.1026 20.094 20.0863 20.0795 20.0736 20.0684 20.0641 20.0604 20.0574 20.055 20.0532 20.0519 20.0511 20.0507 43.4929 43.5951 43.9465 44.5155 45.2773 46.2458 47.4492 48.9084 50.5811 52.3929 54.2744 56.233 58.3314 60.6251 62.9848 65.0954 66.6388 67.5163 67.9331 68.116 68.1809 68.028 67.5331 66.5981 65.1983 63.3215 60.9912 58.3736 55.6707 53.0591 50.5662 48.1661 45.8369 43.5959 41.4807 39.5267 37.739 36.1007 34.595 33.211 31.9439 30.7894 29.7413 28.7911 27.9304 27.1514 26.4476 25.8128 25.2408 24.7253 24.2601 23.8394 23.4595 23.1171 22.8088 22.5315 22.2817 22.0563 21.8529 21.6699 21.5053 21.3573 21.2241 21.1039 20.9953 20.8973 20.8091 20.7298 20.6584 20.5941 20.536 20.4836 20.4365 20.3941 20.356 20.3216 20.2906 20.2626 20.2374 20.2147 20.1944 20.1761 20.1597 20.145 20.1318 20.12 20.1095 20.1001 20.0917 20.0842 20.0776 20.0718 20.0668 20.0626 20.059 20.0561 20.0537 20.052 20.0507 20.0499 20.0495 42.0302 42.1211 42.4209 42.9115 43.5782 44.4249 45.4625 46.6978 48.1008 49.6227 51.2173 52.8757 54.6157 56.4513 58.2918 59.9417 61.2037 62.0068 62.4552 62.6654 62.6956 62.4903 61.9809 61.1161 59.8912 58.3097 56.3966 54.2624 52.0388 49.8428 47.7044 45.622 43.5959 41.6434 39.7901 38.0605 36.4604 34.9821 33.6177 32.3607 31.2063 30.1494 29.1845 28.3056 27.5065 26.7812 26.1242 25.53 24.9931 24.5081 24.0694 23.672 23.3125 22.9878 22.695 22.4311 22.1931 21.9781 21.7839 21.6089 21.4514 21.3096 21.1818 21.0664 20.962 20.8678 20.7829 20.7065 20.6377 20.5756 20.5195 20.469 20.4234 20.3825 20.3456 20.3124 20.2823 20.2552 20.2308 20.2088 20.1891 20.1714 20.1555 20.1412 20.1283 20.1169 20.1067 20.0975 20.0894 20.0821 20.0757 20.0701 20.0652 20.0611 20.0576 20.0547 20.0525 20.0508 20.0495 20.0488 20.0484 40.5914 40.6754 40.9238 41.3401 41.9258 42.6716 43.5642 44.5908 45.7417 47.0089 48.3823 49.8261 51.2856 52.7061 54.0508 55.2997 56.4331 57.4051 58.1332 58.5325 58.5527 58.21 57.5286 56.54 55.2962 53.8527 52.2609 50.5557 48.7679 46.9292 45.0764 43.2481 41.4807 39.7901 38.1818 36.6609 35.2317 33.8979 32.6627 31.5246 30.4774 29.5147 28.6311 27.8221 27.0837 26.4113 25.8004 25.2463 24.7441 24.2891 23.8767 23.5025 23.1634 22.8566 22.5795 22.3292 22.1032 21.8987 21.7138 21.547 21.3965 21.2609 21.1387 21.0281 20.928 20.8377 20.7562 20.6827 20.6166 20.5568 20.5028 20.4541 20.4102 20.3706 20.335 20.3029 20.2739 20.2477 20.2241 20.2028 20.1837 20.1666 20.1512 20.1373 20.1249 20.1137 20.1038 20.0949 20.087 20.08 20.0738 20.0683 20.0636 20.0595 20.0562 20.0534 20.0512 20.0495 20.0483 20.0476 20.0472 39.1898 39.267 39.475 39.8275 40.3344 40.9806 41.7425 42.5987 43.5493 44.6057 45.7752 47.0109 48.2267 49.3389 50.3396 51.2962 52.2774 53.2533 54.0572 54.5131 54.5215 54.1319 53.4107 52.427 51.2565 49.9758 48.6456 47.2612 45.8016 44.2542 42.6564 41.0636 39.5267 38.0605 36.6609 35.3239 34.0532 32.8573 31.7447 30.7169 29.7682 28.8929 28.0861 27.3446 26.6652 26.0445 25.4786 24.9635 24.4953 24.0699 23.6835 23.3322 23.0133 22.7244 22.463 22.2265 22.0125 21.8186 21.643 21.4843 21.341 21.2117 21.0949 20.9892 20.8935 20.8071 20.729 20.6586 20.5951 20.5378 20.4859 20.439 20.3967 20.3586 20.3243 20.2933 20.2653 20.24 20.2172 20.1967 20.1783 20.1617 20.1468 20.1334 20.1213 20.1105 20.1009 20.0923 20.0847 20.0778 20.0718 20.0665 20.0619 20.058 20.0547 20.052 20.0499 20.0483 20.0471 20.0464 20.046 37.8354 37.904 38.0837 38.3843 38.8131 39.3584 40.0021 40.7276 41.5318 42.4182 43.3877 44.4029 45.3984 46.3106 47.1298 47.9005 48.6677 49.4082 50.0044 50.3317 50.3196 50.0015 49.4231 48.6321 47.6828 46.6306 45.5196 44.3497 43.1095 41.7937 40.4322 39.0674 37.739 36.4604 35.2317 34.0532 32.9288 31.8654 30.8698 29.9439 29.0847 28.2891 27.5541 26.8767 26.254 25.6832 25.1608 24.6837 24.2486 23.8521 23.4911 23.1623 22.8635 22.5922 22.3463 22.1235 21.9215 21.7382 21.5719 21.4213 21.2852 21.1621 21.0508 20.9501 20.8587 20.7762 20.7016 20.6343 20.5735 20.5185 20.4688 20.4238 20.3831 20.3465 20.3135 20.2836 20.2567 20.2323 20.2103 20.1905 20.1728 20.1568 20.1424 20.1294 20.1177 20.1073 20.098 20.0897 20.0823 20.0756 20.0698 20.0647 20.0602 20.0564 20.0533 20.0507 20.0486 20.047 20.0459 20.0452 20.0449 36.5355 36.5935 36.7516 37.0099 37.3676 37.8198 38.3597 38.9803 39.6701 40.4152 41.2013 42.0085 42.8128 43.59 44.3164 44.9679 45.5208 45.9533 46.2466 46.3821 46.3474 46.1417 45.766 45.225 44.5353 43.7155 42.7847 41.7653 40.6803 39.5523 38.4008 37.2444 36.1007 34.9821 33.8979 32.8573 31.8654 30.9249 30.038 29.206 28.4291 27.7072 27.0391 26.4222 25.8534 25.3301 24.8494 24.4088 24.0057 23.6372 23.3009 22.9942 22.7149 22.4609 22.2303 22.0209 21.8308 21.6579 21.5008 21.3583 21.2293 21.1124 21.0067 20.9108 20.8238 20.7452 20.674 20.6098 20.5517 20.4992 20.4515 20.4084 20.3694 20.3343 20.3025 20.2739 20.2479 20.2245 20.2034 20.1843 20.1672 20.1518 20.1379 20.1254 20.1141 20.1041 20.0951 20.087 20.0798 20.0734 20.0678 20.0628 20.0585 20.0549 20.0518 20.0493 20.0473 20.0457 20.0447 20.044 20.0436 35.2973 35.3425 35.4806 35.7034 36.0035 36.3794 36.8316 37.3591 37.9453 38.5658 39.1975 39.8343 40.4825 41.1469 41.7945 42.3541 42.7541 42.9725 43.0569 43.0594 43.0068 42.8767 42.6409 42.2765 41.7748 41.1295 40.343 39.4521 38.5024 37.5344 36.5597 35.5793 34.595 33.6177 32.6627 31.7447 30.8698 30.038 29.2489 28.5035 27.8034 27.1507 26.5453 25.9848 25.4664 24.9877 24.5466 24.1408 23.7682 23.4268 23.1145 22.829 22.5686 22.3315 22.1157 21.9194 21.7408 21.5782 21.4301 21.2956 21.1735 21.0629 20.9626 20.8716 20.789 20.7142 20.6465 20.5853 20.5299 20.4798 20.4342 20.393 20.3557 20.322 20.2916 20.2641 20.2392 20.2167 20.1964 20.1781 20.1616 20.1468 20.1334 20.1213 20.1105 20.1008 20.0921 20.0843 20.0774 20.0712 20.0658 20.061 20.0568 20.0533 20.0503 20.0479 20.0459 20.0445 20.0434 20.0428 20.0424 34.1243 34.1558 34.2735 34.4656 34.722 35.04 35.42 35.8605 36.3463 36.8547 37.3647 37.8756 38.4019 38.9563 39.5079 39.9823 40.3042 40.4525 40.4806 40.4475 40.3845 40.2694 40.0738 39.7736 39.3567 38.8127 38.1404 37.3744 36.5585 35.731 34.8995 34.0603 33.211 32.3607 31.5246 30.7169 29.9439 29.206 28.5035 27.8373 27.2094 26.6218 26.0748 25.5665 25.0948 24.6578 24.2537 23.8808 23.5375 23.222 22.9326 22.6677 22.4255 22.2045 22.003 21.8194 21.652 21.4993 21.3601 21.2334 21.1183 21.0137 20.9189 20.8327 20.7544 20.6834 20.6191 20.5609 20.5082 20.4604 20.417 20.3776 20.342 20.3097 20.2806 20.2543 20.2304 20.2088 20.1894 20.1718 20.156 20.1417 20.1289 20.1173 20.1069 20.0975 20.0891 20.0817 20.075 20.069 20.0637 20.0591 20.0551 20.0517 20.0488 20.0465 20.0446 20.0432 20.0422 20.0415 20.0412 33.0163 33.0363 33.1345 33.2995 33.5207 33.7928 34.1124 34.4753 34.8703 35.2825 35.6979 36.1163 36.5472 36.9989 37.4488 37.8431 38.1273 38.2819 38.3354 38.3197 38.2521 38.1219 37.9148 37.6193 37.2307 36.7457 36.1663 35.5164 34.8254 34.1192 33.4041 32.679 31.9439 31.2063 30.4774 29.7682 29.0847 28.4291 27.8034 27.2094 26.6483 26.121 25.6279 25.1677 24.7391 24.3408 23.9714 23.6296 23.314 23.0232 22.7558 22.5105 22.2859 22.0804 21.8927 21.7212 21.5647 21.4217 21.2911 21.172 21.0637 20.9651 20.8756 20.7941 20.7201 20.6528 20.5919 20.5366 20.4865 20.4411 20.3997 20.3622 20.3282 20.2975 20.2697 20.2445 20.2217 20.201 20.1824 20.1655 20.1504 20.1367 20.1244 20.1132 20.1032 20.0942 20.0862 20.079 20.0725 20.0668 20.0617 20.0572 20.0534 20.0501 20.0473 20.0451 20.0433 20.0419 20.0409 20.0403 20.04 31.9731 31.9867 32.0681 32.2078 32.3968 32.6283 32.8961 33.1941 33.5148 33.8501 34.1925 34.5397 34.8937 35.2557 35.6112 35.9297 36.1803 36.3464 36.4308 36.4377 36.3698 36.2268 36.008 35.7136 35.3467 34.911 34.412 33.8631 33.2797 32.6758 32.0573 31.4274 30.7894 30.1494 29.5147 28.8929 28.2891 27.7072 27.1507 26.6218 26.121 25.6486 25.2047 24.7886 24.3997 24.0374 23.7004 23.3878 23.0984 22.831 22.5847 22.3581 22.1501 21.9595 21.785 21.6253 21.4792 21.3455 21.2232 21.1116 21.0099 20.9172 20.8329 20.7561 20.6862 20.6226 20.5649 20.5126 20.4651 20.4219 20.3826 20.3469 20.3146 20.2853 20.2588 20.2348 20.213 20.1932 20.1754 20.1593 20.1448 20.1317 20.1199 20.1092 20.0996 20.0909 20.0832 20.0763 20.0701 20.0646 20.0597 20.0554 20.0517 20.0485 20.0459 20.0437 20.0419 20.0406 20.0397 20.0391 20.0388 30.9943 31.0073 31.075 31.1908 31.3481 31.541 31.7636 32.01 32.2749 32.5526 32.838 33.1272 33.4172 33.705 33.981 34.229 34.4327 34.5794 34.6614 34.6715 34.606 34.4685 34.2631 33.9943 33.6675 33.288 32.8616 32.3961 31.8998 31.3806 30.8444 30.2963 29.7413 29.1845 28.6311 28.0861 27.5541 27.0391 26.5453 26.0748 25.6279 25.2047 24.8052 24.4293 24.0771 23.748 23.4413 23.156 22.8912 22.646 22.4195 22.2107 22.0186 21.8422 21.6803 21.5318 21.3957 21.271 21.1568 21.0524 20.9571 20.8702 20.791 20.7187 20.6528 20.5929 20.5384 20.4888 20.4439 20.4029 20.3657 20.3318 20.3011 20.2732 20.248 20.2251 20.2043 20.1855 20.1685 20.1531 20.1392 20.1267 20.1154 20.1051 20.0959 20.0877 20.0802 20.0736 20.0677 20.0623 20.0577 20.0535 20.05 20.0469 20.0444 20.0423 20.0406 20.0393 20.0384 20.0378 20.0376 30.0798 30.0948 30.1515 30.2457 30.3735 30.5312 30.7146 30.92 31.1423 31.3762 31.6164 31.8575 32.0944 32.3218 32.5329 32.7188 32.8709 32.9806 33.04 33.0411 32.9794 32.8581 32.6808 32.4514 32.1737 31.8517 31.4895 31.0926 30.6669 30.2183 29.7524 29.2749 28.7911 28.3056 27.8221 27.3446 26.8767 26.4222 25.9848 25.5665 25.1677 24.7886 24.4293 24.0903 23.7716 23.4733 23.1946 22.9347 22.693 22.4686 22.2608 22.0689 21.8919 21.7288 21.5789 21.4412 21.3147 21.1986 21.0921 20.9947 20.9056 20.8242 20.7499 20.6821 20.6201 20.5636 20.5123 20.4655 20.423 20.3842 20.349 20.3169 20.2877 20.2613 20.2373 20.2156 20.1958 20.1779 20.1616 20.147 20.1337 20.1217 20.1109 20.1011 20.0923 20.0844 20.0773 20.0709 20.0652 20.0601 20.0556 20.0517 20.0483 20.0453 20.0429 20.0409 20.0392 20.038 20.0371 20.0366 20.0363 29.229 29.2461 29.2935 29.3693 29.4718 29.5992 29.7497 29.9211 30.1087 30.3067 30.5088 30.7093 30.902 31.0809 31.2406 31.3762 31.4825 31.5548 31.588 31.5772 31.5195 31.4161 31.2685 31.0784 30.8474 30.577 30.2694 29.9294 29.5624 29.1736 28.7685 28.3524 27.9304 27.5065 27.0837 26.6652 26.254 25.8534 25.4664 25.0948 24.7391 24.3997 24.0771 23.7716 23.4839 23.2138 22.961 22.7247 22.5044 22.2994 22.1092 21.933 21.7701 21.6198 21.4812 21.3537 21.2364 21.1285 21.0294 20.9386 20.8555 20.7794 20.7099 20.6463 20.5881 20.5351 20.4867 20.4426 20.4025 20.3659 20.3326 20.3022 20.2746 20.2496 20.2268 20.2062 20.1874 20.1703 20.1549 20.1409 20.1282 20.1168 20.1065 20.0971 20.0887 20.0812 20.0744 20.0683 20.0628 20.058 20.0536 20.0499 20.0466 20.0438 20.0414 20.0395 20.0379 20.0367 20.0359 20.0354 20.0351 28.4408 28.4579 28.4973 28.5585 28.6409 28.744 28.8671 29.0093 29.1663 29.3321 29.5006 29.6657 29.8216 29.962 30.0828 30.1811 30.2541 30.2991 30.3134 30.2943 30.24 30.1504 30.0257 29.866 29.6716 29.4426 29.1799 28.8877 28.5707 28.2337 27.8816 27.5193 27.1514 26.7812 26.4113 26.0445 25.6832 25.3301 24.9877 24.6578 24.3408 24.0374 23.748 23.4733 23.2138 22.9698 22.7407 22.5262 22.3257 22.1387 21.9648 21.8033 21.6537 21.5153 21.3875 21.2696 21.1609 21.0609 20.9689 20.8844 20.807 20.736 20.671 20.6115 20.557 20.5072 20.4617 20.4203 20.3825 20.348 20.3165 20.2878 20.2617 20.238 20.2165 20.1969 20.1791 20.1629 20.1482 20.1349 20.1228 20.112 20.1021 20.0932 20.0852 20.0779 20.0715 20.0657 20.0604 20.0558 20.0517 20.048 20.0449 20.0422 20.0399 20.0381 20.0366 20.0355 20.0347 20.0342 20.0339 27.7121 27.7274 27.76 27.8098 27.8767 27.9605 28.0613 28.1785 28.3084 28.4454 28.5841 28.7189 28.8442 28.9548 29.047 29.1192 29.1697 29.197 29.1994 29.1755 29.1239 29.0442 28.9358 28.7985 28.6317 28.435 28.2087 27.9563 27.6819 27.3897 27.0838 26.7684 26.4476 26.1242 25.8004 25.4786 25.1608 24.8494 24.5466 24.2537 23.9714 23.7004 23.4413 23.1946 22.961 22.7407 22.5335 22.339 22.1568 21.9864 21.8276 21.6798 21.5426 21.4155 21.2978 21.189 21.0885 20.9959 20.9106 20.8321 20.7601 20.694 20.6333 20.5777 20.5267 20.4801 20.4374 20.3985 20.3629 20.3305 20.3008 20.2738 20.2491 20.2267 20.2064 20.1878 20.1709 20.1556 20.1416 20.129 20.1175 20.1072 20.0978 20.0893 20.0817 20.0748 20.0686 20.0631 20.0581 20.0536 20.0497 20.0462 20.0432 20.0407 20.0385 20.0367 20.0353 20.0342 20.0334 20.0329 20.0327 27.0396 27.052 27.0788 27.1198 27.1749 27.2438 27.3265 27.4226 27.5287 27.6403 27.7529 27.8617 27.9622 28.0499 28.1218 28.1766 28.2131 28.2299 28.2259 28.1998 28.1506 28.0778 27.9809 27.8595 27.7132 27.5415 27.3446 27.1253 26.887 26.6332 26.3673 26.0927 25.8128 25.53 25.2463 24.9635 24.6837 24.4088 24.1408 23.8808 23.6296 23.3878 23.156 22.9347 22.7247 22.5262 22.339 22.1628 21.9974 21.8424 21.6976 21.5626 21.4369 21.3202 21.212 21.1118 21.0191 20.9335 20.8545 20.7818 20.7148 20.6533 20.5969 20.545 20.4974 20.4537 20.4138 20.3773 20.3439 20.3134 20.2855 20.26 20.2368 20.2157 20.1964 20.1789 20.1629 20.1484 20.1352 20.1232 20.1123 20.1025 20.0935 20.0855 20.0782 20.0717 20.0658 20.0605 20.0558 20.0515 20.0478 20.0445 20.0416 20.0391 20.0371 20.0353 20.034 20.0329 20.0322 20.0317 20.0315 26.4199 26.429 26.4509 26.4852 26.5312 26.5886 26.6568 26.735 26.8206 26.9103 27.0003 27.0873 27.1677 27.2381 27.2959 27.3398 27.3682 27.3797 27.373 27.3466 27.2995 27.2316 27.1427 27.0327 26.9017 26.7494 26.5762 26.3845 26.1768 25.9559 25.7245 25.4853 25.2408 24.9931 24.7441 24.4953 24.2486 24.0057 23.7682 23.5375 23.314 23.0984 22.8912 22.693 22.5044 22.3257 22.1568 21.9974 21.8474 21.7065 21.5746 21.4514 21.3366 21.2297 21.1303 21.0382 20.9528 20.8737 20.8007 20.7334 20.6714 20.6142 20.5617 20.5134 20.469 20.4282 20.3909 20.3567 20.3255 20.2968 20.2706 20.2467 20.2248 20.2049 20.1868 20.1702 20.1551 20.1414 20.1288 20.1175 20.1072 20.0978 20.0894 20.0817 20.0748 20.0686 20.063 20.058 20.0535 20.0494 20.0459 20.0427 20.04 20.0376 20.0356 20.034 20.0327 20.0317 20.031 20.0306 20.0304 25.8499 25.8555 25.8734 25.9024 25.9415 25.9898 26.0461 26.1095 26.1778 26.2488 26.3199 26.3888 26.453 26.5101 26.5579 26.5948 26.6187 26.628 26.6207 26.5952 26.5502 26.486 26.4031 26.3018 26.1826 26.0459 25.8925 25.7239 25.5423 25.3496 25.1479 24.9391 24.7253 24.5081 24.2891 24.0699 23.8521 23.6372 23.4268 23.222 23.0232 22.831 22.646 22.4686 22.2994 22.1387 21.9864 21.8424 21.7065 21.5787 21.4587 21.3464 21.2415 21.1437 21.0527 20.9681 20.8895 20.8167 20.7493 20.6871 20.6296 20.5767 20.5279 20.483 20.4416 20.4036 20.3688 20.3368 20.3076 20.2808 20.2562 20.2337 20.2132 20.1945 20.1774 20.1618 20.1475 20.1345 20.1227 20.1119 20.1022 20.0933 20.0853 20.078 20.0715 20.0656 20.0603 20.0555 20.0512 20.0474 20.044 20.041 20.0384 20.0361 20.0342 20.0327 20.0314 20.0305 20.0298 20.0294 20.0292 25.326 25.329 25.3435 25.3681 25.4015 25.4421 25.4887 25.5398 25.5939 25.6495 25.7051 25.7591 25.8101 25.8565 25.8965 25.9279 25.9486 25.9563 25.9491 25.9247 25.8819 25.8213 25.7438 25.6503 25.5416 25.4185 25.282 25.1335 24.9743 24.8059 24.6298 24.4474 24.2601 24.0694 23.8767 23.6835 23.4911 23.3009 23.1145 22.9326 22.7558 22.5847 22.4195 22.2608 22.1092 21.9648 21.8276 21.6976 21.5746 21.4587 21.3497 21.2475 21.1518 21.0625 20.9792 20.9015 20.8294 20.7624 20.7003 20.6429 20.5898 20.5407 20.4955 20.4538 20.4153 20.38 20.3475 20.3177 20.2903 20.2652 20.2422 20.2212 20.2019 20.1843 20.1682 20.1535 20.1401 20.1278 20.1167 20.1065 20.0973 20.0889 20.0813 20.0745 20.0682 20.0627 20.0576 20.0531 20.049 20.0454 20.0421 20.0393 20.0368 20.0347 20.0329 20.0314 20.0302 20.0293 20.0287 20.0283 20.0281 24.8453 24.8466 24.8584 24.879 24.907 24.9408 24.979 25.02 25.0627 25.1062 25.1495 25.1917 25.2318 25.2688 25.3012 25.3269 25.3435 25.3489 25.3409 25.3173 25.2769 25.2206 25.1493 25.064 24.9658 24.8557 24.7348 24.6039 24.4644 24.3171 24.1631 24.0035 23.8394 23.672 23.5025 23.3322 23.1623 22.9942 22.829 22.6677 22.5105 22.3581 22.2107 22.0689 21.933 21.8033 21.6798 21.5626 21.4514 21.3464 21.2475 21.1545 21.0674 20.9859 20.9097 20.8386 20.7724 20.7109 20.6538 20.6008 20.5517 20.5064 20.4645 20.4258 20.3901 20.3573 20.327 20.2992 20.2737 20.2503 20.2288 20.209 20.191 20.1745 20.1594 20.1455 20.1329 20.1214 20.1108 20.1013 20.0926 20.0846 20.0775 20.071 20.0651 20.0598 20.055 20.0507 20.0469 20.0434 20.0403 20.0376 20.0353 20.0332 20.0315 20.0301 20.029 20.0281 20.0275 20.0271 20.027 24.4048 24.4055 24.415 24.432 24.455 24.4827 24.5136 24.5464 24.5803 24.6145 24.6483 24.6811 24.7122 24.741 24.766 24.7854 24.7972 24.7993 24.7898 24.7667 24.729 24.6773 24.6128 24.5363 24.4488 24.3512 24.2445 24.1296 24.0072 23.8781 23.7433 23.6035 23.4595 23.3125 23.1634 23.0133 22.8635 22.7149 22.5686 22.4255 22.2859 22.1501 22.0186 21.8919 21.7701 21.6537 21.5426 21.4369 21.3366 21.2415 21.1518 21.0674 20.9882 20.9138 20.8443 20.7792 20.7186 20.6621 20.6096 20.5608 20.5156 20.4737 20.4349 20.3991 20.366 20.3355 20.3074 20.2815 20.2578 20.2359 20.2158 20.1973 20.1804 20.165 20.1508 20.1378 20.126 20.1151 20.1052 20.0962 20.088 20.0805 20.0737 20.0676 20.062 20.057 20.0525 20.0484 20.0448 20.0415 20.0386 20.036 20.0338 20.0318 20.0302 20.0289 20.0278 20.027 20.0264 20.026 20.0259 24.002 24.0027 24.0104 24.0241 24.0426 24.0647 24.0895 24.1158 24.1428 24.17 24.1966 24.2222 24.2461 24.2676 24.2857 24.2988 24.3054 24.3037 24.2923 24.2695 24.2345 24.1879 24.1304 24.0627 23.9857 23.9 23.8063 23.7054 23.598 23.4847 23.3664 23.2436 23.1171 22.9878 22.8566 22.7244 22.5922 22.4609 22.3315 22.2045 22.0804 21.9595 21.8422 21.7288 21.6198 21.5153 21.4155 21.3202 21.2297 21.1437 21.0625 20.9859 20.9138 20.8461 20.7827 20.7233 20.6677 20.6159 20.5677 20.5229 20.4812 20.4426 20.4068 20.3737 20.343 20.3147 20.2886 20.2646 20.2424 20.2221 20.2033 20.1861 20.1703 20.1558 20.1425 20.1304 20.1192 20.109 20.0997 20.0912 20.0835 20.0765 20.0701 20.0643 20.059 20.0543 20.05 20.0462 20.0427 20.0396 20.0369 20.0344 20.0323 20.0305 20.0289 20.0277 20.0266 20.0259 20.0253 20.025 20.0248 23.6341 23.6352 23.6415 23.6523 23.6667 23.6841 23.7038 23.7248 23.7467 23.7686 23.7899 23.8099 23.8279 23.8433 23.8551 23.8623 23.8637 23.8582 23.8448 23.8223 23.79 23.7484 23.6979 23.6388 23.5717 23.4969 23.415 23.3265 23.2321 23.1325 23.0283 22.9202 22.8088 22.695 22.5795 22.463 22.3463 22.2303 22.1157 22.003 21.8927 21.785 21.6803 21.5789 21.4812 21.3875 21.2978 21.212 21.1303 21.0527 20.9792 20.9097 20.8443 20.7827 20.7248 20.6706 20.6198 20.5724 20.5282 20.487 20.4486 20.4131 20.38 20.3494 20.3211 20.2949 20.2707 20.2483 20.2278 20.2088 20.1913 20.1753 20.1605 20.147 20.1346 20.1232 20.1127 20.1032 20.0944 20.0865 20.0792 20.0726 20.0666 20.0611 20.0561 20.0517 20.0476 20.044 20.0407 20.0378 20.0352 20.0329 20.0309 20.0291 20.0277 20.0265 20.0255 20.0248 20.0242 20.0239 20.0238 23.2986 23.3003 23.3054 23.3137 23.3247 23.338 23.3533 23.3703 23.3881 23.4061 23.4233 23.4391 23.4525 23.4627 23.4692 23.4711 23.4679 23.459 23.4438 23.4216 23.392 23.3552 23.3112 23.2601 23.202 23.1371 23.0656 22.9879 22.9048 22.817 22.7251 22.6297 22.5315 22.4311 22.3292 22.2265 22.1235 22.0209 21.9194 21.8194 21.7212 21.6253 21.5318 21.4412 21.3537 21.2696 21.189 21.1118 21.0382 20.9681 20.9015 20.8386 20.7792 20.7233 20.6706 20.6211 20.5747 20.5313 20.4908 20.453 20.4178 20.3851 20.3546 20.3264 20.3002 20.276 20.2536 20.2329 20.2138 20.1961 20.1799 20.1649 20.1512 20.1385 20.1269 20.1163 20.1065 20.0975 20.0893 20.0819 20.075 20.0688 20.0632 20.058 20.0533 20.0491 20.0453 20.0419 20.0388 20.036 20.0336 20.0314 20.0295 20.0278 20.0264 20.0253 20.0244 20.0237 20.0232 20.0229 20.0228 22.9926 22.9948 22.999 23.0052 23.0134 23.0234 23.0352 23.0488 23.0634 23.0782 23.0923 23.1046 23.1143 23.1205 23.1226 23.1204 23.1137 23.1022 23.0857 23.0641 23.037 23.0044 22.9661 22.922 22.8718 22.8155 22.7529 22.6847 22.6115 22.534 22.4527 22.3684 22.2817 22.1931 22.1032 22.0125 21.9215 21.8308 21.7408 21.652 21.5647 21.4792 21.3957 21.3147 21.2364 21.1609 21.0885 21.0191 20.9528 20.8895 20.8294 20.7724 20.7186 20.6677 20.6198 20.5747 20.5324 20.4928 20.4557 20.421 20.3887 20.3586 20.3306 20.3046 20.2804 20.258 20.2373 20.2181 20.2004 20.184 20.1689 20.155 20.1422 20.1304 20.1196 20.1096 20.1005 20.0921 20.0844 20.0774 20.071 20.0652 20.0599 20.055 20.0506 20.0467 20.0431 20.0398 20.0369 20.0343 20.032 20.0299 20.0281 20.0266 20.0253 20.0242 20.0233 20.0226 20.0222 20.0219 20.0218 22.7137 22.716 22.7195 22.7241 22.7301 22.7375 22.7466 22.7573 22.7691 22.781 22.7922 22.8016 22.8083 22.8115 22.8106 22.8057 22.7968 22.7839 22.767 22.7462 22.7214 22.6923 22.6587 22.6201 22.5763 22.5271 22.4723 22.4122 22.3477 22.2792 22.2073 22.1328 22.0563 21.9781 21.8987 21.8186 21.7382 21.6579 21.5782 21.4993 21.4217 21.3455 21.271 21.1986 21.1285 21.0609 20.9959 20.9335 20.8737 20.8167 20.7624 20.7109 20.6621 20.6159 20.5724 20.5313 20.4928 20.4565 20.4226 20.3909 20.3613 20.3337 20.3079 20.2839 20.2617 20.241 20.2218 20.2041 20.1877 20.1725 20.1585 20.1455 20.1336 20.1226 20.1125 20.1033 20.0947 20.0869 20.0797 20.0731 20.0671 20.0617 20.0567 20.0521 20.048 20.0443 20.0409 20.0378 20.0351 20.0326 20.0304 20.0285 20.0268 20.0253 20.0241 20.0231 20.0222 20.0216 20.0212 20.0209 20.0208 22.4598 22.4618 22.4645 22.468 22.4725 22.478 22.4849 22.4933 22.5025 22.5117 22.5201 22.527 22.5313 22.5323 22.5296 22.5233 22.5135 22.5004 22.484 22.4644 22.4415 22.4152 22.3851 22.3509 22.3122 22.2687 22.2202 22.1672 22.1102 22.0497 21.9863 21.9206 21.8529 21.7839 21.7138 21.643 21.5719 21.5008 21.4301 21.3601 21.2911 21.2232 21.1568 21.0921 21.0294 20.9689 20.9106 20.8545 20.8007 20.7493 20.7003 20.6538 20.6096 20.5677 20.5282 20.4908 20.4557 20.4226 20.3917 20.3626 20.3355 20.3101 20.2865 20.2645 20.2439 20.2249 20.2072 20.1908 20.1756 20.1615 20.1485 20.1365 20.1254 20.1152 20.1058 20.0972 20.0892 20.0819 20.0752 20.069 20.0634 20.0583 20.0536 20.0494 20.0455 20.042 20.0388 20.0359 20.0333 20.031 20.0289 20.0271 20.0255 20.0241 20.023 20.022 20.0212 20.0206 20.0202 20.0199 20.0198 22.2289 22.2305 22.2325 22.2352 22.2386 22.2429 22.2481 22.2544 22.2613 22.2681 22.2741 22.2786 22.281 22.2806 22.2771 22.2704 22.2608 22.2482 22.2328 22.2146 22.1936 22.1695 22.1421 22.1111 22.0763 22.0375 21.9944 21.9474 21.897 21.8436 21.7876 21.7296 21.6699 21.6089 21.547 21.4843 21.4213 21.3583 21.2956 21.2334 21.172 21.1116 21.0524 20.9947 20.9386 20.8844 20.8321 20.7818 20.7334 20.6871 20.6429 20.6008 20.5608 20.5229 20.487 20.453 20.421 20.3909 20.3626 20.3361 20.3113 20.288 20.2663 20.2461 20.2272 20.2096 20.1933 20.1782 20.1641 20.1511 20.1391 20.1279 20.1176 20.1082 20.0994 20.0914 20.0839 20.0771 20.0709 20.0651 20.0599 20.0551 20.0507 20.0467 20.0431 20.0398 20.0368 20.0341 20.0316 20.0294 20.0275 20.0258 20.0243 20.023 20.0219 20.021 20.0202 20.0197 20.0193 20.019 20.0189 22.0192 22.0202 22.0218 22.0239 22.0266 22.03 22.034 22.0385 22.0434 22.048 22.0519 22.0545 22.0555 22.0542 22.0504 22.0441 22.0353 22.0238 22.0098 21.9931 21.9736 21.9513 21.9261 21.8977 21.866 21.8309 21.7923 21.7505 21.7058 21.6586 21.6093 21.558 21.5053 21.4514 21.3965 21.341 21.2852 21.2293 21.1735 21.1183 21.0637 21.0099 20.9571 20.9056 20.8555 20.807 20.7601 20.7148 20.6714 20.6296 20.5898 20.5517 20.5156 20.4812 20.4486 20.4178 20.3887 20.3613 20.3355 20.3113 20.2886 20.2673 20.2474 20.2288 20.2114 20.1953 20.1802 20.1663 20.1533 20.1413 20.1301 20.1198 20.1102 20.1014 20.0933 20.0858 20.0789 20.0726 20.0667 20.0614 20.0565 20.052 20.0479 20.0441 20.0407 20.0376 20.0348 20.0323 20.03 20.0279 20.0261 20.0245 20.0231 20.0218 20.0208 20.0199 20.0193 20.0187 20.0184 20.0181 20.018 21.829 21.8293 21.8305 21.8322 21.8345 21.8373 21.8403 21.8435 21.8466 21.8493 21.8514 21.8525 21.8523 21.8506 21.847 21.8414 21.8337 21.8236 21.8111 21.7959 21.7779 21.7572 21.7336 21.7073 21.6781 21.6462 21.6115 21.5742 21.5345 21.4928 21.4492 21.4039 21.3573 21.3096 21.2609 21.2117 21.1621 21.1124 21.0629 21.0137 20.9651 20.9172 20.8702 20.8242 20.7794 20.736 20.694 20.6533 20.6142 20.5767 20.5407 20.5064 20.4737 20.4426 20.4131 20.3851 20.3586 20.3337 20.3101 20.288 20.2673 20.2478 20.2296 20.2125 20.1966 20.1817 20.1679 20.155 20.143 20.1319 20.1216 20.1121 20.1032 20.095 20.0875 20.0805 20.0741 20.0682 20.0628 20.0578 20.0532 20.049 20.0452 20.0417 20.0385 20.0356 20.0329 20.0306 20.0284 20.0265 20.0248 20.0232 20.0219 20.0208 20.0198 20.019 20.0183 20.0178 20.0175 20.0173 20.0172 21.6563 21.6561 21.6569 21.6584 21.6604 21.6627 21.6649 21.667 21.6688 21.67 21.6707 21.6705 21.6695 21.6675 21.6642 21.6594 21.6528 21.6441 21.633 21.6193 21.6027 21.5833 21.5614 21.5369 21.51 21.4808 21.4495 21.4161 21.3809 21.3439 21.3053 21.2654 21.2241 21.1818 21.1387 21.0949 21.0508 21.0067 20.9626 20.9189 20.8756 20.8329 20.791 20.7499 20.7099 20.671 20.6333 20.5969 20.5617 20.5279 20.4955 20.4645 20.4349 20.4068 20.38 20.3546 20.3306 20.3079 20.2865 20.2663 20.2474 20.2296 20.2129 20.1972 20.1826 20.169 20.1562 20.1444 20.1333 20.1231 20.1136 20.1047 20.0965 20.089 20.082 20.0755 20.0695 20.064 20.059 20.0543 20.0501 20.0461 20.0426 20.0393 20.0363 20.0336 20.0311 20.0289 20.0269 20.0251 20.0235 20.022 20.0208 20.0197 20.0188 20.018 20.0174 20.017 20.0166 20.0164 20.0163 21.4994 21.4989 21.4994 21.5006 21.5023 21.5041 21.5058 21.507 21.5077 21.5079 21.5075 21.5065 21.5048 21.5026 21.4995 21.4952 21.4894 21.4818 21.4718 21.4593 21.4441 21.4262 21.4058 21.3832 21.3586 21.3321 21.3038 21.274 21.2427 21.2099 21.1758 21.1404 21.1039 21.0664 21.0281 20.9892 20.9501 20.9108 20.8716 20.8327 20.7941 20.7561 20.7187 20.6821 20.6463 20.6115 20.5777 20.545 20.5134 20.483 20.4538 20.4258 20.3991 20.3737 20.3494 20.3264 20.3046 20.2839 20.2645 20.2461 20.2288 20.2125 20.1972 20.1829 20.1695 20.157 20.1453 20.1344 20.1242 20.1148 20.106 20.0978 20.0902 20.0832 20.0767 20.0707 20.0652 20.0601 20.0554 20.0511 20.0471 20.0434 20.0401 20.037 20.0342 20.0317 20.0294 20.0273 20.0254 20.0237 20.0222 20.0209 20.0197 20.0187 20.0178 20.0171 20.0166 20.0161 20.0158 20.0156 20.0155 21.3567 21.3562 21.3565 21.3574 21.3587 21.3601 21.3612 21.3618 21.3618 21.3612 21.3602 21.3586 21.3565 21.354 21.3509 21.3468 21.3414 21.3343 21.3252 21.3138 21.2998 21.2834 21.2648 21.2443 21.222 21.1981 21.1728 21.1462 21.1183 21.0892 21.059 21.0277 20.9953 20.962 20.928 20.8935 20.8587 20.8238 20.789 20.7544 20.7201 20.6862 20.6528 20.6201 20.5881 20.557 20.5267 20.4974 20.469 20.4416 20.4153 20.3901 20.366 20.343 20.3211 20.3002 20.2804 20.2617 20.2439 20.2272 20.2114 20.1966 20.1826 20.1695 20.1572 20.1457 20.135 20.125 20.1156 20.1069 20.0988 20.0913 20.0843 20.0778 20.0718 20.0662 20.0611 20.0563 20.052 20.0479 20.0442 20.0409 20.0377 20.0349 20.0323 20.0299 20.0277 20.0258 20.024 20.0224 20.021 20.0198 20.0187 20.0177 20.0169 20.0163 20.0157 20.0153 20.015 20.0148 20.0148 21.2273 21.2268 21.227 21.2277 21.2286 21.2295 21.2301 21.2302 21.2298 21.2289 21.2274 21.2255 21.2232 21.2204 21.2171 21.2129 21.2076 21.2008 21.1922 21.1817 21.1689 21.1541 21.1373 21.1189 21.099 21.0776 21.0551 21.0314 21.0066 20.9808 20.9539 20.9261 20.8973 20.8678 20.8377 20.8071 20.7762 20.7452 20.7142 20.6834 20.6528 20.6226 20.5929 20.5636 20.5351 20.5072 20.4801 20.4537 20.4282 20.4036 20.38 20.3573 20.3355 20.3147 20.2949 20.276 20.258 20.241 20.2249 20.2096 20.1953 20.1817 20.169 20.157 20.1457 20.1352 20.1253 20.1161 20.1075 20.0995 20.0921 20.0851 20.0786 20.0727 20.0671 20.062 20.0572 20.0528 20.0487 20.045 20.0416 20.0384 20.0355 20.0328 20.0304 20.0282 20.0262 20.0244 20.0227 20.0212 20.0199 20.0187 20.0177 20.0168 20.016 20.0154 20.0149 20.0145 20.0143 20.0141 20.014 21.1102 21.1098 21.1099 21.1103 21.1108 21.1112 21.1114 21.1112 21.1106 21.1095 21.108 21.1059 21.1034 21.1004 21.0968 21.0923 21.0869 21.0802 21.072 21.0622 21.0506 21.0373 21.0224 21.0061 20.9884 20.9695 20.9495 20.9285 20.9064 20.8834 20.8594 20.8347 20.8091 20.7829 20.7562 20.729 20.7016 20.674 20.6465 20.6191 20.5919 20.5649 20.5384 20.5123 20.4867 20.4617 20.4374 20.4138 20.3909 20.3688 20.3475 20.327 20.3074 20.2886 20.2707 20.2536 20.2373 20.2218 20.2072 20.1933 20.1802 20.1679 20.1562 20.1453 20.135 20.1253 20.1163 20.1079 20.1 20.0926 20.0857 20.0793 20.0733 20.0678 20.0627 20.0579 20.0535 20.0494 20.0457 20.0422 20.039 20.0361 20.0334 20.0309 20.0286 20.0266 20.0247 20.023 20.0214 20.02 20.0188 20.0177 20.0167 20.0159 20.0152 20.0146 20.0141 20.0138 20.0135 20.0134 20.0133 21.0041 21.004 21.0041 21.0042 21.0043 21.0043 21.0042 21.0038 21.0031 21.002 21.0004 20.9984 20.9958 20.9926 20.9887 20.9839 20.9783 20.9715 20.9636 20.9545 20.9439 20.9321 20.919 20.9047 20.8892 20.8726 20.8549 20.8362 20.8165 20.796 20.7746 20.7526 20.7298 20.7065 20.6827 20.6586 20.6343 20.6098 20.5853 20.5609 20.5366 20.5126 20.4888 20.4655 20.4426 20.4203 20.3985 20.3773 20.3567 20.3368 20.3177 20.2992 20.2815 20.2646 20.2483 20.2329 20.2181 20.2041 20.1908 20.1782 20.1663 20.155 20.1444 20.1344 20.125 20.1161 20.1079 20.1001 20.0928 20.0861 20.0797 20.0738 20.0683 20.0632 20.0585 20.0541 20.05 20.0462 20.0428 20.0395 20.0366 20.0338 20.0313 20.029 20.0269 20.025 20.0232 20.0217 20.0202 20.0189 20.0178 20.0167 20.0158 20.0151 20.0144 20.0138 20.0134 20.0131 20.0128 20.0127 20.0126 20.9082 20.9083 20.9083 20.9082 20.908 20.9077 20.9073 20.9068 20.906 20.905 20.9035 20.9016 20.8989 20.8956 20.8915 20.8865 20.8806 20.8739 20.8663 20.8577 20.8482 20.8377 20.8262 20.8137 20.8002 20.7856 20.77 20.7534 20.7358 20.7175 20.6984 20.6787 20.6584 20.6377 20.6166 20.5951 20.5735 20.5517 20.5299 20.5082 20.4865 20.4651 20.4439 20.423 20.4025 20.3825 20.3629 20.3439 20.3255 20.3076 20.2903 20.2737 20.2578 20.2424 20.2278 20.2138 20.2004 20.1877 20.1756 20.1641 20.1533 20.143 20.1333 20.1242 20.1156 20.1075 20.1 20.0928 20.0862 20.08 20.0741 20.0687 20.0636 20.0589 20.0546 20.0505 20.0467 20.0432 20.04 20.037 20.0343 20.0317 20.0294 20.0273 20.0253 20.0235 20.0219 20.0204 20.0191 20.0178 20.0168 20.0158 20.015 20.0142 20.0136 20.0131 20.0127 20.0124 20.0122 20.012 20.012 20.8213 20.8215 20.8215 20.8213 20.8209 20.8203 20.8197 20.8191 20.8183 20.8173 20.816 20.814 20.8115 20.8081 20.8038 20.7988 20.7929 20.7864 20.7791 20.7711 20.7625 20.7532 20.7431 20.7321 20.7203 20.7074 20.6936 20.6788 20.6632 20.6468 20.6297 20.6121 20.5941 20.5756 20.5568 20.5378 20.5185 20.4992 20.4798 20.4604 20.4411 20.4219 20.4029 20.3842 20.3659 20.348 20.3305 20.3134 20.2968 20.2808 20.2652 20.2503 20.2359 20.2221 20.2088 20.1961 20.184 20.1725 20.1615 20.1511 20.1413 20.1319 20.1231 20.1148 20.1069 20.0995 20.0926 20.0861 20.08 20.0742 20.0689 20.0639 20.0592 20.0549 20.0509 20.0471 20.0436 20.0404 20.0374 20.0346 20.0321 20.0297 20.0276 20.0256 20.0238 20.0221 20.0206 20.0192 20.018 20.0168 20.0158 20.0149 20.0141 20.0135 20.0129 20.0124 20.012 20.0117 20.0115 20.0114 20.0113 20.7425 20.7428 20.7428 20.7425 20.7419 20.7412 20.7405 20.7398 20.739 20.738 20.7366 20.7348 20.7322 20.7289 20.7248 20.7198 20.7142 20.7079 20.7011 20.6938 20.686 20.6776 20.6686 20.6589 20.6484 20.6371 20.6247 20.6116 20.5976 20.583 20.5678 20.5521 20.536 20.5195 20.5028 20.4859 20.4688 20.4515 20.4342 20.417 20.3997 20.3826 20.3657 20.349 20.3326 20.3165 20.3008 20.2855 20.2706 20.2562 20.2422 20.2288 20.2158 20.2033 20.1913 20.1799 20.1689 20.1585 20.1485 20.1391 20.1301 20.1216 20.1136 20.106 20.0988 20.0921 20.0857 20.0797 20.0741 20.0689 20.064 20.0594 20.0551 20.0511 20.0474 20.0439 20.0407 20.0377 20.035 20.0324 20.03 20.0279 20.0259 20.024 20.0223 20.0208 20.0194 20.0181 20.0169 20.0159 20.0149 20.0141 20.0134 20.0127 20.0122 20.0117 20.0114 20.0111 20.0109 20.0108 20.0107 20.6713 20.6715 20.6715 20.6711 20.6705 20.6698 20.669 20.6682 20.6673 20.6663 20.6649 20.663 20.6606 20.6574 20.6535 20.6489 20.6436 20.6378 20.6315 20.6248 20.6177 20.6102 20.6021 20.5934 20.584 20.5738 20.5628 20.551 20.5386 20.5255 20.5119 20.4979 20.4836 20.469 20.4541 20.439 20.4238 20.4084 20.393 20.3776 20.3622 20.3469 20.3318 20.3169 20.3022 20.2878 20.2738 20.26 20.2467 20.2337 20.2212 20.209 20.1973 20.1861 20.1753 20.1649 20.155 20.1455 20.1365 20.1279 20.1198 20.1121 20.1047 20.0978 20.0913 20.0851 20.0793 20.0738 20.0687 20.0639 20.0594 20.0552 20.0512 20.0476 20.0441 20.0409 20.038 20.0352 20.0327 20.0303 20.0281 20.0261 20.0242 20.0225 20.0209 20.0195 20.0182 20.017 20.0159 20.0149 20.0141 20.0133 20.0126 20.012 20.0115 20.0111 20.0108 20.0105 20.0103 20.0102 20.0102 20.6069 20.6071 20.607 20.6066 20.606 20.6053 20.6045 20.6037 20.6027 20.6016 20.6001 20.5983 20.5959 20.5929 20.5893 20.5851 20.5804 20.5752 20.5695 20.5634 20.5569 20.55 20.5426 20.5347 20.5262 20.517 20.5071 20.4966 20.4854 20.4738 20.4617 20.4493 20.4365 20.4234 20.4102 20.3967 20.3831 20.3694 20.3557 20.342 20.3282 20.3146 20.3011 20.2877 20.2746 20.2617 20.2491 20.2368 20.2248 20.2132 20.2019 20.191 20.1804 20.1703 20.1605 20.1512 20.1422 20.1336 20.1254 20.1176 20.1102 20.1032 20.0965 20.0902 20.0843 20.0786 20.0733 20.0683 20.0636 20.0592 20.0551 20.0512 20.0476 20.0442 20.0411 20.0381 20.0354 20.0329 20.0305 20.0283 20.0263 20.0244 20.0227 20.0211 20.0196 20.0183 20.0171 20.016 20.015 20.0141 20.0133 20.0125 20.0119 20.0113 20.0109 20.0105 20.0102 20.0099 20.0097 20.0096 20.0096 20.5488 20.5489 20.5487 20.5484 20.5479 20.5472 20.5464 20.5455 20.5445 20.5433 20.5418 20.5399 20.5376 20.5349 20.5317 20.5279 20.5238 20.5191 20.5141 20.5086 20.5027 20.4963 20.4895 20.4822 20.4744 20.466 20.4571 20.4476 20.4377 20.4273 20.4166 20.4055 20.3941 20.3825 20.3706 20.3586 20.3465 20.3343 20.322 20.3097 20.2975 20.2853 20.2732 20.2613 20.2496 20.238 20.2267 20.2157 20.2049 20.1945 20.1843 20.1745 20.165 20.1558 20.147 20.1385 20.1304 20.1226 20.1152 20.1082 20.1014 20.095 20.089 20.0832 20.0778 20.0727 20.0678 20.0632 20.0589 20.0549 20.0511 20.0476 20.0442 20.0411 20.0382 20.0355 20.033 20.0306 20.0285 20.0264 20.0246 20.0228 20.0212 20.0198 20.0184 20.0172 20.016 20.015 20.0141 20.0132 20.0125 20.0118 20.0112 20.0107 20.0103 20.0099 20.0096 20.0094 20.0092 20.0091 20.0091 20.4964 20.4963 20.4961 20.4958 20.4954 20.4948 20.4941 20.4932 20.4921 20.4907 20.4892 20.4873 20.4851 20.4827 20.4798 20.4766 20.4729 20.4689 20.4644 20.4595 20.4541 20.4483 20.442 20.4352 20.428 20.4203 20.4122 20.4037 20.3948 20.3856 20.376 20.3661 20.356 20.3456 20.335 20.3243 20.3135 20.3025 20.2916 20.2806 20.2697 20.2588 20.248 20.2373 20.2268 20.2165 20.2064 20.1964 20.1868 20.1774 20.1682 20.1594 20.1508 20.1425 20.1346 20.1269 20.1196 20.1125 20.1058 20.0994 20.0933 20.0875 20.082 20.0767 20.0718 20.0671 20.0627 20.0585 20.0546 20.0509 20.0474 20.0441 20.0411 20.0382 20.0355 20.0331 20.0307 20.0286 20.0265 20.0247 20.0229 20.0213 20.0199 20.0185 20.0173 20.0161 20.0151 20.0141 20.0132 20.0125 20.0117 20.0111 20.0106 20.0101 20.0097 20.0093 20.0091 20.0089 20.0087 20.0086 20.0086 20.449 20.4488 20.4486 20.4483 20.448 20.4475 20.4468 20.4459 20.4447 20.4433 20.4417 20.4399 20.4379 20.4356 20.4331 20.4303 20.4272 20.4236 20.4197 20.4153 20.4104 20.405 20.3991 20.3929 20.3862 20.3792 20.3719 20.3642 20.3562 20.348 20.3395 20.3307 20.3216 20.3124 20.3029 20.2933 20.2836 20.2739 20.2641 20.2543 20.2445 20.2348 20.2251 20.2156 20.2062 20.1969 20.1878 20.1789 20.1702 20.1618 20.1535 20.1455 20.1378 20.1304 20.1232 20.1163 20.1096 20.1033 20.0972 20.0914 20.0858 20.0805 20.0755 20.0707 20.0662 20.062 20.0579 20.0541 20.0505 20.0471 20.0439 20.0409 20.0381 20.0355 20.0331 20.0308 20.0286 20.0266 20.0248 20.023 20.0214 20.0199 20.0186 20.0173 20.0162 20.0151 20.0141 20.0132 20.0124 20.0117 20.0111 20.0105 20.01 20.0095 20.0091 20.0088 20.0086 20.0084 20.0082 20.0081 20.0081 20.4061 20.4058 20.4056 20.4054 20.4051 20.4046 20.404 20.4031 20.4019 20.4005 20.3989 20.3972 20.3952 20.3932 20.3909 20.3885 20.3857 20.3826 20.3791 20.3751 20.3706 20.3657 20.3603 20.3546 20.3485 20.3421 20.3354 20.3286 20.3214 20.3141 20.3065 20.2986 20.2906 20.2823 20.2739 20.2653 20.2567 20.2479 20.2392 20.2304 20.2217 20.213 20.2043 20.1958 20.1874 20.1791 20.1709 20.1629 20.1551 20.1475 20.1401 20.1329 20.126 20.1192 20.1127 20.1065 20.1005 20.0947 20.0892 20.0839 20.0789 20.0741 20.0695 20.0652 20.0611 20.0572 20.0535 20.05 20.0467 20.0436 20.0407 20.038 20.0354 20.033 20.0307 20.0286 20.0266 20.0248 20.0231 20.0215 20.02 20.0186 20.0174 20.0162 20.0151 20.0142 20.0133 20.0124 20.0117 20.011 20.0104 20.0099 20.0094 20.009 20.0086 20.0083 20.0081 20.0079 20.0078 20.0077 20.0077 20.3673 20.367 20.3668 20.3666 20.3663 20.3659 20.3653 20.3644 20.3633 20.3619 20.3604 20.3587 20.3568 20.3549 20.3529 20.3507 20.3482 20.3455 20.3423 20.3387 20.3346 20.3301 20.3252 20.32 20.3144 20.3086 20.3027 20.2965 20.2901 20.2835 20.2767 20.2698 20.2626 20.2552 20.2477 20.24 20.2323 20.2245 20.2167 20.2088 20.201 20.1932 20.1855 20.1779 20.1703 20.1629 20.1556 20.1484 20.1414 20.1345 20.1278 20.1214 20.1151 20.109 20.1032 20.0975 20.0921 20.0869 20.0819 20.0771 20.0726 20.0682 20.064 20.0601 20.0563 20.0528 20.0494 20.0462 20.0432 20.0404 20.0377 20.0352 20.0329 20.0306 20.0286 20.0266 20.0248 20.0231 20.0215 20.02 20.0187 20.0174 20.0162 20.0152 20.0142 20.0133 20.0124 20.0117 20.011 20.0104 20.0098 20.0093 20.0088 20.0085 20.0081 20.0079 20.0076 20.0075 20.0073 20.0073 20.0072 20.3322 20.332 20.3318 20.3317 20.3314 20.331 20.3304 20.3295 20.3285 20.3272 20.3257 20.3241 20.3224 20.3206 20.3187 20.3167 20.3144 20.3119 20.309 20.3058 20.3021 20.298 20.2935 20.2888 20.2838 20.2786 20.2732 20.2677 20.262 20.2561 20.25 20.2438 20.2374 20.2308 20.2241 20.2172 20.2103 20.2034 20.1964 20.1894 20.1824 20.1754 20.1685 20.1616 20.1549 20.1482 20.1416 20.1352 20.1288 20.1227 20.1167 20.1108 20.1052 20.0997 20.0944 20.0893 20.0844 20.0797 20.0752 20.0709 20.0667 20.0628 20.059 20.0554 20.052 20.0487 20.0457 20.0428 20.04 20.0374 20.035 20.0327 20.0305 20.0285 20.0265 20.0248 20.0231 20.0215 20.0201 20.0187 20.0174 20.0163 20.0152 20.0142 20.0133 20.0124 20.0117 20.011 20.0103 20.0097 20.0092 20.0087 20.0083 20.008 20.0077 20.0074 20.0072 20.007 20.0069 20.0069 20.0068 20.3007 20.3005 20.3004 20.3002 20.2999 20.2995 20.299 20.2982 20.2971 20.2959 20.2945 20.293 20.2914 20.2898 20.288 20.2861 20.284 20.2817 20.279 20.2761 20.2727 20.269 20.265 20.2608 20.2563 20.2516 20.2468 20.2418 20.2367 20.2314 20.226 20.2204 20.2147 20.2088 20.2028 20.1967 20.1905 20.1843 20.1781 20.1718 20.1655 20.1593 20.1531 20.147 20.1409 20.1349 20.129 20.1232 20.1175 20.1119 20.1065 20.1013 20.0962 20.0912 20.0865 20.0819 20.0774 20.0731 20.069 20.0651 20.0614 20.0578 20.0543 20.0511 20.0479 20.045 20.0422 20.0395 20.037 20.0346 20.0324 20.0303 20.0283 20.0264 20.0247 20.023 20.0215 20.02 20.0187 20.0174 20.0163 20.0152 20.0142 20.0133 20.0124 20.0117 20.0109 20.0103 20.0097 20.0092 20.0087 20.0082 20.0079 20.0075 20.0072 20.007 20.0068 20.0067 20.0066 20.0065 20.0065 20.2724 20.2722 20.2721 20.2719 20.2716 20.2712 20.2707 20.2699 20.269 20.2679 20.2666 20.2652 20.2637 20.2621 20.2605 20.2587 20.2567 20.2545 20.2521 20.2494 20.2463 20.243 20.2394 20.2356 20.2316 20.2274 20.2231 20.2187 20.2141 20.2094 20.2045 20.1995 20.1944 20.1891 20.1837 20.1783 20.1728 20.1672 20.1616 20.156 20.1504 20.1448 20.1392 20.1337 20.1282 20.1228 20.1175 20.1123 20.1072 20.1022 20.0973 20.0926 20.088 20.0835 20.0792 20.075 20.071 20.0671 20.0634 20.0599 20.0565 20.0532 20.0501 20.0471 20.0442 20.0416 20.039 20.0366 20.0343 20.0321 20.03 20.0281 20.0263 20.0246 20.0229 20.0214 20.02 20.0187 20.0174 20.0163 20.0152 20.0142 20.0133 20.0124 20.0117 20.0109 20.0103 20.0097 20.0091 20.0086 20.0082 20.0078 20.0074 20.0071 20.0068 20.0066 20.0064 20.0063 20.0062 20.0061 20.0061 20.2469 20.2468 20.2466 20.2465 20.2462 20.2458 20.2453 20.2446 20.2437 20.2427 20.2415 20.2402 20.2388 20.2374 20.2358 20.2341 20.2322 20.2301 20.2279 20.2254 20.2226 20.2196 20.2164 20.2131 20.2095 20.2058 20.2019 20.1979 20.1938 20.1896 20.1852 20.1807 20.1761 20.1714 20.1666 20.1617 20.1568 20.1518 20.1468 20.1417 20.1367 20.1317 20.1267 20.1217 20.1168 20.112 20.1072 20.1025 20.0978 20.0933 20.0889 20.0846 20.0805 20.0765 20.0726 20.0688 20.0652 20.0617 20.0583 20.0551 20.052 20.049 20.0461 20.0434 20.0409 20.0384 20.0361 20.0338 20.0317 20.0297 20.0279 20.0261 20.0244 20.0228 20.0213 20.0199 20.0186 20.0174 20.0163 20.0152 20.0142 20.0133 20.0124 20.0117 20.0109 20.0103 20.0096 20.0091 20.0086 20.0081 20.0077 20.0073 20.007 20.0067 20.0064 20.0062 20.0061 20.0059 20.0059 20.0058 20.0058 20.2239 20.2238 20.2237 20.2235 20.2233 20.2229 20.2224 20.2217 20.2209 20.22 20.2189 20.2178 20.2165 20.2151 20.2136 20.212 20.2102 20.2083 20.2062 20.2039 20.2014 20.1987 20.1959 20.1929 20.1897 20.1864 20.1829 20.1793 20.1756 20.1718 20.1679 20.1638 20.1597 20.1555 20.1512 20.1468 20.1424 20.1379 20.1334 20.1289 20.1244 20.1199 20.1154 20.1109 20.1065 20.1021 20.0978 20.0935 20.0894 20.0853 20.0813 20.0775 20.0737 20.0701 20.0666 20.0632 20.0599 20.0567 20.0536 20.0507 20.0479 20.0452 20.0426 20.0401 20.0377 20.0355 20.0334 20.0313 20.0294 20.0276 20.0259 20.0242 20.0227 20.0212 20.0199 20.0186 20.0174 20.0162 20.0152 20.0142 20.0133 20.0124 20.0117 20.0109 20.0102 20.0096 20.0091 20.0085 20.0081 20.0076 20.0072 20.0069 20.0066 20.0063 20.0061 20.0059 20.0057 20.0056 20.0055 20.0055 20.0055 20.2032 20.2032 20.2031 20.2029 20.2026 20.2023 20.2018 20.2012 20.2005 20.1996 20.1987 20.1976 20.1964 20.1951 20.1937 20.1922 20.1905 20.1888 20.1868 20.1847 20.1825 20.1801 20.1775 20.1748 20.1719 20.169 20.1659 20.1626 20.1593 20.1559 20.1523 20.1487 20.145 20.1412 20.1373 20.1334 20.1294 20.1254 20.1213 20.1173 20.1132 20.1092 20.1051 20.1011 20.0971 20.0932 20.0893 20.0855 20.0817 20.078 20.0745 20.071 20.0676 20.0643 20.0611 20.058 20.055 20.0521 20.0494 20.0467 20.0441 20.0417 20.0393 20.037 20.0349 20.0328 20.0309 20.029 20.0273 20.0256 20.024 20.0225 20.0211 20.0198 20.0185 20.0173 20.0162 20.0152 20.0142 20.0133 20.0124 20.0117 20.0109 20.0102 20.0096 20.009 20.0085 20.008 20.0076 20.0072 20.0068 20.0065 20.0062 20.006 20.0058 20.0056 20.0054 20.0053 20.0052 20.0052 20.0052 20.1847 20.1847 20.1846 20.1844 20.1842 20.1838 20.1834 20.1828 20.1821 20.1814 20.1805 20.1795 20.1784 20.1772 20.1759 20.1745 20.173 20.1713 20.1695 20.1676 20.1656 20.1634 20.1611 20.1587 20.1561 20.1534 20.1506 20.1477 20.1447 20.1416 20.1384 20.1351 20.1318 20.1283 20.1249 20.1213 20.1177 20.1141 20.1105 20.1069 20.1032 20.0996 20.0959 20.0923 20.0887 20.0852 20.0817 20.0782 20.0748 20.0715 20.0682 20.0651 20.062 20.059 20.0561 20.0533 20.0506 20.048 20.0455 20.0431 20.0407 20.0385 20.0363 20.0342 20.0323 20.0304 20.0286 20.0269 20.0253 20.0238 20.0223 20.0209 20.0196 20.0184 20.0173 20.0162 20.0151 20.0142 20.0133 20.0124 20.0117 20.0109 20.0102 20.0096 20.009 20.0085 20.008 20.0076 20.0072 20.0068 20.0064 20.0061 20.0059 20.0056 20.0054 20.0053 20.0051 20.005 20.005 20.0049 20.0049 20.1682 20.1682 20.168 20.1679 20.1676 20.1673 20.1669 20.1663 20.1657 20.165 20.1642 20.1633 20.1623 20.1612 20.16 20.1587 20.1573 20.1558 20.1542 20.1524 20.1506 20.1486 20.1465 20.1443 20.142 20.1396 20.137 20.1344 20.1317 20.1289 20.126 20.123 20.12 20.1169 20.1137 20.1105 20.1073 20.1041 20.1008 20.0975 20.0942 20.0909 20.0877 20.0844 20.0812 20.0779 20.0748 20.0717 20.0686 20.0656 20.0627 20.0598 20.057 20.0543 20.0517 20.0491 20.0467 20.0443 20.042 20.0398 20.0376 20.0356 20.0336 20.0317 20.0299 20.0282 20.0266 20.025 20.0235 20.0221 20.0208 20.0195 20.0183 20.0172 20.0161 20.0151 20.0142 20.0133 20.0124 20.0117 20.0109 20.0103 20.0096 20.009 20.0085 20.008 20.0076 20.0071 20.0068 20.0064 20.0061 20.0058 20.0056 20.0053 20.0052 20.005 20.0049 20.0048 20.0047 20.0047 20.0047 20.1534 20.1534 20.1533 20.1531 20.1528 20.1525 20.1521 20.1517 20.1511 20.1505 20.1497 20.1489 20.148 20.147 20.1459 20.1447 20.1434 20.142 20.1405 20.1389 20.1372 20.1354 20.1335 20.1315 20.1294 20.1272 20.1249 20.1225 20.1201 20.1175 20.1149 20.1122 20.1095 20.1067 20.1038 20.1009 20.098 20.0951 20.0921 20.0891 20.0862 20.0832 20.0802 20.0773 20.0744 20.0715 20.0686 20.0658 20.063 20.0603 20.0576 20.055 20.0525 20.05 20.0476 20.0453 20.0431 20.0409 20.0388 20.0368 20.0348 20.0329 20.0311 20.0294 20.0277 20.0262 20.0247 20.0232 20.0219 20.0206 20.0194 20.0182 20.0171 20.016 20.0151 20.0141 20.0133 20.0124 20.0117 20.0109 20.0103 20.0096 20.0091 20.0085 20.008 20.0076 20.0071 20.0067 20.0064 20.0061 20.0058 20.0055 20.0053 20.0051 20.0049 20.0048 20.0046 20.0045 20.0045 20.0044 20.0044 20.1402 20.1401 20.14 20.1399 20.1396 20.1393 20.139 20.1385 20.138 20.1375 20.1368 20.136 20.1352 20.1343 20.1333 20.1322 20.131 20.1297 20.1283 20.1269 20.1253 20.1237 20.1219 20.1201 20.1182 20.1162 20.1141 20.112 20.1097 20.1074 20.105 20.1026 20.1001 20.0975 20.0949 20.0923 20.0897 20.087 20.0843 20.0817 20.079 20.0763 20.0736 20.0709 20.0683 20.0657 20.0631 20.0605 20.058 20.0555 20.0531 20.0507 20.0484 20.0462 20.044 20.0419 20.0398 20.0378 20.0359 20.0341 20.0323 20.0306 20.0289 20.0273 20.0258 20.0244 20.023 20.0217 20.0204 20.0192 20.0181 20.017 20.016 20.015 20.0141 20.0132 20.0124 20.0117 20.011 20.0103 20.0097 20.0091 20.0085 20.008 20.0076 20.0071 20.0067 20.0064 20.006 20.0057 20.0055 20.0052 20.005 20.0048 20.0047 20.0045 20.0044 20.0043 20.0043 20.0042 20.0042 20.1284 20.1283 20.1282 20.1281 20.1279 20.1276 20.1272 20.1268 20.1264 20.1258 20.1252 20.1245 20.1238 20.1229 20.122 20.121 20.1199 20.1187 20.1175 20.1161 20.1147 20.1132 20.1116 20.11 20.1082 20.1064 20.1045 20.1025 20.1005 20.0984 20.0962 20.094 20.0917 20.0894 20.087 20.0847 20.0823 20.0798 20.0774 20.075 20.0725 20.0701 20.0677 20.0652 20.0628 20.0604 20.0581 20.0558 20.0535 20.0512 20.049 20.0469 20.0448 20.0427 20.0407 20.0388 20.0369 20.0351 20.0333 20.0316 20.03 20.0284 20.0269 20.0254 20.024 20.0227 20.0214 20.0202 20.0191 20.018 20.0169 20.0159 20.015 20.0141 20.0132 20.0124 20.0117 20.011 20.0103 20.0097 20.0091 20.0086 20.0081 20.0076 20.0072 20.0068 20.0064 20.006 20.0057 20.0054 20.0052 20.005 20.0048 20.0046 20.0044 20.0043 20.0042 20.0041 20.0041 20.004 20.004 20.1179 20.1178 20.1177 20.1176 20.1174 20.1171 20.1168 20.1164 20.116 20.1155 20.1149 20.1143 20.1136 20.1128 20.1119 20.111 20.11 20.1089 20.1078 20.1065 20.1052 20.1039 20.1024 20.1009 20.0993 20.0976 20.0959 20.0941 20.0922 20.0903 20.0883 20.0863 20.0842 20.0821 20.08 20.0778 20.0756 20.0734 20.0712 20.069 20.0668 20.0646 20.0623 20.0601 20.058 20.0558 20.0536 20.0515 20.0494 20.0474 20.0454 20.0434 20.0415 20.0396 20.0378 20.036 20.0343 20.0326 20.031 20.0294 20.0279 20.0265 20.0251 20.0237 20.0224 20.0212 20.02 20.0189 20.0178 20.0168 20.0159 20.0149 20.0141 20.0132 20.0125 20.0117 20.011 20.0104 20.0097 20.0092 20.0086 20.0081 20.0076 20.0072 20.0068 20.0064 20.0061 20.0057 20.0054 20.0052 20.0049 20.0047 20.0045 20.0044 20.0042 20.0041 20.004 20.0039 20.0039 20.0039 20.0038 20.1086 20.1085 20.1084 20.1083 20.1081 20.1079 20.1076 20.1072 20.1068 20.1063 20.1058 20.1052 20.1046 20.1038 20.103 20.1022 20.1013 20.1003 20.0992 20.0981 20.0969 20.0956 20.0943 20.0929 20.0914 20.0899 20.0883 20.0866 20.0849 20.0832 20.0814 20.0795 20.0776 20.0757 20.0738 20.0718 20.0698 20.0678 20.0658 20.0637 20.0617 20.0597 20.0577 20.0556 20.0536 20.0517 20.0497 20.0478 20.0459 20.044 20.0421 20.0403 20.0386 20.0369 20.0352 20.0336 20.032 20.0304 20.0289 20.0275 20.0261 20.0248 20.0235 20.0222 20.021 20.0199 20.0188 20.0178 20.0168 20.0158 20.0149 20.0141 20.0133 20.0125 20.0117 20.0111 20.0104 20.0098 20.0092 20.0087 20.0082 20.0077 20.0072 20.0068 20.0064 20.0061 20.0058 20.0055 20.0052 20.0049 20.0047 20.0045 20.0043 20.0042 20.004 20.0039 20.0038 20.0038 20.0037 20.0037 20.0037 20.1004 20.1004 20.1003 20.1002 20.1 20.0998 20.0995 20.0991 20.0988 20.0983 20.0978 20.0973 20.0967 20.096 20.0953 20.0945 20.0936 20.0927 20.0917 20.0906 20.0895 20.0884 20.0871 20.0859 20.0845 20.0831 20.0816 20.0801 20.0785 20.0769 20.0753 20.0736 20.0718 20.0701 20.0683 20.0665 20.0647 20.0628 20.061 20.0591 20.0572 20.0554 20.0535 20.0517 20.0499 20.048 20.0462 20.0445 20.0427 20.041 20.0393 20.0376 20.036 20.0344 20.0329 20.0314 20.0299 20.0285 20.0271 20.0258 20.0245 20.0232 20.022 20.0209 20.0198 20.0187 20.0177 20.0167 20.0158 20.0149 20.0141 20.0133 20.0125 20.0118 20.0111 20.0105 20.0099 20.0093 20.0087 20.0082 20.0078 20.0073 20.0069 20.0065 20.0061 20.0058 20.0055 20.0052 20.005 20.0047 20.0045 20.0043 20.0042 20.004 20.0039 20.0038 20.0037 20.0036 20.0036 20.0035 20.0035 20.0934 20.0933 20.0933 20.0931 20.093 20.0927 20.0925 20.0922 20.0918 20.0914 20.0909 20.0904 20.0898 20.0892 20.0885 20.0878 20.087 20.0861 20.0852 20.0842 20.0832 20.0821 20.081 20.0798 20.0785 20.0772 20.0759 20.0745 20.073 20.0715 20.07 20.0684 20.0668 20.0652 20.0636 20.0619 20.0602 20.0585 20.0568 20.0551 20.0534 20.0517 20.05 20.0483 20.0466 20.0449 20.0432 20.0416 20.04 20.0384 20.0368 20.0353 20.0338 20.0323 20.0309 20.0295 20.0281 20.0268 20.0255 20.0243 20.0231 20.0219 20.0208 20.0197 20.0187 20.0177 20.0167 20.0158 20.015 20.0141 20.0134 20.0126 20.0119 20.0112 20.0106 20.01 20.0094 20.0088 20.0083 20.0079 20.0074 20.007 20.0066 20.0062 20.0059 20.0056 20.0053 20.005 20.0048 20.0045 20.0043 20.0042 20.004 20.0039 20.0037 20.0036 20.0035 20.0035 20.0034 20.0034 20.0034 20.0874 20.0873 20.0873 20.0871 20.087 20.0868 20.0865 20.0862 20.0859 20.0855 20.085 20.0846 20.084 20.0834 20.0828 20.0821 20.0813 20.0805 20.0796 20.0787 20.0778 20.0768 20.0757 20.0746 20.0734 20.0722 20.071 20.0697 20.0683 20.0669 20.0655 20.0641 20.0626 20.0611 20.0595 20.058 20.0564 20.0549 20.0533 20.0517 20.0501 20.0485 20.0469 20.0453 20.0438 20.0422 20.0407 20.0391 20.0376 20.0361 20.0347 20.0332 20.0318 20.0305 20.0291 20.0278 20.0266 20.0253 20.0241 20.023 20.0218 20.0208 20.0197 20.0187 20.0177 20.0168 20.0159 20.0151 20.0142 20.0135 20.0127 20.012 20.0113 20.0107 20.0101 20.0095 20.009 20.0085 20.008 20.0075 20.0071 20.0067 20.0063 20.006 20.0056 20.0053 20.0051 20.0048 20.0046 20.0044 20.0042 20.004 20.0039 20.0037 20.0036 20.0035 20.0034 20.0034 20.0033 20.0033 20.0033 20.0823 20.0823 20.0822 20.0821 20.082 20.0818 20.0815 20.0812 20.0809 20.0805 20.0801 20.0796 20.0791 20.0786 20.0779 20.0773 20.0766 20.0758 20.075 20.0741 20.0732 20.0723 20.0713 20.0702 20.0691 20.068 20.0668 20.0656 20.0644 20.0631 20.0617 20.0604 20.059 20.0576 20.0562 20.0547 20.0533 20.0518 20.0503 20.0488 20.0473 20.0459 20.0444 20.0429 20.0414 20.0399 20.0385 20.0371 20.0356 20.0342 20.0329 20.0315 20.0302 20.0289 20.0277 20.0264 20.0253 20.0241 20.023 20.0219 20.0208 20.0198 20.0188 20.0178 20.0169 20.016 20.0152 20.0144 20.0136 20.0129 20.0122 20.0115 20.0109 20.0103 20.0097 20.0091 20.0086 20.0081 20.0077 20.0072 20.0068 20.0064 20.0061 20.0058 20.0054 20.0052 20.0049 20.0047 20.0044 20.0042 20.004 20.0039 20.0037 20.0036 20.0035 20.0034 20.0033 20.0033 20.0032 20.0032 20.0032 20.0782 20.0782 20.0781 20.078 20.0778 20.0777 20.0774 20.0772 20.0768 20.0765 20.0761 20.0756 20.0751 20.0746 20.074 20.0734 20.0727 20.0719 20.0712 20.0704 20.0695 20.0686 20.0677 20.0667 20.0656 20.0646 20.0635 20.0623 20.0611 20.0599 20.0586 20.0574 20.0561 20.0547 20.0534 20.052 20.0507 20.0493 20.0479 20.0465 20.0451 20.0437 20.0423 20.0409 20.0395 20.0381 20.0367 20.0353 20.034 20.0327 20.0314 20.0301 20.0289 20.0277 20.0265 20.0253 20.0242 20.0231 20.022 20.021 20.0199 20.019 20.018 20.0171 20.0163 20.0154 20.0146 20.0138 20.0131 20.0124 20.0117 20.0111 20.0105 20.0099 20.0093 20.0088 20.0083 20.0079 20.0074 20.007 20.0066 20.0062 20.0059 20.0056 20.0053 20.005 20.0048 20.0045 20.0043 20.0041 20.0039 20.0038 20.0036 20.0035 20.0034 20.0033 20.0032 20.0032 20.0031 20.0031 20.0031 20.0749 20.0749 20.0748 20.0747 20.0746 20.0744 20.0742 20.0739 20.0736 20.0733 20.0729 20.0724 20.0719 20.0714 20.0708 20.0702 20.0696 20.0689 20.0681 20.0674 20.0665 20.0657 20.0648 20.0638 20.0628 20.0618 20.0608 20.0597 20.0585 20.0574 20.0562 20.055 20.0537 20.0525 20.0512 20.0499 20.0486 20.0473 20.0459 20.0446 20.0433 20.0419 20.0406 20.0392 20.0379 20.0366 20.0353 20.034 20.0327 20.0314 20.0302 20.029 20.0278 20.0266 20.0255 20.0244 20.0233 20.0222 20.0212 20.0202 20.0193 20.0183 20.0174 20.0166 20.0157 20.0149 20.0141 20.0134 20.0127 20.012 20.0114 20.0108 20.0102 20.0096 20.0091 20.0086 20.0081 20.0076 20.0072 20.0068 20.0064 20.0061 20.0057 20.0054 20.0051 20.0049 20.0046 20.0044 20.0042 20.004 20.0038 20.0037 20.0035 20.0034 20.0033 20.0032 20.0032 20.0031 20.0031 20.0031 20.003 20.0724 20.0724 20.0723 20.0722 20.0721 20.0719 20.0717 20.0714 20.0711 20.0708 20.0704 20.07 20.0695 20.069 20.0685 20.0679 20.0672 20.0666 20.0658 20.0651 20.0643 20.0635 20.0626 20.0617 20.0607 20.0597 20.0587 20.0577 20.0566 20.0555 20.0543 20.0532 20.052 20.0508 20.0495 20.0483 20.047 20.0457 20.0445 20.0432 20.0419 20.0406 20.0393 20.038 20.0367 20.0355 20.0342 20.0329 20.0317 20.0305 20.0293 20.0281 20.027 20.0259 20.0248 20.0237 20.0226 20.0216 20.0206 20.0197 20.0187 20.0178 20.017 20.0161 20.0153 20.0145 20.0138 20.0131 20.0124 20.0117 20.0111 20.0105 20.0099 20.0094 20.0089 20.0084 20.0079 20.0075 20.007 20.0067 20.0063 20.0059 20.0056 20.0053 20.005 20.0048 20.0045 20.0043 20.0041 20.0039 20.0038 20.0036 20.0035 20.0034 20.0033 20.0032 20.0031 20.0031 20.003 20.003 20.003 20.0706 20.0706 20.0705 20.0705 20.0703 20.0701 20.0699 20.0697 20.0694 20.0691 20.0687 20.0683 20.0678 20.0673 20.0668 20.0662 20.0656 20.0649 20.0642 20.0635 20.0627 20.0619 20.061 20.0602 20.0592 20.0583 20.0573 20.0563 20.0552 20.0541 20.053 20.0519 20.0507 20.0495 20.0483 20.0471 20.0459 20.0447 20.0434 20.0422 20.0409 20.0397 20.0384 20.0371 20.0359 20.0347 20.0334 20.0322 20.031 20.0298 20.0287 20.0275 20.0264 20.0253 20.0242 20.0232 20.0222 20.0212 20.0202 20.0193 20.0184 20.0175 20.0166 20.0158 20.015 20.0143 20.0135 20.0128 20.0122 20.0115 20.0109 20.0103 20.0097 20.0092 20.0087 20.0082 20.0078 20.0073 20.0069 20.0066 20.0062 20.0059 20.0055 20.0052 20.005 20.0047 20.0045 20.0043 20.0041 20.0039 20.0037 20.0036 20.0034 20.0033 20.0032 20.0031 20.0031 20.003 20.003 20.003 20.003 20.0695 20.0695 20.0694 20.0693 20.0692 20.069 20.0688 20.0686 20.0683 20.068 20.0676 20.0672 20.0667 20.0662 20.0657 20.0651 20.0645 20.0639 20.0632 20.0625 20.0617 20.0609 20.0601 20.0592 20.0583 20.0574 20.0564 20.0554 20.0543 20.0533 20.0522 20.0511 20.0499 20.0488 20.0476 20.0464 20.0452 20.044 20.0428 20.0415 20.0403 20.0391 20.0378 20.0366 20.0354 20.0342 20.0329 20.0317 20.0306 20.0294 20.0283 20.0271 20.026 20.025 20.0239 20.0229 20.0219 20.0209 20.0199 20.019 20.0181 20.0173 20.0164 20.0156 20.0148 20.0141 20.0134 20.0127 20.012 20.0114 20.0108 20.0102 20.0096 20.0091 20.0086 20.0081 20.0077 20.0073 20.0069 20.0065 20.0061 20.0058 20.0055 20.0052 20.0049 20.0047 20.0044 20.0042 20.004 20.0039 20.0037 20.0035 20.0034 20.0033 20.0032 20.0031 20.0031 20.003 20.003 20.0029 20.0029 20.069 20.069 20.0689 20.0688 20.0687 20.0685 20.0683 20.068 20.0678 20.0674 20.0671 20.0667 20.0662 20.0658 20.0652 20.0647 20.0641 20.0634 20.0628 20.062 20.0613 20.0605 20.0597 20.0588 20.0579 20.0569 20.056 20.055 20.0539 20.0529 20.0518 20.0507 20.0495 20.0484 20.0472 20.046 20.0449 20.0436 20.0424 20.0412 20.04 20.0388 20.0376 20.0363 20.0351 20.0339 20.0327 20.0315 20.0304 20.0292 20.0281 20.027 20.0259 20.0248 20.0238 20.0228 20.0218 20.0208 20.0198 20.0189 20.018 20.0172 20.0163 20.0155 20.0148 20.014 20.0133 20.0126 20.012 20.0113 20.0107 20.0102 20.0096 20.0091 20.0086 20.0081 20.0077 20.0072 20.0068 20.0065 20.0061 20.0058 20.0055 20.0052 20.0049 20.0047 20.0044 20.0042 20.004 20.0038 20.0037 20.0035 20.0034 20.0033 20.0032 20.0031 20.003 20.003 20.003 20.0029 20.0029 </DataArray> 
<DataArray type="Float32" Name="gradient" format="ascii" NumberOfComponents="3"> 
-4.11389 -4.11389 0 36.4936 3.31254 0 74.0651 -1.37362 0 108.6 -6.37998 0 140.509 -2.28736 0 170.444 6.46479 0 198.413 10.4208 0 223.091 1.78314 0 241.239 -12.7525 0 252.712 -19.0281 0 257.684 -4.41875 0 256.815 22.0501 0 250.169 35.75 0 237.264 13.1393 0 215.219 -36.4027 0 183.552 -70.5756 0 142.716 -46.4888 0 97.427 40.6549 0 48.9406 142.796 0 -2.6772 208.179 0 -55.9714 209.185 0 -110.347 165.062 0 -165.755 100.441 0 -218.44 36.8081 0 -266.041 -13.0304 0 -308.559 -37.756 0 -345.017 -31.156 0 -374.441 -7.4418 0 -396.831 14.0691 0 -412.683 17.512 0 -422.792 7.18652 0 -427.167 -5.30951 0 -426.299 -9.57327 0 -421.389 -5.69166 0 -412.493 0.847318 0 -399.975 4.7975 0 -385.216 4.80177 0 -368.345 2.30577 0 -349.638 -1.19529 0 -330.736 -4.48963 0 -311.913 -6.64889 0 -293.17 -6.77624 0 -274.517 -4.84503 0 -255.956 -2.03608 0 -237.515 0.38493 0 -219.788 1.64416 0 -203.019 1.92301 0 -187.208 1.51263 0 -172.354 0.704152 0 -158.458 -0.211267 0 -145.52 -0.942481 0 -133.447 -1.26552 0 -122.148 -1.22511 0 -111.621 -0.933154 0 -101.867 -0.501553 0 -92.887 -0.0422102 0 -84.6797 0.332973 0 -77.178 0.523729 0 -70.2171 0.531056 0 -63.7895 0.408092 0 -57.8952 0.208406 0 -52.5342 -0.0144328 0 -47.7065 -0.206855 0 -43.3833 -0.31696 0 -39.3923 -0.331233 0 -35.7046 -0.274545 0 -32.3204 -0.173436 0 -29.2395 -0.0544462 0 -26.4621 0.0558855 0 -23.9841 0.131121 0 -21.7196 0.157142 0 -19.6335 0.143762 0 -17.7257 0.103542 0 -15.9963 0.0490414 0 -14.4452 -0.00717693 0 -13.0725 -0.0525524 0 -11.8346 -0.0774333 0 -10.688 -0.083806 0 -9.6327 -0.0765661 0 -8.66869 -0.0606095 0 -7.79599 -0.0408319 0 -7.01459 -0.0221291 0 -6.31382 -0.00895262 0 -5.66761 -0.0018875 0 -5.07479 0.00047195 0 -4.53534 -0.000452095 0 -4.04926 -0.00323747 0 -3.61657 -0.00646199 0 -3.2328 -0.00873952 0 -2.87121 -0.00951253 0 -2.52735 -0.0090521 0 -2.20121 -0.00766535 0 -1.89281 -0.00565939 0 -1.60213 -0.00334135 0 -1.32918 -0.00101832 0 -1.07396 0.00100257 0 -0.836465 0.00241421 0 -0.616699 0.00290948 0 -0.41466 0.00218127 0 -0.23035 -7.75298e-05 0 -0.0637667 -0.00417404 0 3.31254 36.4936 0 37.1752 37.1752 0 72.5274 39.5801 0 109.369 42.4629 0 145.138 44.9024 0 175.756 47.8729 0 201.17 53.0343 0 222.225 61.709 0 240.985 72.2718 0 257.543 81.5803 0 269.727 86.8514 0 269.365 90.3533 0 255.677 97.9947 0 230.589 115.367 0 205.675 138.917 0 182.863 155.946 0 160.823 153.616 0 125.668 130.629 0 73.7027 101.711 0 5.62996 82.708 0 -63.101 82.2167 0 -126.17 94.7615 0 -183.564 113.25 0 -234.259 131.188 0 -277.61 143.733 0 -313.618 146.325 0 -344.638 136.349 0 -373.025 118.959 0 -398.779 101.253 0 -419.527 89.1497 0 -431.491 81.6916 0 -434.622 75.4304 0 -430.65 67.2943 0 -423.804 57.5182 0 -414.274 48.0395 0 -402.185 40.6803 0 -387.998 35.5101 0 -371.756 31.335 0 -353.617 26.9745 0 -334.527 22.1922 0 -314.642 17.6963 0 -294.087 14.2251 0 -274.16 12.0113 0 -255.206 10.5867 0 -237.22 9.43297 0 -220.074 8.21407 0 -203.715 6.94846 0 -188.144 5.6953 0 -173.361 4.51371 0 -159.366 3.46283 0 -146.158 2.6018 0 -133.769 1.97216 0 -122.231 1.545 0 -111.543 1.27382 0 -101.706 1.11212 0 -92.7191 1.01339 0 -84.5827 0.931131 0 -77.1983 0.823097 0 -70.3252 0.684165 0 -63.9524 0.528315 0 -58.0799 0.369687 0 -52.7078 0.222423 0 -47.836 0.100662 0 -43.4422 0.0180373 0 -39.3921 -0.0234583 0 -35.6634 -0.0334748 0 -32.2559 -0.0221683 0 -29.1697 0.000305161 0 -26.4049 0.0237896 0 -23.9567 0.0381663 0 -21.7211 0.0378386 0 -19.6557 0.0259919 0 -17.7605 0.00682069 0 -16.0354 -0.0154805 0 -14.4805 -0.0367172 0 -13.0958 -0.052695 0 -11.8435 -0.0602635 0 -10.686 -0.0604494 0 -9.6231 -0.0553233 0 -8.65496 -0.0469559 0 -7.78154 -0.0374181 0 -7.00284 -0.0287806 0 -6.30692 -0.0229163 0 -5.66464 -0.0199761 0 -5.07467 -0.0192241 0 -4.53701 -0.0199172 0 -4.05165 -0.0213124 0 -3.6186 -0.0226665 0 -3.23357 -0.0232565 0 -2.87083 -0.0228241 0 -2.52608 -0.0215753 0 -2.19932 -0.0197361 0 -1.89056 -0.0175328 0 -1.59979 -0.0151916 0 -1.32701 -0.0129387 0 -1.07223 -0.0110002 0 -0.835441 -0.00960238 0 -0.616647 -0.00897136 0 -0.415846 -0.00933336 0 -0.23304 -0.0109146 0 -0.0682274 -0.0139411 0 -1.37362 74.0651 0 39.5801 72.5274 0 77.9983 77.9983 0 113.881 85.1691 0 147.702 89.8625 0 180.216 94.5087 0 211.433 103.929 0 239.255 122.059 0 258.554 145.082 0 269.095 165.19 0 272.285 175.418 0 273.401 180.669 0 272.949 194.401 0 268.447 229.418 0 244.994 279.149 0 200.106 317.649 0 136.062 318.634 0 76.654 278.756 0 28.2096 226.489 0 -9.83741 192.533 0 -49.9453 193.31 0 -97.2108 217.515 0 -151.574 250.661 0 -208.404 280.028 0 -264.788 297.78 0 -320.728 296.92 0 -369.247 273.787 0 -403.368 238.058 0 -423.092 202.749 0 -432.879 178.668 0 -439.825 163.729 0 -444.023 151.181 0 -444.573 134.997 0 -439.278 115.485 0 -428.037 96.222 0 -411.922 80.5985 0 -394.957 69.1545 0 -377.529 60.3743 0 -359.538 52.7313 0 -340.389 45.4925 0 -319.982 38.7188 0 -298.49 32.5053 0 -277.71 26.9329 0 -258.118 22.0631 0 -239.704 17.9559 0 -222.213 14.6168 0 -205.54 11.9469 0 -189.687 9.8353 0 -174.652 8.1709 0 -160.436 6.84274 0 -147.038 5.73979 0 -134.487 4.76901 0 -122.81 3.90919 0 -112.005 3.15706 0 -102.075 2.50937 0 -93.0177 1.96285 0 -84.834 1.51424 0 -77.4192 1.15949 0 -70.5174 0.887715 0 -64.117 0.684511 0 -58.2179 0.535434 0 -52.8203 0.426047 0 -47.9241 0.341912 0 -43.5073 0.268915 0 -39.4378 0.20042 0 -35.6938 0.13727 0 -32.2751 0.0806319 0 -29.1819 0.0316739 0 -26.414 -0.00843699 0 -23.9666 -0.038541 0 -21.7324 -0.0584174 0 -19.6673 -0.0696694 0 -17.7713 -0.0741096 0 -16.0446 -0.0735507 0 -14.487 -0.0698053 0 -13.0986 -0.064686 0 -11.8427 -0.0597118 0 -10.6824 -0.0552269 0 -9.61788 -0.0512818 0 -8.64905 -0.0479269 0 -7.77593 -0.0452128 0 -6.99853 -0.0431898 0 -6.30449 -0.0418893 0 -5.66366 -0.041174 0 -5.07467 -0.0408206 0 -4.53752 -0.0406045 0 -4.0522 -0.0403015 0 -3.61873 -0.0396872 0 -3.23288 -0.0385451 0 -2.86943 -0.0368392 0 -2.52415 -0.034714 0 -2.19706 -0.0323216 0 -1.88815 -0.0298143 0 -1.59743 -0.0273444 0 -1.32488 -0.0250641 0 -1.07052 -0.0231257 0 -0.834345 -0.0216815 0 -0.61635 -0.0208836 0 -0.416537 -0.0208845 0 -0.234906 -0.0218362 0 -0.0714579 -0.0238911 0 -6.37998 108.6 0 42.4629 109.369 0 85.1691 113.881 0 121.739 121.739 0 155.208 132.593 0 190.408 146.372 0 227.402 163.106 0 261.846 182.834 0 283.12 205.677 0 290.742 231.8 0 288.589 261.28 0 291.238 292.996 0 300.085 324.968 0 309.718 355.293 0 287.665 384.295 0 228.515 414.532 0 136.788 448.566 0 59.6834 485.037 0 9.75648 517.129 0 -14.3178 537.654 0 -41.6802 542.465 0 -84.2519 533.324 0 -141.931 512.675 0 -206.774 483.328 0 -273.789 449.112 0 -342.977 414.03 0 -402.336 381.157 0 -439.865 349.855 0 -455.564 318.558 0 -458.083 286.066 0 -461.189 253.298 0 -465.059 221.944 0 -467.246 193.534 0 -461.762 168.21 0 -448.337 145.395 0 -428.574 124.552 0 -408.505 105.735 0 -388.708 89.4236 0 -369.045 76.0752 0 -348.696 65.4115 0 -327.524 56.4186 0 -305.652 48.0643 0 -284.35 39.9195 0 -263.959 32.3931 0 -244.479 25.9536 0 -225.966 20.8523 0 -208.442 16.9184 0 -191.908 13.9326 0 -176.362 11.6757 0 -161.805 9.92845 0 -148.238 8.47147 0 -135.597 7.12503 0 -123.821 5.86746 0 -112.909 4.71657 0 -102.862 3.69019 0 -93.6784 2.80615 0 -85.3595 2.08229 0 -77.8097 1.5329 0 -70.7961 1.14171 0 -64.3081 0.87668 0 -58.3457 0.705646 0 -52.9089 0.59644 0 -47.9977 0.516896 0 -43.5865 0.435672 0 -39.5216 0.340401 0 -35.7773 0.237688 0 -32.3538 0.134964 0 -29.2509 0.03966 0 -26.4686 -0.0407942 0 -24.0024 -0.0990012 0 -21.7508 -0.131626 0 -19.6722 -0.143222 0 -17.7665 -0.13925 0 -16.0339 -0.125169 0 -14.4743 -0.106441 0 -13.0876 -0.0885254 0 -11.8351 -0.0757782 0 -10.6776 -0.0681387 0 -9.61515 -0.0644418 0 -8.64783 -0.0635225 0 -7.7756 -0.0642158 0 -6.99845 -0.0653567 0 -6.30422 -0.0658714 0 -5.66314 -0.0654815 0 -5.07387 -0.0643176 0 -4.53641 -0.0625139 0 -4.05075 -0.0602047 0 -3.6169 -0.0575241 0 -3.23066 -0.0546052 0 -2.86692 -0.0515578 0 -2.52148 -0.0484682 0 -2.19433 -0.0454218 0 -1.88549 -0.0425038 0 -1.59495 -0.0397996 0 -1.32271 -0.0373946 0 -1.06877 -0.035374 0 -0.833132 -0.0338231 0 -0.615794 -0.0328274 0 -0.416757 -0.032472 0 -0.23602 -0.0328424 0 -0.0735838 -0.0340239 0 -2.28736 140.509 0 44.9024 145.138 0 89.8625 147.702 0 132.593 155.208 0 173.127 173.127 0 211.518 197.975 0 247.766 223.027 0 280.499 242.808 0 306.358 262.797 0 325.192 294.11 0 336.802 346.528 0 340.448 411.083 0 336.058 465.294 0 323.157 487.704 0 298.895 487.25 0 262.797 503.266 0 215.089 575.564 0 158.131 705.727 0 92.5498 842.298 0 18.6198 930.119 0 -57.6203 939.117 0 -133.7 887.937 0 -209.546 800.819 0 -279.403 700.304 0 -339.654 604.239 0 -390.3 529.667 0 -431.461 487.5 0 -463.257 464.132 0 -485.688 439.828 0 -499.545 398.449 0 -506.087 344.85 0 -505.33 291.489 0 -498.147 249.539 0 -486.67 218.909 0 -470.996 193.708 0 -451.627 168.353 0 -430.448 142.112 0 -407.639 117.746 0 -383.505 97.9936 0 -359.868 83.2744 0 -337.029 71.691 0 -314.958 61.2677 0 -293.313 51.0656 0 -272.004 41.584 0 -251.058 33.4261 0 -231.095 26.9206 0 -212.369 21.8628 0 -194.88 17.9873 0 -178.628 15.0282 0 -163.613 12.72 0 -149.834 10.7968 0 -137.096 9.04022 0 -125.203 7.4198 0 -114.156 5.95233 0 -103.954 4.65458 0 -94.5968 3.54331 0 -86.085 2.63528 0 -78.3388 1.94333 0 -71.1636 1.44614 0 -64.5506 1.10482 0 -58.4996 0.880323 0 -53.0107 0.733601 0 -48.084 0.625614 0 -43.6881 0.51831 0 -39.6357 0.396486 0 -35.8955 0.267781 0 -32.4675 0.140829 0 -29.3518 0.0242635 0 -26.5482 -0.0732822 0 -24.0527 -0.143214 0 -21.7739 -0.181786 0 -19.6744 -0.194665 0 -17.7542 -0.188599 0 -16.0133 -0.170336 0 -14.4517 -0.146625 0 -13.0695 -0.124213 0 -11.8237 -0.108463 0 -10.6715 -0.0991846 0 -9.61302 -0.0948032 0 -8.64817 -0.0937427 0 -7.77697 -0.0944273 0 -6.99941 -0.0952812 0 -6.30381 -0.0948628 0 -5.66155 -0.0928983 0 -5.07135 -0.0897151 0 -4.5332 -0.0856456 0 -4.04711 -0.0810222 0 -3.61307 -0.0761773 0 -3.22687 -0.0714368 0 -2.86323 -0.0669798 0 -2.51796 -0.0628379 0 -2.19103 -0.0590366 0 -1.88247 -0.0556013 0 -1.59226 -0.0525573 0 -1.3204 -0.04993 0 -1.0669 -0.0477449 0 -0.831755 -0.0460273 0 -0.614966 -0.0448025 0 -0.416532 -0.0440961 0 -0.236453 -0.0439333 0 -0.0747307 -0.0443396 0 6.46479 170.444 0 47.8729 175.756 0 94.5087 180.216 0 146.372 190.408 0 197.975 211.518 0 240.584 240.584 0 274.085 271.694 0 302.297 300.032 0 334.553 330.351 0 371.278 372.329 0 405.481 434.487 0 410.879 509.056 0 384.957 576.533 0 335.193 618.236 0 306.467 640.377 0 306.258 674.064 0 328.067 750.805 0 303.989 871.194 0 215.965 992.934 0 66.7591 1070.74 0 -82.8546 1079.92 0 -208.013 1035.81 0 -308.7 958.342 0 -383.685 866.034 0 -432.195 773.526 0 -454.23 694.791 0 -467.91 639.044 0 -491.355 596.463 0 -524.566 552.469 0 -556.189 495.289 0 -568.154 429.551 0 -560.228 365.819 0 -538.52 313.568 0 -517.962 272.705 0 -499.233 238.215 0 -481.119 205.335 0 -459.058 173.287 0 -432.613 144.169 0 -402.675 120.058 0 -374.595 101.191 0 -349.263 85.9611 0 -326.477 72.6976 0 -304.104 60.521 0 -281.579 49.6477 0 -258.953 40.3735 0 -237.361 32.8216 0 -217.27 26.7803 0 -198.678 21.9993 0 -181.586 18.2284 0 -165.994 15.2173 0 -151.902 12.7159 0 -138.979 10.5146 0 -126.894 8.56622 0 -115.647 6.86436 0 -105.239 5.40255 0 -95.6685 4.17432 0 -86.9364 3.17323 0 -78.9756 2.39079 0 -71.6224 1.80102 0 -64.8692 1.36894 0 -58.716 1.05947 0 -53.163 0.837531 0 -48.21 0.668065 0 -43.8202 0.516829 0 -39.7724 0.368675 0 -36.0297 0.227548 0 -32.5921 0.0982261 0 -29.4595 -0.0145156 0 -26.6321 -0.105901 0 -24.106 -0.17118 0 -21.7991 -0.208899 0 -19.6781 -0.224 0 -17.7427 -0.222158 0 -15.993 -0.209051 0 -14.4291 -0.190356 0 -13.0508 -0.171749 0 -11.8116 -0.157765 0 -10.6645 -0.148365 0 -9.60961 -0.142366 0 -8.64694 -0.138587 0 -7.77647 -0.135847 0 -6.99821 -0.132963 0 -6.30096 -0.128863 0 -5.65737 -0.123425 0 -5.0662 -0.117013 0 -4.52745 -0.109999 0 -4.04111 -0.102754 0 -3.60719 -0.0956466 0 -3.22143 -0.08904 0 -2.85829 -0.0831053 0 -2.51349 -0.0778232 0 -2.18705 -0.0731663 0 -1.87897 -0.0691069 0 -1.58924 -0.0656175 0 -1.31786 -0.0626706 0 -1.06484 -0.0602386 0 -0.830166 -0.0582939 0 -0.61385 -0.0568091 0 -0.415887 -0.0557566 0 -0.236279 -0.0551087 0 -0.0750242 -0.0548381 0 10.4208 198.413 0 53.0343 201.17 0 103.929 211.433 0 163.106 227.402 0 223.027 247.766 0 271.694 274.085 0 308.954 308.954 0 340.32 354.482 0 379.275 408.518 0 426.43 466.718 0 472.467 525.199 0 482.35 586.585 0 452.724 658.188 0 393.13 746.781 0 360.815 844.347 0 365.319 928.081 0 398.436 974.946 0 374.453 980.546 0 270.576 966.357 0 90.2752 955.671 0 -90.0838 960.979 0 -239.26 973.797 0 -357.247 983.234 0 -443.482 979.686 0 -497.611 957.105 0 -519.635 910.056 0 -531.559 836.382 0 -555.388 747.048 0 -591.122 656.299 0 -624.958 576.323 0 -634.92 507.288 0 -620.728 445.013 0 -590.244 385.757 0 -562.69 329.663 0 -538.941 278.878 0 -517.291 235.411 0 -491.331 199.197 0 -460.447 168.677 0 -425.724 142.289 0 -393.665 119.189 0 -365.354 99.2471 0 -340.521 82.3613 0 -316.331 68.2877 0 -292.03 56.5844 0 -267.676 46.7958 0 -244.525 38.5555 0 -223.091 31.6708 0 -203.373 25.9686 0 -185.372 21.2761 0 -169.087 17.4205 0 -154.519 14.2287 0 -141.242 11.5481 0 -128.831 9.30672 0 -117.285 7.45265 0 -106.604 5.93409 0 -96.7891 4.69919 0 -87.8397 3.69612 0 -79.6891 2.87526 0 -72.1746 2.20634 0 -65.2887 1.66903 0 -59.0315 1.24307 0 -53.4028 0.908228 0 -48.4029 0.64425 0 -43.991 0.431228 0 -39.924 0.256966 0 -36.1614 0.116989 0 -32.7031 0.00715534 0 -29.5491 -0.0766773 0 -26.6995 -0.13865 0 -24.1507 -0.182899 0 -21.824 -0.212965 0 -19.6871 -0.231225 0 -17.7401 -0.239926 0 -15.983 -0.241314 0 -14.4157 -0.237635 0 -13.0384 -0.231134 0 -11.8017 -0.223686 0 -10.6566 -0.215679 0 -9.60301 -0.20713 0 -8.641 -0.198057 0 -7.77055 -0.188475 0 -6.99165 -0.178403 0 -6.29338 -0.167873 0 -5.64907 -0.15706 0 -5.0575 -0.146212 0 -4.51867 -0.135575 0 -4.03257 -0.1254 0 -3.59922 -0.115932 0 -3.21431 -0.107415 0 -2.852 -0.0999342 0 -2.50799 -0.093424 0 -2.18229 -0.0878106 0 -1.87489 -0.0830205 0 -1.58579 -0.0789801 0 -1.315 -0.0756161 0 -1.06251 -0.072855 0 -0.828319 -0.0706231 0 -0.612433 -0.0688472 0 -0.414849 -0.0674535 0 -0.235568 -0.0663688 0 -0.07459 -0.0655194 0 1.78314 223.091 0 61.709 222.225 0 122.059 239.255 0 182.834 261.846 0 242.808 280.499 0 300.032 302.297 0 354.482 340.32 0 405.235 405.235 0 450.043 486.599 0 488.802 563.099 0 520.143 615.846 0 538.916 660.004 0 544.628 735.285 0 535.805 879.243 0 503.609 1067.39 0 446.564 1213.19 0 365.754 1229.1 0 272.482 1104.32 0 169.753 934.475 0 57.835 822.669 0 -57.3917 824.522 0 -173.522 903.462 0 -290.441 1012.33 0 -399.254 1108.72 0 -494.37 1163.36 0 -575.79 1149.23 0 -639.426 1051.77 0 -681.188 906.29 0 -701.077 760.564 0 -703.746 654.59 0 -696.604 582.966 0 -679.746 523.858 0 -654.958 457.704 0 -626.603 384.901 0 -594.88 316.126 0 -560.301 261.452 0 -524.788 221.627 0 -488.525 190.678 0 -451.951 162.648 0 -417.691 135.399 0 -386.181 110.61 0 -357.287 90.0981 0 -329.605 74.3989 0 -302.76 62.2724 0 -276.783 52.3504 0 -252.36 43.6764 0 -229.77 36.0922 0 -209.013 29.5314 0 -190.089 23.9276 0 -172.999 19.2144 0 -157.742 15.3254 0 -143.874 12.1875 0 -130.952 9.70076 0 -118.977 7.7586 0 -107.948 6.25435 0 -97.8644 5.08139 0 -88.7272 4.13307 0 -80.4496 3.31026 0 -72.8199 2.57895 0 -65.8286 1.93865 0 -59.4756 1.38917 0 -53.761 0.930329 0 -48.6848 0.56192 0 -44.2064 0.283435 0 -40.0828 0.0871061 0 -36.2737 -0.0420957 0 -32.7789 -0.119514 0 -29.5984 -0.160493 0 -26.7324 -0.180376 0 -24.1768 -0.194461 0 -21.8459 -0.212479 0 -19.7048 -0.233345 0 -17.7535 -0.254735 0 -15.9918 -0.274323 0 -14.4199 -0.289783 0 -13.0377 -0.298789 0 -11.7966 -0.299671 0 -10.6479 -0.29337 0 -9.59152 -0.281481 0 -8.62758 -0.265601 0 -7.75604 -0.247326 0 -6.9769 -0.228251 0 -6.27905 -0.209862 0 -5.6353 -0.192693 0 -5.04444 -0.176787 0 -4.50645 -0.162183 0 -4.02135 -0.148918 0 -3.58912 -0.137033 0 -3.20543 -0.126561 0 -2.84429 -0.117467 0 -2.50136 -0.10964 0 -2.17664 -0.10297 0 -1.87013 -0.0973421 0 -1.58182 -0.0926453 0 -1.31173 -0.0887667 0 -1.05984 -0.0855941 0 -0.826167 -0.0830149 0 -0.6107 -0.0809166 0 -0.413442 -0.079187 0 -0.234393 -0.0777134 0 -0.0735537 -0.0763836 0 -12.7525 241.239 0 72.2718 240.985 0 145.082 258.554 0 205.677 283.12 0 262.797 306.358 0 330.351 334.553 0 408.518 379.275 0 486.599 450.043 0 538.44 538.44 0 562.854 626.818 0 570.527 699.533 0 601.64 769.245 0 660.04 869.003 0 728.087 1030.06 0 699.948 1231.84 0 557.983 1401.96 0 316.571 1467.12 0 125.888 1414.93 0 25.8757 1317.51 0 12.2242 1252.89 0 -9.86489 1262.65 0 -79.173 1317.52 0 -195.415 1380.1 0 -336.353 1418.03 0 -488.017 1412.76 0 -650.406 1348.16 0 -783.547 1217.38 0 -847.464 1050.73 0 -842.156 887.865 0 -798.772 761.963 0 -766.89 668.571 0 -747.146 589.612 0 -732.188 508.87 0 -704.045 426.481 0 -661.9 351.002 0 -609.591 290.471 0 -561.547 244.943 0 -519.15 208.724 0 -481.784 176.15 0 -445.753 145.251 0 -410.439 117.755 0 -375.965 95.5148 0 -343.601 78.9364 0 -313.683 66.4144 0 -286.193 56.2004 0 -260.734 47.0948 0 -237.142 38.9643 0 -215.417 31.7984 0 -195.56 25.5865 0 -177.569 20.3179 0 -161.446 15.982 0 -146.792 12.5467 0 -133.209 9.89372 0 -120.697 7.88337 0 -109.257 6.37593 0 -98.8873 5.23166 0 -89.5891 4.31083 0 -81.2387 3.48435 0 -73.534 2.71555 0 -66.4614 2.01537 0 -60.0207 1.39517 0 -54.2121 0.866271 0 -49.0355 0.440018 0 -44.4536 0.127054 0 -40.2425 -0.0779748 0 -36.3648 -0.196419 0 -32.8206 -0.250325 0 -29.6099 -0.261737 0 -26.7326 -0.252703 0 -24.1841 -0.245197 0 -21.8631 -0.252654 0 -19.7279 -0.271923 0 -17.7786 -0.297947 0 -16.0152 -0.325667 0 -14.4376 -0.350028 0 -13.0459 -0.36597 0 -11.7944 -0.369701 0 -10.6374 -0.362473 0 -9.57488 -0.346804 0 -8.6069 -0.32521 0 -7.73344 -0.300209 0 -6.95449 -0.274316 0 -6.25834 -0.249866 0 -5.61634 -0.227605 0 -5.0272 -0.207461 0 -4.4909 -0.189356 0 -4.00745 -0.17321 0 -3.57685 -0.158944 0 -3.19476 -0.146479 0 -2.83509 -0.135702 0 -2.4935 -0.126472 0 -2.17 -0.118643 0 -1.86457 -0.112072 0 -1.57722 -0.106613 0 -1.30796 -0.102122 0 -1.05677 -0.0984559 0 -0.823663 -0.0954691 0 -0.608637 -0.0930176 0 -0.411692 -0.0909569 0 -0.232826 -0.0891427 0 -0.0720409 -0.0874307 0 -19.0281 252.712 0 81.5803 257.543 0 165.19 269.095 0 231.8 290.742 0 294.11 325.192 0 372.329 371.278 0 466.718 426.43 0 563.099 488.802 0 626.818 562.854 0 656.298 656.298 0 666.052 775.948 0 710.644 916.121 0 795.299 1062.12 0 896.763 1199.88 0 875.51 1334.17 0 708.288 1488.61 0 413.12 1686.91 0 178.266 1920.23 0 53.7933 2134.55 0 34.3917 2272.74 0 3.2089 2302.26 0 -87.558 2238.36 0 -237.5 2101.76 0 -414.733 1915.11 0 -599.227 1706.26 0 -790.98 1503.96 0 -943.091 1330.12 0 -1008.66 1179.31 0 -987.676 1039.23 0 -920.541 899.89 0 -871.545 764.649 0 -841.514 641.698 0 -820.371 538.324 0 -783.489 453.861 0 -729.747 383.554 0 -664.235 322.785 0 -606.095 269.344 0 -557.158 222.75 0 -516.23 182.568 0 -476.143 148.539 0 -435.702 120.577 0 -395.225 98.5937 0 -358.023 81.9036 0 -324.976 68.9971 0 -296.013 58.3077 0 -269.566 48.761 0 -244.991 40.2379 0 -222.288 32.7292 0 -201.458 26.2258 0 -182.5 20.7183 0 -165.416 16.1975 0 -149.876 12.6309 0 -135.554 9.89218 0 -122.45 7.83157 0 -110.564 6.29939 0 -99.8957 5.14594 0 -90.4452 4.22152 0 -82.0441 3.3879 0 -74.2804 2.6069 0 -67.1355 1.89182 0 -60.6093 1.2564 0 -54.7018 0.714347 0 -49.413 0.279407 0 -44.7102 -0.0354788 0 -40.397 -0.235416 0 -36.4407 -0.343558 0 -32.8412 -0.383846 0 -29.5985 -0.380218 0 -26.7128 -0.356613 0 -24.1783 -0.336894 0 -21.8738 -0.335546 0 -19.7496 -0.348849 0 -17.8056 -0.370988 0 -16.0419 -0.396148 0 -14.4585 -0.418517 0 -13.0553 -0.43228 0 -11.7909 -0.433047 0 -10.6236 -0.422127 0 -9.55359 -0.402253 0 -8.58074 -0.376156 0 -7.7051 -0.34657 0 -6.92665 -0.316227 0 -6.2329 -0.28766 0 -5.59329 -0.261673 0 -5.00644 -0.238176 0 -4.47234 -0.217073 0 -3.991 -0.198268 0 -3.56241 -0.181666 0 -3.18222 -0.167168 0 -2.82431 -0.154642 0 -2.48432 -0.14392 0 -2.16225 -0.134832 0 -1.85811 -0.127209 0 -1.57189 -0.120883 0 -1.30359 -0.115683 0 -1.05321 -0.11144 0 -0.820761 -0.107986 0 -0.606231 -0.10515 0 -0.409624 -0.102763 0 -0.230939 -0.100657 0 -0.0701773 -0.0986606 0 -4.41875 257.684 0 86.8514 269.727 0 175.418 272.285 0 261.28 288.589 0 346.528 336.802 0 434.487 405.481 0 525.199 472.467 0 615.846 520.143 0 699.533 570.527 0 775.948 666.052 0 844.306 844.306 0 901.656 1074.87 0 947.717 1278.33 0 978.001 1379.13 0 965.594 1416.11 0 906.007 1542.43 0 799.223 1912.75 0 645.041 2523.55 0 443.408 3151.79 0 195.947 3559.18 0 -61.6312 3613.97 0 -314.72 3391.37 0 -562.93 2990.38 0 -776.07 2507.42 0 -935.171 2031.78 0 -1040.23 1651.54 0 -1100.53 1426.47 0 -1125.33 1302.95 0 -1114.65 1199.08 0 -1078.62 1046.95 0 -1033.42 860.46 0 -979.252 683.153 0 -918.074 553.917 0 -854.679 470.864 0 -789.286 411.111 0 -723.347 352.828 0 -662.317 290.884 0 -606.721 232.177 0 -556.045 183.657 0 -507.218 147.373 0 -459.727 120.471 0 -413.861 99.9029 0 -372.628 83.4471 0 -336.829 70.0319 0 -306.353 58.6723 0 -278.774 48.6751 0 -253.098 39.913 0 -229.327 32.3238 0 -207.459 25.8453 0 -187.495 20.4154 0 -169.434 15.9719 0 -153.007 12.4402 0 -137.943 9.69617 0 -124.242 7.6032 0 -111.903 6.02474 0 -100.928 4.82424 0 -91.3154 3.86513 0 -82.8533 3.02093 0 -75.0225 2.25302 0 -67.7992 1.568 0 -61.1835 0.972855 0 -55.1755 0.474558 0 -49.775 0.0800868 0 -44.9537 -0.204164 0 -40.5406 -0.385217 0 -36.5072 -0.483514 0 -32.8536 -0.520078 0 -29.5797 -0.515935 0 -26.6856 -0.492107 0 -24.1648 -0.469552 0 -21.8764 -0.461155 0 -19.763 -0.464122 0 -17.8245 -0.473857 0 -16.0609 -0.485765 0 -14.4722 -0.49525 0 -13.0584 -0.497717 0 -11.7819 -0.48971 0 -10.6052 -0.472333 0 -9.52816 -0.447828 0 -8.55091 -0.418439 0 -7.67339 -0.38641 0 -6.89562 -0.353983 0 -6.20436 -0.323244 0 -5.56726 -0.294895 0 -4.98285 -0.26893 0 -4.45114 -0.245334 0 -3.97211 -0.224095 0 -3.54578 -0.205199 0 -3.16777 -0.188629 0 -2.81187 -0.174285 0 -2.47372 -0.161982 0 -2.15331 -0.151535 0 -1.85064 -0.142755 0 -1.56572 -0.135455 0 -1.29854 -0.129449 0 -1.0491 -0.124548 0 -0.817414 -0.120565 0 -0.603467 -0.117314 0 -0.407263 -0.114606 0 -0.228804 -0.112255 0 -0.0680885 -0.110073 0 22.0501 256.815 0 90.3533 269.365 0 180.669 273.401 0 292.996 291.238 0 411.083 340.448 0 509.056 410.879 0 586.585 482.35 0 660.004 538.916 0 769.245 601.64 0 916.121 710.644 0 1074.87 901.656 0 1148.64 1148.64 0 1128.15 1381.06 0 1039.65 1531.76 0 1040.55 1634.52 0 1157.11 1823.99 0 1360.24 2236.02 0 1346.27 2861.48 0 1034.45 3490.09 0 437.436 3897.54 0 -166.024 3959.23 0 -661.897 3744.04 0 -1049.87 3343.14 0 -1305.52 2846.96 0 -1413.49 2343.97 0 -1373.79 1922.29 0 -1284.55 1643.48 0 -1243.92 1462.79 0 -1251.89 1308.88 0 -1269.43 1122.58 0 -1234.44 915.622 0 -1146.1 725.401 0 -1025.71 585.181 0 -925.277 491.863 0 -847.165 423.632 0 -786.61 359.665 0 -725.7 294.729 0 -662.719 234.827 0 -598.53 186.009 0 -538.303 149.696 0 -482.901 122.681 0 -432.421 101.579 0 -387.883 84.1175 0 -349.56 69.5621 0 -317.321 57.2942 0 -288.277 46.8371 0 -261.249 37.9896 0 -236.235 30.5821 0 -213.237 24.4452 0 -192.254 19.4094 0 -173.285 15.3052 0 -156.066 11.9745 0 -140.331 9.30567 0 -126.078 7.19825 0 -113.309 5.55198 0 -102.023 4.26655 0 -92.2198 3.24166 0 -83.654 2.38342 0 -75.7235 1.65389 0 -68.4007 1.0439 0 -61.6858 0.544545 0 -55.5787 0.146903 0 -50.0794 -0.157943 0 -45.1616 -0.379001 0 -40.6674 -0.527379 0 -36.5705 -0.616286 0 -32.8709 -0.659022 0 -29.5686 -0.668888 0 -26.6637 -0.659184 0 -24.1489 -0.643172 0 -21.8694 -0.629481 0 -19.7615 -0.617743 0 -17.8255 -0.606556 0 -16.0611 -0.594518 0 -14.4685 -0.580228 0 -13.0476 -0.562283 0 -11.7633 -0.539689 0 -10.5805 -0.513089 0 -9.49912 -0.483529 0 -8.51918 -0.452059 0 -7.64069 -0.419729 0 -6.86365 -0.387586 0 -6.17436 -0.356617 0 -5.53935 -0.327273 0 -4.95711 -0.299724 0 -4.42763 -0.274139 0 -3.95091 -0.250689 0 -3.52695 -0.229543 0 -3.15135 -0.210861 0 -2.7977 -0.194631 0 -2.4616 -0.180661 0 -2.14305 -0.168753 0 -1.84206 -0.158709 0 -1.55861 -0.15033 0 -1.29271 -0.14342 0 -1.04437 -0.137778 0 -0.813574 -0.133207 0 -0.60033 -0.129509 0 -0.404636 -0.126485 0 -0.226493 -0.123938 0 -0.0659002 -0.121669 0 35.75 250.169 0 97.9947 255.677 0 194.401 272.949 0 324.968 300.085 0 465.294 336.058 0 576.533 384.957 0 658.188 452.724 0 735.285 544.628 0 869.003 660.04 0 1062.12 795.299 0 1278.33 947.717 0 1381.06 1128.15 0 1357.24 1357.24 0 1244.44 1654.33 0 1268.08 2004.43 0 1465.72 2358.23 0 1795.26 2665.45 0 1817.09 2899.23 0 1414.29 3065.25 0 604.943 3171.53 0 -212.639 3219.44 0 -875.524 3197.5 0 -1383.29 3092.75 0 -1703.35 2900.43 0 -1815.23 2638.49 0 -1718.92 2328.78 0 -1557.17 1994.29 0 -1472.71 1662.74 0 -1465.54 1363.01 0 -1479.9 1119.08 0 -1427 926.269 0 -1305.71 769.538 0 -1145.04 634.942 0 -1015.86 518.234 0 -921.399 420.156 0 -854.121 341.29 0 -785.671 279.457 0 -713.335 230.491 0 -638.492 190.255 0 -569.422 156.267 0 -507.506 127.707 0 -452.717 103.827 0 -404.768 83.9675 0 -363.585 67.5919 0 -329.026 54.1734 0 -297.995 43.247 0 -269.225 34.4676 0 -242.715 27.5042 0 -218.467 22.0255 0 -196.479 17.7002 0 -176.752 14.1973 0 -158.934 11.2339 0 -142.671 8.72069 0 -127.964 6.61674 0 -114.813 4.88111 0 -103.218 3.47288 0 -93.1782 2.35112 0 -84.4338 1.47539 0 -76.3468 0.809518 0 -68.8883 0.319528 0 -62.0583 -0.0285329 0 -55.8568 -0.268618 0 -50.2838 -0.434683 0 -45.3113 -0.55999 0 -40.7715 -0.6619 0 -36.6364 -0.741873 0 -32.9061 -0.800677 0 -29.5805 -0.839078 0 -26.6597 -0.857845 0 -24.1363 -0.857754 0 -21.8509 -0.840524 0 -19.7383 -0.809712 0 -17.7985 -0.769084 0 -16.0314 -0.722408 0 -14.437 -0.67345 0 -13.0154 -0.625976 0 -11.731 -0.582985 0 -10.5482 -0.544395 0 -9.46695 -0.509356 0 -8.48735 -0.477016 0 -7.60936 -0.446526 0 -6.83297 -0.417034 0 -6.14454 -0.387781 0 -5.51068 -0.358806 0 -4.92989 -0.330558 0 -4.40216 -0.303489 0 -3.9275 -0.278051 0 -3.5059 -0.254697 0 -3.1329 -0.233865 0 -2.78171 -0.215681 0 -2.44787 -0.199955 0 -2.13139 -0.186486 0 -1.83225 -0.175071 0 -1.55046 -0.165508 0 -1.28602 -0.157595 0 -1.03893 -0.151131 0 -0.809195 -0.145911 0 -0.596806 -0.141736 0 -0.401767 -0.138401 0 -0.224078 -0.135706 0 -0.0637378 -0.133447 0 13.1393 237.264 0 115.367 230.589 0 229.418 268.447 0 355.293 309.718 0 487.704 323.157 0 618.236 335.193 0 746.781 393.13 0 879.243 535.805 0 1030.06 728.087 0 1199.88 896.763 0 1379.13 978.001 0 1531.76 1039.65 0 1654.33 1244.44 0 1746.67 1746.67 0 1807.93 2457.98 0 1837.95 3047.39 0 1823.16 3179.58 0 1621.72 2801 0 1195.91 2249.08 0 554.488 1888.66 0 -109.626 1914.52 0 -717.522 2191.27 0 -1268.27 2545.6 0 -1689.79 2826.45 0 -1936.78 2944.27 0 -2009.24 2820.06 0 -1978.12 2418 0 -1914.38 1875.13 0 -1818.02 1371.69 0 -1697.4 1057.1 0 -1565.82 900.77 0 -1423.46 806.966 0 -1277.54 689.183 0 -1145.77 542.054 0 -1028.93 401.991 0 -925.848 303.423 0 -832.106 249.149 0 -747.276 219.179 0 -670.934 193.52 0 -600.537 163.788 0 -535.661 133.201 0 -476.434 105.446 0 -424.188 82.5046 0 -379.278 63.9915 0 -341.558 49.3481 0 -307.837 38.0248 0 -276.809 29.4893 0 -248.474 23.2117 0 -222.831 18.6618 0 -199.881 15.3098 0 -179.623 12.6254 0 -161.491 10.1729 0 -144.918 7.89364 0 -129.903 5.82308 0 -116.446 3.99676 0 -104.548 2.45022 0 -94.2084 1.21899 0 -85.1795 0.331505 0 -76.8564 -0.245581 0 -69.2117 -0.577429 0 -62.2453 -0.72946 0 -55.9573 -0.767096 0 -50.3475 -0.755759 0 -45.381 -0.759189 0 -40.847 -0.802457 0 -36.7105 -0.871959 0 -32.9714 -0.952415 0 -29.6297 -1.02854 0 -26.6855 -1.08505 0 -24.132 -1.10674 0 -21.8195 -1.08645 0 -19.6868 -1.03275 0 -17.734 -0.955963 0 -15.961 -0.86645 0 -14.3678 -0.774555 0 -12.9544 -0.690625 0 -11.6808 -0.622739 0 -10.5067 -0.569903 0 -9.43213 -0.528857 0 -8.45712 -0.496338 0 -7.58165 -0.469086 0 -6.80572 -0.443838 0 -6.11644 -0.417619 0 -5.48229 -0.389941 0 -4.90183 -0.361593 0 -4.37507 -0.33338 0 -3.902 -0.306102 0 -3.48262 -0.280562 0 -3.11237 -0.25754 0 -2.76383 -0.237339 0 -2.43244 -0.219777 0 -2.1182 -0.204657 0 -1.82111 -0.191776 0 -1.54117 -0.180936 0 -1.27838 -0.171935 0 -1.03273 -0.164575 0 -0.804232 -0.158654 0 -0.592882 -0.153973 0 -0.398681 -0.150332 0 -0.221629 -0.147529 0 -0.0617244 -0.145366 0 -36.4027 215.219 0 138.917 205.675 0 279.149 244.994 0 384.295 287.665 0 487.25 298.895 0 640.377 306.467 0 844.347 360.815 0 1067.39 503.609 0 1231.84 699.948 0 1334.17 875.51 0 1416.11 965.594 0 1634.52 1040.55 0 2004.43 1268.08 0 2457.98 1807.93 0 2588.11 2588.11 0 2326.95 3304.85 0 1712.26 3649.59 0 1138.26 3552 0 709.808 3272.34 0 418.472 3094.09 0 78.9431 3163.88 0 -384.588 3362.46 0 -970.313 3540.11 0 -1537.16 3576.85 0 -1996.51 3434.88 0 -2348.36 3090.48 0 -2538 2549.23 0 -2510.75 1933.81 0 -2266.59 1396.18 0 -1924.36 1060.59 0 -1673.21 889.338 0 -1515.59 786.116 0 -1418.18 663.79 0 -1299.57 515.781 0 -1156.09 376.983 0 -998.622 280.378 0 -868.205 228.287 0 -768.766 200.94 0 -696.639 178.558 0 -629.846 152.46 0 -564.723 125.06 0 -501.687 99.2326 0 -445.091 76.773 0 -396.092 57.982 0 -354.557 43.0482 0 -317.527 31.8908 0 -283.794 23.9072 0 -253.356 18.4343 0 -226.215 14.8093 0 -202.37 12.3695 0 -181.821 10.4517 0 -163.666 8.51927 0 -147.003 6.53901 0 -131.832 4.60387 0 -118.153 2.80674 0 -105.967 1.24052 0 -95.272 -0.00187201 0 -85.8625 -0.840194 0 -77.2316 -1.30432 0 -69.3562 -1.48081 0 -62.2365 -1.45672 0 -55.8724 -1.31908 0 -50.2639 -1.15493 0 -45.3635 -1.04895 0 -40.8864 -1.0311 0 -36.7851 -1.07664 0 -33.0595 -1.15847 0 -29.7098 -1.24949 0 -26.7358 -1.32259 0 -24.132 -1.35078 0 -21.7723 -1.3203 0 -19.6053 -1.24317 0 -17.631 -1.13433 0 -15.8494 -1.00875 0 -14.2605 -0.881383 0 -12.8643 -0.767189 0 -11.6121 -0.677796 0 -10.4553 -0.611513 0 -9.39379 -0.563319 0 -8.42761 -0.528192 0 -7.55676 -0.501114 0 -6.78124 -0.477062 0 -6.08961 -0.451441 0 -5.45387 -0.423351 0 -4.87274 -0.393796 0 -4.34623 -0.363795 0 -3.87434 -0.334368 0 -3.45707 -0.306533 0 -3.08971 -0.281285 0 -2.74401 -0.259034 0 -2.41525 -0.239609 0 -2.10345 -0.22281 0 -1.80859 -0.20844 0 -1.53068 -0.196301 0 -1.26972 -0.186196 0 -1.02572 -0.177925 0 -0.798658 -0.171292 0 -0.588549 -0.166098 0 -0.395389 -0.162145 0 -0.219178 -0.159236 0 -0.0599169 -0.157173 0 -70.5756 183.552 0 155.946 182.863 0 317.649 200.106 0 414.532 228.515 0 503.266 262.797 0 674.064 306.258 0 928.081 365.319 0 1213.19 446.564 0 1401.96 557.983 0 1488.61 708.288 0 1542.43 906.007 0 1823.99 1157.11 0 2358.23 1465.72 0 3047.39 1837.95 0 3304.85 2326.95 0 3032.85 3032.85 0 2280.34 4054.02 0 1558.72 5316.43 0 1003.99 6506.8 0 605.677 7295.37 0 133.071 7487.42 0 -508.201 7150.59 0 -1315.34 6382.69 0 -2069.94 5310.26 0 -2634.81 4139.23 0 -3009.94 3089.11 0 -3158.27 2327.09 0 -3042.74 1811.08 0 -2663.35 1446.7 0 -2178.24 1150.21 0 -1839.13 900.34 0 -1649.25 698.39 0 -1555.32 544.745 0 -1427.08 431.491 0 -1258.62 346.439 0 -1066.13 277.873 0 -910.492 220.951 0 -797.538 175.783 0 -722.168 142.493 0 -653.787 118.983 0 -587.295 100.934 0 -523.025 83.9857 0 -464.471 66.2801 0 -412.561 49.4337 0 -367.212 35.3117 0 -326.6 24.9652 0 -289.978 17.8633 0 -257.347 13.2937 0 -228.707 10.5438 0 -204.057 8.90119 0 -183.398 7.65339 0 -165.425 6.22755 0 -148.833 4.60922 0 -133.622 2.92354 0 -119.792 1.29568 0 -107.343 -0.14921 0 -96.2753 -1.28598 0 -86.4384 -2.00503 0 -77.4663 -2.33217 0 -69.3425 -2.36292 0 -62.0669 -2.19338 0 -55.6396 -1.91965 0 -50.0604 -1.63784 0 -45.2666 -1.44134 0 -40.8807 -1.36149 0 -36.8399 -1.36759 0 -33.1442 -1.42622 0 -29.7935 -1.50397 0 -26.7879 -1.56743 0 -24.1232 -1.58331 0 -21.7056 -1.53423 0 -19.497 -1.43369 0 -17.4972 -1.2987 0 -15.7064 -1.14632 0 -14.1245 -0.993571 0 -12.7514 -0.857495 0 -11.5277 -0.751299 0 -10.3939 -0.672875 0 -9.34974 -0.616289 0 -8.39541 -0.575607 0 -7.53087 -0.544895 0 -6.75611 -0.518217 0 -6.06155 -0.490131 0 -5.42373 -0.459484 0 -4.84158 -0.427327 0 -4.31511 -0.394732 0 -3.84432 -0.362769 0 -3.4292 -0.33251 0 -3.0649 -0.304999 0 -2.72221 -0.280673 0 -2.39628 -0.259362 0 -2.0871 -0.240869 0 -1.79467 -0.224998 0 -1.51899 -0.211552 0 -1.26006 -0.200335 0 -1.01789 -0.19115 0 -0.792469 -0.1838 0 -0.5838 -0.178089 0 -0.391884 -0.17382 0 -0.216719 -0.170798 0 -0.058307 -0.168824 0 -46.4888 142.716 0 153.616 160.823 0 318.634 136.062 0 448.566 136.788 0 575.564 215.089 0 750.805 328.067 0 974.946 398.436 0 1229.1 365.754 0 1467.12 316.571 0 1686.91 413.12 0 1912.75 799.223 0 2236.02 1360.24 0 2665.45 1795.26 0 3179.58 1823.16 0 3649.59 1712.26 0 4054.02 2280.34 0 4349.48 4349.48 0 4082.81 7854.18 0 3133.5 11497.4 0 1527.3 13896.3 0 -169.23 14272.9 0 -1724.32 13023.5 0 -3134.34 10679.3 0 -4116.9 7791.61 0 -4494.61 4967.21 0 -4267.46 2822.22 0 -3757.85 1783.18 0 -3288.19 1518.08 0 -2858.48 1505.3 0 -2476.42 1301.71 0 -2154.26 922.591 0 -1892.16 549.181 0 -1677.16 343.277 0 -1477.51 295.651 0 -1291.79 309.012 0 -1122 290.862 0 -975.679 223.644 0 -853.562 143.814 0 -754.186 87.8787 0 -668.792 66.1208 0 -595.919 62.6012 0 -534.939 60.4283 0 -479.276 51.2122 0 -427.183 38.3611 0 -378.693 26.1388 0 -334.58 17.2478 0 -295.161 11.3578 0 -260.435 7.78985 0 -230.402 5.86519 0 -205.063 4.90497 0 -184.416 4.23038 0 -166.742 3.29778 0 -150.318 2.10426 0 -135.143 0.7821 0 -121.219 -0.536407 0 -108.546 -1.71898 0 -97.1219 -2.63334 0 -86.8622 -3.16301 0 -77.5557 -3.32915 0 -69.1928 -3.22376 0 -61.7736 -2.93946 0 -55.2979 -2.56882 0 -49.7659 -2.20447 0 -45.0984 -1.93634 0 -40.8208 -1.79364 0 -36.854 -1.74482 0 -33.198 -1.75567 0 -29.8528 -1.79198 0 -26.8184 -1.81956 0 -24.0922 -1.80434 0 -21.6157 -1.72825 0 -19.3652 -1.60431 0 -17.3406 -1.44908 0 -15.542 -1.27916 0 -13.9692 -1.11112 0 -12.6224 -0.961544 0 -11.4305 -0.843246 0 -10.3222 -0.753989 0 -9.29775 -0.687768 0 -8.35702 -0.638582 0 -7.50003 -0.600428 0 -6.72678 -0.567302 0 -6.02968 -0.53369 0 -5.39012 -0.498339 0 -4.80727 -0.462186 0 -4.28113 -0.42619 0 -3.81169 -0.391307 0 -3.39895 -0.358493 0 -3.0379 -0.328682 0 -2.69843 -0.302254 0 -2.37551 -0.279036 0 -2.06914 -0.258834 0 -1.77933 -0.24145 0 -1.50608 -0.226688 0 -1.24939 -0.214353 0 -1.00925 -0.204249 0 -0.785662 -0.196179 0 -0.578633 -0.189947 0 -0.388161 -0.185357 0 -0.214244 -0.182213 0 -0.0568834 -0.18032 0 40.6549 97.427 0 130.629 125.668 0 278.756 76.654 0 485.037 59.6834 0 705.727 158.131 0 871.194 303.989 0 980.546 374.453 0 1104.32 272.482 0 1414.93 125.888 0 1920.23 178.266 0 2523.55 645.041 0 2861.48 1346.27 0 2899.23 1817.09 0 2801 1621.72 0 3552 1138.26 0 5316.43 1558.72 0 7854.18 4082.81 0 8657.39 8657.39 0 7059.07 13490.9 0 3159.6 16670.5 0 -832.989 17126 0 -4015.4 15422.6 0 -6383.49 12313.9 0 -7613.74 8565.53 0 -7502.91 4977.49 0 -6051 2355.54 0 -4277.12 1247.73 0 -3200.33 1171.04 0 -2820.65 1384.73 0 -2802.22 1261.75 0 -2610.37 839.252 0 -2238.28 394.788 0 -1775.85 176.659 0 -1442.88 175.801 0 -1249.38 250.631 0 -1163.09 266.62 0 -1062.77 199.855 0 -936.832 106.146 0 -792.649 41.379 0 -674.56 22.7218 0 -589.954 28.6252 0 -536.382 36.1067 0 -488.262 33.5141 0 -438.789 24.9174 0 -388.171 15.5294 0 -340.996 8.7388 0 -299.143 4.39056 0 -262.61 1.92279 0 -231.397 0.773521 0 -205.506 0.380809 0 -184.935 0.182699 0 -167.586 -0.270057 0 -151.362 -0.975874 0 -136.263 -1.82046 0 -122.289 -2.68953 0 -109.44 -3.46879 0 -97.7155 -4.04394 0 -87.0889 -4.31413 0 -77.4945 -4.29524 0 -68.9294 -4.06334 0 -61.3935 -3.69494 0 -54.8868 -3.26659 0 -49.4093 -2.85482 0 -44.8673 -2.53397 0 -40.6975 -2.32756 0 -36.8063 -2.20832 0 -33.1936 -2.1468 0 -29.8594 -2.11351 0 -26.8038 -2.07899 0 -24.0254 -2.01387 0 -21.4988 -1.90236 0 -19.2134 -1.75503 0 -17.1692 -1.58547 0 -15.3663 -1.40728 0 -13.8045 -1.23403 0 -12.484 -1.07933 0 -11.3232 -0.953638 0 -10.2403 -0.854854 0 -9.23559 -0.777756 0 -8.3089 -0.717118 0 -7.46027 -0.667714 0 -6.6897 -0.624317 0 -5.99143 -0.582117 0 -5.35132 -0.539916 0 -4.76875 -0.498374 0 -4.24372 -0.45817 0 -3.77623 -0.41998 0 -3.36626 -0.384482 0 -3.00869 -0.352334 0 -2.67262 -0.323777 0 -2.35292 -0.298633 0 -2.04957 -0.276704 0 -1.76258 -0.257795 0 -1.49196 -0.24171 0 -1.23769 -0.228251 0 -0.99978 -0.217223 0 -0.778231 -0.208428 0 -0.573043 -0.201671 0 -0.384214 -0.196755 0 -0.211744 -0.193484 0 -0.0556348 -0.191661 0 142.796 48.9406 0 101.711 73.7027 0 226.489 28.2096 0 517.129 9.75648 0 842.298 92.5498 0 992.934 215.965 0 966.357 270.576 0 934.475 169.753 0 1317.51 25.8757 0 2134.55 53.7933 0 3151.79 443.408 0 3490.09 1034.45 0 3065.25 1414.29 0 2249.08 1195.91 0 3272.34 709.808 0 6506.8 1003.99 0 11497.4 3133.5 0 13490.9 7059.07 0 11223 11223 0 4875.32 13962 0 -1562.19 14345.9 0 -6457.17 12869.7 0 -9805.14 10191.9 0 -11257 6979.01 0 -10593.3 3919.72 0 -7814.23 1706.56 0 -4686.21 808.569 0 -2975.8 800.886 0 -2683.01 1035.16 0 -3091.72 962.958 0 -3061.97 619.25 0 -2579.15 250.185 0 -1849.03 76.0815 0 -1374.56 89.9044 0 -1178.62 167.556 0 -1190.77 191.127 0 -1146.22 139.874 0 -1019.62 63.0745 0 -828.204 10.0857 0 -675.324 -3.54084 0 -578.209 3.94367 0 -532.502 13.028 0 -492.691 13.7028 0 -446.67 9.14322 0 -394.815 3.48363 0 -345.374 -0.561944 0 -301.723 -3.03837 0 -263.861 -4.30751 0 -231.789 -4.7312 0 -205.506 -4.6713 0 -185.013 -4.48966 0 -167.929 -4.47595 0 -151.875 -4.63117 0 -136.851 -4.88414 0 -122.858 -5.16369 0 -109.894 -5.39863 0 -97.9598 -5.5178 0 -87.0735 -5.45838 0 -77.2777 -5.23046 0 -68.5744 -4.88164 0 -60.9637 -4.45983 0 -54.4454 -4.01295 0 -49.0196 -3.5889 0 -44.5815 -3.23421 0 -40.5019 -2.96322 0 -36.676 -2.7581 0 -33.1039 -2.59963 0 -29.7854 -2.46857 0 -26.7206 -2.34571 0 -23.9095 -2.21189 0 -21.3511 -2.05656 0 -19.0449 -1.88586 0 -16.991 -1.70787 0 -15.1894 -1.53066 0 -13.64 -1.3623 0 -12.3429 -1.21087 0 -11.2087 -1.08248 0 -10.1481 -0.975472 0 -9.16101 -0.886253 0 -8.24754 -0.811214 0 -7.40765 -0.746752 0 -6.64133 -0.689263 0 -5.94421 -0.635413 0 -5.30558 -0.584215 0 -4.72495 -0.53589 0 -4.20232 -0.490671 0 -3.7377 -0.448789 0 -3.33108 -0.410477 0 -2.97723 -0.375955 0 -2.64478 -0.345243 0 -2.32849 -0.318151 0 -2.02837 -0.294481 0 -1.7444 -0.274035 0 -1.4766 -0.256617 0 -1.22496 -0.242028 0 -0.989487 -0.230071 0 -0.770174 -0.220549 0 -0.567024 -0.213262 0 -0.380037 -0.208015 0 -0.209212 -0.204609 0 -0.0545501 -0.202846 0 208.179 -2.6772 0 82.708 5.62996 0 192.533 -9.83741 0 537.654 -14.3178 0 930.119 18.6198 0 1070.74 66.7591 0 955.671 90.2752 0 822.669 57.835 0 1252.89 12.2242 0 2272.74 34.3917 0 3559.18 195.947 0 3897.54 437.436 0 3171.53 604.943 0 1888.66 554.488 0 3094.09 418.472 0 7295.37 605.677 0 13896.3 1527.3 0 16670.5 3159.6 0 13962 4875.32 0 6005.19 6005.19 0 -2039.81 6173.69 0 -8062.15 5575.88 0 -12057.1 4472.37 0 -13656.9 3130.59 0 -12630.4 1836.75 0 -8977.74 880.315 0 -4957.48 459.479 0 -2828.31 407.395 0 -2590.22 465.96 0 -3277.75 416.26 0 -3353.99 268.219 0 -2799.23 114.594 0 -1894.76 38.3536 0 -1328.09 36.279 0 -1130.49 60.7745 0 -1206.72 66.5868 0 -1198.75 45.2425 0 -1072.28 14.7747 0 -850.85 -6.73134 0 -675.631 -13.4594 0 -570.153 -11.8619 0 -528.881 -8.85308 0 -494.006 -8.11684 0 -450.157 -8.85424 0 -397.799 -9.93932 0 -347.242 -10.6281 0 -302.702 -10.9185 0 -264.178 -10.8937 0 -231.672 -10.6369 0 -205.183 -10.2311 0 -184.71 -9.7595 0 -167.742 -9.29073 0 -151.764 -8.83497 0 -136.776 -8.38783 0 -122.78 -7.94493 0 -109.774 -7.50189 0 -97.7589 -7.05433 0 -86.7711 -6.5987 0 -76.9001 -6.13868 0 -68.1501 -5.68167 0 -60.5209 -5.23511 0 -54.0128 -4.80643 0 -48.6255 -4.40305 0 -44.2493 -4.03218 0 -40.2248 -3.69565 0 -36.4422 -3.38991 0 -32.9015 -3.11118 0 -29.6027 -2.8557 0 -26.5457 -2.61968 0 -23.7311 -2.39936 0 -21.1688 -2.19221 0 -18.8631 -1.99811 0 -16.814 -1.81723 0 -15.0213 -1.64972 0 -13.4852 -1.49574 0 -12.2056 -1.35545 0 -11.0899 -1.22878 0 -10.0453 -1.11478 0 -9.0718 -1.01225 0 -8.16944 -0.920023 0 -7.33822 -0.836904 0 -6.57813 -0.761712 0 -5.88546 -0.693318 0 -5.25115 -0.631094 0 -4.67478 -0.574668 0 -4.15636 -0.52367 0 -3.69588 -0.477729 0 -3.29334 -0.436477 0 -2.9435 -0.399546 0 -2.61488 -0.366652 0 -2.30221 -0.33759 0 -2.00552 -0.312163 0 -1.72478 -0.290169 0 -1.46001 -0.27141 0 -1.21121 -0.255685 0 -0.978364 -0.242795 0 -0.761487 -0.23254 0 -0.560573 -0.22472 0 -0.375624 -0.219136 0 -0.206639 -0.215588 0 -0.0536178 -0.213877 0 209.185 -55.9714 0 82.2167 -63.101 0 193.31 -49.9453 0 542.465 -41.6802 0 939.117 -57.6203 0 1079.92 -82.8546 0 960.979 -90.0838 0 824.522 -57.3917 0 1262.65 -9.86489 0 2302.26 3.2089 0 3613.97 -61.6312 0 3959.23 -166.024 0 3219.44 -212.639 0 1914.52 -109.626 0 3163.88 78.9431 0 7487.42 133.071 0 14272.9 -169.23 0 17126 -832.989 0 14345.9 -1562.19 0 6173.69 -2039.81 0 -2090.77 -2090.77 0 -8279.31 -1815.63 0 -12387 -1346.62 0 -14031.4 -811.94 0 -12972 -328.645 0 -9208.97 -11.8798 0 -5066.81 63.7651 0 -2870.07 -14.0775 0 -2618.77 -117.22 0 -3321.47 -138.124 0 -3399.98 -89.8491 0 -2834.08 -29.1043 0 -1911.07 -6.73904 0 -1333.24 -22.0816 0 -1132.51 -47.9319 0 -1211.7 -58.4978 0 -1205.34 -50.0778 0 -1078.46 -34.8904 0 -854.895 -25.1342 0 -677.717 -24.4655 0 -570.771 -27.9983 0 -528.514 -30.5361 0 -493.046 -29.6438 0 -448.967 -26.7184 0 -396.733 -23.434 0 -346.367 -20.8817 0 -301.967 -19.0194 0 -263.535 -17.6751 0 -231.069 -16.6766 0 -204.571 -15.8519 0 -184.04 -15.0287 0 -167 -14.0728 0 -150.979 -13.0008 0 -135.975 -11.8671 0 -121.988 -10.7263 0 -109.018 -9.63273 0 -97.0667 -8.6409 0 -86.1582 -7.79933 0 -76.3558 -7.10524 0 -67.6626 -6.52938 0 -60.0785 -6.0423 0 -53.6034 -5.61454 0 -48.2374 -5.21665 0 -43.8726 -4.81999 0 -39.8611 -4.41481 0 -36.0949 -4.01024 0 -32.574 -3.61623 0 -29.2985 -3.24275 0 -26.2683 -2.89974 0 -23.4837 -2.59712 0 -20.9499 -2.33945 0 -18.6691 -2.1209 0 -16.6411 -1.93447 0 -14.8661 -1.77315 0 -13.3441 -1.62992 0 -12.075 -1.49778 0 -10.9679 -1.37103 0 -9.93184 -1.24932 0 -8.9669 -1.13363 0 -8.07303 -1.0249 0 -7.25025 -0.924121 0 -6.49855 -0.832251 0 -5.81405 -0.750128 0 -5.18726 -0.677429 0 -4.61777 -0.613237 0 -4.10556 -0.55663 0 -3.65064 -0.506684 0 -3.25301 -0.462479 0 -2.90747 -0.423106 0 -2.58289 -0.388003 0 -2.27406 -0.356952 0 -1.98101 -0.329751 0 -1.70371 -0.306197 0 -1.44218 -0.286088 0 -1.19641 -0.26922 0 -0.966407 -0.255392 0 -0.752165 -0.244401 0 -0.553686 -0.236044 0 -0.37097 -0.230119 0 -0.204017 -0.226423 0 -0.0528268 -0.224753 0 165.062 -110.347 0 94.7615 -126.17 0 217.515 -97.2108 0 533.324 -84.2519 0 887.937 -133.7 0 1035.81 -208.013 0 973.797 -239.26 0 903.462 -173.522 0 1317.52 -79.173 0 2238.36 -87.558 0 3391.37 -314.72 0 3744.04 -661.897 0 3197.5 -875.524 0 2191.27 -717.522 0 3362.46 -384.588 0 7150.59 -508.201 0 13023.5 -1724.32 0 15422.6 -4015.4 0 12869.7 -6457.17 0 5575.88 -8062.15 0 -1815.63 -8279.31 0 -7405.26 -7405.26 0 -11188.1 -5834 0 -12778.4 -3961.74 0 -11934 -2190.79 0 -8654.83 -924.499 0 -4996.9 -434.493 0 -3016.16 -465.432 0 -2712.6 -630.243 0 -3239 -601.919 0 -3246.75 -404.231 0 -2718.54 -187.914 0 -1896 -87.9204 0 -1369.76 -100.316 0 -1166.66 -149.653 0 -1204.6 -164.285 0 -1174.79 -132.195 0 -1047.68 -84.3406 0 -843.02 -51.6937 0 -679.323 -43.6902 0 -576.34 -48.2322 0 -529.383 -52.4299 0 -489.471 -49.9368 0 -443.58 -43.4851 0 -392.074 -36.4664 0 -342.979 -31.0861 0 -299.579 -27.2467 0 -261.873 -24.5858 0 -229.861 -22.7414 0 -203.544 -21.351 0 -182.921 -20.0526 0 -165.691 -18.5596 0 -149.555 -16.8886 0 -134.51 -15.132 0 -120.559 -13.3822 0 -107.7 -11.7315 0 -95.9338 -10.2723 0 -85.2525 -9.08657 0 -75.6374 -8.16505 0 -67.0876 -7.45173 0 -59.6032 -6.8902 0 -53.184 -6.42401 0 -47.8302 -5.99673 0 -43.441 -5.55351 0 -39.4128 -5.07569 0 -35.6448 -4.58085 0 -32.1371 -4.0881 0 -28.8896 -3.61659 0 -25.9024 -3.18544 0 -23.1749 -2.81371 0 -20.6954 -2.5106 0 -18.4591 -2.26613 0 -16.466 -2.06816 0 -14.7161 -1.90452 0 -13.2093 -1.76305 0 -11.9458 -1.6316 0 -10.8402 -1.50043 0 -9.80746 -1.36953 0 -8.84756 -1.24132 0 -7.96049 -1.11822 0 -7.14625 -1.00266 0 -6.40485 -0.897033 0 -5.73159 -0.803511 0 -5.11499 -0.721942 0 -4.55454 -0.650997 0 -4.05023 -0.589332 0 -3.60207 -0.535607 0 -3.21005 -0.48848 0 -2.8691 -0.446635 0 -2.54878 -0.409296 0 -2.24402 -0.376235 0 -1.95482 -0.347245 0 -1.68118 -0.322119 0 -1.4231 -0.300651 0 -1.18058 -0.282635 0 -0.953611 -0.267865 0 -0.742205 -0.256133 0 -0.546357 -0.247235 0 -0.366068 -0.240963 0 -0.201337 -0.237111 0 -0.0521656 -0.235473 0 100.441 -165.755 0 113.25 -183.564 0 250.661 -151.574 0 512.675 -141.931 0 800.819 -209.546 0 958.342 -308.7 0 983.234 -357.247 0 1012.33 -290.441 0 1380.1 -195.415 0 2101.76 -237.5 0 2990.38 -562.93 0 3343.14 -1049.87 0 3092.75 -1383.29 0 2545.6 -1268.27 0 3540.11 -970.313 0 6382.69 -1315.34 0 10679.3 -3134.34 0 12313.9 -6383.49 0 10191.9 -9805.14 0 4472.37 -12057.1 0 -1346.62 -12387 0 -5834 -11188.1 0 -8985.04 -8985.04 0 -10431.6 -6314.63 0 -9942.35 -3746.26 0 -7517.33 -1854.97 0 -4731.29 -1033.53 0 -3159.01 -945.592 0 -2800.47 -1072.52 0 -3052.82 -974.774 0 -2956.37 -674.633 0 -2498.84 -361.538 0 -1847.57 -204.936 0 -1411.65 -198.262 0 -1209.68 -244.319 0 -1184.12 -250.751 0 -1118.6 -201.086 0 -992.422 -133.536 0 -818.867 -86.3604 0 -677.676 -71.0925 0 -582.137 -72.5392 0 -528.888 -74.5248 0 -482.81 -68.9931 0 -434.561 -59.1542 0 -384.375 -49.0365 0 -337.362 -41.2415 0 -295.614 -35.6004 0 -259.13 -31.626 0 -227.91 -28.8311 0 -201.954 -26.7285 0 -181.263 -24.8311 0 -163.801 -22.7511 0 -147.535 -20.4985 0 -132.464 -18.1825 0 -118.588 -15.9127 0 -105.907 -13.7982 0 -94.422 -11.9486 0 -84.0768 -10.4604 0 -74.7373 -9.3181 0 -66.3973 -8.44874 0 -59.0568 -7.7788 0 -52.7158 -7.23482 0 -47.3744 -6.74328 0 -42.9428 -6.23273 0 -38.883 -5.6783 0 -35.1053 -5.10173 0 -31.6097 -4.52678 0 -28.3962 -3.9772 0 -25.4647 -3.47677 0 -22.8137 -3.04914 0 -20.4069 -2.70566 0 -18.2293 -2.43381 0 -16.281 -2.21829 0 -14.5621 -2.04382 0 -13.0724 -1.89512 0 -11.812 -1.75691 0 -10.7041 -1.61696 0 -9.67183 -1.47538 0 -8.71529 -1.33534 0 -7.83443 -1.19999 0 -7.02926 -1.07251 0 -6.29977 -0.956055 0 -5.64004 -0.853466 0 -5.03563 -0.764634 0 -4.48586 -0.687947 0 -3.99074 -0.621776 0 -3.55027 -0.564497 0 -3.16445 -0.514481 0 -2.82837 -0.470133 0 -2.51255 -0.430533 0 -2.21208 -0.39544 0 -1.92695 -0.364644 0 -1.65718 -0.337935 0 -1.40276 -0.3151 0 -1.16369 -0.295929 0 -0.939973 -0.280212 0 -0.731603 -0.267736 0 -0.538583 -0.258292 0 -0.360913 -0.251669 0 -0.198593 -0.247654 0 -0.0516232 -0.246039 0 36.8081 -218.44 0 131.188 -234.259 0 280.028 -208.404 0 483.328 -206.774 0 700.304 -279.403 0 866.034 -383.685 0 979.686 -443.482 0 1108.72 -399.254 0 1418.03 -336.353 0 1915.11 -414.733 0 2507.42 -776.07 0 2846.96 -1305.52 0 2900.43 -1703.35 0 2826.45 -1689.79 0 3576.85 -1537.16 0 5310.26 -2069.94 0 7791.61 -4116.9 0 8565.53 -7613.74 0 6979.01 -11257 0 3130.59 -13656.9 0 -811.94 -14031.4 0 -3961.74 -12778.4 0 -6314.63 -10431.6 0 -7544.93 -7544.93 0 -7448.04 -4728.71 0 -6023.96 -2602.86 0 -4276.42 -1595.88 0 -3209.15 -1370.5 0 -2822.15 -1398.04 0 -2789.25 -1229.18 0 -2591.23 -878.126 0 -2221.43 -526.857 0 -1766.07 -337.954 0 -1435.95 -303.186 0 -1240.63 -326.377 0 -1149.56 -316.082 0 -1047.9 -255.016 0 -924.628 -179.338 0 -786.108 -125.274 0 -670.436 -103.478 0 -583.96 -99.0251 0 -524.757 -96.057 0 -472.719 -86.616 0 -422.5 -73.7103 0 -374.19 -61.1443 0 -329.8 -51.3478 0 -290.152 -44.0805 0 -255.245 -38.7955 0 -225.08 -34.9458 0 -199.657 -31.9844 0 -178.976 -29.3644 0 -161.318 -26.6475 0 -144.964 -23.8304 0 -129.915 -21.0186 0 -116.17 -18.3177 0 -103.729 -15.8329 0 -92.593 -13.6698 0 -82.6535 -11.9208 0 -73.6477 -10.5644 0 -65.5635 -9.52039 0 -58.401 -8.70812 0 -52.1601 -8.04698 0 -46.8408 -7.45632 0 -42.3662 -6.85767 0 -38.2749 -6.22264 0 -34.4898 -5.5729 0 -31.0109 -4.93227 0 -27.8384 -4.3246 0 -24.9721 -3.77372 0 -22.4092 -3.30339 0 -20.0857 -2.92464 0 -17.9755 -2.62393 0 -16.0786 -2.38487 0 -14.395 -2.19107 0 -12.9247 -2.02614 0 -11.6676 -1.87371 0 -10.5567 -1.72065 0 -9.52468 -1.5669 0 -8.57161 -1.41568 0 -7.69747 -1.2702 0 -6.90227 -1.13367 0 -6.186 -1.00932 0 -5.54135 -0.899993 0 -4.95045 -0.805504 0 -4.41248 -0.724087 0 -3.92745 -0.653963 0 -3.49535 -0.593355 0 -3.11619 -0.540482 0 -2.78524 -0.4936 0 -2.47415 -0.451711 0 -2.1782 -0.414567 0 -1.89738 -0.38195 0 -1.63171 -0.353645 0 -1.38116 -0.329434 0 -1.14576 -0.309103 0 -0.925488 -0.292433 0 -0.720355 -0.27921 0 -0.530358 -0.269216 0 -0.355498 -0.262236 0 -0.195775 -0.258052 0 -0.0511882 -0.256449 0 -13.0304 -266.041 0 143.733 -277.61 0 297.78 -264.788 0 449.112 -273.789 0 604.239 -339.654 0 773.526 -432.195 0 957.105 -497.611 0 1163.36 -494.37 0 1412.76 -488.017 0 1706.26 -599.227 0 2031.78 -935.171 0 2343.97 -1413.49 0 2638.49 -1815.23 0 2944.27 -1936.78 0 3434.88 -1996.51 0 4139.23 -2634.81 0 4967.21 -4494.61 0 4977.49 -7502.91 0 3919.72 -10593.3 0 1836.75 -12630.4 0 -328.645 -12972 0 -2190.79 -11934 0 -3746.26 -9942.35 0 -4728.71 -7448.04 0 -4970.82 -4970.82 0 -4472.59 -3042.26 0 -3702.02 -2035.16 0 -3127.08 -1687.34 0 -2747.8 -1577.88 0 -2485.37 -1347.85 0 -2214.38 -1000.31 0 -1933.23 -669.349 0 -1657.99 -474.513 0 -1427.96 -407.091 0 -1244.93 -392.34 0 -1101.91 -359.137 0 -972.685 -292.895 0 -854.741 -219.776 0 -748.496 -166.011 0 -656.459 -138.838 0 -579.049 -126.5 0 -515.605 -116.547 0 -459.218 -102.682 0 -408.051 -87.1435 0 -362.073 -72.7898 0 -320.575 -61.4049 0 -283.27 -52.687 0 -250.157 -46.0944 0 -221.236 -41.0854 0 -196.507 -37.1186 0 -175.969 -33.6523 0 -158.228 -30.2486 0 -141.886 -26.8844 0 -126.943 -23.6404 0 -113.399 -20.5972 0 -101.254 -17.8355 0 -90.5085 -15.4359 0 -81.0053 -13.4679 0 -72.3611 -11.904 0 -64.5585 -10.6667 0 -57.5975 -9.67815 0 -51.478 -8.86049 0 -46.2 -8.13583 0 -41.6995 -7.42832 0 -37.5913 -6.70871 0 -33.8114 -5.99434 0 -30.3598 -5.30457 0 -27.2364 -4.65877 0 -24.4413 -4.07631 0 -21.9703 -3.57646 0 -19.7334 -3.16753 0 -17.6936 -2.8365 0 -15.8511 -2.56789 0 -14.2058 -2.34625 0 -12.7576 -2.15611 0 -11.5067 -1.982 0 -10.3952 -1.81147 0 -9.36569 -1.64406 0 -8.41802 -1.48234 0 -7.55223 -1.32885 0 -6.76831 -1.18616 0 -6.06627 -1.05682 0 -5.43746 -0.943092 0 -4.86074 -0.844552 0 -4.33516 -0.759418 0 -3.86072 -0.685893 0 -3.43742 -0.62218 0 -3.06525 -0.566483 0 -2.73969 -0.517037 0 -2.43358 -0.472833 0 -2.14238 -0.433615 0 -1.8661 -0.399161 0 -1.60474 -0.369249 0 -1.35829 -0.343654 0 -1.12676 -0.322155 0 -0.910151 -0.30453 0 -0.708457 -0.290554 0 -0.521679 -0.280007 0 -0.349819 -0.272664 0 -0.192875 -0.268304 0 -0.0508493 -0.266704 0 -37.756 -308.559 0 146.325 -313.618 0 296.92 -320.728 0 414.03 -342.977 0 529.667 -390.3 0 694.791 -454.23 0 910.056 -519.635 0 1149.23 -575.79 0 1348.16 -650.406 0 1503.96 -790.98 0 1651.54 -1040.23 0 1922.29 -1373.79 0 2328.78 -1718.92 0 2820.06 -2009.24 0 3090.48 -2348.36 0 3089.11 -3009.94 0 2822.22 -4267.46 0 2355.54 -6051 0 1706.56 -7814.23 0 880.315 -8977.74 0 -11.8798 -9208.97 0 -924.499 -8654.83 0 -1854.97 -7517.33 0 -2602.86 -6023.96 0 -3042.26 -4472.59 0 -3173.16 -3173.16 0 -3088.66 -2351.38 0 -2881.87 -1896.12 0 -2552.77 -1612.05 0 -2180.07 -1330.78 0 -1889.04 -1041.17 0 -1681.29 -789.012 0 -1530.88 -614.616 0 -1374.45 -509.977 0 -1209.11 -442.209 0 -1042.42 -379.917 0 -902.789 -314.725 0 -792.944 -254.849 0 -709.796 -208.57 0 -634.807 -177.175 0 -564.89 -154.964 0 -500.202 -135.995 0 -442.387 -117.191 0 -391.883 -99.4539 0 -348.577 -83.973 0 -309.972 -71.413 0 -275.048 -61.4199 0 -243.804 -53.5226 0 -216.24 -47.25 0 -192.356 -42.1311 0 -172.153 -37.6949 0 -154.519 -33.5544 0 -138.344 -29.6604 0 -123.627 -26.0477 0 -110.37 -22.7513 0 -98.5705 -19.806 0 -88.2302 -17.2468 0 -79.1547 -15.1015 0 -70.8699 -13.3368 0 -63.3544 -11.8876 0 -56.608 -10.6889 0 -50.6308 -9.67535 0 -45.4228 -8.78182 0 -40.9308 -7.94468 0 -36.8354 -7.1365 0 -33.0836 -6.36606 0 -29.6753 -5.64368 0 -26.6104 -4.97973 0 -23.889 -4.38453 0 -21.5061 -3.86837 0 -19.3514 -3.43434 0 -17.3797 -3.07151 0 -15.591 -2.76736 0 -13.9853 -2.50937 0 -12.5627 -2.28502 0 -11.3231 -2.08179 0 -10.2169 -1.88944 0 -9.19459 -1.70688 0 -8.25605 -1.53532 0 -7.40132 -1.37594 0 -6.6304 -1.22996 0 -5.94329 -1.09857 0 -5.33031 -0.982764 0 -4.7678 -0.881778 0 -4.25467 -0.793939 0 -3.79093 -0.717565 0 -3.37658 -0.650973 0 -3.01161 -0.592483 0 -2.69169 -0.540443 0 -2.3908 -0.493897 0 -2.1046 -0.452585 0 -1.83309 -0.416279 0 -1.57627 -0.384746 0 -1.33414 -0.357759 0 -1.10671 -0.335087 0 -0.893959 -0.3165 0 -0.695905 -0.301769 0 -0.512541 -0.290664 0 -0.343868 -0.282955 0 -0.189886 -0.278411 0 -0.0505953 -0.276804 0 -31.156 -345.017 0 136.349 -344.638 0 273.787 -369.247 0 381.157 -402.336 0 487.5 -431.461 0 639.044 -467.91 0 836.382 -531.559 0 1051.77 -639.426 0 1217.38 -783.547 0 1330.12 -943.091 0 1426.47 -1100.53 0 1643.48 -1284.55 0 1994.29 -1557.17 0 2418 -1978.12 0 2549.23 -2538 0 2327.09 -3158.27 0 1783.18 -3757.85 0 1247.73 -4277.12 0 808.569 -4686.21 0 459.479 -4957.48 0 63.7651 -5066.81 0 -434.493 -4996.9 0 -1033.53 -4731.29 0 -1595.88 -4276.42 0 -2035.16 -3702.02 0 -2351.38 -3088.66 0 -2507.76 -2507.76 0 -2467.52 -1993.94 0 -2230.67 -1572.69 0 -1904.5 -1262.57 0 -1659.81 -1041.92 0 -1498.79 -874.531 0 -1392.31 -727.204 0 -1269.2 -593.236 0 -1126.21 -479.563 0 -972.882 -392.603 0 -845.024 -330.174 0 -746.073 -283.896 0 -672.727 -245.435 0 -605.194 -210.665 0 -540.173 -179.665 0 -478.024 -152.691 0 -422.5 -129.722 0 -374.599 -110.353 0 -334.185 -94.1494 0 -298.256 -80.6961 0 -265.584 -69.6113 0 -236.17 -60.5174 0 -210.014 -53.0368 0 -187.115 -46.792 0 -167.473 -41.4052 0 -150.194 -36.5593 0 -134.383 -32.1781 0 -120.039 -28.2459 0 -107.162 -24.7469 0 -95.7525 -21.6653 0 -85.8104 -18.9853 0 -77.1232 -16.6888 0 -69.1719 -14.7371 0 -61.9327 -13.0807 0 -55.4058 -11.6703 0 -49.591 -10.4565 0 -44.4884 -9.38962 0 -40.0525 -8.42145 0 -36.0107 -7.52728 0 -32.3173 -6.70622 0 -28.9726 -5.95841 0 -25.9763 -5.28399 0 -23.3286 -4.6831 0 -21.024 -4.15585 0 -18.9412 -3.69948 0 -17.0308 -3.30563 0 -15.2928 -2.96531 0 -13.727 -2.6695 0 -12.3337 -2.4092 0 -11.1126 -2.17542 0 -10.0198 -1.96059 0 -9.01128 -1.76292 0 -8.08694 -1.58209 0 -7.24681 -1.41773 0 -6.49089 -1.26951 0 -5.81919 -1.13709 0 -5.22145 -1.02004 0 -4.67264 -0.917199 0 -4.17162 -0.82706 0 -3.71838 -0.748094 0 -3.31294 -0.678777 0 -2.95527 -0.617584 0 -2.64123 -0.563017 0 -2.34582 -0.514195 0 -2.06486 -0.470854 0 -1.79836 -0.432755 0 -1.54631 -0.39966 0 -1.30873 -0.371331 0 -1.08559 -0.347531 0 -0.876921 -0.328022 0 -0.682705 -0.312565 0 -0.502946 -0.300923 0 -0.337644 -0.292857 0 -0.1868 -0.28813 0 -0.0504121 -0.286503 0 -7.4418 -374.441 0 118.959 -373.025 0 238.058 -403.368 0 349.855 -439.865 0 464.132 -463.257 0 596.463 -491.355 0 747.048 -555.388 0 906.29 -681.188 0 1050.73 -847.464 0 1179.31 -1008.66 0 1302.95 -1125.33 0 1462.79 -1243.92 0 1662.74 -1472.71 0 1875.13 -1914.38 0 1933.81 -2510.75 0 1811.08 -3042.74 0 1518.08 -3288.19 0 1171.04 -3200.33 0 800.886 -2975.8 0 407.395 -2828.31 0 -14.0775 -2870.07 0 -465.432 -3016.16 0 -945.592 -3159.01 0 -1370.5 -3209.15 0 -1687.34 -3127.08 0 -1896.12 -2881.87 0 -1993.94 -2467.52 0 -1977.92 -1977.92 0 -1848.06 -1531.91 0 -1658.84 -1227.77 0 -1496.99 -1043.74 0 -1363.63 -914.589 0 -1249.89 -781.224 0 -1134.11 -638.261 0 -1015.28 -507.98 0 -897.213 -411.377 0 -794.183 -348.914 0 -707.554 -306.252 0 -635.822 -269.091 0 -569.941 -231.487 0 -508.405 -195.852 0 -451.38 -164.928 0 -400.608 -139.855 0 -356.551 -119.551 0 -319.091 -102.774 0 -285.618 -88.5782 0 -255.063 -76.5932 0 -227.428 -66.516 0 -202.71 -58.043 0 -180.912 -50.871 0 -162.032 -44.6966 0 -145.326 -39.2576 0 -130.052 -34.4573 0 -116.208 -30.2402 0 -103.796 -26.5509 0 -92.8139 -23.3341 0 -83.2628 -20.5341 0 -74.9283 -18.0968 0 -67.2867 -15.9792 0 -60.3141 -14.1435 0 -54.0106 -12.5525 0 -48.3761 -11.1687 0 -43.4107 -9.95458 0 -39.0738 -8.87333 0 -35.122 -7.90229 0 -31.5146 -7.03299 0 -28.2517 -6.25754 0 -25.3334 -5.56808 0 -22.7595 -4.95673 0 -20.5245 -4.41563 0 -18.5048 -3.93739 0 -16.6498 -3.51556 0 -14.9596 -3.14378 0 -13.4341 -2.81569 0 -12.0734 -2.52496 0 -10.8773 -2.26523 0 -9.80532 -2.03095 0 -8.81653 -1.81976 0 -7.91098 -1.63012 0 -7.08866 -1.46046 0 -6.34958 -1.30925 0 -5.69374 -1.17492 0 -5.11075 -1.05593 0 -4.57523 -0.950829 0 -4.08604 -0.858189 0 -3.64317 -0.776598 0 -3.24662 -0.704636 0 -2.89638 -0.640888 0 -2.58846 -0.58396 0 -2.29876 -0.53302 0 -2.02328 -0.487797 0 -1.76202 -0.448043 0 -1.51496 -0.41351 0 -1.28213 -0.383952 0 -1.0635 -0.359121 0 -0.859097 -0.33877 0 -0.668903 -0.322652 0 -0.492924 -0.310518 0 -0.33116 -0.302122 0 -0.18361 -0.297217 0 -0.0502751 -0.295555 0 14.0691 -396.831 0 101.253 -398.779 0 202.749 -423.092 0 318.558 -455.564 0 439.828 -485.688 0 552.469 -524.566 0 656.299 -591.122 0 760.564 -701.077 0 887.865 -842.156 0 1039.23 -987.676 0 1199.08 -1114.65 0 1308.88 -1251.89 0 1363.01 -1465.54 0 1371.69 -1818.02 0 1396.18 -2266.59 0 1446.7 -2663.35 0 1505.3 -2858.48 0 1384.73 -2820.65 0 1035.16 -2683.01 0 465.96 -2590.22 0 -117.22 -2618.77 0 -630.243 -2712.6 0 -1072.52 -2800.47 0 -1398.04 -2822.15 0 -1577.88 -2747.8 0 -1612.05 -2552.77 0 -1572.69 -2230.67 0 -1531.91 -1848.06 0 -1489.73 -1489.73 0 -1435.5 -1226.4 0 -1352.29 -1046.62 0 -1239.88 -909.185 0 -1111.25 -776.675 0 -998.097 -645.053 0 -901.857 -527.46 0 -819.859 -436.239 0 -742.05 -370.944 0 -667.468 -321.919 0 -596.561 -279.538 0 -532.02 -239.64 0 -474.294 -203.524 0 -423.284 -172.705 0 -377.953 -147.589 0 -338.028 -127.049 0 -303.42 -109.848 0 -272.234 -95.0594 0 -243.691 -82.3657 0 -217.794 -71.5182 0 -194.54 -62.2686 0 -173.931 -54.3683 0 -155.966 -47.5688 0 -140.003 -41.6491 0 -125.401 -36.4978 0 -112.158 -32.0306 0 -100.276 -28.1634 0 -89.7538 -24.8123 0 -80.5918 -21.8931 0 -72.5863 -19.3255 0 -65.2395 -17.063 0 -58.5286 -15.076 0 -52.4539 -13.3355 0 -47.0151 -11.8121 0 -42.2124 -10.4767 0 -38.0079 -9.30032 0 -34.1747 -8.26155 0 -30.6751 -7.34637 0 -27.509 -6.54108 0 -24.6765 -5.832 0 -22.1774 -5.20543 0 -20.0065 -4.64772 0 -18.0439 -4.14807 0 -16.2407 -3.70128 0 -14.5968 -3.30276 0 -13.1122 -2.94796 0 -11.787 -2.63231 0 -10.6212 -2.35123 0 -9.57564 -2.10052 0 -8.61129 -1.87739 0 -7.72817 -1.6794 0 -6.92626 -1.50414 0 -6.20558 -1.34917 0 -5.56611 -1.21206 0 -4.99766 -1.09046 0 -4.47527 -0.982669 0 -3.99782 -0.887328 0 -3.56531 -0.803075 0 -3.17774 -0.72855 0 -2.8351 -0.662395 0 -2.53353 -0.603271 0 -2.24979 -0.550372 0 -1.98001 -0.503415 0 -1.7242 -0.462143 0 -1.48234 -0.426298 0 -1.25445 -0.395622 0 -1.04052 -0.369857 0 -0.840558 -0.348745 0 -0.654554 -0.332029 0 -0.482511 -0.31945 0 -0.324431 -0.310751 0 -0.180313 -0.305673 0 -0.0501566 -0.303959 0 17.512 -412.683 0 89.1497 -419.527 0 178.668 -432.879 0 286.066 -458.083 0 398.449 -499.545 0 495.289 -556.189 0 576.323 -624.958 0 654.59 -703.746 0 761.963 -798.772 0 899.89 -920.541 0 1046.95 -1078.62 0 1122.58 -1269.43 0 1119.08 -1479.9 0 1057.1 -1697.4 0 1060.59 -1924.36 0 1150.21 -2178.24 0 1301.71 -2476.42 0 1261.75 -2802.22 0 962.958 -3091.72 0 416.26 -3277.75 0 -138.124 -3321.47 0 -601.919 -3239 0 -974.774 -3052.82 0 -1229.18 -2789.25 0 -1347.85 -2485.37 0 -1330.78 -2180.07 0 -1262.57 -1904.5 0 -1227.77 -1658.84 0 -1226.4 -1435.5 0 -1228.36 -1228.36 0 -1185.74 -1039.76 0 -1097.92 -875.084 0 -983.067 -738.893 0 -885.601 -628.423 0 -807.537 -537.135 0 -744.794 -458.715 0 -682.026 -390.278 0 -617.764 -331.409 0 -553.043 -281.727 0 -494.071 -240.381 0 -441.885 -206.048 0 -396.315 -177.39 0 -355.604 -153.277 0 -319.285 -132.875 0 -287.295 -115.37 0 -258.277 -100.14 0 -231.674 -86.9287 0 -207.486 -75.5243 0 -185.713 -65.7136 0 -166.356 -57.2838 0 -149.414 -50.022 0 -134.313 -43.7341 0 -120.478 -38.2996 0 -107.909 -33.617 0 -96.6072 -29.5844 0 -86.5713 -26.1001 0 -77.8016 -23.0624 0 -70.1135 -20.3749 0 -63.0553 -17.9885 0 -56.6064 -15.8782 0 -50.7669 -14.0191 0 -45.5367 -12.3866 0 -40.9159 -10.9559 0 -36.868 -9.70241 0 -33.1744 -8.60504 0 -29.7986 -7.64635 0 -26.7407 -6.80902 0 -24.0006 -6.07574 0 -21.5784 -5.4292 0 -19.4689 -4.85212 0 -17.5605 -4.33152 0 -15.8074 -3.86279 0 -14.2096 -3.44227 0 -12.7671 -3.06631 0 -11.4799 -2.73125 0 -10.348 -2.43343 0 -9.33303 -2.16931 0 -8.39654 -1.9358 0 -7.53854 -1.72994 0 -6.75904 -1.54876 0 -6.05802 -1.38927 0 -5.43549 -1.2485 0 -4.88163 -1.12361 0 -4.37246 -1.01272 0 -3.90686 -0.914475 0 -3.48485 -0.827525 0 -3.10643 -0.750519 0 -2.77159 -0.682104 0 -2.4766 -0.620951 0 -2.19905 -0.56625 0 -1.93519 -0.517708 0 -1.68503 -0.475055 0 -1.44857 -0.438023 0 -1.22581 -0.40634 0 -1.01674 -0.379738 0 -0.821379 -0.357947 0 -0.639712 -0.340697 0 -0.471744 -0.327719 0 -0.317474 -0.318742 0 -0.176902 -0.313497 0 -0.0500292 -0.311715 0 7.18652 -422.792 0 81.6916 -431.491 0 163.729 -439.825 0 253.298 -461.189 0 344.85 -506.087 0 429.551 -568.154 0 507.288 -634.92 0 582.966 -696.604 0 668.571 -766.89 0 764.649 -871.545 0 860.46 -1033.42 0 915.622 -1234.44 0 926.269 -1427 0 900.77 -1565.82 0 889.338 -1673.21 0 900.34 -1839.13 0 922.591 -2154.26 0 839.252 -2610.37 0 619.25 -3061.97 0 268.219 -3353.99 0 -89.8491 -3399.98 0 -404.231 -3246.75 0 -674.633 -2956.37 0 -878.126 -2591.23 0 -1000.31 -2214.38 0 -1041.17 -1889.04 0 -1041.92 -1659.81 0 -1043.74 -1496.99 0 -1046.62 -1352.29 0 -1039.76 -1185.74 0 -1005.91 -1005.91 0 -944.866 -838.968 0 -866.456 -708.209 0 -794.735 -611.946 0 -730.796 -535.619 0 -673.261 -465.318 0 -616.94 -397.383 0 -561.339 -335.539 0 -506.955 -283.541 0 -456.785 -242.081 0 -411.327 -208.784 0 -370.512 -181.16 0 -333.599 -157.48 0 -300.39 -137.072 0 -270.84 -119.341 0 -243.922 -103.819 0 -219.216 -90.2822 0 -196.722 -78.534 0 -176.441 -68.3779 0 -158.371 -59.6174 0 -142.515 -52.0562 0 -128.344 -45.5124 0 -115.334 -39.8629 0 -103.484 -34.9995 0 -92.7945 -30.8138 0 -83.2654 -27.1974 0 -74.8965 -24.0419 0 -67.5263 -21.245 0 -60.7593 -18.7558 0 -54.5775 -16.55 0 -48.981 -14.6035 0 -43.9698 -12.8923 0 -39.5438 -11.3923 0 -35.6673 -10.0796 0 -32.1262 -8.93278 0 -28.8848 -7.93295 0 -25.9429 -7.06137 0 -23.3007 -6.29932 0 -20.9582 -5.62804 0 -18.9106 -5.02882 0 -17.0564 -4.48774 0 -15.354 -4.0001 0 -13.8033 -3.5623 0 -12.4043 -3.17073 0 -11.1571 -2.82177 0 -10.0616 -2.51181 0 -9.07975 -2.23731 0 -8.17324 -1.99501 0 -7.34212 -1.78174 0 -6.58638 -1.59432 0 -5.90603 -1.42955 0 -5.30106 -1.28426 0 -4.76215 -1.15539 0 -4.26649 -1.04098 0 -3.81304 -0.93963 0 -3.40182 -0.849949 0 -3.03281 -0.770542 0 -2.70602 -0.700016 0 -2.41784 -0.636999 0 -2.14669 -0.580655 0 -1.88896 -0.530676 0 -1.64465 -0.48678 0 -1.41376 -0.448685 0 -1.19629 -0.416107 0 -0.992251 -0.388765 0 -0.801631 -0.366376 0 -0.624433 -0.348656 0 -0.460658 -0.335324 0 -0.310305 -0.326096 0 -0.173374 -0.320691 0 -0.0498654 -0.318824 0 -5.30951 -427.167 0 75.4304 -434.622 0 151.181 -444.023 0 221.944 -465.059 0 291.489 -505.33 0 365.819 -560.228 0 445.013 -620.728 0 523.858 -679.746 0 589.612 -747.146 0 641.698 -841.514 0 683.153 -979.252 0 725.401 -1146.1 0 769.538 -1305.71 0 806.966 -1423.46 0 786.116 -1515.59 0 698.39 -1649.25 0 549.181 -1892.16 0 394.788 -2238.28 0 250.185 -2579.15 0 114.594 -2799.23 0 -29.1043 -2834.08 0 -187.914 -2718.54 0 -361.538 -2498.84 0 -526.857 -2221.43 0 -669.349 -1933.23 0 -789.012 -1681.29 0 -874.531 -1498.79 0 -914.589 -1363.63 0 -909.185 -1239.88 0 -875.084 -1097.92 0 -838.968 -944.866 0 -801.181 -801.181 0 -760.529 -685.139 0 -714.094 -595.924 0 -661.743 -522.895 0 -605.508 -455.875 0 -553.032 -392.137 0 -505.046 -334.319 0 -461.284 -285.081 0 -420.145 -244.846 0 -381.363 -211.8 0 -344.993 -184.044 0 -311.602 -160.206 0 -281.342 -139.641 0 -254.177 -121.76 0 -229.342 -106.097 0 -206.523 -92.4262 0 -185.72 -80.5475 0 -166.932 -70.2616 0 -150.161 -61.3693 0 -135.406 -53.6713 0 -122.185 -46.984 0 -110.018 -41.1876 0 -98.9037 -36.1781 0 -88.8428 -31.8516 0 -79.8352 -28.1042 0 -71.8809 -24.8318 0 -64.8411 -21.9358 0 -58.3766 -19.3648 0 -52.4722 -17.0915 0 -47.1277 -15.0886 0 -42.3432 -13.3291 0 -38.1186 -11.7859 0 -34.4192 -10.4319 0 -31.0357 -9.24475 0 -27.9333 -8.20615 0 -25.112 -7.29813 0 -22.5718 -6.50273 0 -20.3127 -5.80195 0 -18.3305 -5.17784 0 -16.5336 -4.61672 0 -14.8845 -4.1132 0 -13.3832 -3.66285 0 -12.0296 -3.26122 0 -10.8239 -2.90387 0 -9.76597 -2.58638 0 -8.81805 -2.30452 0 -7.94236 -2.05502 0 -7.13891 -1.8348 0 -6.4077 -1.64082 0 -5.74873 -1.47001 0 -5.16199 -1.31932 0 -4.63864 -1.18579 0 -4.15706 -1.06745 0 -3.71626 -0.962794 0 -3.31624 -0.870347 0 -2.957 -0.788621 0 -2.63854 -0.716131 0 -2.35741 -0.651416 0 -2.09287 -0.593586 0 -1.84146 -0.542318 0 -1.60318 -0.497316 0 -1.37803 -0.458284 0 -1.16602 -0.424923 0 -0.967136 -0.396938 0 -0.781388 -0.374031 0 -0.608773 -0.355906 0 -0.44929 -0.342266 0 -0.30294 -0.332814 0 -0.169723 -0.327253 0 -0.0496377 -0.325286 0 -9.57327 -426.299 0 67.2943 -430.65 0 134.997 -444.573 0 193.534 -467.246 0 249.539 -498.147 0 313.568 -538.52 0 385.757 -590.244 0 457.704 -654.958 0 508.87 -732.188 0 538.324 -820.371 0 553.917 -918.074 0 585.181 -1025.71 0 634.942 -1145.04 0 689.183 -1277.54 0 663.79 -1418.18 0 544.745 -1555.32 0 343.277 -1677.16 0 176.659 -1775.85 0 76.0815 -1849.03 0 38.3536 -1894.76 0 -6.73904 -1911.07 0 -87.9204 -1896 0 -204.936 -1847.57 0 -337.954 -1766.07 0 -474.513 -1657.99 0 -614.616 -1530.88 0 -727.204 -1392.31 0 -781.224 -1249.89 0 -776.675 -1111.25 0 -738.893 -983.067 0 -708.209 -866.456 0 -685.139 -760.529 0 -664.47 -664.47 0 -633.462 -578.125 0 -591.534 -501.678 0 -541.796 -435.251 0 -495.938 -378.021 0 -455.08 -328.49 0 -418.758 -285.17 0 -384.188 -247.149 0 -350.907 -214.091 0 -319 -185.681 0 -289.339 -161.453 0 -262.157 -140.727 0 -237.435 -122.809 0 -214.709 -107.155 0 -193.793 -93.5186 0 -174.686 -81.6856 0 -157.388 -71.4423 0 -141.899 -62.5748 0 -128.219 -54.8692 0 -115.922 -48.1322 0 -104.579 -42.2511 0 -94.1917 -37.1338 0 -84.7596 -32.6881 0 -76.2826 -28.8218 0 -68.7607 -25.4427 0 -62.0745 -22.4628 0 -55.9317 -19.8306 0 -50.3191 -17.5136 0 -45.2365 -15.4793 0 -40.6841 -13.6953 0 -36.6618 -12.1291 0 -33.1364 -10.7486 0 -29.9084 -9.52972 0 -26.9446 -8.4563 0 -24.2451 -7.51255 0 -21.8097 -6.68268 0 -19.6386 -5.9509 0 -17.7279 -5.30143 0 -15.994 -4.72167 0 -14.4028 -4.20512 0 -12.9542 -3.74598 0 -11.6484 -3.33848 0 -10.4851 -2.97681 0 -9.4646 -2.65519 0 -8.55006 -2.36833 0 -7.70487 -2.11301 0 -6.92903 -1.8865 0 -6.22254 -1.68608 0 -5.58539 -1.50901 0 -5.0176 -1.35259 0 -4.51068 -1.21416 0 -4.04394 -1.09176 0 -3.61644 -0.983795 0 -3.22817 -0.888656 0 -2.87914 -0.804741 0 -2.56934 -0.730448 0 -2.29547 -0.664201 0 -2.03774 -0.605043 0 -1.79283 -0.552635 0 -1.56075 -0.506665 0 -1.3415 -0.46682 0 -1.13508 -0.432788 0 -0.941488 -0.404256 0 -0.760723 -0.380914 0 -0.592786 -0.362447 0 -0.437677 -0.348545 0 -0.295396 -0.338894 0 -0.165943 -0.333184 0 -0.0493187 -0.3311 0 -5.69166 -421.389 0 57.5182 -423.804 0 115.485 -439.278 0 168.21 -461.762 0 218.909 -486.67 0 272.705 -517.962 0 329.663 -562.69 0 384.901 -626.603 0 426.481 -704.045 0 453.861 -783.489 0 470.864 -854.679 0 491.863 -925.277 0 518.234 -1015.86 0 542.054 -1145.77 0 515.781 -1299.57 0 431.491 -1427.08 0 295.651 -1477.51 0 175.801 -1442.88 0 89.9044 -1374.56 0 36.279 -1328.09 0 -22.0816 -1333.24 0 -100.316 -1369.76 0 -198.262 -1411.65 0 -303.186 -1435.95 0 -407.091 -1427.96 0 -509.977 -1374.45 0 -593.236 -1269.2 0 -638.261 -1134.11 0 -645.053 -998.097 0 -628.423 -885.601 0 -611.946 -794.735 0 -595.924 -714.094 0 -578.125 -633.462 0 -553.088 -553.088 0 -520.566 -478.61 0 -482.471 -415.338 0 -445.993 -363.542 0 -411.821 -319.86 0 -379.846 -280.932 0 -349.412 -245.258 0 -320.411 -213.198 0 -292.868 -185.188 0 -267.046 -161.221 0 -243.014 -140.687 0 -220.766 -122.93 0 -200.166 -107.434 0 -181.157 -93.9453 0 -163.738 -82.2442 0 -147.911 -72.1095 0 -133.675 -63.32 0 -121.029 -55.6548 0 -109.614 -48.916 0 -99.0661 -42.9985 0 -89.3869 -37.8202 0 -80.5759 -33.2993 0 -72.6331 -29.3537 0 -65.5586 -25.9015 0 -59.2475 -22.8638 0 -53.4437 -20.1898 0 -48.1355 -17.8432 0 -43.3228 -15.7875 0 -39.0058 -13.9864 0 -35.1844 -12.4037 0 -31.8278 -11.0033 0 -28.7513 -9.76017 0 -25.9241 -8.65979 0 -23.3463 -7.68813 0 -21.0179 -6.83115 0 -18.9387 -6.07483 0 -17.1054 -5.40517 0 -15.4402 -4.81041 0 -13.9113 -4.28321 0 -12.5188 -3.81676 0 -11.2626 -3.4042 0 -10.1427 -3.03872 0 -9.15909 -2.71347 0 -8.27706 -2.42236 0 -7.46178 -2.16217 0 -6.71327 -1.93046 0 -6.03152 -1.72473 0 -5.41652 -1.54252 0 -4.86828 -1.38137 0 -4.3786 -1.23885 0 -3.92742 -1.11302 0 -3.51383 -1.00221 0 -3.13782 -0.904722 0 -2.7994 -0.818869 0 -2.49857 -0.742966 0 -2.23219 -0.675355 0 -1.98146 -0.615027 0 -1.74323 -0.561627 0 -1.51751 -0.514825 0 -1.3043 -0.474293 0 -1.10359 -0.439701 0 -0.915396 -0.41072 0 -0.739708 -0.387023 0 -0.576527 -0.368279 0 -0.425853 -0.35416 0 -0.287688 -0.344338 0 -0.162031 -0.338483 0 -0.0488807 -0.336267 0 0.847318 -412.493 0 48.0395 -414.274 0 96.222 -428.037 0 145.395 -448.337 0 193.708 -470.996 0 238.215 -499.233 0 278.878 -538.941 0 316.126 -594.88 0 351.002 -661.9 0 383.554 -729.747 0 411.111 -789.286 0 423.632 -847.165 0 420.156 -921.399 0 401.991 -1028.93 0 376.983 -1156.09 0 346.439 -1258.62 0 309.012 -1291.79 0 250.631 -1249.38 0 167.556 -1178.62 0 60.7745 -1130.49 0 -47.9319 -1132.51 0 -149.653 -1166.66 0 -244.319 -1209.68 0 -326.377 -1240.63 0 -392.34 -1244.93 0 -442.209 -1209.11 0 -479.563 -1126.21 0 -507.98 -1015.28 0 -527.46 -901.857 0 -537.135 -807.537 0 -535.619 -730.796 0 -522.895 -661.743 0 -501.678 -591.534 0 -478.61 -520.566 0 -453.991 -453.991 0 -427.926 -396.677 0 -400.802 -349.086 0 -372.658 -308.511 0 -343.854 -272.235 0 -316.553 -239.002 0 -291.116 -209.012 0 -267.497 -182.524 0 -245.224 -159.509 0 -224.171 -139.535 0 -204.342 -122.144 0 -185.841 -106.953 0 -168.709 -93.7237 0 -152.947 -82.2367 0 -138.555 -72.2719 0 -125.533 -63.609 0 -113.881 -56.0282 0 -103.308 -49.3336 0 -93.5266 -43.4272 0 -84.5354 -38.2353 0 -76.3348 -33.6841 0 -68.9247 -29.6999 0 -62.3052 -26.2092 0 -56.3828 -23.1405 0 -50.9287 -20.4441 0 -45.9326 -18.0814 0 -41.3945 -16.0137 0 -37.3144 -14.2024 0 -33.6922 -12.6088 0 -30.5003 -11.1948 0 -27.5722 -9.93486 0 -24.88 -8.81555 0 -22.4238 -7.82411 0 -20.2036 -6.94777 0 -18.2193 -6.17376 0 -16.4677 -5.4893 0 -14.8753 -4.88329 0 -13.412 -4.34783 0 -12.0778 -3.8754 0 -10.8727 -3.45847 0 -9.79679 -3.08952 0 -8.84995 -2.76101 0 -7.99986 -2.4663 0 -7.21414 -2.20219 0 -6.4928 -1.96637 0 -5.83583 -1.75654 0 -5.24324 -1.57036 0 -4.71502 -1.40554 0 -4.24315 -1.25979 0 -3.80806 -1.1312 0 -3.40884 -1.01802 0 -3.04549 -0.918538 0 -2.71802 -0.831003 0 -2.42642 -0.753685 0 -2.16773 -0.684876 0 -1.92417 -0.623538 0 -1.69279 -0.569294 0 -1.47357 -0.521798 0 -1.26653 -0.480703 0 -1.07165 -0.445663 0 -0.888949 -0.41633 0 -0.718415 -0.392358 0 -0.560051 -0.373401 0 -0.413857 -0.359112 0 -0.279834 -0.349144 0 -0.15798 -0.343151 0 -0.0482964 -0.340786 0 4.7975 -399.975 0 40.6803 -402.185 0 80.5985 -411.922 0 124.552 -428.574 0 168.353 -451.627 0 205.335 -481.119 0 235.411 -517.291 0 261.452 -560.301 0 290.471 -609.591 0 322.785 -664.235 0 352.828 -723.347 0 359.665 -786.61 0 341.29 -854.121 0 303.423 -925.848 0 280.378 -998.622 0 277.873 -1066.13 0 290.862 -1122 0 266.62 -1163.09 0 191.127 -1190.77 0 66.5868 -1206.72 0 -58.4978 -1211.7 0 -164.285 -1204.6 0 -250.751 -1184.12 0 -316.082 -1149.56 0 -359.137 -1101.91 0 -379.917 -1042.42 0 -392.603 -972.882 0 -411.377 -897.213 0 -436.239 -819.859 0 -458.715 -744.794 0 -465.318 -673.261 0 -455.875 -605.508 0 -435.251 -541.796 0 -415.338 -482.471 0 -396.677 -427.926 0 -378.525 -378.525 0 -358.093 -334.257 0 -335.112 -294.836 0 -310.116 -259.966 0 -286.298 -229.223 0 -264.193 -202.053 0 -243.742 -177.902 0 -224.358 -156.371 0 -205.885 -137.277 0 -188.331 -120.451 0 -171.861 -105.713 0 -156.546 -92.854 0 -142.383 -81.6631 0 -129.375 -71.9294 0 -117.519 -63.4418 0 -106.818 -55.9894 0 -97.0529 -49.385 0 -88.0082 -43.5372 0 -79.6838 -38.3789 0 -72.0795 -33.8424 0 -65.1954 -29.8606 0 -59.0315 -26.3659 0 -53.5031 -23.2929 0 -48.4029 -20.5935 0 -43.7216 -18.2283 0 -39.4592 -16.1579 0 -35.6157 -14.343 0 -32.1911 -12.7444 0 -29.161 -11.3232 0 -26.3789 -10.0538 0 -23.8204 -8.92357 0 -21.4855 -7.92051 0 -19.3742 -7.03255 0 -17.4866 -6.24767 0 -15.8194 -5.55382 0 -14.3023 -4.94031 0 -12.9066 -4.39897 0 -11.6323 -3.92192 0 -10.4793 -3.50129 0 -9.44781 -3.12921 0 -8.53767 -2.79781 0 -7.71928 -2.50016 0 -6.96298 -2.23306 0 -6.26878 -1.99425 0 -5.63668 -1.78149 0 -5.06667 -1.59253 0 -4.55877 -1.4251 0 -4.10509 -1.27698 0 -3.68642 -1.14628 0 -3.30188 -1.03123 0 -2.95148 -0.930106 0 -2.6352 -0.841145 0 -2.35305 -0.762604 0 -2.10224 -0.692767 0 -1.86604 -0.630575 0 -1.64165 -0.575636 0 -1.42908 -0.527583 0 -1.22832 -0.486051 0 -1.03937 -0.450673 0 -0.862237 -0.421085 0 -0.696919 -0.396921 0 -0.543414 -0.377815 0 -0.401724 -0.363401 0 -0.271848 -0.353314 0 -0.153786 -0.347188 0 -0.0475381 -0.344658 0 4.80177 -385.216 0 35.5101 -387.998 0 69.1545 -394.957 0 105.735 -408.505 0 142.112 -430.448 0 173.287 -459.058 0 199.197 -491.331 0 221.627 -524.788 0 244.943 -561.547 0 269.344 -606.095 0 290.884 -662.317 0 294.729 -725.7 0 279.457 -785.671 0 249.149 -832.106 0 228.287 -868.205 0 220.951 -910.492 0 223.644 -975.679 0 199.855 -1062.77 0 139.874 -1146.22 0 45.2425 -1198.75 0 -50.0778 -1205.34 0 -132.195 -1174.79 0 -201.086 -1118.6 0 -255.016 -1047.9 0 -292.895 -972.685 0 -314.725 -902.789 0 -330.174 -845.024 0 -348.914 -794.183 0 -370.944 -742.05 0 -390.278 -682.026 0 -397.383 -616.94 0 -392.137 -553.032 0 -378.021 -495.938 0 -363.542 -445.993 0 -349.086 -400.802 0 -334.257 -358.093 0 -317.56 -317.56 0 -298.851 -280.315 0 -278.497 -247.457 0 -258.689 -219.082 0 -239.794 -194.282 0 -221.806 -172.115 0 -204.668 -152.013 0 -188.365 -133.928 0 -172.902 -117.851 0 -158.356 -103.714 0 -144.761 -91.336 0 -132.116 -80.5233 0 -120.422 -71.0821 0 -109.678 -62.8184 0 -99.885 -55.5384 0 -90.8943 -49.0701 0 -82.5589 -43.3287 0 -74.8785 -38.2511 0 -67.8533 -33.7744 0 -61.4833 -29.8355 0 -55.7684 -26.3715 0 -50.6312 -23.3211 0 -45.8826 -20.638 0 -41.5138 -18.2838 0 -37.5249 -16.2201 0 -33.9159 -14.4085 0 -30.6868 -12.8105 0 -27.8166 -11.3884 0 -25.1792 -10.117 0 -22.7535 -8.98387 0 -20.5395 -7.97731 0 -18.5372 -7.08548 0 -16.7467 -6.29656 0 -15.1648 -5.59875 0 -13.7241 -4.98148 0 -12.3968 -4.43663 0 -11.1831 -3.9563 0 -10.0828 -3.53265 0 -9.09603 -3.1578 0 -8.22275 -2.82387 0 -7.43612 -2.52394 0 -6.70933 -2.25478 0 -6.04238 -2.0141 0 -5.43525 -1.79961 0 -4.88797 -1.60902 0 -4.40051 -1.44004 0 -3.96517 -1.29043 0 -3.56308 -1.15827 0 -3.19339 -1.04184 0 -2.85608 -0.939423 0 -2.55117 -0.849293 0 -2.27865 -0.769725 0 -2.0359 -0.699025 0 -1.80721 -0.636139 0 -1.58996 -0.580653 0 -1.38415 -0.53218 0 -1.18978 -0.490335 0 -1.00685 -0.454732 0 -0.835349 -0.424986 0 -0.675291 -0.40071 0 -0.526672 -0.381519 0 -0.389491 -0.367026 0 -0.263748 -0.356847 0 -0.149444 -0.350594 0 -0.0465785 -0.347882 0 2.30577 -368.345 0 31.335 -371.756 0 60.3743 -377.529 0 89.4236 -388.708 0 117.746 -407.639 0 144.169 -432.613 0 168.677 -460.447 0 190.678 -488.525 0 208.724 -519.15 0 222.75 -557.158 0 232.177 -606.721 0 234.827 -662.719 0 230.491 -713.335 0 219.179 -747.276 0 200.94 -768.766 0 175.783 -797.538 0 143.814 -853.562 0 106.146 -936.832 0 63.0745 -1019.62 0 14.7747 -1072.28 0 -34.8904 -1078.46 0 -84.3406 -1047.68 0 -133.536 -992.422 0 -179.338 -924.628 0 -219.776 -854.741 0 -254.849 -792.944 0 -283.896 -746.073 0 -306.252 -707.554 0 -321.919 -667.468 0 -331.409 -617.764 0 -335.539 -561.339 0 -334.319 -505.046 0 -328.49 -455.08 0 -319.86 -411.821 0 -308.511 -372.658 0 -294.836 -335.112 0 -280.315 -298.851 0 -265.087 -265.087 0 -249.241 -235.025 0 -233.295 -208.882 0 -217.335 -185.888 0 -201.422 -165.241 0 -186.183 -146.454 0 -171.784 -129.491 0 -158.225 -114.344 0 -145.454 -100.956 0 -133.451 -89.1699 0 -122.217 -78.8175 0 -111.752 -69.7299 0 -102.055 -61.7387 0 -93.127 -54.6752 0 -84.8798 -48.389 0 -77.2262 -42.8014 0 -70.166 -37.8519 0 -63.6994 -33.4799 0 -57.8263 -29.6248 0 -52.5467 -26.2261 0 -47.79 -23.225 0 -43.3838 -20.5776 0 -39.3203 -18.248 0 -35.5993 -16.2003 0 -32.2209 -14.3987 0 -29.1852 -12.8072 0 -26.4742 -11.3904 0 -23.9809 -10.1244 0 -21.6874 -8.99642 0 -19.5937 -7.99453 0 -17.6999 -7.10656 0 -16.0058 -6.32044 0 -14.5087 -5.62406 0 -13.1438 -5.0068 0 -11.8846 -4.4608 0 -10.7312 -3.97856 0 -9.6836 -3.55256 0 -8.74175 -3.17527 0 -7.90567 -2.83919 0 -7.15122 -2.53764 0 -6.45425 -2.26735 0 -5.81476 -2.0259 0 -5.23276 -1.81087 0 -4.70825 -1.61984 0 -4.24122 -1.45038 0 -3.82414 -1.30012 0 -3.4386 -1.16717 0 -3.08375 -1.04984 0 -2.7596 -0.946492 0 -2.46615 -0.855447 0 -2.20339 -0.775047 0 -1.96887 -0.703653 0 -1.74785 -0.640229 0 -1.53787 -0.584344 0 -1.33893 -0.535589 0 -1.15104 -0.493557 0 -0.974184 -0.45784 0 -0.808373 -0.428033 0 -0.653604 -0.403726 0 -0.509878 -0.384514 0 -0.377193 -0.369988 0 -0.25555 -0.359742 0 -0.144949 -0.353368 0 -0.04539 -0.350459 0 -1.19529 -349.638 0 26.9745 -353.617 0 52.7313 -359.538 0 76.0752 -369.045 0 97.9936 -383.505 0 120.058 -402.675 0 142.289 -425.724 0 162.648 -451.951 0 176.15 -481.784 0 182.568 -516.23 0 183.657 -556.045 0 186.009 -598.53 0 190.255 -638.492 0 193.52 -670.934 0 178.558 -696.639 0 142.493 -722.168 0 87.8787 -754.186 0 41.379 -792.649 0 10.0857 -828.204 0 -6.73134 -850.85 0 -25.1342 -854.895 0 -51.6937 -843.02 0 -86.3604 -818.867 0 -125.274 -786.108 0 -166.011 -748.496 0 -208.57 -709.796 0 -245.435 -672.727 0 -269.091 -635.822 0 -279.538 -596.561 0 -281.727 -553.043 0 -283.541 -506.955 0 -285.081 -461.284 0 -285.17 -418.758 0 -280.932 -379.846 0 -272.235 -343.854 0 -259.966 -310.116 0 -247.457 -278.497 0 -235.025 -249.241 0 -222.593 -222.593 0 -209.689 -198.559 0 -196.234 -176.907 0 -182.322 -157.399 0 -168.928 -139.839 0 -156.31 -124.091 0 -144.464 -110.026 0 -133.278 -97.5128 0 -122.709 -86.4143 0 -112.755 -76.594 0 -103.417 -67.915 0 -94.6943 -60.2408 0 -86.5877 -53.4344 0 -79.0557 -47.3721 0 -72.0571 -41.9812 0 -65.5919 -37.202 0 -59.6601 -32.9749 0 -54.2617 -29.2399 0 -49.3967 -25.9375 0 -45.002 -23.0099 0 -40.9228 -20.4161 0 -37.1522 -18.1241 0 -33.6902 -16.1018 0 -30.5368 -14.3171 0 -27.692 -12.738 0 -25.1406 -11.3328 0 -22.7917 -10.0792 0 -20.6303 -8.96386 0 -18.6562 -7.97405 0 -16.8695 -7.09697 0 -15.2702 -6.31982 0 -13.8555 -5.62983 0 -12.5643 -5.01607 0 -11.3717 -4.47127 0 -10.2777 -3.98855 0 -9.28221 -3.56103 0 -8.3853 -3.18185 0 -7.58695 -2.84413 0 -6.86537 -2.5417 0 -6.19875 -2.27123 0 -5.58709 -2.03008 0 -5.03038 -1.81562 0 -4.52864 -1.62522 0 -4.08186 -1.45625 0 -3.68276 -1.30615 0 -3.31354 -1.17301 0 -2.9734 -1.05526 0 -2.66234 -0.951321 0 -2.38035 -0.859622 0 -2.12744 -0.778589 0 -1.9013 -0.706673 0 -1.68809 -0.642873 0 -1.48551 -0.586736 0 -1.29354 -0.537832 0 -1.11221 -0.495733 0 -0.941491 -0.460009 0 -0.781399 -0.430231 0 -0.631931 -0.405969 0 -0.493087 -0.386795 0 -0.364866 -0.372279 0 -0.24727 -0.361993 0 -0.140296 -0.355506 0 -0.0439466 -0.35239 0 -4.48963 -330.736 0 22.1922 -334.527 0 45.4925 -340.389 0 65.4115 -348.696 0 83.2744 -359.868 0 101.191 -374.595 0 119.189 -393.665 0 135.399 -417.691 0 145.251 -445.753 0 148.539 -476.143 0 147.373 -507.218 0 149.696 -538.303 0 156.267 -569.422 0 163.788 -600.537 0 152.46 -629.846 0 118.983 -653.787 0 66.1208 -668.792 0 22.7218 -674.56 0 -3.54084 -675.324 0 -13.4594 -675.631 0 -24.4655 -677.717 0 -43.6902 -679.323 0 -71.0925 -677.676 0 -103.478 -670.436 0 -138.838 -656.459 0 -177.175 -634.807 0 -210.665 -605.194 0 -231.487 -569.941 0 -239.64 -532.02 0 -240.381 -494.071 0 -242.081 -456.785 0 -244.846 -420.145 0 -247.149 -384.188 0 -245.258 -349.412 0 -239.002 -316.553 0 -229.223 -286.298 0 -219.082 -258.689 0 -208.882 -233.295 0 -198.559 -209.689 0 -187.729 -187.729 0 -176.328 -167.556 0 -164.439 -149.323 0 -152.921 -133.033 0 -142.002 -118.491 0 -131.681 -105.484 0 -121.882 -93.8326 0 -112.578 -83.4221 0 -103.767 -74.144 0 -95.4498 -65.8902 0 -87.6264 -58.5527 0 -80.2967 -52.0232 0 -73.451 -46.2019 0 -67.0797 -41.0222 0 -61.1826 -36.4258 0 -55.7598 -32.3542 0 -50.8113 -28.7492 0 -46.3371 -25.5524 0 -42.2822 -22.7077 0 -38.5117 -20.1769 0 -35.0196 -17.9317 0 -31.8058 -15.9435 0 -28.8705 -14.1839 0 -26.2135 -12.6244 0 -23.8219 -11.237 0 -21.6176 -10.0006 0 -19.5876 -8.90186 0 -17.7319 -7.92733 0 -16.0506 -7.06375 0 -14.5436 -6.29785 0 -13.2083 -5.61636 0 -11.9882 -5.00823 0 -10.8601 -4.46668 0 -9.82394 -3.98544 0 -8.87981 -3.55825 0 -8.02769 -3.17883 0 -7.26756 -2.84091 0 -6.57955 -2.5388 0 -5.94378 -2.26911 0 -5.36025 -2.02905 0 -4.82896 -1.81579 0 -4.3499 -1.62655 0 -3.92308 -1.45852 0 -3.54156 -1.30898 0 -3.18835 -1.17604 0 -2.86269 -1.0582 0 -2.56459 -0.953977 0 -2.29403 -0.861898 0 -2.05102 -0.780472 0 -1.83338 -0.70824 0 -1.62811 -0.644234 0 -1.43301 -0.587986 0 -1.24811 -0.539047 0 -1.07338 -0.496971 0 -0.908844 -0.461309 0 -0.754491 -0.431615 0 -0.610323 -0.407439 0 -0.47634 -0.388335 0 -0.352541 -0.373855 0 -0.238927 -0.36355 0 -0.135498 -0.356975 0 -0.0422545 -0.35368 0 -6.64889 -311.913 0 17.6963 -314.642 0 38.7188 -319.982 0 56.4186 -327.524 0 71.691 -337.029 0 85.9611 -349.263 0 99.2471 -365.354 0 110.61 -386.181 0 117.755 -410.439 0 120.577 -435.702 0 120.471 -459.727 0 122.681 -482.901 0 127.707 -507.506 0 133.201 -535.661 0 125.06 -564.723 0 100.934 -587.295 0 62.6012 -595.919 0 28.6252 -589.954 0 3.94367 -578.209 0 -11.8619 -570.153 0 -27.9983 -570.771 0 -48.2322 -576.34 0 -72.5392 -582.137 0 -99.0251 -583.96 0 -126.5 -579.049 0 -154.964 -564.89 0 -179.665 -540.173 0 -195.852 -508.405 0 -203.524 -474.294 0 -206.048 -441.885 0 -208.784 -411.327 0 -211.8 -381.363 0 -214.091 -350.907 0 -213.198 -320.411 0 -209.012 -291.116 0 -202.053 -264.193 0 -194.282 -239.794 0 -185.888 -217.335 0 -176.907 -196.234 0 -167.556 -176.328 0 -157.871 -157.871 0 -147.902 -141.133 0 -138.17 -126.183 0 -128.813 -112.818 0 -119.833 -100.814 0 -111.245 -89.9896 0 -103.054 -80.2519 0 -95.261 -71.516 0 -87.866 -63.6976 0 -80.8689 -56.7124 0 -74.2697 -50.4761 0 -68.0779 -44.9089 0 -62.3032 -39.9501 0 -56.9455 -35.5438 0 -52.0048 -31.6338 0 -47.4812 -28.1641 0 -43.3746 -25.0786 0 -39.6385 -22.3236 0 -36.1591 -19.8639 0 -32.9312 -17.674 0 -29.9548 -15.7287 0 -27.2299 -14.0025 0 -24.7565 -12.4701 0 -22.5233 -11.1063 0 -20.4624 -9.89191 0 -18.5623 -8.81303 0 -16.8232 -7.85625 0 -15.245 -7.00808 0 -13.8277 -6.25506 0 -12.569 -5.58373 0 -11.4174 -4.98308 0 -10.3517 -4.4468 0 -9.37202 -3.9691 0 -8.47833 -3.54424 0 -7.67063 -3.16643 0 -6.94891 -2.82991 0 -6.29488 -2.52938 0 -5.69021 -2.26146 0 -5.13491 -2.02321 0 -4.62899 -1.81173 0 -4.17243 -1.62407 0 -3.76524 -1.45733 0 -3.40088 -1.3087 0 -3.06336 -1.17628 0 -2.75194 -1.05867 0 -2.46663 -0.954471 0 -2.20743 -0.862287 0 -1.97433 -0.780716 0 -1.7653 -0.708377 0 -1.56804 -0.644338 0 -1.38051 -0.588118 0 -1.20271 -0.539256 0 -1.03464 -0.497288 0 -0.876302 -0.461754 0 -0.727692 -0.43219 0 -0.588811 -0.408136 0 -0.45966 -0.389129 0 -0.340239 -0.374706 0 -0.230547 -0.364407 0 -0.130585 -0.357769 0 -0.0403525 -0.35433 0 -6.77624 -293.17 0 14.2251 -294.087 0 32.5053 -298.49 0 48.0643 -305.652 0 61.2677 -314.958 0 72.6976 -326.477 0 82.3613 -340.521 0 90.0981 -357.287 0 95.5148 -375.965 0 98.5937 -395.225 0 99.9029 -413.861 0 101.579 -432.421 0 103.827 -452.717 0 105.446 -476.434 0 99.2326 -501.687 0 83.9857 -523.025 0 60.4283 -534.939 0 36.1067 -536.382 0 13.028 -532.502 0 -8.85308 -528.881 0 -30.5361 -528.514 0 -52.4299 -529.383 0 -74.5248 -528.888 0 -96.057 -524.757 0 -116.547 -515.605 0 -135.995 -500.202 0 -152.691 -478.024 0 -164.928 -451.38 0 -172.705 -423.284 0 -177.39 -396.315 0 -181.16 -370.512 0 -184.044 -344.993 0 -185.681 -319 0 -185.188 -292.868 0 -182.524 -267.497 0 -177.902 -243.742 0 -172.115 -221.806 0 -165.241 -201.422 0 -157.399 -182.322 0 -149.323 -164.439 0 -141.133 -147.902 0 -132.849 -132.849 0 -124.683 -119.293 0 -116.69 -107.072 0 -108.875 -96.0158 0 -101.341 -85.9839 0 -94.13 -76.9038 0 -87.2428 -68.71 0 -80.6789 -61.3372 0 -74.4385 -54.7201 0 -68.5215 -48.7931 0 -62.9475 -43.493 0 -57.736 -38.765 0 -52.887 -34.5561 0 -48.4006 -30.8135 0 -44.2767 -27.4845 0 -40.5153 -24.5161 0 -37.0785 -21.8577 0 -33.8733 -19.477 0 -30.8957 -17.3512 0 -28.1456 -15.4573 0 -25.623 -13.7729 0 -23.3278 -12.2749 0 -21.2502 -10.941 0 -19.33 -9.75298 0 -17.5574 -8.69737 0 -15.9322 -7.76081 0 -14.4545 -6.92995 0 -13.1242 -6.19143 0 -11.9394 -5.53193 0 -10.8538 -4.94064 0 -9.84869 -4.41162 0 -8.92398 -3.93953 0 -8.07971 -3.51899 0 -7.31586 -3.14464 0 -6.63245 -2.81111 0 -6.01245 -2.51345 0 -5.43887 -2.24827 0 -4.9117 -2.01258 0 -4.43095 -1.80342 0 -3.99661 -1.61778 0 -3.60869 -1.4527 0 -3.26108 -1.3053 0 -2.9389 -1.17373 0 -2.64146 -1.05667 0 -2.36877 -0.952802 0 -2.12083 -0.860791 0 -1.89763 -0.779321 0 -1.69724 -0.707085 0 -1.50805 -0.643186 0 -1.32813 -0.587134 0 -1.15746 -0.538458 0 -0.996059 -0.496685 0 -0.843919 -0.461342 0 -0.701041 -0.431958 0 -0.567426 -0.40806 0 -0.443072 -0.389177 0 -0.327981 -0.374835 0 -0.222152 -0.364563 0 -0.125585 -0.357889 0 -0.0382807 -0.354341 0 -4.84503 -274.517 0 12.0113 -274.16 0 26.9329 -277.71 0 39.9195 -284.35 0 51.0656 -293.313 0 60.521 -304.104 0 68.2877 -316.331 0 74.3989 -329.605 0 78.9364 -343.601 0 81.9036 -358.023 0 83.4471 -372.628 0 84.1175 -387.883 0 83.9675 -404.768 0 82.5046 -424.188 0 76.773 -445.091 0 66.2801 -464.471 0 51.2122 -479.276 0 33.5141 -488.262 0 13.7028 -492.691 0 -8.11684 -494.006 0 -29.6438 -493.046 0 -49.9368 -489.471 0 -68.9931 -482.81 0 -86.616 -472.719 0 -102.682 -459.218 0 -117.191 -442.387 0 -129.722 -422.5 0 -139.855 -400.608 0 -147.589 -377.953 0 -153.277 -355.604 0 -157.48 -333.599 0 -160.206 -311.602 0 -161.453 -289.339 0 -161.221 -267.046 0 -159.509 -245.224 0 -156.371 -224.358 0 -152.013 -204.668 0 -146.454 -186.183 0 -139.839 -168.928 0 -133.033 -152.921 0 -126.183 -138.17 0 -119.293 -124.683 0 -112.417 -112.417 0 -105.569 -101.259 0 -98.7583 -91.0904 0 -92.1461 -81.8155 0 -85.7994 -73.3777 0 -79.7182 -65.726 0 -73.9024 -58.809 0 -68.3521 -52.5755 0 -63.0673 -46.9742 0 -58.0711 -41.9544 0 -53.3866 -37.4667 0 -49.0138 -33.4627 0 -44.9526 -29.8935 0 -41.2032 -26.7105 0 -37.7654 -23.8649 0 -34.6096 -21.31 0 -31.6629 -19.0163 0 -28.922 -16.9631 0 -26.3869 -15.1295 0 -24.0577 -13.495 0 -21.9343 -12.039 0 -20.0078 -10.7409 0 -18.2245 -9.58386 0 -16.5756 -8.55489 0 -15.061 -7.64103 0 -13.6807 -6.82936 0 -12.4347 -6.10697 0 -11.3212 -5.46096 0 -10.2995 -4.88089 0 -9.35307 -4.36116 0 -8.48186 -3.89672 0 -7.68588 -3.4825 0 -6.96512 -3.11346 0 -6.3196 -2.78453 0 -5.7334 -2.491 0 -5.19062 -2.22953 0 -4.69127 -1.99715 0 -4.23534 -1.79086 0 -3.82283 -1.60768 0 -3.45375 -1.4446 0 -3.12248 -1.29878 0 -2.81529 -1.1684 0 -2.53156 -1.05222 0 -2.27129 -0.94897 0 -2.03448 -0.85741 0 -1.82113 -0.776286 0 -1.6294 -0.704363 0 -1.4483 -0.640777 0 -1.27598 -0.585034 0 -1.11245 -0.536654 0 -0.957708 -0.49516 0 -0.811751 -0.460074 0 -0.674581 -0.430917 0 -0.546197 -0.407211 0 -0.4266 -0.388478 0 -0.31579 -0.37424 0 -0.213766 -0.364018 0 -0.120529 -0.357335 0 -0.0360792 -0.353711 0 -2.03608 -255.956 0 10.5867 -255.206 0 22.0631 -258.118 0 32.3931 -263.959 0 41.584 -272.004 0 49.6477 -281.579 0 56.5844 -292.03 0 62.2724 -302.76 0 66.4144 -313.683 0 68.9971 -324.976 0 70.0319 -336.829 0 69.5621 -349.56 0 67.5919 -363.585 0 63.9915 -379.278 0 57.982 -396.092 0 49.4337 -412.561 0 38.3611 -427.183 0 24.9174 -438.789 0 9.14322 -446.67 0 -8.85424 -450.157 0 -26.7184 -448.967 0 -43.4851 -443.58 0 -59.1542 -434.561 0 -73.7103 -422.5 0 -87.1435 -408.051 0 -99.4539 -391.883 0 -110.353 -374.599 0 -119.551 -356.551 0 -127.049 -338.028 0 -132.875 -319.285 0 -137.072 -300.39 0 -139.641 -281.342 0 -140.727 -262.157 0 -140.687 -243.014 0 -139.535 -224.171 0 -137.277 -205.885 0 -133.928 -188.365 0 -129.491 -171.784 0 -124.091 -156.31 0 -118.491 -142.002 0 -112.818 -128.813 0 -107.072 -116.69 0 -101.259 -105.569 0 -95.3773 -95.3773 0 -89.4377 -86.0373 0 -83.6369 -77.4842 0 -78.0553 -69.6738 0 -72.6931 -62.5641 0 -67.5501 -56.113 0 -62.6264 -50.2788 0 -57.922 -45.0195 0 -53.46 -40.2928 0 -49.2634 -36.0554 0 -45.3322 -32.2636 0 -41.6664 -28.8737 0 -38.2661 -25.842 0 -35.1312 -23.125 0 -32.2394 -20.6805 0 -29.536 -18.4818 0 -27.0187 -16.5097 0 -24.6873 -14.7452 0 -22.542 -13.169 0 -20.5827 -11.7623 0 -18.8013 -10.506 0 -17.1497 -9.38455 0 -15.6198 -8.38557 0 -14.2117 -7.49689 0 -12.9253 -6.70633 0 -11.7606 -6.00169 0 -10.7161 -5.37081 0 -9.75637 -4.80384 0 -8.86689 -4.29541 0 -8.04769 -3.84068 0 -7.29878 -3.43479 0 -6.62015 -3.07289 0 -6.0118 -2.75015 0 -5.45883 -2.46202 0 -4.94631 -2.20526 0 -4.47424 -1.97692 0 -4.04263 -1.77407 0 -3.65148 -1.59376 0 -3.30078 -1.43306 0 -2.98541 -1.28915 0 -2.69286 -1.16029 0 -2.42255 -1.0453 0 -2.17448 -0.942975 0 -1.94865 -0.852142 0 -1.74506 -0.771611 0 -1.56197 -0.700213 0 -1.38893 -0.637112 0 -1.2242 -0.581816 0 -1.06778 -0.533844 0 -0.919663 -0.492715 0 -0.779854 -0.45795 0 -0.648352 -0.429068 0 -0.525156 -0.405589 0 -0.410269 -0.387034 0 -0.303688 -0.372922 0 -0.205414 -0.362773 0 -0.115448 -0.356106 0 -0.0337883 -0.352443 0 0.38493 -237.515 0 9.43297 -237.22 0 17.9559 -239.704 0 25.9536 -244.479 0 33.4261 -251.058 0 40.3735 -258.953 0 46.7958 -267.676 0 52.3504 -276.783 0 56.2004 -286.193 0 58.3077 -296.013 0 58.6723 -306.353 0 57.2942 -317.321 0 54.1734 -329.026 0 49.3481 -341.558 0 43.0482 -354.557 0 35.3117 -367.212 0 26.1388 -378.693 0 15.5294 -388.171 0 3.48363 -394.815 0 -9.93932 -397.799 0 -23.434 -396.733 0 -36.4664 -392.074 0 -49.0365 -384.375 0 -61.1443 -374.19 0 -72.7898 -362.073 0 -83.973 -348.577 0 -94.1494 -334.185 0 -102.774 -319.091 0 -109.848 -303.42 0 -115.37 -287.295 0 -119.341 -270.84 0 -121.76 -254.177 0 -122.809 -237.435 0 -122.93 -220.766 0 -122.144 -204.342 0 -120.451 -188.331 0 -117.851 -172.902 0 -114.344 -158.225 0 -110.026 -144.464 0 -105.484 -131.681 0 -100.814 -119.833 0 -96.0158 -108.875 0 -91.0904 -98.7583 0 -86.0373 -89.4377 0 -80.8662 -80.8662 0 -75.7885 -72.9999 0 -70.8909 -65.801 0 -66.1733 -59.2323 0 -61.6357 -53.2564 0 -57.2781 -47.836 0 -53.1005 -42.9338 0 -49.1253 -38.5126 0 -45.3747 -34.5346 0 -41.8488 -30.962 0 -38.5475 -27.757 0 -35.4708 -24.8818 0 -32.6188 -22.2987 0 -29.9753 -19.9713 0 -27.5012 -17.8754 0 -25.1946 -15.9928 0 -23.0554 -14.3056 0 -21.0838 -12.7959 0 -19.2797 -11.4456 0 -17.636 -10.2371 0 -16.1094 -9.15557 0 -14.6929 -8.18987 0 -13.3865 -7.32881 0 -12.1901 -6.56121 0 -11.1037 -5.87594 0 -10.126 -5.26185 0 -9.22637 -4.70981 0 -8.3922 -4.21465 0 -7.62353 -3.77163 0 -6.92035 -3.37602 0 -6.28268 -3.02308 0 -5.7105 -2.70808 0 -5.18986 -2.4266 0 -4.70678 -2.17549 0 -4.26126 -1.95191 0 -3.85332 -1.75304 0 -3.48293 -1.57603 0 -3.15011 -1.41806 0 -2.85023 -1.27641 0 -2.57194 -1.1494 0 -2.31474 -1.03591 0 -2.07862 -0.934819 0 -1.8636 -0.844989 0 -1.66965 -0.765298 0 -1.49514 -0.694633 0 -1.33011 -0.632191 0 -1.17291 -0.577482 0 -1.02354 -0.530027 0 -0.881999 -0.489349 0 -0.748283 -0.454969 0 -0.622394 -0.42641 0 -0.504334 -0.403195 0 -0.394101 -0.384844 0 -0.291696 -0.37088 0 -0.197119 -0.360826 0 -0.110369 -0.354203 0 -0.031448 -0.350534 0 1.64416 -219.788 0 8.21407 -220.074 0 14.6168 -222.213 0 20.8523 -225.966 0 26.9206 -231.095 0 32.8216 -237.361 0 38.5555 -244.525 0 43.6764 -252.36 0 47.0948 -260.734 0 48.761 -269.566 0 48.6751 -278.774 0 46.8371 -288.277 0 43.247 -297.995 0 38.0248 -307.837 0 31.8908 -317.527 0 24.9652 -326.6 0 17.2478 -334.58 0 8.7388 -340.996 0 -0.561944 -345.374 0 -10.6281 -347.242 0 -20.8817 -346.367 0 -31.0861 -342.979 0 -41.2415 -337.362 0 -51.3478 -329.8 0 -61.4049 -320.575 0 -71.413 -309.972 0 -80.6961 -298.256 0 -88.5782 -285.618 0 -95.0594 -272.234 0 -100.14 -258.277 0 -103.819 -243.922 0 -106.097 -229.342 0 -107.155 -214.709 0 -107.434 -200.166 0 -106.953 -185.841 0 -105.713 -171.861 0 -103.714 -158.356 0 -100.956 -145.454 0 -97.5128 -133.278 0 -93.8326 -121.882 0 -89.9896 -111.245 0 -85.9839 -101.341 0 -81.8155 -92.1461 0 -77.4842 -83.6369 0 -72.9999 -75.7885 0 -68.5736 -68.5736 0 -64.2917 -61.959 0 -60.1543 -55.9107 0 -56.1612 -50.3951 0 -52.3126 -45.3781 0 -48.6085 -40.8259 0 -45.0714 -36.7049 0 -41.724 -32.9827 0 -38.5664 -29.6272 0 -35.5986 -26.6063 0 -32.8205 -23.8877 0 -30.2321 -21.4394 0 -27.8223 -19.2304 0 -25.5638 -17.2387 0 -23.4554 -15.4476 0 -21.4969 -13.8398 0 -19.6885 -12.3986 0 -18.0302 -11.107 0 -16.5156 -9.94806 0 -15.1067 -8.90835 0 -13.7972 -7.97758 0 -12.5872 -7.14565 0 -11.4766 -6.40244 0 -10.4654 -5.73784 0 -9.5524 -5.14175 0 -8.71109 -4.6058 0 -7.93059 -4.12497 0 -7.21091 -3.69465 0 -6.55205 -3.3102 0 -5.954 -2.96699 0 -5.41676 -2.6604 0 -4.92733 -2.38612 0 -4.47269 -2.14111 0 -4.05285 -1.92268 0 -3.66779 -1.72812 0 -3.31753 -1.55471 0 -3.00207 -1.39974 0 -2.71723 -1.26062 0 -2.45284 -1.13577 0 -2.20844 -1.02409 0 -1.98402 -0.924506 0 -1.77959 -0.835951 0 -1.59514 -0.757345 0 -1.4291 -0.687624 0 -1.27199 -0.626014 0 -1.12224 -0.572031 0 -0.979838 -0.525204 0 -0.844789 -0.485062 0 -0.717093 -0.451133 0 -0.59675 -0.422945 0 -0.483759 -0.400027 0 -0.378121 -0.381908 0 -0.279837 -0.368115 0 -0.188904 -0.358179 0 -0.105325 -0.351626 0 -0.0290985 -0.347986 0 1.92301 -203.019 0 6.94846 -203.715 0 11.9469 -205.54 0 16.9184 -208.442 0 21.8628 -212.369 0 26.7803 -217.27 0 31.6708 -223.091 0 36.0922 -229.77 0 38.9643 -237.142 0 40.2379 -244.991 0 39.913 -253.098 0 37.9896 -261.249 0 34.4676 -269.225 0 29.4893 -276.809 0 23.9072 -283.794 0 17.8633 -289.978 0 11.3578 -295.161 0 4.39056 -299.143 0 -3.03837 -301.723 0 -10.9185 -302.702 0 -19.0194 -301.967 0 -27.2467 -299.579 0 -35.6004 -295.614 0 -44.0805 -290.152 0 -52.687 -283.27 0 -61.4199 -275.048 0 -69.6113 -265.584 0 -76.5932 -255.063 0 -82.3657 -243.691 0 -86.9287 -231.674 0 -90.2822 -219.216 0 -92.4262 -206.523 0 -93.5186 -193.793 0 -93.9453 -181.157 0 -93.7237 -168.709 0 -92.854 -156.546 0 -91.336 -144.761 0 -89.1699 -133.451 0 -86.4143 -122.709 0 -83.4221 -112.578 0 -80.2519 -103.054 0 -76.9038 -94.13 0 -73.3777 -85.7994 0 -69.6738 -78.0553 0 -65.801 -70.8909 0 -61.959 -64.2917 0 -58.2292 -58.2292 0 -54.6118 -52.6731 0 -51.1067 -47.5931 0 -47.714 -42.9588 0 -44.4336 -38.7401 0 -41.2894 -34.907 0 -38.3054 -31.432 0 -35.4815 -28.2878 0 -32.8178 -25.4474 0 -30.3142 -22.8834 0 -27.9708 -20.5688 0 -25.78 -18.4772 0 -23.7238 -16.5891 0 -21.8011 -14.8885 0 -20.012 -13.3597 0 -18.3566 -11.9867 0 -16.8347 -10.7536 0 -15.441 -9.64475 0 -14.1426 -8.64754 0 -12.934 -7.7527 0 -11.8151 -6.95105 0 -10.786 -6.23344 0 -9.84678 -5.59069 0 -8.99624 -5.01366 0 -8.21139 -4.49466 0 -7.4828 -4.02887 0 -6.81046 -3.6118 0 -6.19437 -3.23895 0 -5.63453 -2.90584 0 -5.13095 -2.60796 0 -4.67156 -2.34115 0 -4.24433 -2.1025 0 -3.84925 -1.88946 0 -3.48632 -1.69943 0 -3.15554 -1.52985 0 -2.85691 -1.37814 0 -2.58671 -1.24183 0 -2.33586 -1.11941 0 -2.10393 -1.00982 0 -1.89094 -0.912042 0 -1.69688 -0.82503 0 -1.52175 -0.747753 0 -1.36404 -0.679185 0 -1.21473 -0.61858 0 -1.0723 -0.565464 0 -0.936764 -0.519375 0 -0.808109 -0.479855 0 -0.686341 -0.44644 0 -0.571459 -0.418671 0 -0.463464 -0.396086 0 -0.362354 -0.378225 0 -0.268131 -0.364627 0 -0.180795 -0.35483 0 -0.100344 -0.348374 0 -0.0267799 -0.344798 0 1.51263 -187.208 0 5.6953 -188.144 0 9.8353 -189.687 0 13.9326 -191.908 0 17.9873 -194.88 0 21.9993 -198.678 0 25.9686 -203.373 0 29.5314 -209.013 0 31.7984 -215.417 0 32.7292 -222.288 0 32.3238 -229.327 0 30.5821 -236.235 0 27.5042 -242.715 0 23.2117 -248.474 0 18.4343 -253.356 0 13.2937 -257.347 0 7.78985 -260.435 0 1.92279 -262.61 0 -4.30751 -263.861 0 -10.8937 -264.178 0 -17.6751 -263.535 0 -24.5858 -261.873 0 -31.626 -259.13 0 -38.7955 -255.245 0 -46.0944 -250.157 0 -53.5226 -243.804 0 -60.5174 -236.17 0 -66.516 -227.428 0 -71.5182 -217.794 0 -75.5243 -207.486 0 -78.534 -196.722 0 -80.5475 -185.72 0 -81.6856 -174.686 0 -82.2442 -163.738 0 -82.2367 -152.947 0 -81.6631 -142.383 0 -80.5233 -132.116 0 -78.8175 -122.217 0 -76.594 -112.755 0 -74.144 -103.767 0 -71.516 -95.261 0 -68.71 -87.2428 0 -65.726 -79.7182 0 -62.5641 -72.6931 0 -59.2323 -66.1733 0 -55.9107 -60.1543 0 -52.6731 -54.6118 0 -49.5193 -49.5193 0 -46.4495 -44.8503 0 -43.4635 -40.5782 0 -40.5615 -36.6764 0 -37.7689 -33.119 0 -35.1116 -29.8824 0 -32.5894 -26.9438 0 -30.2023 -24.2803 0 -27.9505 -21.869 0 -25.8338 -19.6869 0 -23.8476 -17.7118 0 -21.9802 -15.9263 0 -20.2311 -14.3157 0 -18.6002 -12.8652 0 -17.0877 -11.5601 0 -15.6935 -10.3856 0 -14.4129 -9.32714 0 -13.218 -8.37316 0 -12.1042 -7.51522 0 -11.0714 -6.74502 0 -10.1197 -6.05422 0 -9.24903 -5.43451 0 -8.45852 -4.87759 0 -7.72806 -4.37641 0 -7.04944 -3.92635 0 -6.42266 -3.52309 0 -5.84771 -3.16229 0 -5.32461 -2.83963 0 -4.85334 -2.55076 0 -4.42282 -2.29169 0 -4.02194 -2.05966 0 -3.65071 -1.85223 0 -3.30912 -1.66698 0 -2.99718 -1.50147 0 -2.71489 -1.35326 0 -2.45894 -1.22003 0 -2.22127 -1.10032 0 -2.00151 -0.993122 0 -1.79967 -0.897424 0 -1.61573 -0.812226 0 -1.44971 -0.736521 0 -1.30016 -0.669318 0 -1.15848 -0.60989 0 -1.02323 -0.557779 0 -0.894416 -0.51254 0 -0.772033 -0.473726 0 -0.656082 -0.440891 0 -0.546563 -0.413589 0 -0.443477 -0.391373 0 -0.346824 -0.373797 0 -0.256602 -0.360415 0 -0.172813 -0.350781 0 -0.0954566 -0.344448 0 -0.0245323 -0.340971 0 0.704152 -172.354 0 4.51371 -173.361 0 8.1709 -174.652 0 11.6757 -176.362 0 15.0282 -178.628 0 18.2284 -181.586 0 21.2761 -185.372 0 23.9276 -190.089 0 25.5865 -195.56 0 26.2258 -201.458 0 25.8453 -207.459 0 24.4452 -213.237 0 22.0255 -218.467 0 18.6618 -222.831 0 14.8093 -226.215 0 10.5438 -228.707 0 5.86519 -230.402 0 0.773521 -231.397 0 -4.7312 -231.789 0 -10.6369 -231.672 0 -16.6766 -231.069 0 -22.7414 -229.861 0 -28.8311 -227.91 0 -34.9458 -225.08 0 -41.0854 -221.236 0 -47.25 -216.24 0 -53.0368 -210.014 0 -58.043 -202.71 0 -62.2686 -194.54 0 -65.7136 -185.713 0 -68.3779 -176.441 0 -70.2616 -166.932 0 -71.4423 -157.388 0 -72.1095 -147.911 0 -72.2719 -138.555 0 -71.9294 -129.375 0 -71.0821 -120.422 0 -69.7299 -111.752 0 -67.915 -103.417 0 -65.8902 -95.4498 0 -63.6976 -87.866 0 -61.3372 -80.6789 0 -58.809 -73.9024 0 -56.113 -67.5501 0 -53.2564 -61.6357 0 -50.3951 -56.1612 0 -47.5931 -51.1067 0 -44.8503 -46.4495 0 -42.1669 -42.1669 0 -39.5427 -38.2362 0 -36.9778 -34.6349 0 -34.4996 -31.3407 0 -32.1355 -28.3339 0 -29.8855 -25.5951 0 -27.7497 -23.105 0 -25.728 -20.8443 0 -23.8204 -18.7937 0 -22.0241 -16.9342 0 -20.3323 -15.2505 0 -18.7447 -13.7291 0 -17.2612 -12.3564 0 -15.8818 -11.1188 0 -14.6066 -10.0029 0 -13.4317 -8.99522 0 -12.3338 -8.0852 0 -11.309 -7.26516 0 -10.3573 -6.52754 0 -9.47872 -5.86477 0 -8.67329 -5.26929 0 -7.94018 -4.73353 0 -7.26186 -4.25103 0 -6.63113 -3.81741 0 -6.04801 -3.42851 0 -5.51248 -3.08021 0 -5.02456 -2.76835 0 -4.58423 -2.48881 0 -4.18135 -2.23775 0 -3.80576 -2.01258 0 -3.45746 -1.81101 0 -3.13644 -1.63076 0 -2.84271 -1.46956 0 -2.57627 -1.32511 0 -2.3342 -1.19523 0 -2.10937 -1.07852 0 -1.90146 -0.973986 0 -1.71047 -0.880654 0 -1.5364 -0.797537 0 -1.37924 -0.72365 0 -1.23764 -0.658021 0 -1.10339 -0.599943 0 -0.975145 -0.548978 0 -0.852892 -0.504699 0 -0.736634 -0.466677 0 -0.626371 -0.434486 0 -0.522103 -0.407698 0 -0.423831 -0.385886 0 -0.331553 -0.368623 0 -0.245271 -0.35548 0 -0.164984 -0.346031 0 -0.0906925 -0.339848 0 -0.0223959 -0.336504 0 -0.211267 -158.458 0 3.46283 -159.366 0 6.84274 -160.436 0 9.92845 -161.805 0 12.72 -163.613 0 15.2173 -165.994 0 17.4205 -169.087 0 19.2144 -172.999 0 20.3179 -177.569 0 20.7183 -182.5 0 20.4154 -187.495 0 19.4094 -192.254 0 17.7002 -196.479 0 15.3098 -199.881 0 12.3695 -202.37 0 8.90119 -204.057 0 4.90497 -205.063 0 0.380809 -205.506 0 -4.6713 -205.506 0 -10.2311 -205.183 0 -15.8519 -204.571 0 -21.351 -203.544 0 -26.7285 -201.954 0 -31.9844 -199.657 0 -37.1186 -196.507 0 -42.1311 -192.356 0 -46.792 -187.115 0 -50.871 -180.912 0 -54.3683 -173.931 0 -57.2838 -166.356 0 -59.6174 -158.371 0 -61.3693 -150.161 0 -62.5748 -141.899 0 -63.32 -133.675 0 -63.609 -125.533 0 -63.4418 -117.519 0 -62.8184 -109.678 0 -61.7387 -102.055 0 -60.2408 -94.6943 0 -58.5527 -87.6264 0 -56.7124 -80.8689 0 -54.7201 -74.4385 0 -52.5755 -68.3521 0 -50.2788 -62.6264 0 -47.836 -57.2781 0 -45.3781 -52.3126 0 -42.9588 -47.714 0 -40.5782 -43.4635 0 -38.2362 -39.5427 0 -35.9329 -35.9329 0 -33.6682 -32.6155 0 -31.4709 -29.5723 0 -29.37 -26.7865 0 -27.3654 -24.2417 0 -25.4571 -21.9215 0 -23.6451 -19.8095 0 -21.9295 -17.8891 0 -20.3087 -16.1444 0 -18.7793 -14.5617 0 -17.3412 -13.1287 0 -15.9943 -11.8332 0 -14.7387 -10.6629 0 -13.5743 -9.60556 0 -12.498 -8.64901 0 -11.4907 -7.78366 0 -10.5494 -7.00251 0 -9.67393 -6.29862 0 -8.86436 -5.6651 0 -8.12069 -5.09502 0 -7.44221 -4.58149 0 -6.81357 -4.11854 0 -6.2285 -3.70204 0 -5.687 -3.32807 0 -5.18907 -2.9927 0 -4.7347 -2.69202 0 -4.3239 -2.4221 0 -3.94743 -2.17932 0 -3.59604 -1.96126 0 -3.26973 -1.76579 0 -2.96851 -1.59078 0 -2.69237 -1.43412 0 -2.44132 -1.29368 0 -2.21277 -1.16741 0 -2.00045 -1.05398 0 -1.80408 -0.952413 0 -1.62364 -0.861732 0 -1.45914 -0.780965 0 -1.31058 -0.70914 0 -1.17667 -0.645295 0 -1.04963 -0.58874 0 -0.928171 -0.53906 0 -0.812289 -0.495851 0 -0.701987 -0.458707 0 -0.597264 -0.427225 0 -0.49812 -0.401 0 -0.404554 -0.379627 0 -0.316568 -0.362702 0 -0.23416 -0.349822 0 -0.157332 -0.34058 0 -0.0860817 -0.334573 0 -0.0204108 -0.331397 0 -0.942481 -145.52 0 2.6018 -146.158 0 5.73979 -147.038 0 8.47147 -148.238 0 10.7968 -149.834 0 12.7159 -151.902 0 14.2287 -154.519 0 15.3254 -157.742 0 15.982 -161.446 0 16.1975 -165.416 0 15.9719 -169.434 0 15.3052 -173.285 0 14.1973 -176.752 0 12.6254 -179.623 0 10.4517 -181.821 0 7.65339 -183.398 0 4.23038 -184.416 0 0.182699 -184.935 0 -4.48966 -185.013 0 -9.7595 -184.71 0 -15.0287 -184.04 0 -20.0526 -182.921 0 -24.8311 -181.263 0 -29.3644 -178.976 0 -33.6523 -175.969 0 -37.6949 -172.153 0 -41.4052 -167.473 0 -44.6966 -162.032 0 -47.5688 -155.966 0 -50.022 -149.414 0 -52.0562 -142.515 0 -53.6713 -135.406 0 -54.8692 -128.219 0 -55.6548 -121.029 0 -56.0282 -113.881 0 -55.9894 -106.818 0 -55.5384 -99.885 0 -54.6752 -93.127 0 -53.4344 -86.5877 0 -52.0232 -80.2967 0 -50.4761 -74.2697 0 -48.7931 -68.5215 0 -46.9742 -63.0673 0 -45.0195 -57.922 0 -42.9338 -53.1005 0 -40.8259 -48.6085 0 -38.7401 -44.4336 0 -36.6764 -40.5615 0 -34.6349 -36.9778 0 -32.6155 -33.6682 0 -30.6182 -30.6182 0 -28.6726 -27.8137 0 -26.808 -25.2403 0 -25.0245 -22.8837 0 -23.322 -20.7299 0 -21.7006 -18.7645 0 -20.1602 -16.9733 0 -18.7005 -15.3424 0 -17.3204 -13.8598 0 -16.02 -12.5145 0 -14.7993 -11.2957 0 -13.6582 -10.1923 0 -12.5967 -9.19353 0 -11.6124 -8.28849 0 -10.6898 -7.46855 0 -9.82658 -6.72726 0 -9.02257 -6.05826 0 -8.27783 -5.4552 0 -7.59236 -4.91172 0 -6.96554 -4.42146 0 -6.38397 -3.97893 0 -5.84217 -3.58025 0 -5.34014 -3.22176 0 -4.87787 -2.89978 0 -4.45537 -2.61063 0 -4.07264 -2.35063 0 -3.7213 -2.11641 0 -3.39301 -1.9057 0 -3.08777 -1.71657 0 -2.80556 -1.54704 0 -2.5464 -1.39516 0 -2.31028 -1.25897 0 -2.09493 -1.13659 0 -1.8948 -1.02672 0 -1.70964 -0.928404 0 -1.53944 -0.840657 0 -1.38422 -0.76251 0 -1.24396 -0.692991 0 -1.11745 -0.631139 0 -0.997346 -0.576281 0 -0.882432 -0.528026 0 -0.772706 -0.485997 0 -0.668168 -0.449817 0 -0.568817 -0.419108 0 -0.474654 -0.393493 0 -0.385678 -0.372595 0 -0.301891 -0.356036 0 -0.223291 -0.34344 0 -0.149879 -0.334428 0 -0.0816541 -0.328624 0 -0.0186172 -0.32565 0 -1.26552 -133.447 0 1.97216 -133.769 0 4.76901 -134.487 0 7.12503 -135.597 0 9.04022 -137.096 0 10.5146 -138.979 0 11.5481 -141.242 0 12.1875 -143.874 0 12.5467 -146.792 0 12.6309 -149.876 0 12.4402 -153.007 0 11.9745 -156.066 0 11.2339 -158.934 0 10.1729 -161.491 0 8.51927 -163.666 0 6.22755 -165.425 0 3.29778 -166.742 0 -0.270057 -167.586 0 -4.47595 -167.929 0 -9.29073 -167.742 0 -14.0728 -167 0 -18.5596 -165.691 0 -22.7511 -163.801 0 -26.6475 -161.318 0 -30.2486 -158.228 0 -33.5544 -154.519 0 -36.5593 -150.194 0 -39.2576 -145.326 0 -41.6491 -140.003 0 -43.7341 -134.313 0 -45.5124 -128.344 0 -46.984 -122.185 0 -48.1322 -115.922 0 -48.916 -109.614 0 -49.3336 -103.308 0 -49.385 -97.0529 0 -49.0701 -90.8943 0 -48.389 -84.8798 0 -47.3721 -79.0557 0 -46.2019 -73.451 0 -44.9089 -68.0779 0 -43.493 -62.9475 0 -41.9544 -58.0711 0 -40.2928 -53.46 0 -38.5126 -49.1253 0 -36.7049 -45.0714 0 -34.907 -41.2894 0 -33.119 -37.7689 0 -31.3407 -34.4996 0 -29.5723 -31.4709 0 -27.8137 -28.6726 0 -26.0939 -26.0939 0 -24.4418 -23.7226 0 -22.8574 -21.5464 0 -21.3408 -19.5529 0 -19.892 -17.7295 0 -18.5108 -16.064 0 -17.1979 -14.5439 0 -15.9543 -13.1589 0 -14.7801 -11.8994 0 -13.6753 -10.7556 0 -12.6399 -9.71797 0 -11.6738 -8.77691 0 -10.7751 -7.92287 0 -9.9316 -7.1481 0 -9.14125 -6.44666 0 -8.40406 -5.81271 0 -7.72004 -5.24038 0 -7.08917 -4.72381 0 -6.51093 -4.25714 0 -5.97368 -3.8353 0 -5.47264 -3.4547 0 -5.00782 -3.11191 0 -4.57922 -2.8035 0 -4.18684 -2.52607 0 -3.83068 -2.27619 0 -3.50322 -2.05071 0 -3.19692 -1.84756 0 -2.91178 -1.66496 0 -2.64782 -1.5011 0 -2.40502 -1.35419 0 -2.18339 -1.22245 0 -1.98091 -1.10412 0 -1.79265 -0.997988 0 -1.61838 -0.903068 0 -1.45811 -0.818392 0 -1.31184 -0.742988 0 -1.17956 -0.675885 0 -1.06013 -0.616124 0 -0.946668 -0.563045 0 -0.838034 -0.516286 0 -0.734224 -0.475497 0 -0.635239 -0.440329 0 -0.541078 -0.410434 0 -0.451742 -0.385463 0 -0.367231 -0.365066 0 -0.287545 -0.348893 0 -0.212683 -0.336598 0 -0.142645 -0.327829 0 -0.0774328 -0.322238 0 -0.0170449 -0.319476 0 -1.22511 -122.148 0 1.545 -122.231 0 3.90919 -122.81 0 5.86746 -123.821 0 7.4198 -125.203 0 8.56622 -126.894 0 9.30672 -128.831 0 9.70076 -130.952 0 9.89372 -133.209 0 9.89218 -135.554 0 9.69617 -137.943 0 9.30567 -140.331 0 8.72069 -142.671 0 7.89364 -144.918 0 6.53901 -147.003 0 4.60922 -148.833 0 2.10426 -150.318 0 -0.975874 -151.362 0 -4.63117 -151.875 0 -8.83497 -151.764 0 -13.0008 -150.979 0 -16.8886 -149.555 0 -20.4985 -147.535 0 -23.8304 -144.964 0 -26.8844 -141.886 0 -29.6604 -138.344 0 -32.1781 -134.383 0 -34.4573 -130.052 0 -36.4978 -125.401 0 -38.2996 -120.478 0 -39.8629 -115.334 0 -41.1876 -110.018 0 -42.2511 -104.579 0 -42.9985 -99.0661 0 -43.4272 -93.5266 0 -43.5372 -88.0082 0 -43.3287 -82.5589 0 -42.8014 -77.2262 0 -41.9812 -72.0571 0 -41.0222 -67.0797 0 -39.9501 -62.3032 0 -38.765 -57.736 0 -37.4667 -53.3866 0 -36.0554 -49.2634 0 -34.5346 -45.3747 0 -32.9827 -41.724 0 -31.432 -38.3054 0 -29.8824 -35.1116 0 -28.3339 -32.1355 0 -26.7865 -29.37 0 -25.2403 -26.808 0 -23.7226 -24.4418 0 -22.2611 -22.2611 0 -20.8558 -20.2553 0 -19.5066 -18.4135 0 -18.2136 -16.725 0 -16.9767 -15.1789 0 -15.7972 -13.7648 0 -14.6778 -12.4734 0 -13.6189 -11.2962 0 -12.6203 -10.2248 0 -11.6821 -9.25084 0 -10.8043 -8.36581 0 -9.98517 -7.56135 0 -9.21523 -6.83055 0 -8.49284 -6.16796 0 -7.81798 -5.56821 0 -7.19068 -5.02593 0 -6.61091 -4.53573 0 -6.07823 -4.09224 0 -5.58258 -3.69079 0 -5.11986 -3.32804 0 -4.69006 -3.00081 0 -4.29317 -2.70594 0 -3.92921 -2.44025 0 -3.59817 -2.20055 0 -3.29332 -1.98393 0 -3.00791 -1.78848 0 -2.74196 -1.61257 0 -2.49545 -1.45455 0 -2.26839 -1.31277 0 -2.06078 -1.18558 0 -1.87081 -1.07139 0 -1.69407 -0.969025 0 -1.53036 -0.877514 0 -1.37968 -0.795899 0 -1.24203 -0.723217 0 -1.1174 -0.658506 0 -1.00473 -0.600819 0 -0.897623 -0.549512 0 -0.795002 -0.50425 0 -0.69687 -0.46471 0 -0.603227 -0.43057 0 -0.514073 -0.401506 0 -0.429407 -0.377195 0 -0.349231 -0.357315 0 -0.273543 -0.341544 0 -0.202345 -0.329558 0 -0.135635 -0.321035 0 -0.0734141 -0.315652 0 -0.0156822 -0.313086 0 -0.933154 -111.621 0 1.27382 -111.543 0 3.15706 -112.005 0 4.71657 -112.909 0 5.95233 -114.156 0 6.86436 -115.647 0 7.45265 -117.285 0 7.7586 -118.977 0 7.88337 -120.697 0 7.83157 -122.45 0 7.6032 -124.242 0 7.19825 -126.078 0 6.61674 -127.964 0 5.82308 -129.903 0 4.60387 -131.832 0 2.92354 -133.622 0 0.7821 -135.143 0 -1.82046 -136.263 0 -4.88414 -136.851 0 -8.38783 -136.776 0 -11.8671 -135.975 0 -15.132 -134.51 0 -18.1825 -132.464 0 -21.0186 -129.915 0 -23.6404 -126.943 0 -26.0477 -123.627 0 -28.2459 -120.039 0 -30.2402 -116.208 0 -32.0306 -112.158 0 -33.617 -107.909 0 -34.9995 -103.484 0 -36.1781 -98.9037 0 -37.1338 -94.1917 0 -37.8202 -89.3869 0 -38.2353 -84.5354 0 -38.3789 -79.6838 0 -38.2511 -74.8785 0 -37.8519 -70.166 0 -37.202 -65.5919 0 -36.4258 -61.1826 0 -35.5438 -56.9455 0 -34.5561 -52.887 0 -33.4627 -49.0138 0 -32.2636 -45.3322 0 -30.962 -41.8488 0 -29.6272 -38.5664 0 -28.2878 -35.4815 0 -26.9438 -32.5894 0 -25.5951 -29.8855 0 -24.2417 -27.3654 0 -22.8837 -25.0245 0 -21.5464 -22.8574 0 -20.2553 -20.8558 0 -19.0103 -19.0103 0 -17.8115 -17.3117 0 -16.6588 -15.7508 0 -15.5523 -14.3182 0 -14.4936 -13.005 0 -13.4873 -11.803 0 -12.5334 -10.7049 0 -11.632 -9.70335 0 -10.783 -8.79092 0 -9.98655 -7.96023 0 -9.24126 -7.20393 0 -8.53963 -6.51589 0 -7.8804 -5.89114 0 -7.26357 -5.32476 0 -6.68914 -4.81185 0 -6.15711 -4.34748 0 -5.66708 -3.92675 0 -5.21044 -3.54537 0 -4.78367 -3.20026 0 -4.38676 -2.88849 0 -4.01971 -2.6071 0 -3.68252 -2.35315 0 -3.3752 -2.12371 0 -3.09175 -1.91606 0 -2.82616 -1.72847 0 -2.57845 -1.55941 0 -2.34861 -1.40738 0 -2.13664 -1.27087 0 -1.94255 -1.14836 0 -1.7647 -1.03839 0 -1.5991 -0.939834 0 -1.44558 -0.851743 0 -1.30413 -0.773179 0 -1.17476 -0.703197 0 -1.05746 -0.640855 0 -0.95125 -0.585223 0 -0.850207 -0.535683 0 -0.753342 -0.49192 0 -0.660655 -0.453638 0 -0.572147 -0.420538 0 -0.487817 -0.392321 0 -0.407666 -0.368689 0 -0.331693 -0.349344 0 -0.259899 -0.333988 0 -0.192283 -0.322321 0 -0.128846 -0.314047 0 -0.0695875 -0.308865 0 -0.0145074 -0.306479 0 -0.501553 -101.867 0 1.11212 -101.706 0 2.50937 -102.075 0 3.69019 -102.862 0 4.65458 -103.954 0 5.40255 -105.239 0 5.93409 -106.604 0 6.25435 -107.948 0 6.37593 -109.257 0 6.29939 -110.564 0 6.02474 -111.903 0 5.55198 -113.309 0 4.88111 -114.813 0 3.99676 -116.446 0 2.80674 -118.153 0 1.29568 -119.792 0 -0.536407 -121.219 0 -2.68953 -122.289 0 -5.16369 -122.858 0 -7.94493 -122.78 0 -10.7263 -121.988 0 -13.3822 -120.559 0 -15.9127 -118.588 0 -18.3177 -116.17 0 -20.5972 -113.399 0 -22.7513 -110.37 0 -24.7469 -107.162 0 -26.5509 -103.796 0 -28.1634 -100.276 0 -29.5844 -96.6072 0 -30.8138 -92.7945 0 -31.8516 -88.8428 0 -32.6881 -84.7596 0 -33.2993 -80.5759 0 -33.6841 -76.3348 0 -33.8424 -72.0795 0 -33.7744 -67.8533 0 -33.4799 -63.6994 0 -32.9749 -59.6601 0 -32.3542 -55.7598 0 -31.6338 -52.0048 0 -30.8135 -48.4006 0 -29.8935 -44.9526 0 -28.8737 -41.6664 0 -27.757 -38.5475 0 -26.6063 -35.5986 0 -25.4474 -32.8178 0 -24.2803 -30.2023 0 -23.105 -27.7497 0 -21.9215 -25.4571 0 -20.7299 -23.322 0 -19.5529 -21.3408 0 -18.4135 -19.5066 0 -17.3117 -17.8115 0 -16.2476 -16.2476 0 -15.221 -14.807 0 -14.232 -13.4819 0 -13.2829 -12.2645 0 -12.379 -11.1479 0 -11.5207 -10.1256 0 -10.708 -9.19119 0 -9.94081 -8.3382 0 -9.21916 -7.56015 0 -8.54209 -6.85062 0 -7.90371 -6.20414 0 -7.30304 -5.61621 0 -6.74007 -5.08237 0 -6.21482 -4.59814 0 -5.72728 -4.15906 0 -5.27712 -3.76067 0 -4.857 -3.39906 0 -4.4639 -3.07138 0 -4.09784 -2.77492 0 -3.75881 -2.50697 0 -3.44682 -2.26479 0 -3.16186 -2.04567 0 -2.89863 -1.84712 0 -2.65182 -1.66751 0 -2.42143 -1.50547 0 -2.20746 -1.3596 0 -2.00992 -1.2285 0 -1.8288 -1.1108 0 -1.66262 -1.00512 0 -1.50775 -0.910415 0 -1.36402 -0.825755 0 -1.23144 -0.750231 0 -1.11001 -0.682927 0 -0.999719 -0.62293 0 -0.89967 -0.569338 0 -0.804418 -0.521556 0 -0.713059 -0.479295 0 -0.625591 -0.44228 0 -0.542014 -0.410234 0 -0.462329 -0.382881 0 -0.386536 -0.359946 0 -0.314634 -0.341152 0 -0.246624 -0.326225 0 -0.182505 -0.314887 0 -0.122278 -0.306864 0 -0.0659425 -0.301879 0 -0.0134985 -0.299657 0 -0.0422102 -92.887 0 1.01339 -92.7191 0 1.96285 -93.0177 0 2.80615 -93.6784 0 3.54331 -94.5968 0 4.17432 -95.6685 0 4.69919 -96.7891 0 5.08139 -97.8644 0 5.23166 -98.8873 0 5.14594 -99.8957 0 4.82424 -100.928 0 4.26655 -102.023 0 3.47288 -103.218 0 2.45022 -104.548 0 1.24052 -105.967 0 -0.14921 -107.343 0 -1.71898 -108.546 0 -3.46879 -109.44 0 -5.39863 -109.894 0 -7.50189 -109.774 0 -9.63273 -109.018 0 -11.7315 -107.7 0 -13.7982 -105.907 0 -15.8329 -103.729 0 -17.8355 -101.254 0 -19.806 -98.5705 0 -21.6653 -95.7525 0 -23.3341 -92.8139 0 -24.8123 -89.7538 0 -26.1001 -86.5713 0 -27.1974 -83.2654 0 -28.1042 -79.8352 0 -28.8218 -76.2826 0 -29.3537 -72.6331 0 -29.6999 -68.9247 0 -29.8606 -65.1954 0 -29.8355 -61.4833 0 -29.6248 -57.8263 0 -29.2399 -54.2617 0 -28.7492 -50.8113 0 -28.1641 -47.4812 0 -27.4845 -44.2767 0 -26.7105 -41.2032 0 -25.842 -38.2661 0 -24.8818 -35.4708 0 -23.8877 -32.8205 0 -22.8834 -30.3142 0 -21.869 -27.9505 0 -20.8443 -25.728 0 -19.8095 -23.6451 0 -18.7645 -21.7006 0 -17.7295 -19.892 0 -16.725 -18.2136 0 -15.7508 -16.6588 0 -14.807 -15.221 0 -13.8935 -13.8935 0 -13.0104 -12.6698 0 -12.1603 -11.5433 0 -11.3494 -10.508 0 -10.5779 -9.55821 0 -9.84598 -8.68834 0 -9.15352 -7.89268 0 -8.50057 -7.16558 0 -7.88635 -6.5014 0 -7.30635 -5.89529 0 -6.75981 -5.34318 0 -6.24673 -4.84102 0 -5.76712 -4.3848 0 -5.32096 -3.97047 0 -4.90799 -3.594 0 -4.52198 -3.25185 0 -4.16039 -2.94139 0 -3.82322 -2.66013 0 -3.51047 -2.40555 0 -3.22215 -2.17515 0 -2.95825 -1.96643 0 -2.7141 -1.77708 0 -2.48503 -1.60562 0 -2.27105 -1.45075 0 -2.07216 -1.3112 0 -1.88835 -1.18567 0 -1.71963 -1.07289 0 -1.56464 -0.971588 0 -1.42004 -0.880768 0 -1.2857 -0.799549 0 -1.1616 -0.727055 0 -1.04775 -0.662408 0 -0.944155 -0.604732 0 -0.849978 -0.553162 0 -0.760256 -0.507132 0 -0.674159 -0.466375 0 -0.591689 -0.430635 0 -0.512845 -0.399657 0 -0.437627 -0.373185 0 -0.366035 -0.350964 0 -0.29807 -0.332739 0 -0.23373 -0.318255 0 -0.173017 -0.307256 0 -0.11593 -0.299487 0 -0.0624686 -0.294693 0 -0.0126338 -0.292619 0 0.332973 -84.6797 0 0.931131 -84.5827 0 1.51424 -84.834 0 2.08229 -85.3595 0 2.63528 -86.085 0 3.17323 -86.9364 0 3.69612 -87.8397 0 4.13307 -88.7272 0 4.31083 -89.5891 0 4.22152 -90.4452 0 3.86513 -91.3154 0 3.24166 -92.2198 0 2.35112 -93.1782 0 1.21899 -94.2084 0 -0.00187201 -95.272 0 -1.28598 -96.2753 0 -2.63334 -97.1219 0 -4.04394 -97.7155 0 -5.5178 -97.9598 0 -7.05433 -97.7589 0 -8.6409 -97.0667 0 -10.2723 -95.9338 0 -11.9486 -94.422 0 -13.6698 -92.593 0 -15.4359 -90.5085 0 -17.2468 -88.2302 0 -18.9853 -85.8104 0 -20.5341 -83.2628 0 -21.8931 -80.5918 0 -23.0624 -77.8016 0 -24.0419 -74.8965 0 -24.8318 -71.8809 0 -25.4427 -68.7607 0 -25.9015 -65.5586 0 -26.2092 -62.3052 0 -26.3659 -59.0315 0 -26.3715 -55.7684 0 -26.2261 -52.5467 0 -25.9375 -49.3967 0 -25.5524 -46.3371 0 -25.0786 -43.3746 0 -24.5161 -40.5153 0 -23.8649 -37.7654 0 -23.125 -35.1312 0 -22.2987 -32.6188 0 -21.4394 -30.2321 0 -20.5688 -27.9708 0 -19.6869 -25.8338 0 -18.7937 -23.8204 0 -17.8891 -21.9295 0 -16.9733 -20.1602 0 -16.064 -18.5108 0 -15.1789 -16.9767 0 -14.3182 -15.5523 0 -13.4819 -14.232 0 -12.6698 -13.0104 0 -11.8821 -11.8821 0 -11.1214 -10.8414 0 -10.3946 -9.8833 0 -9.70202 -9.00276 0 -9.04358 -8.19478 0 -8.41932 -7.45437 0 -7.82923 -6.77653 0 -7.27274 -6.15629 0 -6.74646 -5.58934 0 -6.24981 -5.07203 0 -5.78279 -4.60073 0 -5.34541 -4.17184 0 -4.93767 -3.78172 0 -4.55932 -3.42675 0 -4.20513 -3.10374 0 -3.87296 -2.81029 0 -3.56281 -2.5441 0 -3.27467 -2.30285 0 -3.00855 -2.08425 0 -2.76445 -1.886 0 -2.53828 -1.70597 0 -2.32596 -1.54279 0 -2.12749 -1.39526 0 -1.94286 -1.26218 0 -1.77208 -1.14237 0 -1.61515 -1.03463 0 -1.47081 -0.937783 0 -1.33601 -0.850893 0 -1.2106 -0.773126 0 -1.09459 -0.703652 0 -0.987968 -0.64164 0 -0.890745 -0.58626 0 -0.802164 -0.536695 0 -0.717716 -0.492412 0 -0.636649 -0.45316 0 -0.558961 -0.418705 0 -0.484654 -0.388808 0 -0.413728 -0.363234 0 -0.346181 -0.341745 0 -0.282015 -0.324106 0 -0.22123 -0.310079 0 -0.163825 -0.299428 0 -0.1098 -0.291916 0 -0.0591553 -0.287307 0 -0.0118912 -0.285364 0 0.523729 -77.178 0 0.823097 -77.1983 0 1.15949 -77.4192 0 1.5329 -77.8097 0 1.94333 -78.3388 0 2.39079 -78.9756 0 2.87526 -79.6891 0 3.31026 -80.4496 0 3.48435 -81.2387 0 3.3879 -82.0441 0 3.02093 -82.8533 0 2.38342 -83.654 0 1.47539 -84.4338 0 0.331505 -85.1795 0 -0.840194 -85.8625 0 -2.00503 -86.4384 0 -3.16301 -86.8622 0 -4.31413 -87.0889 0 -5.45838 -87.0735 0 -6.5987 -86.7711 0 -7.79933 -86.1582 0 -9.08657 -85.2525 0 -10.4604 -84.0768 0 -11.9208 -82.6535 0 -13.4679 -81.0053 0 -15.1015 -79.1547 0 -16.6888 -77.1232 0 -18.0968 -74.9283 0 -19.3255 -72.5863 0 -20.3749 -70.1135 0 -21.245 -67.5263 0 -21.9358 -64.8411 0 -22.4628 -62.0745 0 -22.8638 -59.2475 0 -23.1405 -56.3828 0 -23.2929 -53.5031 0 -23.3211 -50.6312 0 -23.225 -47.79 0 -23.0099 -45.002 0 -22.7077 -42.2822 0 -22.3236 -39.6385 0 -21.8577 -37.0785 0 -21.31 -34.6096 0 -20.6805 -32.2394 0 -19.9713 -29.9753 0 -19.2304 -27.8223 0 -18.4772 -25.78 0 -17.7118 -23.8476 0 -16.9342 -22.0241 0 -16.1444 -20.3087 0 -15.3424 -18.7005 0 -14.5439 -17.1979 0 -13.7648 -15.7972 0 -13.005 -14.4936 0 -12.2645 -13.2829 0 -11.5433 -12.1603 0 -10.8414 -11.1214 0 -10.1617 -10.1617 0 -9.51115 -9.2767 0 -8.89006 -8.46198 0 -8.29843 -7.7131 0 -7.73626 -7.02564 0 -7.20356 -6.39517 0 -6.69992 -5.81727 0 -6.22289 -5.28813 0 -5.77208 -4.80448 0 -5.34747 -4.36309 0 -4.94908 -3.96074 0 -4.5769 -3.59419 0 -4.23073 -3.26022 0 -3.90617 -2.95595 0 -3.60143 -2.67919 0 -3.31649 -2.42784 0 -3.05137 -2.19977 0 -2.80605 -1.99288 0 -2.58055 -1.80506 0 -2.3713 -1.63436 0 -2.17474 -1.4795 0 -1.99088 -1.33936 0 -1.8197 -1.21283 0 -1.66122 -1.0988 0 -1.51544 -0.996151 0 -1.38119 -0.90379 0 -1.25566 -0.820834 0 -1.13873 -0.746506 0 -1.03038 -0.680028 0 -0.930629 -0.620624 0 -0.839467 -0.567516 0 -0.756217 -0.519939 0 -0.676799 -0.477394 0 -0.600533 -0.439651 0 -0.527419 -0.406488 0 -0.457458 -0.377687 0 -0.390649 -0.353027 0 -0.326992 -0.332288 0 -0.266488 -0.315251 0 -0.209135 -0.301696 0 -0.154935 -0.291402 0 -0.103888 -0.284151 0 -0.0559921 -0.279721 0 -0.0112489 -0.277894 0 0.531056 -70.2171 0 0.684165 -70.3252 0 0.887715 -70.5174 0 1.14171 -70.7961 0 1.44614 -71.1636 0 1.80102 -71.6224 0 2.20634 -72.1746 0 2.57895 -72.8199 0 2.71555 -73.534 0 2.6069 -74.2804 0 2.25302 -75.0225 0 1.65389 -75.7235 0 0.809518 -76.3468 0 -0.245581 -76.8564 0 -1.30432 -77.2316 0 -2.33217 -77.4663 0 -3.32915 -77.5557 0 -4.29524 -77.4945 0 -5.23046 -77.2777 0 -6.13868 -76.9001 0 -7.10524 -76.3558 0 -8.16505 -75.6374 0 -9.3181 -74.7373 0 -10.5644 -73.6477 0 -11.904 -72.3611 0 -13.3368 -70.8699 0 -14.7371 -69.1719 0 -15.9792 -67.2867 0 -17.063 -65.2395 0 -17.9885 -63.0553 0 -18.7558 -60.7593 0 -19.3648 -58.3766 0 -19.8306 -55.9317 0 -20.1898 -53.4437 0 -20.4441 -50.9287 0 -20.5935 -48.4029 0 -20.638 -45.8826 0 -20.5776 -43.3838 0 -20.4161 -40.9228 0 -20.1769 -38.5117 0 -19.8639 -36.1591 0 -19.477 -33.8733 0 -19.0163 -31.6629 0 -18.4818 -29.536 0 -17.8754 -27.5012 0 -17.2387 -25.5638 0 -16.5891 -23.7238 0 -15.9263 -21.9802 0 -15.2505 -20.3323 0 -14.5617 -18.7793 0 -13.8598 -17.3204 0 -13.1589 -15.9543 0 -12.4734 -14.6778 0 -11.803 -13.4873 0 -11.1479 -12.379 0 -10.508 -11.3494 0 -9.8833 -10.3946 0 -9.2767 -9.51115 0 -8.69508 -8.69508 0 -8.13876 -7.94252 0 -7.60773 -7.24957 0 -7.10201 -6.6123 0 -6.62157 -6.02682 0 -6.16617 -5.48924 0 -5.7342 -4.99617 0 -5.32539 -4.54471 0 -4.93975 -4.13199 0 -4.57727 -3.75515 0 -4.23795 -3.4113 0 -3.92163 -3.09757 0 -3.62461 -2.8114 0 -3.34538 -2.55079 0 -3.08394 -2.31381 0 -2.8403 -2.09852 0 -2.61444 -1.903 0 -2.40637 -1.72531 0 -2.21301 -1.56368 0 -2.03127 -1.41692 0 -1.86114 -1.28399 0 -1.70262 -1.16385 0 -1.55573 -1.05546 0 -1.42045 -0.957784 0 -1.29572 -0.869805 0 -1.17896 -0.790699 0 -1.07003 -0.71974 0 -0.968947 -0.656203 0 -0.875703 -0.599365 0 -0.790299 -0.548499 0 -0.712124 -0.502892 0 -0.637501 -0.46208 0 -0.565818 -0.425846 0 -0.497074 -0.393985 0 -0.431271 -0.366293 0 -0.368408 -0.342564 0 -0.308485 -0.322593 0 -0.251502 -0.306175 0 -0.197458 -0.293106 0 -0.146355 -0.283179 0 -0.0981918 -0.276191 0 -0.0529684 -0.271935 0 -0.0106851 -0.270208 0 0.408092 -63.7895 0 0.528315 -63.9524 0 0.684511 -64.117 0 0.87668 -64.3081 0 1.10482 -64.5506 0 1.36894 -64.8692 0 1.66903 -65.2887 0 1.93865 -65.8286 0 2.01537 -66.4614 0 1.89182 -67.1355 0 1.568 -67.7992 0 1.0439 -68.4007 0 0.319528 -68.8883 0 -0.577429 -69.2117 0 -1.48081 -69.3562 0 -2.36292 -69.3425 0 -3.22376 -69.1928 0 -4.06334 -68.9294 0 -4.88164 -68.5744 0 -5.68167 -68.1501 0 -6.52938 -67.6626 0 -7.45173 -67.0876 0 -8.44874 -66.3973 0 -9.52039 -65.5635 0 -10.6667 -64.5585 0 -11.8876 -63.3544 0 -13.0807 -61.9327 0 -14.1435 -60.3141 0 -15.076 -58.5286 0 -15.8782 -56.6064 0 -16.55 -54.5775 0 -17.0915 -52.4722 0 -17.5136 -50.3191 0 -17.8432 -48.1355 0 -18.0814 -45.9326 0 -18.2283 -43.7216 0 -18.2838 -41.5138 0 -18.248 -39.3203 0 -18.1241 -37.1522 0 -17.9317 -35.0196 0 -17.674 -32.9312 0 -17.3512 -30.8957 0 -16.9631 -28.922 0 -16.5097 -27.0187 0 -15.9928 -25.1946 0 -15.4476 -23.4554 0 -14.8885 -21.8011 0 -14.3157 -20.2311 0 -13.7291 -18.7447 0 -13.1287 -17.3412 0 -12.5145 -16.02 0 -11.8994 -14.7801 0 -11.2962 -13.6189 0 -10.7049 -12.5334 0 -10.1256 -11.5207 0 -9.55821 -10.5779 0 -9.00276 -9.70202 0 -8.46198 -8.89006 0 -7.94252 -8.13876 0 -7.4447 -7.4447 0 -6.96852 -6.80446 0 -6.51396 -6.21462 0 -6.08104 -5.67174 0 -5.66961 -5.17241 0 -5.27878 -4.71366 0 -4.90841 -4.29292 0 -4.55849 -3.90763 0 -4.22902 -3.55524 0 -3.92001 -3.2332 0 -3.63132 -2.93897 0 -3.35983 -2.67025 0 -3.1043 -2.42522 0 -2.86471 -2.20212 0 -2.64107 -1.9992 0 -2.43338 -1.81469 0 -2.24164 -1.64684 0 -2.06317 -1.49401 0 -1.89532 -1.35512 0 -1.73809 -1.22919 0 -1.59147 -1.11526 0 -1.45546 -1.01237 0 -1.33007 -0.919539 0 -1.21432 -0.835837 0 -1.10581 -0.760492 0 -1.00445 -0.69283 0 -0.910232 -0.632178 0 -0.823154 -0.577862 0 -0.743218 -0.529209 0 -0.669873 -0.485555 0 -0.59982 -0.446468 0 -0.532508 -0.411746 0 -0.467938 -0.381196 0 -0.40611 -0.354627 0 -0.347023 -0.331845 0 -0.290678 -0.31266 0 -0.237074 -0.296879 0 -0.186212 -0.284309 0 -0.138091 -0.274759 0 -0.0927116 -0.268036 0 -0.0500739 -0.263949 0 -0.0101778 -0.262305 0 0.208406 -57.8952 0 0.369687 -58.0799 0 0.535434 -58.2179 0 0.705646 -58.3457 0 0.880323 -58.4996 0 1.05947 -58.716 0 1.24307 -59.0315 0 1.38917 -59.4756 0 1.39517 -60.0207 0 1.2564 -60.6093 0 0.972855 -61.1835 0 0.544545 -61.6858 0 -0.0285329 -62.0583 0 -0.72946 -62.2453 0 -1.45672 -62.2365 0 -2.19338 -62.0669 0 -2.93946 -61.7736 0 -3.69494 -61.3935 0 -4.45983 -60.9637 0 -5.23511 -60.5209 0 -6.0423 -60.0785 0 -6.8902 -59.6032 0 -7.7788 -59.0568 0 -8.70812 -58.401 0 -9.67815 -57.5975 0 -10.6889 -56.608 0 -11.6703 -55.4058 0 -12.5525 -54.0106 0 -13.3355 -52.4539 0 -14.0191 -50.7669 0 -14.6035 -48.981 0 -15.0886 -47.1277 0 -15.4793 -45.2365 0 -15.7875 -43.3228 0 -16.0137 -41.3945 0 -16.1579 -39.4592 0 -16.2201 -37.5249 0 -16.2003 -35.5993 0 -16.1018 -33.6902 0 -15.9435 -31.8058 0 -15.7287 -29.9548 0 -15.4573 -28.1456 0 -15.1295 -26.3869 0 -14.7452 -24.6873 0 -14.3056 -23.0554 0 -13.8398 -21.4969 0 -13.3597 -20.012 0 -12.8652 -18.6002 0 -12.3564 -17.2612 0 -11.8332 -15.9943 0 -11.2957 -14.7993 0 -10.7556 -13.6753 0 -10.2248 -12.6203 0 -9.70335 -11.632 0 -9.19119 -10.708 0 -8.68834 -9.84598 0 -8.19478 -9.04358 0 -7.7131 -8.29843 0 -7.24957 -7.60773 0 -6.80446 -6.96852 0 -6.37779 -6.37779 0 -5.96956 -5.83259 0 -5.57976 -5.32991 0 -5.20834 -4.86679 0 -4.85502 -4.44061 0 -4.51975 -4.0491 0 -4.20254 -3.68998 0 -3.90338 -3.36101 0 -3.62226 -3.0599 0 -3.35909 -2.78441 0 -3.11124 -2.53248 0 -2.87767 -2.30247 0 -2.65836 -2.09278 0 -2.45332 -1.90181 0 -2.26255 -1.72796 0 -2.08605 -1.56963 0 -1.92153 -1.42534 0 -1.76669 -1.29408 0 -1.62154 -1.17496 0 -1.48607 -1.06707 0 -1.36028 -0.969519 0 -1.24418 -0.881418 0 -1.13687 -0.801885 0 -1.03615 -0.730213 0 -0.941921 -0.665776 0 -0.854187 -0.607951 0 -0.772947 -0.556115 0 -0.6982 -0.509646 0 -0.629454 -0.467928 0 -0.563755 -0.43056 0 -0.500611 -0.397352 0 -0.440023 -0.368121 0 -0.38199 -0.342688 0 -0.326511 -0.320871 0 -0.273588 -0.302489 0 -0.22322 -0.287361 0 -0.175407 -0.275306 0 -0.130149 -0.266141 0 -0.0874458 -0.259688 0 -0.047298 -0.255763 0 -0.00970515 -0.254187 0 -0.0144328 -52.5342 0 0.222423 -52.7078 0 0.426047 -52.8203 0 0.59644 -52.9089 0 0.733601 -53.0107 0 0.837531 -53.163 0 0.908228 -53.4028 0 0.930329 -53.761 0 0.866271 -54.2121 0 0.714347 -54.7018 0 0.474558 -55.1755 0 0.146903 -55.5787 0 -0.268618 -55.8568 0 -0.767096 -55.9573 0 -1.31908 -55.8724 0 -1.91965 -55.6396 0 -2.56882 -55.2979 0 -3.26659 -54.8868 0 -4.01295 -54.4454 0 -4.80643 -54.0128 0 -5.61454 -53.6034 0 -6.42401 -53.184 0 -7.23482 -52.7158 0 -8.04698 -52.1601 0 -8.86049 -51.478 0 -9.67535 -50.6308 0 -10.4565 -49.591 0 -11.1687 -48.3761 0 -11.8121 -47.0151 0 -12.3866 -45.5367 0 -12.8923 -43.9698 0 -13.3291 -42.3432 0 -13.6953 -40.6841 0 -13.9864 -39.0058 0 -14.2024 -37.3144 0 -14.343 -35.6157 0 -14.4085 -33.9159 0 -14.3987 -32.2209 0 -14.3171 -30.5368 0 -14.1839 -28.8705 0 -14.0025 -27.2299 0 -13.7729 -25.623 0 -13.495 -24.0577 0 -13.169 -22.542 0 -12.7959 -21.0838 0 -12.3986 -19.6885 0 -11.9867 -18.3566 0 -11.5601 -17.0877 0 -11.1188 -15.8818 0 -10.6629 -14.7387 0 -10.1923 -13.6582 0 -9.71797 -12.6399 0 -9.25084 -11.6821 0 -8.79092 -10.783 0 -8.3382 -9.94081 0 -7.89268 -9.15352 0 -7.45437 -8.41932 0 -7.02564 -7.73626 0 -6.6123 -7.10201 0 -6.21462 -6.51396 0 -5.83259 -5.96956 0 -5.46621 -5.46621 0 -5.11549 -5.00134 0 -4.78046 -4.57237 0 -4.46131 -4.17702 0 -4.15808 -3.81325 0 -3.87077 -3.47907 0 -3.59937 -3.17245 0 -3.3439 -2.8914 0 -3.10424 -2.63389 0 -2.87823 -2.39811 0 -2.66496 -2.18255 0 -2.46443 -1.98578 0 -2.27666 -1.80635 0 -2.10162 -1.6428 0 -1.93934 -1.49369 0 -1.78784 -1.35767 0 -1.64516 -1.23381 0 -1.51131 -1.12129 0 -1.38627 -1.01927 0 -1.27006 -0.926921 0 -1.16268 -0.843419 0 -1.06329 -0.767951 0 -0.969884 -0.699862 0 -0.882376 -0.638577 0 -0.800763 -0.583523 0 -0.725045 -0.534125 0 -0.655221 -0.48981 0 -0.590853 -0.450011 0 -0.529303 -0.414355 0 -0.470132 -0.382662 0 -0.41334 -0.35476 0 -0.358926 -0.330478 0 -0.30689 -0.309642 0 -0.257234 -0.292081 0 -0.209956 -0.277623 0 -0.165056 -0.266095 0 -0.122536 -0.257327 0 -0.0823935 -0.251145 0 -0.0446301 -0.247377 0 -0.00924532 -0.245853 0 -0.206855 -47.7065 0 0.100662 -47.836 0 0.341912 -47.9241 0 0.516896 -47.9977 0 0.625614 -48.084 0 0.668065 -48.21 0 0.64425 -48.4029 0 0.56192 -48.6848 0 0.440018 -49.0355 0 0.279407 -49.413 0 0.0800868 -49.775 0 -0.157943 -50.0794 0 -0.434683 -50.2838 0 -0.755759 -50.3475 0 -1.15493 -50.2639 0 -1.63784 -50.0604 0 -2.20447 -49.7659 0 -2.85482 -49.4093 0 -3.5889 -49.0196 0 -4.40305 -48.6255 0 -5.21665 -48.2374 0 -5.99673 -47.8302 0 -6.74328 -47.3744 0 -7.45632 -46.8408 0 -8.13583 -46.2 0 -8.78182 -45.4228 0 -9.38962 -44.4884 0 -9.95458 -43.4107 0 -10.4767 -42.2124 0 -10.9559 -40.9159 0 -11.3923 -39.5438 0 -11.7859 -38.1186 0 -12.1291 -36.6618 0 -12.4037 -35.1844 0 -12.6088 -33.6922 0 -12.7444 -32.1911 0 -12.8105 -30.6868 0 -12.8072 -29.1852 0 -12.738 -27.692 0 -12.6244 -26.2135 0 -12.4701 -24.7565 0 -12.2749 -23.3278 0 -12.039 -21.9343 0 -11.7623 -20.5827 0 -11.4456 -19.2797 0 -11.107 -18.0302 0 -10.7536 -16.8347 0 -10.3856 -15.6935 0 -10.0029 -14.6066 0 -9.60556 -13.5743 0 -9.19353 -12.5967 0 -8.77691 -11.6738 0 -8.36581 -10.8043 0 -7.96023 -9.98655 0 -7.56015 -9.21916 0 -7.16558 -8.50057 0 -6.77653 -7.82923 0 -6.39517 -7.20356 0 -6.02682 -6.62157 0 -5.67174 -6.08104 0 -5.32991 -5.57976 0 -5.00134 -5.11549 0 -4.68603 -4.68603 0 -4.38407 -4.28916 0 -4.09603 -3.92287 0 -3.82202 -3.58538 0 -3.56203 -3.27488 0 -3.31606 -2.98958 0 -3.0841 -2.72769 0 -2.86609 -2.48741 0 -2.66018 -2.26712 0 -2.46565 -2.06546 0 -2.28249 -1.88113 0 -2.11069 -1.71282 0 -1.95027 -1.55922 0 -1.80121 -1.41902 0 -1.66185 -1.291 0 -1.53052 -1.17432 0 -1.40721 -1.06819 0 -1.29192 -0.971865 0 -1.18467 -0.884571 0 -1.08543 -0.805543 0 -0.993472 -0.734033 0 -0.90694 -0.669439 0 -0.825752 -0.611235 0 -0.74991 -0.558895 0 -0.679412 -0.511892 0 -0.61426 -0.469701 0 -0.55406 -0.431803 0 -0.496463 -0.397853 0 -0.441076 -0.367678 0 -0.3879 -0.341113 0 -0.336934 -0.317995 0 -0.288178 -0.298157 0 -0.241632 -0.281435 0 -0.197297 -0.267663 0 -0.155172 -0.256678 0 -0.115258 -0.248315 0 -0.0775536 -0.242407 0 -0.0420598 -0.238792 0 -0.0087764 -0.237303 0 -0.31696 -43.3833 0 0.0180373 -43.4422 0 0.268915 -43.5073 0 0.435672 -43.5865 0 0.51831 -43.6881 0 0.516829 -43.8202 0 0.431228 -43.991 0 0.283435 -44.2064 0 0.127054 -44.4536 0 -0.0354788 -44.7102 0 -0.204164 -44.9537 0 -0.379001 -45.1616 0 -0.55999 -45.3113 0 -0.759189 -45.381 0 -1.04895 -45.3635 0 -1.44134 -45.2666 0 -1.93634 -45.0984 0 -2.53397 -44.8673 0 -3.23421 -44.5815 0 -4.03218 -44.2493 0 -4.81999 -43.8726 0 -5.55351 -43.441 0 -6.23273 -42.9428 0 -6.85767 -42.3662 0 -7.42832 -41.6995 0 -7.94468 -40.9308 0 -8.42145 -40.0525 0 -8.87333 -39.0738 0 -9.30032 -38.0079 0 -9.70241 -36.868 0 -10.0796 -35.6673 0 -10.4319 -34.4192 0 -10.7486 -33.1364 0 -11.0033 -31.8278 0 -11.1948 -30.5003 0 -11.3232 -29.161 0 -11.3884 -27.8166 0 -11.3904 -26.4742 0 -11.3328 -25.1406 0 -11.237 -23.8219 0 -11.1063 -22.5233 0 -10.941 -21.2502 0 -10.7409 -20.0078 0 -10.506 -18.8013 0 -10.2371 -17.636 0 -9.94806 -16.5156 0 -9.64475 -15.441 0 -9.32714 -14.4129 0 -8.99522 -13.4317 0 -8.64901 -12.498 0 -8.28849 -11.6124 0 -7.92287 -10.7751 0 -7.56135 -9.98517 0 -7.20393 -9.24126 0 -6.85062 -8.54209 0 -6.5014 -7.88635 0 -6.15629 -7.27274 0 -5.81727 -6.69992 0 -5.48924 -6.16617 0 -5.17241 -5.66961 0 -4.86679 -5.20834 0 -4.57237 -4.78046 0 -4.28916 -4.38407 0 -4.01728 -4.01728 0 -3.75759 -3.67835 0 -3.51023 -3.36566 0 -3.27518 -3.0776 0 -3.05246 -2.81257 0 -2.84206 -2.56895 0 -2.64391 -2.34514 0 -2.45651 -2.13968 0 -2.27923 -1.95134 0 -2.11208 -1.77896 0 -1.95505 -1.62135 0 -1.80815 -1.47734 0 -1.67138 -1.34574 0 -1.54331 -1.22545 0 -1.42253 -1.1157 0 -1.30905 -1.01577 0 -1.20286 -0.924965 0 -1.10395 -0.842575 0 -1.01234 -0.767895 0 -0.927327 -0.700236 0 -0.847235 -0.639048 0 -0.771985 -0.583851 0 -0.701578 -0.534165 0 -0.636014 -0.489512 0 -0.575291 -0.449413 0 -0.519063 -0.413394 0 -0.465232 -0.381137 0 -0.413449 -0.352476 0 -0.363714 -0.327252 0 -0.316028 -0.305304 0 -0.27039 -0.286474 0 -0.2268 -0.270603 0 -0.185259 -0.257531 0 -0.145766 -0.247098 0 -0.108321 -0.239146 0 -0.072925 -0.233515 0 -0.0395769 -0.230046 0 -0.00827714 -0.228579 0 -0.331233 -39.3923 0 -0.0234583 -39.3921 0 0.20042 -39.4378 0 0.340401 -39.5216 0 0.396486 -39.6357 0 0.368675 -39.7724 0 0.256966 -39.924 0 0.0871061 -40.0828 0 -0.0779748 -40.2425 0 -0.235416 -40.397 0 -0.385217 -40.5406 0 -0.527379 -40.6674 0 -0.6619 -40.7715 0 -0.802457 -40.847 0 -1.0311 -40.8864 0 -1.36149 -40.8807 0 -1.79364 -40.8208 0 -2.32756 -40.6975 0 -2.96322 -40.5019 0 -3.69565 -40.2248 0 -4.41481 -39.8611 0 -5.07569 -39.4128 0 -5.6783 -38.883 0 -6.22264 -38.2749 0 -6.70871 -37.5913 0 -7.1365 -36.8354 0 -7.52728 -36.0107 0 -7.90229 -35.122 0 -8.26155 -34.1747 0 -8.60504 -33.1744 0 -8.93278 -32.1262 0 -9.24475 -31.0357 0 -9.52972 -29.9084 0 -9.76017 -28.7513 0 -9.93486 -27.5722 0 -10.0538 -26.3789 0 -10.117 -25.1792 0 -10.1244 -23.9809 0 -10.0792 -22.7917 0 -10.0006 -21.6176 0 -9.89191 -20.4624 0 -9.75298 -19.33 0 -9.58386 -18.2245 0 -9.38455 -17.1497 0 -9.15557 -16.1094 0 -8.90835 -15.1067 0 -8.64754 -14.1426 0 -8.37316 -13.218 0 -8.0852 -12.3338 0 -7.78366 -11.4907 0 -7.46855 -10.6898 0 -7.1481 -9.9316 0 -6.83055 -9.21523 0 -6.51589 -8.53963 0 -6.20414 -7.90371 0 -5.89529 -7.30635 0 -5.58934 -6.74646 0 -5.28813 -6.22289 0 -4.99617 -5.7342 0 -4.71366 -5.27878 0 -4.44061 -4.85502 0 -4.17702 -4.46131 0 -3.92287 -4.09603 0 -3.67835 -3.75759 0 -3.44446 -3.44446 0 -3.22138 -3.1552 0 -3.00909 -2.88837 0 -2.80761 -2.64254 0 -2.61692 -2.41626 0 -2.43698 -2.2081 0 -2.26655 -2.01674 0 -2.10513 -1.8411 0 -1.95272 -1.68012 0 -1.80932 -1.53275 0 -1.67492 -1.39791 0 -1.54953 -1.27457 0 -1.43195 -1.16171 0 -1.32099 -1.05864 0 -1.21664 -0.964686 0 -1.1189 -0.879214 0 -1.02778 -0.80157 0 -0.943273 -0.731106 0 -0.864751 -0.667185 0 -0.790684 -0.609305 0 -0.721003 -0.557032 0 -0.655709 -0.509931 0 -0.5948 -0.467566 0 -0.538277 -0.429505 0 -0.485829 -0.395318 0 -0.435584 -0.36471 0 -0.38723 -0.337524 0 -0.340769 -0.313603 0 -0.296199 -0.292796 0 -0.25352 -0.274947 0 -0.212734 -0.259903 0 -0.173839 -0.247511 0 -0.136836 -0.237617 0 -0.101725 -0.230066 0 -0.068505 -0.224705 0 -0.037177 -0.221381 0 -0.00774082 -0.219938 0 -0.274545 -35.7046 0 -0.0334748 -35.6634 0 0.13727 -35.6938 0 0.237688 -35.7773 0 0.267781 -35.8955 0 0.227548 -36.0297 0 0.116989 -36.1614 0 -0.0420957 -36.2737 0 -0.196419 -36.3648 0 -0.343558 -36.4407 0 -0.483514 -36.5072 0 -0.616286 -36.5705 0 -0.741873 -36.6364 0 -0.871959 -36.7105 0 -1.07664 -36.7851 0 -1.36759 -36.8399 0 -1.74482 -36.854 0 -2.20832 -36.8063 0 -2.7581 -36.676 0 -3.38991 -36.4422 0 -4.01024 -36.0949 0 -4.58085 -35.6448 0 -5.10173 -35.1053 0 -5.5729 -34.4898 0 -5.99434 -33.8114 0 -6.36606 -33.0836 0 -6.70622 -32.3173 0 -7.03299 -31.5146 0 -7.34637 -30.6751 0 -7.64635 -29.7986 0 -7.93295 -28.8848 0 -8.20615 -27.9333 0 -8.4563 -26.9446 0 -8.65979 -25.9241 0 -8.81555 -24.88 0 -8.92357 -23.8204 0 -8.98387 -22.7535 0 -8.99642 -21.6874 0 -8.96386 -20.6303 0 -8.90186 -19.5876 0 -8.81303 -18.5623 0 -8.69737 -17.5574 0 -8.55489 -16.5756 0 -8.38557 -15.6198 0 -8.18987 -14.6929 0 -7.97758 -13.7972 0 -7.7527 -12.934 0 -7.51522 -12.1042 0 -7.26516 -11.309 0 -7.00251 -10.5494 0 -6.72726 -9.82658 0 -6.44666 -9.14125 0 -6.16796 -8.49284 0 -5.89114 -7.8804 0 -5.61621 -7.30304 0 -5.34318 -6.75981 0 -5.07203 -6.24981 0 -4.80448 -5.77208 0 -4.54471 -5.32539 0 -4.29292 -4.90841 0 -4.0491 -4.51975 0 -3.81325 -4.15808 0 -3.58538 -3.82202 0 -3.36566 -3.51023 0 -3.1552 -3.22138 0 -2.95419 -2.95419 0 -2.76262 -2.70738 0 -2.58049 -2.47967 0 -2.4078 -2.26979 0 -2.24452 -2.07645 0 -2.08964 -1.89847 0 -1.94277 -1.73489 0 -1.8039 -1.58476 0 -1.67305 -1.44714 0 -1.55019 -1.32108 0 -1.43535 -1.20563 0 -1.3275 -1.0999 0 -1.22564 -1.00324 0 -1.12978 -0.915043 0 -1.0399 -0.834719 0 -0.956011 -0.761664 0 -0.878113 -0.69528 0 -0.805637 -0.634983 0 -0.737197 -0.580314 0 -0.672729 -0.530881 0 -0.612235 -0.486291 0 -0.555713 -0.446152 0 -0.503164 -0.410072 0 -0.454308 -0.377663 0 -0.407473 -0.348656 0 -0.362378 -0.322898 0 -0.319024 -0.30024 0 -0.277411 -0.280534 0 -0.237539 -0.263633 0 -0.199407 -0.249388 0 -0.163017 -0.237653 0 -0.128367 -0.228277 0 -0.0954576 -0.221115 0 -0.0642893 -0.216017 0 -0.0348619 -0.212836 0 -0.00717523 -0.211423 0 -0.173436 -32.3204 0 -0.0221683 -32.2559 0 0.0806319 -32.2751 0 0.134964 -32.3538 0 0.140829 -32.4675 0 0.0982261 -32.5921 0 0.00715534 -32.7031 0 -0.119514 -32.7789 0 -0.250325 -32.8206 0 -0.383846 -32.8412 0 -0.520078 -32.8536 0 -0.659022 -32.8709 0 -0.800677 -32.9061 0 -0.952415 -32.9714 0 -1.15847 -33.0595 0 -1.42622 -33.1442 0 -1.75567 -33.198 0 -2.1468 -33.1936 0 -2.59963 -33.1039 0 -3.11118 -32.9015 0 -3.61623 -32.574 0 -4.0881 -32.1371 0 -4.52678 -31.6097 0 -4.93227 -31.0109 0 -5.30457 -30.3598 0 -5.64368 -29.6753 0 -5.95841 -28.9726 0 -6.25754 -28.2517 0 -6.54108 -27.509 0 -6.80902 -26.7407 0 -7.06137 -25.9429 0 -7.29813 -25.112 0 -7.51255 -24.2451 0 -7.68813 -23.3463 0 -7.82411 -22.4238 0 -7.92051 -21.4855 0 -7.97731 -20.5395 0 -7.99453 -19.5937 0 -7.97405 -18.6562 0 -7.92733 -17.7319 0 -7.85625 -16.8232 0 -7.76081 -15.9322 0 -7.64103 -15.061 0 -7.49689 -14.2117 0 -7.32881 -13.3865 0 -7.14565 -12.5872 0 -6.95105 -11.8151 0 -6.74502 -11.0714 0 -6.52754 -10.3573 0 -6.29862 -9.67393 0 -6.05826 -9.02257 0 -5.81271 -8.40406 0 -5.56821 -7.81798 0 -5.32476 -7.26357 0 -5.08237 -6.74007 0 -4.84102 -6.24673 0 -4.60073 -5.78279 0 -4.36309 -5.34747 0 -4.13199 -4.93975 0 -3.90763 -4.55849 0 -3.68998 -4.20254 0 -3.47907 -3.87077 0 -3.27488 -3.56203 0 -3.0776 -3.27518 0 -2.88837 -3.00909 0 -2.70738 -2.76262 0 -2.53463 -2.53463 0 -2.37011 -2.32398 0 -2.21382 -2.12955 0 -2.06574 -1.95019 0 -1.92509 -1.78486 0 -1.79154 -1.63271 0 -1.66511 -1.49288 0 -1.5458 -1.36453 0 -1.43359 -1.24682 0 -1.3285 -1.13892 0 -1.22967 -1.04001 0 -1.13626 -0.949503 0 -1.04825 -0.866844 0 -0.965668 -0.791479 0 -0.888495 -0.722855 0 -0.816735 -0.660419 0 -0.74988 -0.60363 0 -0.686682 -0.552074 0 -0.627085 -0.505396 0 -0.571088 -0.463245 0 -0.518692 -0.425268 0 -0.469896 -0.391112 0 -0.424451 -0.36043 0 -0.380852 -0.332974 0 -0.338848 -0.308598 0 -0.298441 -0.287161 0 -0.259629 -0.268519 0 -0.222414 -0.252532 0 -0.186794 -0.239058 0 -0.15277 -0.227955 0 -0.120342 -0.21908 0 -0.08951 -0.212292 0 -0.0602737 -0.20745 0 -0.0326333 -0.204411 0 -0.00658881 -0.203034 0 -0.0544462 -29.2395 0 0.000305161 -29.1697 0 0.0316739 -29.1819 0 0.03966 -29.2509 0 0.0242635 -29.3518 0 -0.0145156 -29.4595 0 -0.0766773 -29.5491 0 -0.160493 -29.5984 0 -0.261737 -29.6099 0 -0.380218 -29.5985 0 -0.515935 -29.5797 0 -0.668888 -29.5686 0 -0.839078 -29.5805 0 -1.02854 -29.6297 0 -1.24949 -29.7098 0 -1.50397 -29.7935 0 -1.79198 -29.8528 0 -2.11351 -29.8594 0 -2.46857 -29.7854 0 -2.8557 -29.6027 0 -3.24275 -29.2985 0 -3.61659 -28.8896 0 -3.9772 -28.3962 0 -4.3246 -27.8384 0 -4.65877 -27.2364 0 -4.97973 -26.6104 0 -5.28399 -25.9763 0 -5.56808 -25.3334 0 -5.832 -24.6765 0 -6.07574 -24.0006 0 -6.29932 -23.3007 0 -6.50273 -22.5718 0 -6.68268 -21.8097 0 -6.83115 -21.0179 0 -6.94777 -20.2036 0 -7.03255 -19.3742 0 -7.08548 -18.5372 0 -7.10656 -17.6999 0 -7.09697 -16.8695 0 -7.06375 -16.0506 0 -7.00808 -15.245 0 -6.92995 -14.4545 0 -6.82936 -13.6807 0 -6.70633 -12.9253 0 -6.56121 -12.1901 0 -6.40244 -11.4766 0 -6.23344 -10.786 0 -6.05422 -10.1197 0 -5.86477 -9.47872 0 -5.6651 -8.86436 0 -5.4552 -8.27783 0 -5.24038 -7.72004 0 -5.02593 -7.19068 0 -4.81185 -6.68914 0 -4.59814 -6.21482 0 -4.3848 -5.76712 0 -4.17184 -5.34541 0 -3.96074 -4.94908 0 -3.75515 -4.57727 0 -3.55524 -4.22902 0 -3.36101 -3.90338 0 -3.17245 -3.59937 0 -2.98958 -3.31606 0 -2.81257 -3.05246 0 -2.64254 -2.80761 0 -2.47967 -2.58049 0 -2.32398 -2.37011 0 -2.17545 -2.17545 0 -2.03409 -1.99553 0 -1.89987 -1.82932 0 -1.77221 -1.67592 0 -1.65087 -1.53455 0 -1.53584 -1.40446 0 -1.42713 -1.28492 0 -1.32473 -1.17516 0 -1.22866 -1.07444 0 -1.13818 -0.982046 0 -1.05258 -0.897434 0 -0.97187 -0.820089 0 -0.896038 -0.749496 0 -0.825087 -0.685145 0 -0.759017 -0.626521 0 -0.697375 -0.573127 0 -0.63905 -0.524585 0 -0.583992 -0.480579 0 -0.532201 -0.440794 0 -0.483678 -0.404915 0 -0.438421 -0.372627 0 -0.396205 -0.343619 0 -0.355672 -0.317665 0 -0.316597 -0.294626 0 -0.278979 -0.274367 0 -0.242818 -0.256752 0 -0.208114 -0.241645 0 -0.174868 -0.228912 0 -0.143079 -0.218417 0 -0.112746 -0.210025 0 -0.0838715 -0.203599 0 -0.0564538 -0.199005 0 -0.0304933 -0.196107 0 -0.00598998 -0.19477 0 0.0558855 -26.4621 0 0.0237896 -26.4049 0 -0.00843699 -26.414 0 -0.0407942 -26.4686 0 -0.0732822 -26.5482 0 -0.105901 -26.6321 0 -0.13865 -26.6995 0 -0.180376 -26.7324 0 -0.252703 -26.7326 0 -0.356613 -26.7128 0 -0.492107 -26.6856 0 -0.659184 -26.6637 0 -0.857845 -26.6597 0 -1.08505 -26.6855 0 -1.32259 -26.7358 0 -1.56743 -26.7879 0 -1.81956 -26.8184 0 -2.07899 -26.8038 0 -2.34571 -26.7206 0 -2.61968 -26.5457 0 -2.89974 -26.2683 0 -3.18544 -25.9024 0 -3.47677 -25.4647 0 -3.77372 -24.9721 0 -4.07631 -24.4413 0 -4.38453 -23.889 0 -4.6831 -23.3286 0 -4.95673 -22.7595 0 -5.20543 -22.1774 0 -5.4292 -21.5784 0 -5.62804 -20.9582 0 -5.80195 -20.3127 0 -5.9509 -19.6386 0 -6.07483 -18.9387 0 -6.17376 -18.2193 0 -6.24767 -17.4866 0 -6.29656 -16.7467 0 -6.32044 -16.0058 0 -6.31982 -15.2702 0 -6.29785 -14.5436 0 -6.25506 -13.8277 0 -6.19143 -13.1242 0 -6.10697 -12.4347 0 -6.00169 -11.7606 0 -5.87594 -11.1037 0 -5.73784 -10.4654 0 -5.59069 -9.84678 0 -5.43451 -9.24903 0 -5.26929 -8.67329 0 -5.09502 -8.12069 0 -4.91172 -7.59236 0 -4.72381 -7.08917 0 -4.53573 -6.61091 0 -4.34748 -6.15711 0 -4.15906 -5.72728 0 -3.97047 -5.32096 0 -3.78172 -4.93767 0 -3.59419 -4.5769 0 -3.4113 -4.23795 0 -3.2332 -3.92001 0 -3.0599 -3.62226 0 -2.8914 -3.3439 0 -2.72769 -3.0841 0 -2.56895 -2.84206 0 -2.41626 -2.61692 0 -2.26979 -2.4078 0 -2.12955 -2.21382 0 -1.99553 -2.03409 0 -1.86773 -1.86773 0 -1.74614 -1.71385 0 -1.63033 -1.57164 0 -1.52014 -1.44042 0 -1.41556 -1.31953 0 -1.31659 -1.2083 0 -1.22323 -1.10607 0 -1.13549 -1.01219 0 -1.05275 -0.926009 0 -0.974389 -0.847031 0 -0.90042 -0.774777 0 -0.830837 -0.708769 0 -0.765642 -0.648532 0 -0.704834 -0.593588 0 -0.648014 -0.543474 0 -0.594209 -0.497848 0 -0.543373 -0.45643 0 -0.495507 -0.418938 0 -0.45061 -0.385094 0 -0.408683 -0.354617 0 -0.36952 -0.327229 0 -0.331888 -0.302728 0 -0.295581 -0.28098 0 -0.260598 -0.261857 0 -0.226941 -0.245231 0 -0.194609 -0.230972 0 -0.163602 -0.218951 0 -0.133921 -0.209041 0 -0.105564 -0.201112 0 -0.078532 -0.195035 0 -0.0528253 -0.190682 0 -0.0284437 -0.187923 0 -0.00538717 -0.186631 0 0.131121 -23.9841 0 0.0381663 -23.9567 0 -0.038541 -23.9666 0 -0.0990012 -24.0024 0 -0.143214 -24.0527 0 -0.17118 -24.106 0 -0.182899 -24.1507 0 -0.194461 -24.1768 0 -0.245197 -24.1841 0 -0.336894 -24.1783 0 -0.469552 -24.1648 0 -0.643172 -24.1489 0 -0.857754 -24.1363 0 -1.10674 -24.132 0 -1.35078 -24.132 0 -1.58331 -24.1232 0 -1.80434 -24.0922 0 -2.01387 -24.0254 0 -2.21189 -23.9095 0 -2.39936 -23.7311 0 -2.59712 -23.4837 0 -2.81371 -23.1749 0 -3.04914 -22.8137 0 -3.30339 -22.4092 0 -3.57646 -21.9703 0 -3.86837 -21.5061 0 -4.15585 -21.024 0 -4.41563 -20.5245 0 -4.64772 -20.0065 0 -4.85212 -19.4689 0 -5.02882 -18.9106 0 -5.17784 -18.3305 0 -5.30143 -17.7279 0 -5.40517 -17.1054 0 -5.4893 -16.4677 0 -5.55382 -15.8194 0 -5.59875 -15.1648 0 -5.62406 -14.5087 0 -5.62983 -13.8555 0 -5.61636 -13.2083 0 -5.58373 -12.569 0 -5.53193 -11.9394 0 -5.46096 -11.3212 0 -5.37081 -10.7161 0 -5.26185 -10.126 0 -5.14175 -9.5524 0 -5.01366 -8.99624 0 -4.87759 -8.45852 0 -4.73353 -7.94018 0 -4.58149 -7.44221 0 -4.42146 -6.96554 0 -4.25714 -6.51093 0 -4.09224 -6.07823 0 -3.92675 -5.66708 0 -3.76067 -5.27712 0 -3.594 -4.90799 0 -3.42675 -4.55932 0 -3.26022 -4.23073 0 -3.09757 -3.92163 0 -2.93897 -3.63132 0 -2.78441 -3.35909 0 -2.63389 -3.10424 0 -2.48741 -2.86609 0 -2.34514 -2.64391 0 -2.2081 -2.43698 0 -2.07645 -2.24452 0 -1.95019 -2.06574 0 -1.82932 -1.89987 0 -1.71385 -1.74614 0 -1.60376 -1.60376 0 -1.49877 -1.47202 0 -1.39878 -1.35032 0 -1.30377 -1.23807 0 -1.21375 -1.13468 0 -1.12871 -1.03958 0 -1.04867 -0.952176 0 -0.973089 -0.871906 0 -0.901431 -0.7983 0 -0.833699 -0.730915 0 -0.769894 -0.669304 0 -0.710015 -0.613021 0 -0.654063 -0.561621 0 -0.601694 -0.514672 0 -0.552069 -0.471863 0 -0.505149 -0.432948 0 -0.460936 -0.397677 0 -0.419429 -0.365803 0 -0.380629 -0.33708 0 -0.344345 -0.311262 0 -0.30945 -0.288163 0 -0.275755 -0.267661 0 -0.243259 -0.249633 0 -0.211963 -0.233957 0 -0.181867 -0.220512 0 -0.152971 -0.209175 0 -0.125275 -0.199825 0 -0.098778 -0.192341 0 -0.073481 -0.1866 0 -0.0493838 -0.18248 0 -0.0264864 -0.17986 0 -0.00478881 -0.178618 0 0.157142 -21.7196 0 0.0378386 -21.7211 0 -0.0584174 -21.7324 0 -0.131626 -21.7508 0 -0.181786 -21.7739 0 -0.208899 -21.7991 0 -0.212965 -21.824 0 -0.212479 -21.8459 0 -0.252654 -21.8631 0 -0.335546 -21.8738 0 -0.461155 -21.8764 0 -0.629481 -21.8694 0 -0.840524 -21.8509 0 -1.08645 -21.8195 0 -1.3203 -21.7723 0 -1.53423 -21.7056 0 -1.72825 -21.6157 0 -1.90236 -21.4988 0 -2.05656 -21.3511 0 -2.19221 -21.1688 0 -2.33945 -20.9499 0 -2.5106 -20.6954 0 -2.70566 -20.4069 0 -2.92464 -20.0857 0 -3.16753 -19.7334 0 -3.43434 -19.3514 0 -3.69948 -18.9412 0 -3.93739 -18.5048 0 -4.14807 -18.0439 0 -4.33152 -17.5605 0 -4.48774 -17.0564 0 -4.61672 -16.5336 0 -4.72167 -15.994 0 -4.81041 -15.4402 0 -4.88329 -14.8753 0 -4.94031 -14.3023 0 -4.98148 -13.7241 0 -5.0068 -13.1438 0 -5.01607 -12.5643 0 -5.00823 -11.9882 0 -4.98308 -11.4174 0 -4.94064 -10.8538 0 -4.88089 -10.2995 0 -4.80384 -9.75637 0 -4.70981 -9.22637 0 -4.6058 -8.71109 0 -4.49466 -8.21139 0 -4.37641 -7.72806 0 -4.25103 -7.26186 0 -4.11854 -6.81357 0 -3.97893 -6.38397 0 -3.8353 -5.97368 0 -3.69079 -5.58258 0 -3.54537 -5.21044 0 -3.39906 -4.857 0 -3.25185 -4.52198 0 -3.10374 -4.20513 0 -2.95595 -3.90617 0 -2.8114 -3.62461 0 -2.67025 -3.35983 0 -2.53248 -3.11124 0 -2.39811 -2.87823 0 -2.26712 -2.66018 0 -2.13968 -2.45651 0 -2.01674 -2.26655 0 -1.89847 -2.08964 0 -1.78486 -1.92509 0 -1.67592 -1.77221 0 -1.57164 -1.63033 0 -1.47202 -1.49877 0 -1.3769 -1.3769 0 -1.28622 -1.26419 0 -1.19998 -1.16011 0 -1.11817 -1.06416 0 -1.04081 -0.97582 0 -0.967883 -0.894568 0 -0.898924 -0.819906 0 -0.833461 -0.751403 0 -0.771494 -0.688643 0 -0.713023 -0.631212 0 -0.658048 -0.578694 0 -0.606569 -0.530675 0 -0.558298 -0.486754 0 -0.512532 -0.446649 0 -0.46924 -0.410142 0 -0.428421 -0.377013 0 -0.390075 -0.347045 0 -0.354203 -0.320018 0 -0.32063 -0.295715 0 -0.288312 -0.273971 0 -0.257076 -0.254669 0 -0.226922 -0.237693 0 -0.197849 -0.22293 0 -0.169858 -0.210265 0 -0.142948 -0.199583 0 -0.11712 -0.19077 0 -0.0923733 -0.183712 0 -0.0687084 -0.178293 0 -0.0461251 -0.1744 0 -0.0246234 -0.171917 0 -0.00420334 -0.170731 0 0.143762 -19.6335 0 0.0259919 -19.6557 0 -0.0696694 -19.6673 0 -0.143222 -19.6722 0 -0.194665 -19.6744 0 -0.224 -19.6781 0 -0.231225 -19.6871 0 -0.233345 -19.7048 0 -0.271923 -19.7279 0 -0.348849 -19.7496 0 -0.464122 -19.763 0 -0.617743 -19.7615 0 -0.809712 -19.7383 0 -1.03275 -19.6868 0 -1.24317 -19.6053 0 -1.43369 -19.497 0 -1.60431 -19.3652 0 -1.75503 -19.2134 0 -1.88586 -19.0449 0 -1.99811 -18.8631 0 -2.1209 -18.6691 0 -2.26613 -18.4591 0 -2.43381 -18.2293 0 -2.62393 -17.9755 0 -2.8365 -17.6936 0 -3.07151 -17.3797 0 -3.30563 -17.0308 0 -3.51556 -16.6498 0 -3.70128 -16.2407 0 -3.86279 -15.8074 0 -4.0001 -15.354 0 -4.1132 -14.8845 0 -4.20512 -14.4028 0 -4.28321 -13.9113 0 -4.34783 -13.412 0 -4.39897 -12.9066 0 -4.43663 -12.3968 0 -4.4608 -11.8846 0 -4.47127 -11.3717 0 -4.46668 -10.8601 0 -4.4468 -10.3517 0 -4.41162 -9.84869 0 -4.36116 -9.35307 0 -4.29541 -8.86689 0 -4.21465 -8.3922 0 -4.12497 -7.93059 0 -4.02887 -7.4828 0 -3.92635 -7.04944 0 -3.81741 -6.63113 0 -3.70204 -6.2285 0 -3.58025 -5.84217 0 -3.4547 -5.47264 0 -3.32804 -5.11986 0 -3.20026 -4.78367 0 -3.07138 -4.4639 0 -2.94139 -4.16039 0 -2.81029 -3.87296 0 -2.67919 -3.60143 0 -2.55079 -3.34538 0 -2.42522 -3.1043 0 -2.30247 -2.87767 0 -2.18255 -2.66496 0 -2.06546 -2.46565 0 -1.95134 -2.27923 0 -1.8411 -2.10513 0 -1.73489 -1.94277 0 -1.63271 -1.79154 0 -1.53455 -1.65087 0 -1.44042 -1.52014 0 -1.35032 -1.39878 0 -1.26419 -1.28622 0 -1.18201 -1.18201 0 -1.10378 -1.08568 0 -1.02951 -0.996778 0 -0.959183 -0.914848 0 -0.892812 -0.839431 0 -0.829967 -0.770082 0 -0.770218 -0.706405 0 -0.713566 -0.648019 0 -0.660012 -0.59454 0 -0.609554 -0.545586 0 -0.562194 -0.500773 0 -0.517697 -0.459734 0 -0.475493 -0.422213 0 -0.435557 -0.388016 0 -0.397888 -0.356949 0 -0.362486 -0.328818 0 -0.329352 -0.303429 0 -0.298322 -0.280591 0 -0.268426 -0.260152 0 -0.2395 -0.242003 0 -0.211545 -0.226038 0 -0.184561 -0.21215 0 -0.158548 -0.200232 0 -0.133506 -0.190176 0 -0.109434 -0.181876 0 -0.0863338 -0.175225 0 -0.0642039 -0.170116 0 -0.0430448 -0.166442 0 -0.0228566 -0.164095 0 -0.00363917 -0.16297 0 0.103542 -17.7257 0 0.00682069 -17.7605 0 -0.0741096 -17.7713 0 -0.13925 -17.7665 0 -0.188599 -17.7542 0 -0.222158 -17.7427 0 -0.239926 -17.7401 0 -0.254735 -17.7535 0 -0.297947 -17.7786 0 -0.370988 -17.8056 0 -0.473857 -17.8245 0 -0.606556 -17.8255 0 -0.769084 -17.7985 0 -0.955963 -17.734 0 -1.13433 -17.631 0 -1.2987 -17.4972 0 -1.44908 -17.3406 0 -1.58547 -17.1692 0 -1.70787 -16.991 0 -1.81723 -16.814 0 -1.93447 -16.6411 0 -2.06816 -16.466 0 -2.21829 -16.281 0 -2.38487 -16.0786 0 -2.56789 -15.8511 0 -2.76736 -15.591 0 -2.96531 -15.2928 0 -3.14378 -14.9596 0 -3.30276 -14.5968 0 -3.44227 -14.2096 0 -3.5623 -13.8033 0 -3.66285 -13.3832 0 -3.74598 -12.9542 0 -3.81676 -12.5188 0 -3.8754 -12.0778 0 -3.92192 -11.6323 0 -3.9563 -11.1831 0 -3.97856 -10.7312 0 -3.98855 -10.2777 0 -3.98544 -9.82394 0 -3.9691 -9.37202 0 -3.93953 -8.92398 0 -3.89672 -8.48186 0 -3.84068 -8.04769 0 -3.77163 -7.62353 0 -3.69465 -7.21091 0 -3.6118 -6.81046 0 -3.52309 -6.42266 0 -3.42851 -6.04801 0 -3.32807 -5.687 0 -3.22176 -5.34014 0 -3.11191 -5.00782 0 -3.00081 -4.69006 0 -2.88849 -4.38676 0 -2.77492 -4.09784 0 -2.66013 -3.82322 0 -2.5441 -3.56281 0 -2.42784 -3.31649 0 -2.31381 -3.08394 0 -2.20212 -2.86471 0 -2.09278 -2.65836 0 -1.98578 -2.46443 0 -1.88113 -2.28249 0 -1.77896 -2.11208 0 -1.68012 -1.95272 0 -1.58476 -1.8039 0 -1.49288 -1.66511 0 -1.40446 -1.53584 0 -1.31953 -1.41556 0 -1.23807 -1.30377 0 -1.16011 -1.19998 0 -1.08568 -1.10378 0 -1.01477 -1.01477 0 -0.947375 -0.93253 0 -0.883504 -0.856665 0 -0.823154 -0.786764 0 -0.765931 -0.722431 0 -0.711438 -0.663307 0 -0.659676 -0.609042 0 -0.610646 -0.559288 0 -0.564346 -0.513696 0 -0.520778 -0.471916 0 -0.479758 -0.433612 0 -0.440843 -0.398554 0 -0.404011 -0.366569 0 -0.369264 -0.337483 0 -0.3366 -0.311123 0 -0.30602 -0.287315 0 -0.277372 -0.265888 0 -0.249744 -0.246704 0 -0.222984 -0.229664 0 -0.197091 -0.214668 0 -0.172066 -0.201617 0 -0.147909 -0.190412 0 -0.124619 -0.180953 0 -0.102197 -0.173143 0 -0.0806434 -0.16688 0 -0.0599572 -0.162068 0 -0.0401386 -0.158605 0 -0.0211878 -0.156393 0 -0.00310474 -0.155334 0 0.0490414 -15.9963 0 -0.0154805 -16.0354 0 -0.0735507 -16.0446 0 -0.125169 -16.0339 0 -0.170336 -16.0133 0 -0.209051 -15.993 0 -0.241314 -15.983 0 -0.274323 -15.9918 0 -0.325667 -16.0152 0 -0.396148 -16.0419 0 -0.485765 -16.0609 0 -0.594518 -16.0611 0 -0.722408 -16.0314 0 -0.86645 -15.961 0 -1.00875 -15.8494 0 -1.14632 -15.7064 0 -1.27916 -15.542 0 -1.40728 -15.3663 0 -1.53066 -15.1894 0 -1.64972 -15.0213 0 -1.77315 -14.8661 0 -1.90452 -14.7161 0 -2.04382 -14.5621 0 -2.19107 -14.395 0 -2.34625 -14.2058 0 -2.50937 -13.9853 0 -2.6695 -13.727 0 -2.81569 -13.4341 0 -2.94796 -13.1122 0 -3.06631 -12.7671 0 -3.17073 -12.4043 0 -3.26122 -12.0296 0 -3.33848 -11.6484 0 -3.4042 -11.2626 0 -3.45847 -10.8727 0 -3.50129 -10.4793 0 -3.53265 -10.0828 0 -3.55256 -9.6836 0 -3.56103 -9.28221 0 -3.55825 -8.87981 0 -3.54424 -8.47833 0 -3.51899 -8.07971 0 -3.4825 -7.68588 0 -3.43479 -7.29878 0 -3.37602 -6.92035 0 -3.3102 -6.55205 0 -3.23895 -6.19437 0 -3.16229 -5.84771 0 -3.08021 -5.51248 0 -2.9927 -5.18907 0 -2.89978 -4.87787 0 -2.8035 -4.57922 0 -2.70594 -4.29317 0 -2.6071 -4.01971 0 -2.50697 -3.75881 0 -2.40555 -3.51047 0 -2.30285 -3.27467 0 -2.19977 -3.05137 0 -2.09852 -2.8403 0 -1.9992 -2.64107 0 -1.90181 -2.45332 0 -1.80635 -2.27666 0 -1.71282 -2.11069 0 -1.62135 -1.95505 0 -1.53275 -1.80932 0 -1.44714 -1.67305 0 -1.36453 -1.5458 0 -1.28492 -1.42713 0 -1.2083 -1.31659 0 -1.13468 -1.21375 0 -1.06416 -1.11817 0 -0.996778 -1.02951 0 -0.93253 -0.947375 0 -0.871418 -0.871418 0 -0.813442 -0.801271 0 -0.758602 -0.736569 0 -0.70653 -0.676955 0 -0.656857 -0.622108 0 -0.609584 -0.571713 0 -0.56471 -0.525457 0 -0.522235 -0.483024 0 -0.48216 -0.444103 0 -0.444349 -0.408388 0 -0.408472 -0.375674 0 -0.374514 -0.345803 0 -0.342475 -0.318617 0 -0.312355 -0.293961 0 -0.284154 -0.271676 0 -0.257729 -0.251607 0 -0.232219 -0.233629 0 -0.207482 -0.217652 0 -0.183518 -0.203582 0 -0.160326 -0.191331 0 -0.137907 -0.180805 0 -0.116261 -0.171915 0 -0.0953874 -0.16457 0 -0.0752864 -0.158678 0 -0.0559579 -0.154148 0 -0.0374022 -0.15089 0 -0.019619 -0.148812 0 -0.00260848 -0.147823 0 -0.00717693 -14.4452 0 -0.0367172 -14.4805 0 -0.0698053 -14.487 0 -0.106441 -14.4743 0 -0.146625 -14.4517 0 -0.190356 -14.4291 0 -0.237635 -14.4157 0 -0.289783 -14.4199 0 -0.350028 -14.4376 0 -0.418517 -14.4585 0 -0.49525 -14.4722 0 -0.580228 -14.4685 0 -0.67345 -14.437 0 -0.774555 -14.3678 0 -0.881383 -14.2605 0 -0.993571 -14.1245 0 -1.11112 -13.9692 0 -1.23403 -13.8045 0 -1.3623 -13.64 0 -1.49574 -13.4852 0 -1.62992 -13.3441 0 -1.76305 -13.2093 0 -1.89512 -13.0724 0 -2.02614 -12.9247 0 -2.15611 -12.7576 0 -2.28502 -12.5627 0 -2.4092 -12.3337 0 -2.52496 -12.0734 0 -2.63231 -11.787 0 -2.73125 -11.4799 0 -2.82177 -11.1571 0 -2.90387 -10.8239 0 -2.97681 -10.4851 0 -3.03872 -10.1427 0 -3.08952 -9.79679 0 -3.12921 -9.44781 0 -3.1578 -9.09603 0 -3.17527 -8.74175 0 -3.18185 -8.3853 0 -3.17883 -8.02769 0 -3.16643 -7.67063 0 -3.14464 -7.31586 0 -3.11346 -6.96512 0 -3.07289 -6.62015 0 -3.02308 -6.28268 0 -2.96699 -5.954 0 -2.90584 -5.63453 0 -2.83963 -5.32461 0 -2.76835 -5.02456 0 -2.69202 -4.7347 0 -2.61063 -4.45537 0 -2.52607 -4.18684 0 -2.44025 -3.92921 0 -2.35315 -3.68252 0 -2.26479 -3.44682 0 -2.17515 -3.22215 0 -2.08425 -3.00855 0 -1.99288 -2.80605 0 -1.903 -2.61444 0 -1.81469 -2.43338 0 -1.72796 -2.26255 0 -1.6428 -2.10162 0 -1.55922 -1.95027 0 -1.47734 -1.80815 0 -1.39791 -1.67492 0 -1.32108 -1.55019 0 -1.24682 -1.43359 0 -1.17516 -1.32473 0 -1.10607 -1.22323 0 -1.03958 -1.12871 0 -0.97582 -1.04081 0 -0.914848 -0.959183 0 -0.856665 -0.883504 0 -0.801271 -0.813442 0 -0.748666 -0.748666 0 -0.698849 -0.688843 0 -0.651479 -0.633653 0 -0.606213 -0.582808 0 -0.56305 -0.536031 0 -0.52199 -0.493045 0 -0.483034 -0.453571 0 -0.446182 -0.417333 0 -0.411338 -0.384062 0 -0.378274 -0.353572 0 -0.346978 -0.325716 0 -0.31745 -0.30035 0 -0.28969 -0.27733 0 -0.263699 -0.25651 0 -0.239341 -0.237747 0 -0.215804 -0.220927 0 -0.192952 -0.205966 0 -0.170787 -0.192782 0 -0.149307 -0.181291 0 -0.128513 -0.171412 0 -0.108405 -0.163062 0 -0.0889831 -0.156158 0 -0.0702466 -0.150617 0 -0.052196 -0.146358 0 -0.0348311 -0.143296 0 -0.0181521 -0.141351 0 -0.00215882 -0.140438 0 -0.0525524 -13.0725 0 -0.052695 -13.0958 0 -0.064686 -13.0986 0 -0.0885254 -13.0876 0 -0.124213 -13.0695 0 -0.171749 -13.0508 0 -0.231134 -13.0384 0 -0.298789 -13.0377 0 -0.36597 -13.0459 0 -0.43228 -13.0553 0 -0.497717 -13.0584 0 -0.562283 -13.0476 0 -0.625976 -13.0154 0 -0.690625 -12.9544 0 -0.767189 -12.8643 0 -0.857495 -12.7514 0 -0.961544 -12.6224 0 -1.07933 -12.484 0 -1.21087 -12.3429 0 -1.35545 -12.2056 0 -1.49778 -12.075 0 -1.6316 -11.9458 0 -1.75691 -11.812 0 -1.87371 -11.6676 0 -1.982 -11.5067 0 -2.08179 -11.3231 0 -2.17542 -11.1126 0 -2.26523 -10.8773 0 -2.35123 -10.6212 0 -2.43343 -10.348 0 -2.51181 -10.0616 0 -2.58638 -9.76597 0 -2.65519 -9.4646 0 -2.71347 -9.15909 0 -2.76101 -8.84995 0 -2.79781 -8.53767 0 -2.82387 -8.22275 0 -2.83919 -7.90567 0 -2.84413 -7.58695 0 -2.84091 -7.26756 0 -2.82991 -6.94891 0 -2.81111 -6.63245 0 -2.78453 -6.3196 0 -2.75015 -6.0118 0 -2.70808 -5.7105 0 -2.6604 -5.41676 0 -2.60796 -5.13095 0 -2.55076 -4.85334 0 -2.48881 -4.58423 0 -2.4221 -4.3239 0 -2.35063 -4.07264 0 -2.27619 -3.83068 0 -2.20055 -3.59817 0 -2.12371 -3.3752 0 -2.04567 -3.16186 0 -1.96643 -2.95825 0 -1.886 -2.76445 0 -1.80506 -2.58055 0 -1.72531 -2.40637 0 -1.64684 -2.24164 0 -1.56963 -2.08605 0 -1.49369 -1.93934 0 -1.41902 -1.80121 0 -1.34574 -1.67138 0 -1.27457 -1.54953 0 -1.20563 -1.43535 0 -1.13892 -1.3285 0 -1.07444 -1.22866 0 -1.01219 -1.13549 0 -0.952176 -1.04867 0 -0.894568 -0.967883 0 -0.839431 -0.892812 0 -0.786764 -0.823154 0 -0.736569 -0.758602 0 -0.688843 -0.698849 0 -0.643589 -0.643589 0 -0.600492 -0.592525 0 -0.55924 -0.545408 0 -0.519833 -0.501997 0 -0.482271 -0.462053 0 -0.446554 -0.425337 0 -0.412681 -0.391608 0 -0.380592 -0.360635 0 -0.350138 -0.332247 0 -0.321312 -0.306309 0 -0.294113 -0.282683 0 -0.268543 -0.261232 0 -0.2446 -0.241819 0 -0.222157 -0.224309 0 -0.20045 -0.208597 0 -0.17935 -0.194607 0 -0.158858 -0.182266 0 -0.138973 -0.171499 0 -0.119695 -0.162233 0 -0.101025 -0.154394 0 -0.0829632 -0.147907 0 -0.0655083 -0.142699 0 -0.048661 -0.138696 0 -0.0324212 -0.135825 0 -0.0167889 -0.13401 0 -0.00176419 -0.133179 0 -0.0774333 -11.8346 0 -0.0602635 -11.8435 0 -0.0597118 -11.8427 0 -0.0757782 -11.8351 0 -0.108463 -11.8237 0 -0.157765 -11.8116 0 -0.223686 -11.8017 0 -0.299671 -11.7966 0 -0.369701 -11.7944 0 -0.433047 -11.7909 0 -0.48971 -11.7819 0 -0.539689 -11.7633 0 -0.582985 -11.731 0 -0.622739 -11.6808 0 -0.677796 -11.6121 0 -0.751299 -11.5277 0 -0.843246 -11.4305 0 -0.953638 -11.3232 0 -1.08248 -11.2087 0 -1.22878 -11.0899 0 -1.37103 -10.9679 0 -1.50043 -10.8402 0 -1.61696 -10.7041 0 -1.72065 -10.5567 0 -1.81147 -10.3952 0 -1.88944 -10.2169 0 -1.96059 -10.0198 0 -2.03095 -9.80532 0 -2.10052 -9.57564 0 -2.16931 -9.33303 0 -2.23731 -9.07975 0 -2.30452 -8.81805 0 -2.36833 -8.55006 0 -2.42236 -8.27706 0 -2.4663 -7.99986 0 -2.50016 -7.71928 0 -2.52394 -7.43612 0 -2.53764 -7.15122 0 -2.5417 -6.86537 0 -2.5388 -6.57955 0 -2.52938 -6.29488 0 -2.51345 -6.01245 0 -2.491 -5.7334 0 -2.46202 -5.45883 0 -2.4266 -5.18986 0 -2.38612 -4.92733 0 -2.34115 -4.67156 0 -2.29169 -4.42282 0 -2.23775 -4.18135 0 -2.17932 -3.94743 0 -2.11641 -3.7213 0 -2.05071 -3.50322 0 -1.98393 -3.29332 0 -1.91606 -3.09175 0 -1.84712 -2.89863 0 -1.77708 -2.7141 0 -1.70597 -2.53828 0 -1.63436 -2.3713 0 -1.56368 -2.21301 0 -1.49401 -2.06317 0 -1.42534 -1.92153 0 -1.35767 -1.78784 0 -1.291 -1.66185 0 -1.22545 -1.54331 0 -1.16171 -1.43195 0 -1.0999 -1.3275 0 -1.04001 -1.22967 0 -0.982046 -1.13818 0 -0.926009 -1.05275 0 -0.871906 -0.973089 0 -0.819906 -0.898924 0 -0.770082 -0.829967 0 -0.722431 -0.765931 0 -0.676955 -0.70653 0 -0.633653 -0.651479 0 -0.592525 -0.600492 0 -0.553297 -0.553297 0 -0.515692 -0.509676 0 -0.47971 -0.469425 0 -0.445353 -0.432342 0 -0.412619 -0.398223 0 -0.381509 -0.366865 0 -0.351986 -0.338068 0 -0.323961 -0.31168 0 -0.297431 -0.287569 0 -0.272394 -0.265605 0 -0.248851 -0.245656 0 -0.226803 -0.227592 0 -0.206128 -0.211283 0 -0.186112 -0.196632 0 -0.166633 -0.183572 0 -0.147692 -0.172037 0 -0.129289 -0.161962 0 -0.111424 -0.153281 0 -0.094097 -0.145929 0 -0.0773078 -0.139842 0 -0.0610566 -0.134952 0 -0.0453432 -0.131195 0 -0.0301678 -0.128506 0 -0.0155303 -0.126819 0 -0.0014307 -0.126069 0 -0.083806 -10.688 0 -0.0604494 -10.686 0 -0.0552269 -10.6824 0 -0.0681387 -10.6776 0 -0.0991846 -10.6715 0 -0.148365 -10.6645 0 -0.215679 -10.6566 0 -0.29337 -10.6479 0 -0.362473 -10.6374 0 -0.422127 -10.6236 0 -0.472333 -10.6052 0 -0.513089 -10.5805 0 -0.544395 -10.5482 0 -0.569903 -10.5067 0 -0.611513 -10.4553 0 -0.672875 -10.3939 0 -0.753989 -10.3222 0 -0.854854 -10.2403 0 -0.975472 -10.1481 0 -1.11478 -10.0453 0 -1.24932 -9.93184 0 -1.36953 -9.80746 0 -1.47538 -9.67183 0 -1.5669 -9.52468 0 -1.64406 -9.36569 0 -1.70688 -9.19459 0 -1.76292 -9.01128 0 -1.81976 -8.81653 0 -1.87739 -8.61129 0 -1.9358 -8.39654 0 -1.99501 -8.17324 0 -2.05502 -7.94236 0 -2.11301 -7.70487 0 -2.16217 -7.46178 0 -2.20219 -7.21414 0 -2.23306 -6.96298 0 -2.25478 -6.70933 0 -2.26735 -6.45425 0 -2.27123 -6.19875 0 -2.26911 -5.94378 0 -2.26146 -5.69021 0 -2.24827 -5.43887 0 -2.22953 -5.19062 0 -2.20526 -4.94631 0 -2.17549 -4.70678 0 -2.14111 -4.47269 0 -2.1025 -4.24433 0 -2.05966 -4.02194 0 -2.01258 -3.80576 0 -1.96126 -3.59604 0 -1.9057 -3.39301 0 -1.84756 -3.19692 0 -1.78848 -3.00791 0 -1.72847 -2.82616 0 -1.66751 -2.65182 0 -1.60562 -2.48503 0 -1.54279 -2.32596 0 -1.4795 -2.17474 0 -1.41692 -2.03127 0 -1.35512 -1.89532 0 -1.29408 -1.76669 0 -1.23381 -1.64516 0 -1.17432 -1.53052 0 -1.1157 -1.42253 0 -1.05864 -1.32099 0 -1.00324 -1.22564 0 -0.949503 -1.13626 0 -0.897434 -1.05258 0 -0.847031 -0.974389 0 -0.7983 -0.901431 0 -0.751403 -0.833461 0 -0.706405 -0.770218 0 -0.663307 -0.711438 0 -0.622108 -0.656857 0 -0.582808 -0.606213 0 -0.545408 -0.55924 0 -0.509676 -0.515692 0 -0.475379 -0.475379 0 -0.442519 -0.43813 0 -0.411095 -0.403773 0 -0.381107 -0.372134 0 -0.352556 -0.343042 0 -0.325421 -0.316327 0 -0.299654 -0.291849 0 -0.275254 -0.269484 0 -0.25222 -0.249107 0 -0.230552 -0.230593 0 -0.210251 -0.213819 0 -0.191205 -0.19866 0 -0.172747 -0.185025 0 -0.154765 -0.172857 0 -0.13726 -0.162096 0 -0.120231 -0.152687 0 -0.103679 -0.14457 0 -0.0876028 -0.13769 0 -0.0720036 -0.131987 0 -0.0568809 -0.127405 0 -0.0422347 -0.123886 0 -0.028065 -0.121373 0 -0.0143719 -0.119808 0 -0.00115522 -0.119134 0 -0.0765661 -9.6327 0 -0.0553233 -9.6231 0 -0.0512818 -9.61788 0 -0.0644418 -9.61515 0 -0.0948032 -9.61302 0 -0.142366 -9.60961 0 -0.20713 -9.60301 0 -0.281481 -9.59152 0 -0.346804 -9.57488 0 -0.402253 -9.55359 0 -0.447828 -9.52816 0 -0.483529 -9.49912 0 -0.509356 -9.46695 0 -0.528857 -9.43213 0 -0.563319 -9.39379 0 -0.616289 -9.34974 0 -0.687768 -9.29775 0 -0.777756 -9.23559 0 -0.886253 -9.16101 0 -1.01225 -9.0718 0 -1.13363 -8.9669 0 -1.24132 -8.84756 0 -1.33534 -8.71529 0 -1.41568 -8.57161 0 -1.48234 -8.41802 0 -1.53532 -8.25605 0 -1.58209 -8.08694 0 -1.63012 -7.91098 0 -1.6794 -7.72817 0 -1.72994 -7.53854 0 -1.78174 -7.34212 0 -1.8348 -7.13891 0 -1.8865 -6.92903 0 -1.93046 -6.71327 0 -1.96637 -6.4928 0 -1.99425 -6.26878 0 -2.0141 -6.04238 0 -2.0259 -5.81476 0 -2.03008 -5.58709 0 -2.02905 -5.36025 0 -2.02321 -5.13491 0 -2.01258 -4.9117 0 -1.99715 -4.69127 0 -1.97692 -4.47424 0 -1.95191 -4.26126 0 -1.92268 -4.05285 0 -1.88946 -3.84925 0 -1.85223 -3.65071 0 -1.81101 -3.45746 0 -1.76579 -3.26973 0 -1.71657 -3.08777 0 -1.66496 -2.91178 0 -1.61257 -2.74196 0 -1.55941 -2.57845 0 -1.50547 -2.42143 0 -1.45075 -2.27105 0 -1.39526 -2.12749 0 -1.33936 -1.99088 0 -1.28399 -1.86114 0 -1.22919 -1.73809 0 -1.17496 -1.62154 0 -1.12129 -1.51131 0 -1.06819 -1.40721 0 -1.01577 -1.30905 0 -0.964686 -1.21664 0 -0.915043 -1.12978 0 -0.866844 -1.04825 0 -0.820089 -0.97187 0 -0.774777 -0.90042 0 -0.730915 -0.833699 0 -0.688643 -0.771494 0 -0.648019 -0.713566 0 -0.609042 -0.659676 0 -0.571713 -0.609584 0 -0.536031 -0.56305 0 -0.501997 -0.519833 0 -0.469425 -0.47971 0 -0.43813 -0.442519 0 -0.408113 -0.408113 0 -0.379372 -0.376345 0 -0.351909 -0.347069 0 -0.325722 -0.320139 0 -0.300804 -0.295409 0 -0.277132 -0.272753 0 -0.254704 -0.252053 0 -0.233521 -0.233189 0 -0.213584 -0.216044 0 -0.194891 -0.200499 0 -0.17734 -0.186438 0 -0.160314 -0.173776 0 -0.143712 -0.162462 0 -0.127532 -0.152445 0 -0.111774 -0.143675 0 -0.0964398 -0.136101 0 -0.0815278 -0.129674 0 -0.0670385 -0.124344 0 -0.0529719 -0.120059 0 -0.039328 -0.116769 0 -0.0261068 -0.114425 0 -0.0133082 -0.112976 0 -0.000932325 -0.112372 0 -0.0606095 -8.66869 0 -0.0469559 -8.65496 0 -0.0479269 -8.64905 0 -0.0635225 -8.64783 0 -0.0937427 -8.64817 0 -0.138587 -8.64694 0 -0.198057 -8.641 0 -0.265601 -8.62758 0 -0.32521 -8.6069 0 -0.376156 -8.58074 0 -0.418439 -8.55091 0 -0.452059 -8.51918 0 -0.477016 -8.48735 0 -0.496338 -8.45712 0 -0.528192 -8.42761 0 -0.575607 -8.39541 0 -0.638582 -8.35702 0 -0.717118 -8.3089 0 -0.811214 -8.24754 0 -0.920023 -8.16944 0 -1.0249 -8.07303 0 -1.11822 -7.96049 0 -1.19999 -7.83443 0 -1.2702 -7.69747 0 -1.32885 -7.55223 0 -1.37594 -7.40132 0 -1.41773 -7.24681 0 -1.46046 -7.08866 0 -1.50414 -6.92626 0 -1.54876 -6.75904 0 -1.59432 -6.58638 0 -1.64082 -6.4077 0 -1.68608 -6.22254 0 -1.72473 -6.03152 0 -1.75654 -5.83583 0 -1.78149 -5.63668 0 -1.79961 -5.43525 0 -1.81087 -5.23276 0 -1.81562 -5.03038 0 -1.81579 -4.82896 0 -1.81173 -4.62899 0 -1.80342 -4.43095 0 -1.79086 -4.23534 0 -1.77407 -4.04263 0 -1.75304 -3.85332 0 -1.72812 -3.66779 0 -1.69943 -3.48632 0 -1.66698 -3.30912 0 -1.63076 -3.13644 0 -1.59078 -2.96851 0 -1.54704 -2.80556 0 -1.5011 -2.64782 0 -1.45455 -2.49545 0 -1.40738 -2.34861 0 -1.3596 -2.20746 0 -1.3112 -2.07216 0 -1.26218 -1.94286 0 -1.21283 -1.8197 0 -1.16385 -1.70262 0 -1.11526 -1.59147 0 -1.06707 -1.48607 0 -1.01927 -1.38627 0 -0.971865 -1.29192 0 -0.924965 -1.20286 0 -0.879214 -1.1189 0 -0.834719 -1.0399 0 -0.791479 -0.965668 0 -0.749496 -0.896038 0 -0.708769 -0.830837 0 -0.669304 -0.769894 0 -0.631212 -0.713023 0 -0.59454 -0.660012 0 -0.559288 -0.610646 0 -0.525457 -0.56471 0 -0.493045 -0.52199 0 -0.462053 -0.482271 0 -0.432342 -0.445353 0 -0.403773 -0.411095 0 -0.376345 -0.379372 0 -0.350058 -0.350058 0 -0.324913 -0.323028 0 -0.30091 -0.298155 0 -0.278044 -0.275316 0 -0.256309 -0.254394 0 -0.235703 -0.235276 0 -0.216227 -0.217852 0 -0.197881 -0.202008 0 -0.180665 -0.187634 0 -0.164484 -0.174619 0 -0.148774 -0.162886 0 -0.133439 -0.152388 0 -0.11848 -0.143082 0 -0.103896 -0.134926 0 -0.0896886 -0.127874 0 -0.0758567 -0.121884 0 -0.0624006 -0.116911 0 -0.0493202 -0.112912 0 -0.0366157 -0.109844 0 -0.0242869 -0.107663 0 -0.0123338 -0.106324 0 -0.000756561 -0.105785 0 -0.0408319 -7.79599 0 -0.0374181 -7.78154 0 -0.0452128 -7.77593 0 -0.0642158 -7.7756 0 -0.0944273 -7.77697 0 -0.135847 -7.77647 0 -0.188475 -7.77055 0 -0.247326 -7.75604 0 -0.300209 -7.73344 0 -0.34657 -7.7051 0 -0.38641 -7.67339 0 -0.419729 -7.64069 0 -0.446526 -7.60936 0 -0.469086 -7.58165 0 -0.501114 -7.55676 0 -0.544895 -7.53087 0 -0.600428 -7.50003 0 -0.667714 -7.46027 0 -0.746752 -7.40765 0 -0.836904 -7.33822 0 -0.924121 -7.25025 0 -1.00266 -7.14625 0 -1.07251 -7.02926 0 -1.13367 -6.90227 0 -1.18616 -6.76831 0 -1.22996 -6.6304 0 -1.26951 -6.49089 0 -1.30925 -6.34958 0 -1.34917 -6.20558 0 -1.38927 -6.05802 0 -1.42955 -5.90603 0 -1.47001 -5.74873 0 -1.50901 -5.58539 0 -1.54252 -5.41652 0 -1.57036 -5.24324 0 -1.59253 -5.06667 0 -1.60902 -4.88797 0 -1.61984 -4.70825 0 -1.62522 -4.52864 0 -1.62655 -4.3499 0 -1.62407 -4.17243 0 -1.61778 -3.99661 0 -1.60768 -3.82283 0 -1.59376 -3.65148 0 -1.57603 -3.48293 0 -1.55471 -3.31753 0 -1.52985 -3.15554 0 -1.50147 -2.99718 0 -1.46956 -2.84271 0 -1.43412 -2.69237 0 -1.39516 -2.5464 0 -1.35419 -2.40502 0 -1.31277 -2.26839 0 -1.27087 -2.13664 0 -1.2285 -2.00992 0 -1.18567 -1.88835 0 -1.14237 -1.77208 0 -1.0988 -1.66122 0 -1.05546 -1.55573 0 -1.01237 -1.45546 0 -0.969519 -1.36028 0 -0.926921 -1.27006 0 -0.884571 -1.18467 0 -0.842575 -1.10395 0 -0.80157 -1.02778 0 -0.761664 -0.956011 0 -0.722855 -0.888495 0 -0.685145 -0.825087 0 -0.648532 -0.765642 0 -0.613021 -0.710015 0 -0.578694 -0.658048 0 -0.545586 -0.609554 0 -0.513696 -0.564346 0 -0.483024 -0.522235 0 -0.453571 -0.483034 0 -0.425337 -0.446554 0 -0.398223 -0.412619 0 -0.372134 -0.381107 0 -0.347069 -0.351909 0 -0.323028 -0.324913 0 -0.300011 -0.300011 0 -0.278018 -0.277092 0 -0.257049 -0.256048 0 -0.2371 -0.23677 0 -0.218173 -0.219154 0 -0.200267 -0.203094 0 -0.183383 -0.188486 0 -0.167519 -0.175223 0 -0.152591 -0.163203 0 -0.138084 -0.152353 0 -0.123912 -0.142634 0 -0.110075 -0.134009 0 -0.0965727 -0.126439 0 -0.0834059 -0.119888 0 -0.0705743 -0.114317 0 -0.0580779 -0.109689 0 -0.0459165 -0.105966 0 -0.0340903 -0.103111 0 -0.0225992 -0.101085 0 -0.0114433 -0.0998512 0 -0.000622489 -0.0993716 0 -0.0221291 -7.01459 0 -0.0287806 -7.00284 0 -0.0431898 -6.99853 0 -0.0653567 -6.99845 0 -0.0952812 -6.99941 0 -0.132963 -6.99821 0 -0.178403 -6.99165 0 -0.228251 -6.9769 0 -0.274316 -6.95449 0 -0.316227 -6.92665 0 -0.353983 -6.89562 0 -0.387586 -6.86365 0 -0.417034 -6.83297 0 -0.443838 -6.80572 0 -0.477062 -6.78124 0 -0.518217 -6.75611 0 -0.567302 -6.72678 0 -0.624317 -6.6897 0 -0.689263 -6.64133 0 -0.761712 -6.57813 0 -0.832251 -6.49855 0 -0.897033 -6.40485 0 -0.956055 -6.29977 0 -1.00932 -6.186 0 -1.05682 -6.06627 0 -1.09857 -5.94329 0 -1.13709 -5.81919 0 -1.17492 -5.69374 0 -1.21206 -5.56611 0 -1.2485 -5.43549 0 -1.28426 -5.30106 0 -1.31932 -5.16199 0 -1.35259 -5.0176 0 -1.38137 -4.86828 0 -1.40554 -4.71502 0 -1.4251 -4.55877 0 -1.44004 -4.40051 0 -1.45038 -4.24122 0 -1.45625 -4.08186 0 -1.45852 -3.92308 0 -1.45733 -3.76524 0 -1.4527 -3.60869 0 -1.4446 -3.45375 0 -1.43306 -3.30078 0 -1.41806 -3.15011 0 -1.39974 -3.00207 0 -1.37814 -2.85691 0 -1.35326 -2.71489 0 -1.32511 -2.57627 0 -1.29368 -2.44132 0 -1.25897 -2.31028 0 -1.22245 -2.18339 0 -1.18558 -2.06078 0 -1.14836 -1.94255 0 -1.1108 -1.8288 0 -1.07289 -1.71963 0 -1.03463 -1.61515 0 -0.996151 -1.51544 0 -0.957784 -1.42045 0 -0.919539 -1.33007 0 -0.881418 -1.24418 0 -0.843419 -1.16268 0 -0.805543 -1.08543 0 -0.767895 -1.01234 0 -0.731106 -0.943273 0 -0.69528 -0.878113 0 -0.660419 -0.816735 0 -0.626521 -0.759017 0 -0.593588 -0.704834 0 -0.561621 -0.654063 0 -0.530675 -0.606569 0 -0.500773 -0.562194 0 -0.471916 -0.520778 0 -0.444103 -0.48216 0 -0.417333 -0.446182 0 -0.391608 -0.412681 0 -0.366865 -0.381509 0 -0.343042 -0.352556 0 -0.320139 -0.325722 0 -0.298155 -0.30091 0 -0.277092 -0.278018 0 -0.256949 -0.256949 0 -0.237726 -0.237603 0 -0.219422 -0.219882 0 -0.202037 -0.203686 0 -0.185571 -0.188917 0 -0.170025 -0.175477 0 -0.155397 -0.163267 0 -0.141612 -0.152189 0 -0.128204 -0.142178 0 -0.115096 -0.1332 0 -0.102288 -0.125223 0 -0.0897803 -0.118215 0 -0.0775728 -0.112143 0 -0.0656655 -0.106975 0 -0.0540584 -0.102678 0 -0.0427513 -0.0992207 0 -0.0317444 -0.0965696 0 -0.0210377 -0.0946927 0 -0.0106311 -0.0935577 0 -0.000524671 -0.0931323 0 -0.00895262 -6.31382 0 -0.0229163 -6.30692 0 -0.0418893 -6.30449 0 -0.0658714 -6.30422 0 -0.0948628 -6.30381 0 -0.128863 -6.30096 0 -0.167873 -6.29338 0 -0.209862 -6.27905 0 -0.249866 -6.25834 0 -0.28766 -6.2329 0 -0.323244 -6.20436 0 -0.356617 -6.17436 0 -0.387781 -6.14454 0 -0.417619 -6.11644 0 -0.451441 -6.08961 0 -0.490131 -6.06155 0 -0.53369 -6.02968 0 -0.582117 -5.99143 0 -0.635413 -5.94421 0 -0.693318 -5.88546 0 -0.750128 -5.81405 0 -0.803511 -5.73159 0 -0.853466 -5.64004 0 -0.899993 -5.54135 0 -0.943092 -5.43746 0 -0.982764 -5.33031 0 -1.02004 -5.22145 0 -1.05593 -5.11075 0 -1.09046 -4.99766 0 -1.12361 -4.88163 0 -1.15539 -4.76215 0 -1.18579 -4.63864 0 -1.21416 -4.51068 0 -1.23885 -4.3786 0 -1.25979 -4.24315 0 -1.27698 -4.10509 0 -1.29043 -3.96517 0 -1.30012 -3.82414 0 -1.30615 -3.68276 0 -1.30898 -3.54156 0 -1.3087 -3.40088 0 -1.3053 -3.26108 0 -1.29878 -3.12248 0 -1.28915 -2.98541 0 -1.27641 -2.85023 0 -1.26062 -2.71723 0 -1.24183 -2.58671 0 -1.22003 -2.45894 0 -1.19523 -2.3342 0 -1.16741 -2.21277 0 -1.13659 -2.09493 0 -1.10412 -1.98091 0 -1.07139 -1.87081 0 -1.03839 -1.7647 0 -1.00512 -1.66262 0 -0.971588 -1.56464 0 -0.937783 -1.47081 0 -0.90379 -1.38119 0 -0.869805 -1.29572 0 -0.835837 -1.21432 0 -0.801885 -1.13687 0 -0.767951 -1.06329 0 -0.734033 -0.993472 0 -0.700236 -0.927327 0 -0.667185 -0.864751 0 -0.634983 -0.805637 0 -0.60363 -0.74988 0 -0.573127 -0.697375 0 -0.543474 -0.648014 0 -0.514672 -0.601694 0 -0.486754 -0.558298 0 -0.459734 -0.517697 0 -0.433612 -0.479758 0 -0.408388 -0.444349 0 -0.384062 -0.411338 0 -0.360635 -0.380592 0 -0.338068 -0.351986 0 -0.316327 -0.325421 0 -0.295409 -0.300804 0 -0.275316 -0.278044 0 -0.256048 -0.257049 0 -0.237603 -0.237726 0 -0.219984 -0.219984 0 -0.203188 -0.20373 0 -0.187216 -0.188873 0 -0.172068 -0.17532 0 -0.157744 -0.162981 0 -0.144244 -0.151764 0 -0.131498 -0.141577 0 -0.119092 -0.132361 0 -0.106957 -0.124087 0 -0.095091 -0.116727 0 -0.0834955 -0.110254 0 -0.0721702 -0.10464 0 -0.0611151 -0.0998577 0 -0.0503301 -0.0958785 0 -0.0398153 -0.0926753 0 -0.0295706 -0.0902201 0 -0.0195962 -0.0884855 0 -0.00989183 -0.0874437 0 -0.000457665 -0.087067 0 -0.0018875 -5.66761 0 -0.0199761 -5.66464 0 -0.041174 -5.66366 0 -0.0654815 -5.66314 0 -0.0928983 -5.66155 0 -0.123425 -5.65737 0 -0.15706 -5.64907 0 -0.192693 -5.6353 0 -0.227605 -5.61634 0 -0.261673 -5.59329 0 -0.294895 -5.56726 0 -0.327273 -5.53935 0 -0.358806 -5.51068 0 -0.389941 -5.48229 0 -0.423351 -5.45387 0 -0.459484 -5.42373 0 -0.498339 -5.39012 0 -0.539916 -5.35132 0 -0.584215 -5.30558 0 -0.631094 -5.25115 0 -0.677429 -5.18726 0 -0.721942 -5.11499 0 -0.764634 -5.03563 0 -0.805504 -4.95045 0 -0.844552 -4.86074 0 -0.881778 -4.7678 0 -0.917199 -4.67264 0 -0.950829 -4.57523 0 -0.982669 -4.47527 0 -1.01272 -4.37246 0 -1.04098 -4.26649 0 -1.06745 -4.15706 0 -1.09176 -4.04394 0 -1.11302 -3.92742 0 -1.1312 -3.80806 0 -1.14628 -3.68642 0 -1.15827 -3.56308 0 -1.16717 -3.4386 0 -1.17301 -3.31354 0 -1.17604 -3.18835 0 -1.17628 -3.06336 0 -1.17373 -2.9389 0 -1.1684 -2.81529 0 -1.16029 -2.69286 0 -1.1494 -2.57194 0 -1.13577 -2.45284 0 -1.11941 -2.33586 0 -1.10032 -2.22127 0 -1.07852 -2.10937 0 -1.05398 -2.00045 0 -1.02672 -1.8948 0 -0.997988 -1.79265 0 -0.969025 -1.69407 0 -0.939834 -1.5991 0 -0.910415 -1.50775 0 -0.880768 -1.42004 0 -0.850893 -1.33601 0 -0.820834 -1.25566 0 -0.790699 -1.17896 0 -0.760492 -1.10581 0 -0.730213 -1.03615 0 -0.699862 -0.969884 0 -0.669439 -0.90694 0 -0.639048 -0.847235 0 -0.609305 -0.790684 0 -0.580314 -0.737197 0 -0.552074 -0.686682 0 -0.524585 -0.63905 0 -0.497848 -0.594209 0 -0.471863 -0.552069 0 -0.446649 -0.512532 0 -0.422213 -0.475493 0 -0.398554 -0.440843 0 -0.375674 -0.408472 0 -0.353572 -0.378274 0 -0.332247 -0.350138 0 -0.31168 -0.323961 0 -0.291849 -0.299654 0 -0.272753 -0.277132 0 -0.254394 -0.256309 0 -0.23677 -0.2371 0 -0.219882 -0.219422 0 -0.20373 -0.203188 0 -0.188313 -0.188313 0 -0.173632 -0.174714 0 -0.159687 -0.162304 0 -0.146477 -0.150999 0 -0.134003 -0.140715 0 -0.122203 -0.131367 0 -0.110709 -0.122902 0 -0.09946 -0.115294 0 -0.0884551 -0.10852 0 -0.0776948 -0.102556 0 -0.067179 -0.0973789 0 -0.0569078 -0.0929646 0 -0.0468812 -0.0892895 0 -0.037099 -0.0863301 0 -0.0275615 -0.0840627 0 -0.0182684 -0.0824635 0 -0.00921996 -0.0815091 0 -0.000416031 -0.0811757 0 0.00047195 -5.07479 0 -0.0192241 -5.07467 0 -0.0408206 -5.07467 0 -0.0643176 -5.07387 0 -0.0897151 -5.07135 0 -0.117013 -5.0662 0 -0.146212 -5.0575 0 -0.176787 -5.04444 0 -0.207461 -5.0272 0 -0.238176 -5.00644 0 -0.26893 -4.98285 0 -0.299724 -4.95711 0 -0.330558 -4.92989 0 -0.361593 -4.90183 0 -0.393796 -4.87274 0 -0.427327 -4.84158 0 -0.462186 -4.80727 0 -0.498374 -4.76875 0 -0.53589 -4.72495 0 -0.574668 -4.67478 0 -0.613237 -4.61777 0 -0.650997 -4.55454 0 -0.687947 -4.48586 0 -0.724087 -4.41248 0 -0.759418 -4.33516 0 -0.793939 -4.25467 0 -0.82706 -4.17162 0 -0.858189 -4.08604 0 -0.887328 -3.99782 0 -0.914475 -3.90686 0 -0.93963 -3.81304 0 -0.962794 -3.71626 0 -0.983795 -3.61644 0 -1.00221 -3.51383 0 -1.01802 -3.40884 0 -1.03123 -3.30188 0 -1.04184 -3.19339 0 -1.04984 -3.08375 0 -1.05526 -2.9734 0 -1.0582 -2.86269 0 -1.05867 -2.75194 0 -1.05667 -2.64146 0 -1.05222 -2.53156 0 -1.0453 -2.42255 0 -1.03591 -2.31474 0 -1.02409 -2.20844 0 -1.00982 -2.10393 0 -0.993122 -2.00151 0 -0.973986 -1.90146 0 -0.952413 -1.80408 0 -0.928404 -1.70964 0 -0.903068 -1.61838 0 -0.877514 -1.53036 0 -0.851743 -1.44558 0 -0.825755 -1.36402 0 -0.799549 -1.2857 0 -0.773126 -1.2106 0 -0.746506 -1.13873 0 -0.71974 -1.07003 0 -0.69283 -1.00445 0 -0.665776 -0.941921 0 -0.638577 -0.882376 0 -0.611235 -0.825752 0 -0.583851 -0.771985 0 -0.557032 -0.721003 0 -0.530881 -0.672729 0 -0.505396 -0.627085 0 -0.480579 -0.583992 0 -0.45643 -0.543373 0 -0.432948 -0.505149 0 -0.410142 -0.46924 0 -0.388016 -0.435557 0 -0.366569 -0.404011 0 -0.345803 -0.374514 0 -0.325716 -0.346978 0 -0.306309 -0.321312 0 -0.287569 -0.297431 0 -0.269484 -0.275254 0 -0.252053 -0.254704 0 -0.235276 -0.235703 0 -0.219154 -0.218173 0 -0.203686 -0.202037 0 -0.188873 -0.187216 0 -0.174714 -0.173632 0 -0.161209 -0.161209 0 -0.148358 -0.149867 0 -0.136162 -0.13953 0 -0.12462 -0.13012 0 -0.113678 -0.12156 0 -0.103014 -0.113801 0 -0.0925712 -0.106821 0 -0.0823516 -0.100601 0 -0.0723546 -0.0951206 0 -0.0625802 -0.0903589 0 -0.0530286 -0.0862959 0 -0.0436995 -0.0829114 0 -0.0345932 -0.0801852 0 -0.0257095 -0.0780971 0 -0.0170484 -0.0766267 0 -0.00861005 -0.0757539 0 -0.000394327 -0.0754585 0 -0.000452095 -4.53534 0 -0.0199172 -4.53701 0 -0.0406045 -4.53752 0 -0.0625139 -4.53641 0 -0.0856456 -4.5332 0 -0.109999 -4.52745 0 -0.135575 -4.51867 0 -0.162183 -4.50645 0 -0.189356 -4.4909 0 -0.217073 -4.47234 0 -0.245334 -4.45114 0 -0.274139 -4.42763 0 -0.303489 -4.40216 0 -0.33338 -4.37507 0 -0.363795 -4.34623 0 -0.394732 -4.31511 0 -0.42619 -4.28113 0 -0.45817 -4.24372 0 -0.490671 -4.20232 0 -0.52367 -4.15636 0 -0.55663 -4.10556 0 -0.589332 -4.05023 0 -0.621776 -3.99074 0 -0.653963 -3.92745 0 -0.685893 -3.86072 0 -0.717565 -3.79093 0 -0.748094 -3.71838 0 -0.776598 -3.64317 0 -0.803075 -3.56531 0 -0.827525 -3.48485 0 -0.849949 -3.40182 0 -0.870347 -3.31624 0 -0.888656 -3.22817 0 -0.904722 -3.13782 0 -0.918538 -3.04549 0 -0.930106 -2.95148 0 -0.939423 -2.85608 0 -0.946492 -2.7596 0 -0.951321 -2.66234 0 -0.953977 -2.56459 0 -0.954471 -2.46663 0 -0.952802 -2.36877 0 -0.94897 -2.27129 0 -0.942975 -2.17448 0 -0.934819 -2.07862 0 -0.924506 -1.98402 0 -0.912042 -1.89094 0 -0.897424 -1.79967 0 -0.880654 -1.71047 0 -0.861732 -1.62364 0 -0.840657 -1.53944 0 -0.818392 -1.45811 0 -0.795899 -1.37968 0 -0.773179 -1.30413 0 -0.750231 -1.23144 0 -0.727055 -1.1616 0 -0.703652 -1.09459 0 -0.680028 -1.03038 0 -0.656203 -0.968947 0 -0.632178 -0.910232 0 -0.607951 -0.854187 0 -0.583523 -0.800763 0 -0.558895 -0.74991 0 -0.534165 -0.701578 0 -0.509931 -0.655709 0 -0.486291 -0.612235 0 -0.463245 -0.571088 0 -0.440794 -0.532201 0 -0.418938 -0.495507 0 -0.397677 -0.460936 0 -0.377013 -0.428421 0 -0.356949 -0.397888 0 -0.337483 -0.369264 0 -0.318617 -0.342475 0 -0.30035 -0.31745 0 -0.282683 -0.294113 0 -0.265605 -0.272394 0 -0.249107 -0.25222 0 -0.233189 -0.233521 0 -0.217852 -0.216227 0 -0.203094 -0.200267 0 -0.188917 -0.185571 0 -0.17532 -0.172068 0 -0.162304 -0.159687 0 -0.149867 -0.148358 0 -0.138011 -0.138011 0 -0.126735 -0.128575 0 -0.116039 -0.119979 0 -0.105876 -0.112155 0 -0.095964 -0.105058 0 -0.0862559 -0.098669 0 -0.0767516 -0.0929716 0 -0.0674513 -0.0879478 0 -0.0583547 -0.0835804 0 -0.0494621 -0.0798517 0 -0.0407733 -0.0767442 0 -0.0322883 -0.0742407 0 -0.0240072 -0.0723234 0 -0.01593 -0.0709751 0 -0.00805662 -0.0701782 0 -0.000387113 -0.0699153 0 -0.00323747 -4.04926 0 -0.0213124 -4.05165 0 -0.0403015 -4.0522 0 -0.0602047 -4.05075 0 -0.0810222 -4.04711 0 -0.102754 -4.04111 0 -0.1254 -4.03257 0 -0.148918 -4.02135 0 -0.17321 -4.00745 0 -0.198268 -3.991 0 -0.224095 -3.97211 0 -0.250689 -3.95091 0 -0.278051 -3.9275 0 -0.306102 -3.902 0 -0.334368 -3.87434 0 -0.362769 -3.84432 0 -0.391307 -3.81169 0 -0.41998 -3.77623 0 -0.448789 -3.7377 0 -0.477729 -3.69588 0 -0.506684 -3.65064 0 -0.535607 -3.60207 0 -0.564497 -3.55027 0 -0.593355 -3.49535 0 -0.62218 -3.43742 0 -0.650973 -3.37658 0 -0.678777 -3.31294 0 -0.704636 -3.24662 0 -0.72855 -3.17774 0 -0.750519 -3.10643 0 -0.770542 -3.03281 0 -0.788621 -2.957 0 -0.804741 -2.87914 0 -0.818869 -2.7994 0 -0.831003 -2.71802 0 -0.841145 -2.6352 0 -0.849293 -2.55117 0 -0.855447 -2.46615 0 -0.859622 -2.38035 0 -0.861898 -2.29403 0 -0.862287 -2.20743 0 -0.860791 -2.12083 0 -0.85741 -2.03448 0 -0.852142 -1.94865 0 -0.844989 -1.8636 0 -0.835951 -1.77959 0 -0.82503 -1.69688 0 -0.812226 -1.61573 0 -0.797537 -1.5364 0 -0.780965 -1.45914 0 -0.76251 -1.38422 0 -0.742988 -1.31184 0 -0.723217 -1.24203 0 -0.703197 -1.17476 0 -0.682927 -1.11001 0 -0.662408 -1.04775 0 -0.64164 -0.987968 0 -0.620624 -0.930629 0 -0.599365 -0.875703 0 -0.577862 -0.823154 0 -0.556115 -0.772947 0 -0.534125 -0.725045 0 -0.511892 -0.679412 0 -0.489512 -0.636014 0 -0.467566 -0.5948 0 -0.446152 -0.555713 0 -0.425268 -0.518692 0 -0.404915 -0.483678 0 -0.385094 -0.45061 0 -0.365803 -0.419429 0 -0.347045 -0.390075 0 -0.328818 -0.362486 0 -0.311123 -0.3366 0 -0.293961 -0.312355 0 -0.27733 -0.28969 0 -0.261232 -0.268543 0 -0.245656 -0.248851 0 -0.230593 -0.230552 0 -0.216044 -0.213584 0 -0.202008 -0.197881 0 -0.188486 -0.183383 0 -0.175477 -0.170025 0 -0.162981 -0.157744 0 -0.150999 -0.146477 0 -0.13953 -0.136162 0 -0.128575 -0.126735 0 -0.118133 -0.118133 0 -0.108204 -0.110292 0 -0.0987478 -0.103152 0 -0.0895199 -0.0966724 0 -0.0804796 -0.090837 0 -0.0716267 -0.0856306 0 -0.0629613 -0.0810378 0 -0.0544835 -0.0770434 0 -0.0461932 -0.0736318 0 -0.0380904 -0.070788 0 -0.0301751 -0.0684964 0 -0.0224473 -0.0667417 0 -0.014907 -0.0655087 0 -0.00755421 -0.0647819 0 -0.000388949 -0.0645461 0 -0.00646199 -3.61657 0 -0.0226665 -3.6186 0 -0.0396872 -3.61873 0 -0.0575241 -3.6169 0 -0.0761773 -3.61307 0 -0.0956466 -3.60719 0 -0.115932 -3.59922 0 -0.137033 -3.58912 0 -0.158944 -3.57685 0 -0.181666 -3.56241 0 -0.205199 -3.54578 0 -0.229543 -3.52695 0 -0.254697 -3.5059 0 -0.280562 -3.48262 0 -0.306533 -3.45707 0 -0.33251 -3.4292 0 -0.358493 -3.39895 0 -0.384482 -3.36626 0 -0.410477 -3.33108 0 -0.436477 -3.29334 0 -0.462479 -3.25301 0 -0.48848 -3.21005 0 -0.514481 -3.16445 0 -0.540482 -3.11619 0 -0.566483 -3.06525 0 -0.592483 -3.01161 0 -0.617584 -2.95527 0 -0.640888 -2.89638 0 -0.662395 -2.8351 0 -0.682104 -2.77159 0 -0.700016 -2.70602 0 -0.716131 -2.63854 0 -0.730448 -2.56934 0 -0.742966 -2.49857 0 -0.753685 -2.42642 0 -0.762604 -2.35305 0 -0.769725 -2.27865 0 -0.775047 -2.20339 0 -0.778589 -2.12744 0 -0.780472 -2.05102 0 -0.780716 -1.97433 0 -0.779321 -1.89763 0 -0.776286 -1.82113 0 -0.771611 -1.74506 0 -0.765298 -1.66965 0 -0.757345 -1.59514 0 -0.747753 -1.52175 0 -0.736521 -1.44971 0 -0.72365 -1.37924 0 -0.70914 -1.31058 0 -0.692991 -1.24396 0 -0.675885 -1.17956 0 -0.658506 -1.1174 0 -0.640855 -1.05746 0 -0.62293 -0.999719 0 -0.604732 -0.944155 0 -0.58626 -0.890745 0 -0.567516 -0.839467 0 -0.548499 -0.790299 0 -0.529209 -0.743218 0 -0.509646 -0.6982 0 -0.48981 -0.655221 0 -0.469701 -0.61426 0 -0.449413 -0.575291 0 -0.429505 -0.538277 0 -0.410072 -0.503164 0 -0.391112 -0.469896 0 -0.372627 -0.438421 0 -0.354617 -0.408683 0 -0.33708 -0.380629 0 -0.320018 -0.354203 0 -0.303429 -0.329352 0 -0.287315 -0.30602 0 -0.271676 -0.284154 0 -0.25651 -0.263699 0 -0.241819 -0.2446 0 -0.227592 -0.226803 0 -0.213819 -0.210251 0 -0.200499 -0.194891 0 -0.187634 -0.180665 0 -0.175223 -0.167519 0 -0.163267 -0.155397 0 -0.151764 -0.144244 0 -0.140715 -0.134003 0 -0.13012 -0.12462 0 -0.119979 -0.116039 0 -0.110292 -0.108204 0 -0.10106 -0.10106 0 -0.092246 -0.0945518 0 -0.0836404 -0.0886453 0 -0.0752077 -0.0833254 0 -0.066948 -0.0785785 0 -0.0588613 -0.0743906 0 -0.0509475 -0.0707478 0 -0.0432067 -0.0676365 0 -0.0356389 -0.0650426 0 -0.028244 -0.0629523 0 -0.0210222 -0.0613519 0 -0.0139733 -0.0602274 0 -0.00709735 -0.0595651 0 -0.000394393 -0.059351 0 -0.00873952 -3.2328 0 -0.0232565 -3.23357 0 -0.0385451 -3.23288 0 -0.0546052 -3.23066 0 -0.0714368 -3.22687 0 -0.08904 -3.22143 0 -0.107415 -3.21431 0 -0.126561 -3.20543 0 -0.146479 -3.19476 0 -0.167168 -3.18222 0 -0.188629 -3.16777 0 -0.210861 -3.15135 0 -0.233865 -3.1329 0 -0.25754 -3.11237 0 -0.281285 -3.08971 0 -0.304999 -3.0649 0 -0.328682 -3.0379 0 -0.352334 -3.00869 0 -0.375955 -2.97723 0 -0.399546 -2.9435 0 -0.423106 -2.90747 0 -0.446635 -2.8691 0 -0.470133 -2.82837 0 -0.4936 -2.78524 0 -0.517037 -2.73969 0 -0.540443 -2.69169 0 -0.563017 -2.64123 0 -0.58396 -2.58846 0 -0.603271 -2.53353 0 -0.620951 -2.4766 0 -0.636999 -2.41784 0 -0.651416 -2.35741 0 -0.664201 -2.29547 0 -0.675355 -2.23219 0 -0.684876 -2.16773 0 -0.692767 -2.10224 0 -0.699025 -2.0359 0 -0.703653 -1.96887 0 -0.706673 -1.9013 0 -0.70824 -1.83338 0 -0.708377 -1.7653 0 -0.707085 -1.69724 0 -0.704363 -1.6294 0 -0.700213 -1.56197 0 -0.694633 -1.49514 0 -0.687624 -1.4291 0 -0.679185 -1.36404 0 -0.669318 -1.30016 0 -0.658021 -1.23764 0 -0.645295 -1.17667 0 -0.631139 -1.11745 0 -0.616124 -1.06013 0 -0.600819 -1.00473 0 -0.585223 -0.95125 0 -0.569338 -0.89967 0 -0.553162 -0.849978 0 -0.536695 -0.802164 0 -0.519939 -0.756217 0 -0.502892 -0.712124 0 -0.485555 -0.669873 0 -0.467928 -0.629454 0 -0.450011 -0.590853 0 -0.431803 -0.55406 0 -0.413394 -0.519063 0 -0.395318 -0.485829 0 -0.377663 -0.454308 0 -0.36043 -0.424451 0 -0.343619 -0.396205 0 -0.327229 -0.36952 0 -0.311262 -0.344345 0 -0.295715 -0.32063 0 -0.280591 -0.298322 0 -0.265888 -0.277372 0 -0.251607 -0.257729 0 -0.237747 -0.239341 0 -0.224309 -0.222157 0 -0.211283 -0.206128 0 -0.19866 -0.191205 0 -0.186438 -0.17734 0 -0.174619 -0.164484 0 -0.163203 -0.152591 0 -0.152189 -0.141612 0 -0.141577 -0.131498 0 -0.131367 -0.122203 0 -0.12156 -0.113678 0 -0.112155 -0.105876 0 -0.103152 -0.0987478 0 -0.0945518 -0.092246 0 -0.0863235 -0.0863235 0 -0.0782851 -0.0809497 0 -0.0704064 -0.0761111 0 -0.0626873 -0.0717947 0 -0.0551278 -0.0679876 0 -0.0477279 -0.064677 0 -0.0404876 -0.0618499 0 -0.033407 -0.0594933 0 -0.026486 -0.0575945 0 -0.0197246 -0.0561405 0 -0.0131228 -0.0551183 0 -0.00668066 -0.0545151 0 -0.000398127 -0.054318 0 -0.00951253 -2.87121 0 -0.0228241 -2.87083 0 -0.0368392 -2.86943 0 -0.0515578 -2.86692 0 -0.0669798 -2.86323 0 -0.0831053 -2.85829 0 -0.0999342 -2.852 0 -0.117467 -2.84429 0 -0.135702 -2.83509 0 -0.154642 -2.82431 0 -0.174285 -2.81187 0 -0.194631 -2.7977 0 -0.215681 -2.78171 0 -0.237339 -2.76383 0 -0.259034 -2.74401 0 -0.280673 -2.72221 0 -0.302254 -2.69843 0 -0.323777 -2.67262 0 -0.345243 -2.64478 0 -0.366652 -2.61488 0 -0.388003 -2.58289 0 -0.409296 -2.54878 0 -0.430533 -2.51255 0 -0.451711 -2.47415 0 -0.472833 -2.43358 0 -0.493897 -2.3908 0 -0.514195 -2.34582 0 -0.53302 -2.29876 0 -0.550372 -2.24979 0 -0.56625 -2.19905 0 -0.580655 -2.14669 0 -0.593586 -2.09287 0 -0.605043 -2.03774 0 -0.615027 -1.98146 0 -0.623538 -1.92417 0 -0.630575 -1.86604 0 -0.636139 -1.80721 0 -0.640229 -1.74785 0 -0.642873 -1.68809 0 -0.644234 -1.62811 0 -0.644338 -1.56804 0 -0.643186 -1.50805 0 -0.640777 -1.4483 0 -0.637112 -1.38893 0 -0.632191 -1.33011 0 -0.626014 -1.27199 0 -0.61858 -1.21473 0 -0.60989 -1.15848 0 -0.599943 -1.10339 0 -0.58874 -1.04963 0 -0.576281 -0.997346 0 -0.563045 -0.946668 0 -0.549512 -0.897623 0 -0.535683 -0.850207 0 -0.521556 -0.804418 0 -0.507132 -0.760256 0 -0.492412 -0.717716 0 -0.477394 -0.676799 0 -0.46208 -0.637501 0 -0.446468 -0.59982 0 -0.43056 -0.563755 0 -0.414355 -0.529303 0 -0.397853 -0.496463 0 -0.381137 -0.465232 0 -0.36471 -0.435584 0 -0.348656 -0.407473 0 -0.332974 -0.380852 0 -0.317665 -0.355672 0 -0.302728 -0.331888 0 -0.288163 -0.30945 0 -0.273971 -0.288312 0 -0.260152 -0.268426 0 -0.246704 -0.249744 0 -0.233629 -0.232219 0 -0.220927 -0.215804 0 -0.208597 -0.20045 0 -0.196632 -0.186112 0 -0.185025 -0.172747 0 -0.173776 -0.160314 0 -0.162886 -0.148774 0 -0.152353 -0.138084 0 -0.142178 -0.128204 0 -0.132361 -0.119092 0 -0.122902 -0.110709 0 -0.113801 -0.103014 0 -0.105058 -0.095964 0 -0.0966724 -0.0895199 0 -0.0886453 -0.0836404 0 -0.0809497 -0.0782851 0 -0.0734277 -0.0734277 0 -0.0660528 -0.0690555 0 -0.0588251 -0.0651564 0 -0.0517445 -0.0617185 0 -0.0448111 -0.0587298 0 -0.0380249 -0.0561782 0 -0.0313858 -0.0540517 0 -0.0248938 -0.0523384 0 -0.018549 -0.0510261 0 -0.0123514 -0.0501029 0 -0.00630094 -0.0495568 0 -0.000397623 -0.0493758 0 -0.0090521 -2.52735 0 -0.0215753 -2.52608 0 -0.034714 -2.52415 0 -0.0484682 -2.52148 0 -0.0628379 -2.51796 0 -0.0778232 -2.51349 0 -0.093424 -2.50799 0 -0.10964 -2.50136 0 -0.126472 -2.4935 0 -0.14392 -2.48432 0 -0.161982 -2.47372 0 -0.180661 -2.4616 0 -0.199955 -2.44787 0 -0.219777 -2.43244 0 -0.239609 -2.41525 0 -0.259362 -2.39628 0 -0.279036 -2.37551 0 -0.298633 -2.35292 0 -0.318151 -2.32849 0 -0.33759 -2.30221 0 -0.356952 -2.27406 0 -0.376235 -2.24402 0 -0.39544 -2.21208 0 -0.414567 -2.1782 0 -0.433615 -2.14238 0 -0.452585 -2.1046 0 -0.470854 -2.06486 0 -0.487797 -2.02328 0 -0.503415 -1.98001 0 -0.517708 -1.93519 0 -0.530676 -1.88896 0 -0.542318 -1.84146 0 -0.552635 -1.79283 0 -0.561627 -1.74323 0 -0.569294 -1.69279 0 -0.575636 -1.64165 0 -0.580653 -1.58996 0 -0.584344 -1.53787 0 -0.586736 -1.48551 0 -0.587986 -1.43301 0 -0.588118 -1.38051 0 -0.587134 -1.32813 0 -0.585034 -1.27598 0 -0.581816 -1.2242 0 -0.577482 -1.17291 0 -0.572031 -1.12224 0 -0.565464 -1.0723 0 -0.557779 -1.02323 0 -0.548978 -0.975145 0 -0.53906 -0.928171 0 -0.528026 -0.882432 0 -0.516286 -0.838034 0 -0.50425 -0.795002 0 -0.49192 -0.753342 0 -0.479295 -0.713059 0 -0.466375 -0.674159 0 -0.45316 -0.636649 0 -0.439651 -0.600533 0 -0.425846 -0.565818 0 -0.411746 -0.532508 0 -0.397352 -0.500611 0 -0.382662 -0.470132 0 -0.367678 -0.441076 0 -0.352476 -0.413449 0 -0.337524 -0.38723 0 -0.322898 -0.362378 0 -0.308598 -0.338848 0 -0.294626 -0.316597 0 -0.28098 -0.295581 0 -0.267661 -0.275755 0 -0.254669 -0.257076 0 -0.242003 -0.2395 0 -0.229664 -0.222984 0 -0.217652 -0.207482 0 -0.205966 -0.192952 0 -0.194607 -0.17935 0 -0.183572 -0.166633 0 -0.172857 -0.154765 0 -0.162462 -0.143712 0 -0.152388 -0.133439 0 -0.142634 -0.123912 0 -0.1332 -0.115096 0 -0.124087 -0.106957 0 -0.115294 -0.09946 0 -0.106821 -0.0925712 0 -0.098669 -0.0862559 0 -0.090837 -0.0804796 0 -0.0833254 -0.0752077 0 -0.0761111 -0.0704064 0 -0.0690555 -0.0660528 0 -0.0621354 -0.0621354 0 -0.055351 -0.0586431 0 -0.0487021 -0.0555648 0 -0.0421889 -0.0528894 0 -0.0358113 -0.0506058 0 -0.0295692 -0.048703 0 -0.0234628 -0.0471699 0 -0.017492 -0.0459953 0 -0.0116568 -0.0451683 0 -0.00595716 -0.0446777 0 -0.000393148 -0.0445124 0 -0.00766535 -2.20121 0 -0.0197361 -2.19932 0 -0.0323216 -2.19706 0 -0.0454218 -2.19433 0 -0.0590366 -2.19103 0 -0.0731663 -2.18705 0 -0.0878106 -2.18229 0 -0.10297 -2.17664 0 -0.118643 -2.17 0 -0.134832 -2.16225 0 -0.151535 -2.15331 0 -0.168753 -2.14305 0 -0.186486 -2.13139 0 -0.204657 -2.1182 0 -0.22281 -2.10345 0 -0.240869 -2.0871 0 -0.258834 -2.06914 0 -0.276704 -2.04957 0 -0.294481 -2.02837 0 -0.312163 -2.00552 0 -0.329751 -1.98101 0 -0.347245 -1.95482 0 -0.364644 -1.92695 0 -0.38195 -1.89738 0 -0.399161 -1.8661 0 -0.416279 -1.83309 0 -0.432755 -1.79836 0 -0.448043 -1.76202 0 -0.462143 -1.7242 0 -0.475055 -1.68503 0 -0.48678 -1.64465 0 -0.497316 -1.60318 0 -0.506665 -1.56075 0 -0.514825 -1.51751 0 -0.521798 -1.47357 0 -0.527583 -1.42908 0 -0.53218 -1.38415 0 -0.535589 -1.33893 0 -0.537832 -1.29354 0 -0.539047 -1.24811 0 -0.539256 -1.20271 0 -0.538458 -1.15746 0 -0.536654 -1.11245 0 -0.533844 -1.06778 0 -0.530027 -1.02354 0 -0.525204 -0.979838 0 -0.519375 -0.936764 0 -0.51254 -0.894416 0 -0.504699 -0.852892 0 -0.495851 -0.812289 0 -0.485997 -0.772706 0 -0.475497 -0.734224 0 -0.46471 -0.69687 0 -0.453638 -0.660655 0 -0.44228 -0.625591 0 -0.430635 -0.591689 0 -0.418705 -0.558961 0 -0.406488 -0.527419 0 -0.393985 -0.497074 0 -0.381196 -0.467938 0 -0.368121 -0.440023 0 -0.35476 -0.41334 0 -0.341113 -0.3879 0 -0.327252 -0.363714 0 -0.313603 -0.340769 0 -0.30024 -0.319024 0 -0.287161 -0.298441 0 -0.274367 -0.278979 0 -0.261857 -0.260598 0 -0.249633 -0.243259 0 -0.237693 -0.226922 0 -0.226038 -0.211545 0 -0.214668 -0.197091 0 -0.203582 -0.183518 0 -0.192782 -0.170787 0 -0.182266 -0.158858 0 -0.172037 -0.147692 0 -0.162096 -0.13726 0 -0.152445 -0.127532 0 -0.143082 -0.11848 0 -0.134009 -0.110075 0 -0.125223 -0.102288 0 -0.116727 -0.095091 0 -0.10852 -0.0884551 0 -0.100601 -0.0823516 0 -0.0929716 -0.0767516 0 -0.0856306 -0.0716267 0 -0.0785785 -0.066948 0 -0.0717947 -0.0626873 0 -0.0651564 -0.0588251 0 -0.0586431 -0.055351 0 -0.0522548 -0.0522548 0 -0.0459915 -0.0495264 0 -0.0398532 -0.0471558 0 -0.0338399 -0.0451328 0 -0.0279516 -0.0434472 0 -0.0221883 -0.042089 0 -0.01655 -0.0410481 0 -0.0110367 -0.0403144 0 -0.00564838 -0.0398776 0 -0.000385086 -0.0397278 0 -0.00565939 -1.89281 0 -0.0175328 -1.89056 0 -0.0298143 -1.88815 0 -0.0425038 -1.88549 0 -0.0556013 -1.88247 0 -0.0691069 -1.87897 0 -0.0830205 -1.87489 0 -0.0973421 -1.87013 0 -0.112072 -1.86457 0 -0.127209 -1.85811 0 -0.142755 -1.85064 0 -0.158709 -1.84206 0 -0.175071 -1.83225 0 -0.191776 -1.82111 0 -0.20844 -1.80859 0 -0.224998 -1.79467 0 -0.24145 -1.77933 0 -0.257795 -1.76258 0 -0.274035 -1.7444 0 -0.290169 -1.72478 0 -0.306197 -1.70371 0 -0.322119 -1.68118 0 -0.337935 -1.65718 0 -0.353645 -1.63171 0 -0.369249 -1.60474 0 -0.384746 -1.57627 0 -0.39966 -1.54631 0 -0.41351 -1.51496 0 -0.426298 -1.48234 0 -0.438023 -1.44857 0 -0.448685 -1.41376 0 -0.458284 -1.37803 0 -0.46682 -1.3415 0 -0.474293 -1.3043 0 -0.480703 -1.26653 0 -0.486051 -1.22832 0 -0.490335 -1.18978 0 -0.493557 -1.15104 0 -0.495733 -1.11221 0 -0.496971 -1.07338 0 -0.497288 -1.03464 0 -0.496685 -0.996059 0 -0.49516 -0.957708 0 -0.492715 -0.919663 0 -0.489349 -0.881999 0 -0.485062 -0.844789 0 -0.479855 -0.808109 0 -0.473726 -0.772033 0 -0.466677 -0.736634 0 -0.458707 -0.701987 0 -0.449817 -0.668168 0 -0.440329 -0.635239 0 -0.43057 -0.603227 0 -0.420538 -0.572147 0 -0.410234 -0.542014 0 -0.399657 -0.512845 0 -0.388808 -0.484654 0 -0.377687 -0.457458 0 -0.366293 -0.431271 0 -0.354627 -0.40611 0 -0.342688 -0.38199 0 -0.330478 -0.358926 0 -0.317995 -0.336934 0 -0.305304 -0.316028 0 -0.292796 -0.296199 0 -0.280534 -0.277411 0 -0.268519 -0.259629 0 -0.256752 -0.242818 0 -0.245231 -0.226941 0 -0.233957 -0.211963 0 -0.22293 -0.197849 0 -0.21215 -0.184561 0 -0.201617 -0.172066 0 -0.191331 -0.160326 0 -0.181291 -0.149307 0 -0.171499 -0.138973 0 -0.161962 -0.129289 0 -0.152687 -0.120231 0 -0.143675 -0.111774 0 -0.134926 -0.103896 0 -0.126439 -0.0965727 0 -0.118215 -0.0897803 0 -0.110254 -0.0834955 0 -0.102556 -0.0776948 0 -0.0951206 -0.0723546 0 -0.0879478 -0.0674513 0 -0.0810378 -0.0629613 0 -0.0743906 -0.0588613 0 -0.0679876 -0.0551278 0 -0.0617185 -0.0517445 0 -0.0555648 -0.0487021 0 -0.0495264 -0.0459915 0 -0.0436035 -0.0436035 0 -0.0377959 -0.041529 0 -0.0321037 -0.039759 0 -0.0265269 -0.0382843 0 -0.0210655 -0.0370958 0 -0.0157195 -0.0361845 0 -0.0104889 -0.0355411 0 -0.00537367 -0.0351567 0 -0.000373826 -0.0350221 0 -0.00334135 -1.60213 0 -0.0151916 -1.59979 0 -0.0273444 -1.59743 0 -0.0397996 -1.59495 0 -0.0525573 -1.59226 0 -0.0656175 -1.58924 0 -0.0789801 -1.58579 0 -0.0926453 -1.58182 0 -0.106613 -1.57722 0 -0.120883 -1.57189 0 -0.135455 -1.56572 0 -0.15033 -1.55861 0 -0.165508 -1.55046 0 -0.180936 -1.54117 0 -0.196301 -1.53068 0 -0.211552 -1.51899 0 -0.226688 -1.50608 0 -0.24171 -1.49196 0 -0.256617 -1.4766 0 -0.27141 -1.46001 0 -0.286088 -1.44218 0 -0.300651 -1.4231 0 -0.3151 -1.40276 0 -0.329434 -1.38116 0 -0.343654 -1.35829 0 -0.357759 -1.33414 0 -0.371331 -1.30873 0 -0.383952 -1.28213 0 -0.395622 -1.25445 0 -0.40634 -1.22581 0 -0.416107 -1.19629 0 -0.424923 -1.16602 0 -0.432788 -1.13508 0 -0.439701 -1.10359 0 -0.445663 -1.07165 0 -0.450673 -1.03937 0 -0.454732 -1.00685 0 -0.45784 -0.974184 0 -0.460009 -0.941491 0 -0.461309 -0.908844 0 -0.461754 -0.876302 0 -0.461342 -0.843919 0 -0.460074 -0.811751 0 -0.45795 -0.779854 0 -0.454969 -0.748283 0 -0.451133 -0.717093 0 -0.44644 -0.686341 0 -0.440891 -0.656082 0 -0.434486 -0.626371 0 -0.427225 -0.597264 0 -0.419108 -0.568817 0 -0.410434 -0.541078 0 -0.401506 -0.514073 0 -0.392321 -0.487817 0 -0.382881 -0.462329 0 -0.373185 -0.437627 0 -0.363234 -0.413728 0 -0.353027 -0.390649 0 -0.342564 -0.368408 0 -0.331845 -0.347023 0 -0.320871 -0.326511 0 -0.309642 -0.30689 0 -0.298157 -0.288178 0 -0.286474 -0.27039 0 -0.274947 -0.25352 0 -0.263633 -0.237539 0 -0.252532 -0.222414 0 -0.241645 -0.208114 0 -0.230972 -0.194609 0 -0.220512 -0.181867 0 -0.210265 -0.169858 0 -0.200232 -0.158548 0 -0.190412 -0.147909 0 -0.180805 -0.137907 0 -0.171412 -0.128513 0 -0.162233 -0.119695 0 -0.153281 -0.111424 0 -0.14457 -0.103679 0 -0.136101 -0.0964398 0 -0.127874 -0.0896886 0 -0.119888 -0.0834059 0 -0.112143 -0.0775728 0 -0.10464 -0.0721702 0 -0.0973789 -0.067179 0 -0.0903589 -0.0625802 0 -0.0835804 -0.0583547 0 -0.0770434 -0.0544835 0 -0.0707478 -0.0509475 0 -0.064677 -0.0477279 0 -0.0587298 -0.0448111 0 -0.0528894 -0.0421889 0 -0.0471558 -0.0398532 0 -0.041529 -0.0377959 0 -0.036009 -0.036009 0 -0.0305959 -0.0344845 0 -0.0252895 -0.0332142 0 -0.0200899 -0.0321902 0 -0.0149972 -0.0314043 0 -0.0100112 -0.0308486 0 -0.00513209 -0.0305149 0 -0.000359753 -0.0303953 0 -0.00101832 -1.32918 0 -0.0129387 -1.32701 0 -0.0250641 -1.32488 0 -0.0373946 -1.32271 0 -0.04993 -1.3204 0 -0.0626706 -1.31786 0 -0.0756161 -1.315 0 -0.0887667 -1.31173 0 -0.102122 -1.30796 0 -0.115683 -1.30359 0 -0.129449 -1.29854 0 -0.14342 -1.29271 0 -0.157595 -1.28602 0 -0.171935 -1.27838 0 -0.186196 -1.26972 0 -0.200335 -1.26006 0 -0.214353 -1.24939 0 -0.228251 -1.23769 0 -0.242028 -1.22496 0 -0.255685 -1.21121 0 -0.26922 -1.19641 0 -0.282635 -1.18058 0 -0.295929 -1.16369 0 -0.309103 -1.14576 0 -0.322155 -1.12676 0 -0.335087 -1.10671 0 -0.347531 -1.08559 0 -0.359121 -1.0635 0 -0.369857 -1.04052 0 -0.379738 -1.01674 0 -0.388765 -0.992251 0 -0.396938 -0.967136 0 -0.404256 -0.941488 0 -0.41072 -0.915396 0 -0.41633 -0.888949 0 -0.421085 -0.862237 0 -0.424986 -0.835349 0 -0.428033 -0.808373 0 -0.430231 -0.781399 0 -0.431615 -0.754491 0 -0.43219 -0.727692 0 -0.431958 -0.701041 0 -0.430917 -0.674581 0 -0.429068 -0.648352 0 -0.42641 -0.622394 0 -0.422945 -0.59675 0 -0.418671 -0.571459 0 -0.413589 -0.546563 0 -0.407698 -0.522103 0 -0.401 -0.49812 0 -0.393493 -0.474654 0 -0.385463 -0.451742 0 -0.377195 -0.429407 0 -0.368689 -0.407666 0 -0.359946 -0.386536 0 -0.350964 -0.366035 0 -0.341745 -0.346181 0 -0.332288 -0.326992 0 -0.322593 -0.308485 0 -0.31266 -0.290678 0 -0.302489 -0.273588 0 -0.292081 -0.257234 0 -0.281435 -0.241632 0 -0.270603 -0.2268 0 -0.259903 -0.212734 0 -0.249388 -0.199407 0 -0.239058 -0.186794 0 -0.228912 -0.174868 0 -0.218951 -0.163602 0 -0.209175 -0.152971 0 -0.199583 -0.142948 0 -0.190176 -0.133506 0 -0.180953 -0.124619 0 -0.171915 -0.116261 0 -0.163062 -0.108405 0 -0.154394 -0.101025 0 -0.145929 -0.094097 0 -0.13769 -0.0876028 0 -0.129674 -0.0815278 0 -0.121884 -0.0758567 0 -0.114317 -0.0705743 0 -0.106975 -0.0656655 0 -0.0998577 -0.0611151 0 -0.0929646 -0.0569078 0 -0.0862959 -0.0530286 0 -0.0798517 -0.0494621 0 -0.0736318 -0.0461932 0 -0.0676365 -0.0432067 0 -0.0618499 -0.0404876 0 -0.0561782 -0.0380249 0 -0.0506058 -0.0358113 0 -0.0451328 -0.0338399 0 -0.039759 -0.0321037 0 -0.0344845 -0.0305959 0 -0.0293093 -0.0293093 0 -0.0242334 -0.0282371 0 -0.0192568 -0.0273722 0 -0.0143795 -0.0267078 0 -0.00960143 -0.0262368 0 -0.0049227 -0.0259523 0 -0.000343256 -0.0258473 0 0.00100257 -1.07396 0 -0.0110002 -1.07223 0 -0.0231257 -1.07052 0 -0.035374 -1.06877 0 -0.0477449 -1.0669 0 -0.0602386 -1.06484 0 -0.072855 -1.06251 0 -0.0855941 -1.05984 0 -0.0984559 -1.05677 0 -0.11144 -1.05321 0 -0.124548 -1.0491 0 -0.137778 -1.04437 0 -0.151131 -1.03893 0 -0.164575 -1.03273 0 -0.177925 -1.02572 0 -0.19115 -1.01789 0 -0.204249 -1.00925 0 -0.217223 -0.99978 0 -0.230071 -0.989487 0 -0.242795 -0.978364 0 -0.255392 -0.966407 0 -0.267865 -0.953611 0 -0.280212 -0.939973 0 -0.292433 -0.925488 0 -0.30453 -0.910151 0 -0.3165 -0.893959 0 -0.328022 -0.876921 0 -0.33877 -0.859097 0 -0.348745 -0.840558 0 -0.357947 -0.821379 0 -0.366376 -0.801631 0 -0.374031 -0.781388 0 -0.380914 -0.760723 0 -0.387023 -0.739708 0 -0.392358 -0.718415 0 -0.396921 -0.696919 0 -0.40071 -0.675291 0 -0.403726 -0.653604 0 -0.405969 -0.631931 0 -0.407439 -0.610323 0 -0.408136 -0.588811 0 -0.40806 -0.567426 0 -0.407211 -0.546197 0 -0.405589 -0.525156 0 -0.403195 -0.504334 0 -0.400027 -0.483759 0 -0.396086 -0.463464 0 -0.391373 -0.443477 0 -0.385886 -0.423831 0 -0.379627 -0.404554 0 -0.372595 -0.385678 0 -0.365066 -0.367231 0 -0.357315 -0.349231 0 -0.349344 -0.331693 0 -0.341152 -0.314634 0 -0.332739 -0.29807 0 -0.324106 -0.282015 0 -0.315251 -0.266488 0 -0.306175 -0.251502 0 -0.296879 -0.237074 0 -0.287361 -0.22322 0 -0.277623 -0.209956 0 -0.267663 -0.197297 0 -0.257531 -0.185259 0 -0.247511 -0.173839 0 -0.237653 -0.163017 0 -0.227955 -0.15277 0 -0.218417 -0.143079 0 -0.209041 -0.133921 0 -0.199825 -0.125275 0 -0.19077 -0.11712 0 -0.181876 -0.109434 0 -0.173143 -0.102197 0 -0.16457 -0.0953874 0 -0.156158 -0.0889831 0 -0.147907 -0.0829632 0 -0.139842 -0.0773078 0 -0.131987 -0.0720036 0 -0.124344 -0.0670385 0 -0.116911 -0.0624006 0 -0.109689 -0.0580779 0 -0.102678 -0.0540584 0 -0.0958785 -0.0503301 0 -0.0892895 -0.0468812 0 -0.0829114 -0.0436995 0 -0.0767442 -0.0407733 0 -0.070788 -0.0380904 0 -0.0650426 -0.0356389 0 -0.0594933 -0.033407 0 -0.0540517 -0.0313858 0 -0.048703 -0.0295692 0 -0.0434472 -0.0279516 0 -0.0382843 -0.0265269 0 -0.0332142 -0.0252895 0 -0.0282371 -0.0242334 0 -0.0233528 -0.0233528 0 -0.0185614 -0.0226419 0 -0.0138629 -0.0220948 0 -0.00925729 -0.0217057 0 -0.00474456 -0.0214687 0 -0.00032472 -0.0213781 0 0.00241421 -0.836465 0 -0.00960238 -0.835441 0 -0.0216815 -0.834345 0 -0.0338231 -0.833132 0 -0.0460273 -0.831755 0 -0.0582939 -0.830166 0 -0.0706231 -0.828319 0 -0.0830149 -0.826167 0 -0.0954691 -0.823663 0 -0.107986 -0.820761 0 -0.120565 -0.817414 0 -0.133207 -0.813574 0 -0.145911 -0.809195 0 -0.158654 -0.804232 0 -0.171292 -0.798658 0 -0.1838 -0.792469 0 -0.196179 -0.785662 0 -0.208428 -0.778231 0 -0.220549 -0.770174 0 -0.23254 -0.761487 0 -0.244401 -0.752165 0 -0.256133 -0.742205 0 -0.267736 -0.731603 0 -0.27921 -0.720355 0 -0.290554 -0.708457 0 -0.301769 -0.695905 0 -0.312565 -0.682705 0 -0.322652 -0.668903 0 -0.332029 -0.654554 0 -0.340697 -0.639712 0 -0.348656 -0.624433 0 -0.355906 -0.608773 0 -0.362447 -0.592786 0 -0.368279 -0.576527 0 -0.373401 -0.560051 0 -0.377815 -0.543414 0 -0.381519 -0.526672 0 -0.384514 -0.509878 0 -0.386795 -0.493087 0 -0.388335 -0.47634 0 -0.389129 -0.45966 0 -0.389177 -0.443072 0 -0.388478 -0.4266 0 -0.387034 -0.410269 0 -0.384844 -0.394101 0 -0.381908 -0.378121 0 -0.378225 -0.362354 0 -0.373797 -0.346824 0 -0.368623 -0.331553 0 -0.362702 -0.316568 0 -0.356036 -0.301891 0 -0.348893 -0.287545 0 -0.341544 -0.273543 0 -0.333988 -0.259899 0 -0.326225 -0.246624 0 -0.318255 -0.23373 0 -0.310079 -0.22123 0 -0.301696 -0.209135 0 -0.293106 -0.197458 0 -0.284309 -0.186212 0 -0.275306 -0.175407 0 -0.266095 -0.165056 0 -0.256678 -0.155172 0 -0.247098 -0.145766 0 -0.237617 -0.136836 0 -0.228277 -0.128367 0 -0.21908 -0.120342 0 -0.210025 -0.112746 0 -0.201112 -0.105564 0 -0.192341 -0.098778 0 -0.183712 -0.0923733 0 -0.175225 -0.0863338 0 -0.16688 -0.0806434 0 -0.158678 -0.0752864 0 -0.150617 -0.0702466 0 -0.142699 -0.0655083 0 -0.134952 -0.0610566 0 -0.127405 -0.0568809 0 -0.120059 -0.0529719 0 -0.112912 -0.0493202 0 -0.105966 -0.0459165 0 -0.0992207 -0.0427513 0 -0.0926753 -0.0398153 0 -0.0863301 -0.037099 0 -0.0801852 -0.0345932 0 -0.0742407 -0.0322883 0 -0.0684964 -0.0301751 0 -0.0629523 -0.028244 0 -0.0575945 -0.026486 0 -0.0523384 -0.0248938 0 -0.0471699 -0.0234628 0 -0.042089 -0.0221883 0 -0.0370958 -0.0210655 0 -0.0321902 -0.0200899 0 -0.0273722 -0.0192568 0 -0.0226419 -0.0185614 0 -0.0179991 -0.0179991 0 -0.0134441 -0.0175653 0 -0.00897659 -0.0172553 0 -0.00459674 -0.0170643 0 -0.000304532 -0.0169878 0 0.00290948 -0.616699 0 -0.00897136 -0.616647 0 -0.0208836 -0.61635 0 -0.0328274 -0.615794 0 -0.0448025 -0.614966 0 -0.0568091 -0.61385 0 -0.0688472 -0.612433 0 -0.0809166 -0.6107 0 -0.0930176 -0.608637 0 -0.10515 -0.606231 0 -0.117314 -0.603467 0 -0.129509 -0.60033 0 -0.141736 -0.596806 0 -0.153973 -0.592882 0 -0.166098 -0.588549 0 -0.178089 -0.5838 0 -0.189947 -0.578633 0 -0.201671 -0.573043 0 -0.213262 -0.567024 0 -0.22472 -0.560573 0 -0.236044 -0.553686 0 -0.247235 -0.546357 0 -0.258292 -0.538583 0 -0.269216 -0.530358 0 -0.280007 -0.521679 0 -0.290664 -0.512541 0 -0.300923 -0.502946 0 -0.310518 -0.492924 0 -0.31945 -0.482511 0 -0.327719 -0.471744 0 -0.335324 -0.460658 0 -0.342266 -0.44929 0 -0.348545 -0.437677 0 -0.35416 -0.425853 0 -0.359112 -0.413857 0 -0.363401 -0.401724 0 -0.367026 -0.389491 0 -0.369988 -0.377193 0 -0.372279 -0.364866 0 -0.373855 -0.352541 0 -0.374706 -0.340239 0 -0.374835 -0.327981 0 -0.37424 -0.31579 0 -0.372922 -0.303688 0 -0.37088 -0.291696 0 -0.368115 -0.279837 0 -0.364627 -0.268131 0 -0.360415 -0.256602 0 -0.35548 -0.245271 0 -0.349822 -0.23416 0 -0.34344 -0.223291 0 -0.336598 -0.212683 0 -0.329558 -0.202345 0 -0.322321 -0.192283 0 -0.314887 -0.182505 0 -0.307256 -0.173017 0 -0.299428 -0.163825 0 -0.291402 -0.154935 0 -0.283179 -0.146355 0 -0.274759 -0.138091 0 -0.266141 -0.130149 0 -0.257327 -0.122536 0 -0.248315 -0.115258 0 -0.239146 -0.108321 0 -0.230066 -0.101725 0 -0.221115 -0.0954576 0 -0.212292 -0.08951 0 -0.203599 -0.0838715 0 -0.195035 -0.078532 0 -0.1866 -0.073481 0 -0.178293 -0.0687084 0 -0.170116 -0.0642039 0 -0.162068 -0.0599572 0 -0.154148 -0.0559579 0 -0.146358 -0.052196 0 -0.138696 -0.048661 0 -0.131195 -0.0453432 0 -0.123886 -0.0422347 0 -0.116769 -0.039328 0 -0.109844 -0.0366157 0 -0.103111 -0.0340903 0 -0.0965696 -0.0317444 0 -0.0902201 -0.0295706 0 -0.0840627 -0.0275615 0 -0.0780971 -0.0257095 0 -0.0723234 -0.0240072 0 -0.0667417 -0.0224473 0 -0.0613519 -0.0210222 0 -0.0561405 -0.0197246 0 -0.0510261 -0.018549 0 -0.0459953 -0.017492 0 -0.0410481 -0.01655 0 -0.0361845 -0.0157195 0 -0.0314043 -0.0149972 0 -0.0267078 -0.0143795 0 -0.0220948 -0.0138629 0 -0.0175653 -0.0134441 0 -0.0131194 -0.0131194 0 -0.00875709 -0.0128856 0 -0.00447831 -0.012739 0 -0.000283078 -0.0126763 0 0.00218127 -0.41466 0 -0.00933336 -0.415846 0 -0.0208845 -0.416537 0 -0.032472 -0.416757 0 -0.0440961 -0.416532 0 -0.0557566 -0.415887 0 -0.0674535 -0.414849 0 -0.079187 -0.413442 0 -0.0909569 -0.411692 0 -0.102763 -0.409624 0 -0.114606 -0.407263 0 -0.126485 -0.404636 0 -0.138401 -0.401767 0 -0.150332 -0.398681 0 -0.162145 -0.395389 0 -0.17382 -0.391884 0 -0.185357 -0.388161 0 -0.196755 -0.384214 0 -0.208015 -0.380037 0 -0.219136 -0.375624 0 -0.230119 -0.37097 0 -0.240963 -0.366068 0 -0.251669 -0.360913 0 -0.262236 -0.355498 0 -0.272664 -0.349819 0 -0.282955 -0.343868 0 -0.292857 -0.337644 0 -0.302122 -0.33116 0 -0.310751 -0.324431 0 -0.318742 -0.317474 0 -0.326096 -0.310305 0 -0.332814 -0.30294 0 -0.338894 -0.295396 0 -0.344338 -0.287688 0 -0.349144 -0.279834 0 -0.353314 -0.271848 0 -0.356847 -0.263748 0 -0.359742 -0.25555 0 -0.361993 -0.24727 0 -0.36355 -0.238927 0 -0.364407 -0.230547 0 -0.364563 -0.222152 0 -0.364018 -0.213766 0 -0.362773 -0.205414 0 -0.360826 -0.197119 0 -0.358179 -0.188904 0 -0.35483 -0.180795 0 -0.350781 -0.172813 0 -0.346031 -0.164984 0 -0.34058 -0.157332 0 -0.334428 -0.149879 0 -0.327829 -0.142645 0 -0.321035 -0.135635 0 -0.314047 -0.128846 0 -0.306864 -0.122278 0 -0.299487 -0.11593 0 -0.291916 -0.1098 0 -0.284151 -0.103888 0 -0.276191 -0.0981918 0 -0.268036 -0.0927116 0 -0.259688 -0.0874458 0 -0.251145 -0.0823935 0 -0.242407 -0.0775536 0 -0.233515 -0.072925 0 -0.224705 -0.068505 0 -0.216017 -0.0642893 0 -0.20745 -0.0602737 0 -0.199005 -0.0564538 0 -0.190682 -0.0528253 0 -0.18248 -0.0493838 0 -0.1744 -0.0461251 0 -0.166442 -0.0430448 0 -0.158605 -0.0401386 0 -0.15089 -0.0374022 0 -0.143296 -0.0348311 0 -0.135825 -0.0324212 0 -0.128506 -0.0301678 0 -0.121373 -0.028065 0 -0.114425 -0.0261068 0 -0.107663 -0.0242869 0 -0.101085 -0.0225992 0 -0.0946927 -0.0210377 0 -0.0884855 -0.0195962 0 -0.0824635 -0.0182684 0 -0.0766267 -0.0170484 0 -0.0709751 -0.01593 0 -0.0655087 -0.014907 0 -0.0602274 -0.0139733 0 -0.0551183 -0.0131228 0 -0.0501029 -0.0123514 0 -0.0451683 -0.0116568 0 -0.0403144 -0.0110367 0 -0.0355411 -0.0104889 0 -0.0308486 -0.0100112 0 -0.0262368 -0.00960143 0 -0.0217057 -0.00925729 0 -0.0172553 -0.00897659 0 -0.0128856 -0.00875709 0 -0.0085966 -0.0085966 0 -0.00438832 -0.00849287 0 -0.000260747 -0.00844369 0 -7.75298e-05 -0.23035 0 -0.0109146 -0.23304 0 -0.0218362 -0.234906 0 -0.0328424 -0.23602 0 -0.0439333 -0.236453 0 -0.0551087 -0.236279 0 -0.0663688 -0.235568 0 -0.0777134 -0.234393 0 -0.0891427 -0.232826 0 -0.100657 -0.230939 0 -0.112255 -0.228804 0 -0.123938 -0.226493 0 -0.135706 -0.224078 0 -0.147529 -0.221629 0 -0.159236 -0.219178 0 -0.170798 -0.216719 0 -0.182213 -0.214244 0 -0.193484 -0.211744 0 -0.204609 -0.209212 0 -0.215588 -0.206639 0 -0.226423 -0.204017 0 -0.237111 -0.201337 0 -0.247654 -0.198593 0 -0.258052 -0.195775 0 -0.268304 -0.192875 0 -0.278411 -0.189886 0 -0.28813 -0.1868 0 -0.297217 -0.18361 0 -0.305673 -0.180313 0 -0.313497 -0.176902 0 -0.320691 -0.173374 0 -0.327253 -0.169723 0 -0.333184 -0.165943 0 -0.338483 -0.162031 0 -0.343151 -0.15798 0 -0.347188 -0.153786 0 -0.350594 -0.149444 0 -0.353368 -0.144949 0 -0.355506 -0.140296 0 -0.356975 -0.135498 0 -0.357769 -0.130585 0 -0.357889 -0.125585 0 -0.357335 -0.120529 0 -0.356106 -0.115448 0 -0.354203 -0.110369 0 -0.351626 -0.105325 0 -0.348374 -0.100344 0 -0.344448 -0.0954566 0 -0.339848 -0.0906925 0 -0.334573 -0.0860817 0 -0.328624 -0.0816541 0 -0.322238 -0.0774328 0 -0.315652 -0.0734141 0 -0.308865 -0.0695875 0 -0.301879 -0.0659425 0 -0.294693 -0.0624686 0 -0.287307 -0.0591553 0 -0.279721 -0.0559921 0 -0.271935 -0.0529684 0 -0.263949 -0.0500739 0 -0.255763 -0.047298 0 -0.247377 -0.0446301 0 -0.238792 -0.0420598 0 -0.230046 -0.0395769 0 -0.221381 -0.037177 0 -0.212836 -0.0348619 0 -0.204411 -0.0326333 0 -0.196107 -0.0304933 0 -0.187923 -0.0284437 0 -0.17986 -0.0264864 0 -0.171917 -0.0246234 0 -0.164095 -0.0228566 0 -0.156393 -0.0211878 0 -0.148812 -0.019619 0 -0.141351 -0.0181521 0 -0.13401 -0.0167889 0 -0.126819 -0.0155303 0 -0.119808 -0.0143719 0 -0.112976 -0.0133082 0 -0.106324 -0.0123338 0 -0.0998512 -0.0114433 0 -0.0935577 -0.0106311 0 -0.0874437 -0.00989183 0 -0.0815091 -0.00921996 0 -0.0757539 -0.00861005 0 -0.0701782 -0.00805662 0 -0.0647819 -0.00755421 0 -0.0595651 -0.00709735 0 -0.0545151 -0.00668066 0 -0.0495568 -0.00630094 0 -0.0446777 -0.00595716 0 -0.0398776 -0.00564838 0 -0.0351567 -0.00537367 0 -0.0305149 -0.00513209 0 -0.0259523 -0.0049227 0 -0.0214687 -0.00474456 0 -0.0170643 -0.00459674 0 -0.012739 -0.00447831 0 -0.00849287 -0.00438832 0 -0.00432583 -0.00432583 0 -0.000237923 -0.00428992 0 -0.00417404 -0.0637667 0 -0.0139411 -0.0682274 0 -0.0238911 -0.0714579 0 -0.0340239 -0.0735838 0 -0.0443396 -0.0747307 0 -0.0548381 -0.0750242 0 -0.0655194 -0.07459 0 -0.0763836 -0.0735537 0 -0.0874307 -0.0720409 0 -0.0986606 -0.0701773 0 -0.110073 -0.0680885 0 -0.121669 -0.0659002 0 -0.133447 -0.0637378 0 -0.145366 -0.0617244 0 -0.157173 -0.0599169 0 -0.168824 -0.058307 0 -0.18032 -0.0568834 0 -0.191661 -0.0556348 0 -0.202846 -0.0545501 0 -0.213877 -0.0536178 0 -0.224753 -0.0528268 0 -0.235473 -0.0521656 0 -0.246039 -0.0516232 0 -0.256449 -0.0511882 0 -0.266704 -0.0508493 0 -0.276804 -0.0505953 0 -0.286503 -0.0504121 0 -0.295555 -0.0502751 0 -0.303959 -0.0501566 0 -0.311715 -0.0500292 0 -0.318824 -0.0498654 0 -0.325286 -0.0496377 0 -0.3311 -0.0493187 0 -0.336267 -0.0488807 0 -0.340786 -0.0482964 0 -0.344658 -0.0475381 0 -0.347882 -0.0465785 0 -0.350459 -0.04539 0 -0.35239 -0.0439466 0 -0.35368 -0.0422545 0 -0.35433 -0.0403525 0 -0.354341 -0.0382807 0 -0.353711 -0.0360792 0 -0.352443 -0.0337883 0 -0.350534 -0.031448 0 -0.347986 -0.0290985 0 -0.344798 -0.0267799 0 -0.340971 -0.0245323 0 -0.336504 -0.0223959 0 -0.331397 -0.0204108 0 -0.32565 -0.0186172 0 -0.319476 -0.0170449 0 -0.313086 -0.0156822 0 -0.306479 -0.0145074 0 -0.299657 -0.0134985 0 -0.292619 -0.0126338 0 -0.285364 -0.0118912 0 -0.277894 -0.0112489 0 -0.270208 -0.0106851 0 -0.262305 -0.0101778 0 -0.254187 -0.00970515 0 -0.245853 -0.00924532 0 -0.237303 -0.0087764 0 -0.228579 -0.00827714 0 -0.219938 -0.00774082 0 -0.211423 -0.00717523 0 -0.203034 -0.00658881 0 -0.19477 -0.00598998 0 -0.186631 -0.00538717 0 -0.178618 -0.00478881 0 -0.170731 -0.00420334 0 -0.16297 -0.00363917 0 -0.155334 -0.00310474 0 -0.147823 -0.00260848 0 -0.140438 -0.00215882 0 -0.133179 -0.00176419 0 -0.126069 -0.0014307 0 -0.119134 -0.00115522 0 -0.112372 -0.000932325 0 -0.105785 -0.000756561 0 -0.0993716 -0.000622489 0 -0.0931323 -0.000524671 0 -0.087067 -0.000457665 0 -0.0811757 -0.000416031 0 -0.0754585 -0.000394327 0 -0.0699153 -0.000387113 0 -0.0645461 -0.000388949 0 -0.059351 -0.000394393 0 -0.054318 -0.000398127 0 -0.0493758 -0.000397623 0 -0.0445124 -0.000393148 0 -0.0397278 -0.000385086 0 -0.0350221 -0.000373826 0 -0.0303953 -0.000359753 0 -0.0258473 -0.000343256 0 -0.0213781 -0.00032472 0 -0.0169878 -0.000304532 0 -0.0126763 -0.000283078 0 -0.00844369 -0.000260747 0 -0.00428992 -0.000237923 0 -0.000214995 -0.000214995 0 </DataArray> 
</PointData> 
<Points> 
<DataArray type="Float32" NumberOfComponents="3"> 
0 0 0 0.1 0 0 0.2 0 0 0.3 0 0 0.4 0 0 0.5 0 0 0.6 0 0 0.7 0 0 0.8 0 0 0.9 0 0 1 0 0 1.1 0 0 1.2 0 0 1.3 0 0 1.4 0 0 1.5 0 0 1.6 0 0 1.7 0 0 1.8 0 0 1.9 0 0 2 0 0 2.1 0 0 2.2 0 0 2.3 0 0 2.4 0 0 2.5 0 0 2.6 0 0 2.7 0 0 2.8 0 0 2.9 0 0 3 0 0 3.1 0 0 3.2 0 0 3.3 0 0 3.4 0 0 3.5 0 0 3.6 0 0 3.7 0 0 3.8 0 0 3.9 0 0 4 0 0 4.1 0 0 4.2 0 0 4.3 0 0 4.4 0 0 4.5 0 0 4.6 0 0 4.7 0 0 4.8 0 0 4.9 0 0 5 0 0 5.1 0 0 5.2 0 0 5.3 0 0 5.4 0 0 5.5 0 0 5.6 0 0 5.7 0 0 5.8 0 0 5.9 0 0 6 0 0 6.1 0 0 6.2 0 0 6.3 0 0 6.4 0 0 6.5 0 0 6.6 0 0 6.7 0 0 6.8 0 0 6.9 0 0 7 0 0 7.1 0 0 7.2 0 0 7.3 0 0 7.4 0 0 7.5 0 0 7.6 0 0 7.7 0 0 7.8 0 0 7.9 0 0 8 0 0 8.1 0 0 8.2 0 0 8.3 0 0 8.4 0 0 8.5 0 0 8.6 0 0 8.7 0 0 8.8 0 0 8.9 0 0 9 0 0 9.1 0 0 9.2 0 0 9.3 0 0 9.4 0 0 9.5 0 0 9.6 0 0 9.7 0 0 9.8 0 0 9.9 0 0 10 0 0 0 0.1 0 0.1 0.1 0 0.2 0.1 0 0.3 0.1 0 0.4 0.1 0 0.5 0.1 0 0.6 0.1 0 0.7 0.1 0 0.8 0.1 0 0.9 0.1 0 1 0.1 0 1.1 0.1 0 1.2 0.1 0 1.3 0.1 0 1.4 0.1 0 1.5 0.1 0 1.6 0.1 0 1.7 0.1 0 1.8 0.1 0 1.9 0.1 0 2 0.1 0 2.1 0.1 0 2.2 0.1 0 2.3 0.1 0 2.4 0.1 0 2.5 0.1 0 2.6 0.1 0 2.7 0.1 0 2.8 0.1 0 2.9 0.1 0 3 0.1 0 3.1 0.1 0 3.2 0.1 0 3.3 0.1 0 3.4 0.1 0 3.5 0.1 0 3.6 0.1 0 3.7 0.1 0 3.8 0.1 0 3.9 0.1 0 4 0.1 0 4.1 0.1 0 4.2 0.1 0 4.3 0.1 0 4.4 0.1 0 4.5 0.1 0 4.6 0.1 0 4.7 0.1 0 4.8 0.1 0 4.9 0.1 0 5 0.1 0 5.1 0.1 0 5.2 0.1 0 5.3 0.1 0 5.4 0.1 0 5.5 0.1 0 5.6 0.1 0 5.7 0.1 0 5.8 0.1 0 5.9 0.1 0 6 0.1 0 6.1 0.1 0 6.2 0.1 0 6.3 0.1 0 6.4 0.1 0 6.5 0.1 0 6.6 0.1 0 6.7 0.1 0 6.8 0.1 0 6.9 0.1 0 7 0.1 0 7.1 0.1 0 7.2 0.1 0 7.3 0.1 0 7.4 0.1 0 7.5 0.1 0 7.6 0.1 0 7.7 0.1 0 7.8 0.1 0 7.9 0.1 0 8 0.1 0 8.1 0.1 0 8.2 0.1 0 8.3 0.1 0 8.4 0.1 0 8.5 0.1 0 8.6 0.1 0 8.7 0.1 0 8.8 0.1 0 8.9 0.1 0 9 0.1 0 9.1 0.1 0 9.2 0.1 0 9.3 0.1 0 9.4 0.1 0 9.5 0.1 0 9.6 0.1 0 9.7 0.1 0 9.8 0.1 0 9.9 0.1 0 10 0.1 0 0 0.2 0 0.1 0.2 0 0.2 0.2 0 0.3 0.2 0 0.4 0.2 0 0.5 0.2 0 0.6 0.2 0 0.7 0.2 0 0.8 0.2 0 0.9 0.2 0 1 0.2 0 1.1 0.2 0 1.2 0.2 0 1.3 0.2 0 1.4 0.2 0 1.5 0.2 0 1.6 0.2 0 1.7 0.2 0 1.8 0.2 0 1.9 0.2 0 2 0.2 0 2.1 0.2 0 2.2 0.2 0 2.3 0.2 0 2.4 0.2 0 2.5 0.2 0 2.6 0.2 0 2.7 0.2 0 2.8 0.2 0 2.9 0.2 0 3 0.2 0 3.1 0.2 0 3.2 0.2 0 3.3 0.2 0 3.4 0.2 0 3.5 0.2 0 3.6 0.2 0 3.7 0.2 0 3.8 0.2 0 3.9 0.2 0 4 0.2 0 4.1 0.2 0 4.2 0.2 0 4.3 0.2 0 4.4 0.2 0 4.5 0.2 0 4.6 0.2 0 4.7 0.2 0 4.8 0.2 0 4.9 0.2 0 5 0.2 0 5.1 0.2 0 5.2 0.2 0 5.3 0.2 0 5.4 0.2 0 5.5 0.2 0 5.6 0.2 0 5.7 0.2 0 5.8 0.2 0 5.9 0.2 0 6 0.2 0 6.1 0.2 0 6.2 0.2 0 6.3 0.2 0 6.4 0.2 0 6.5 0.2 0 6.6 0.2 0 6.7 0.2 0 6.8 0.2 0 6.9 0.2 0 7 0.2 0 7.1 0.2 0 7.2 0.2 0 7.3 0.2 0 7.4 0.2 0 7.5 0.2 0 7.6 0.2 0 7.7 0.2 0 7.8 0.2 0 7.9 0.2 0 8 0.2 0 8.1 0.2 0 8.2 0.2 0 8.3 0.2 0 8.4 0.2 0 8.5 0.2 0 8.6 0.2 0 8.7 0.2 0 8.8 0.2 0 8.9 0.2 0 9 0.2 0 9.1 0.2 0 9.2 0.2 0 9.3 0.2 0 9.4 0.2 0 9.5 0.2 0 9.6 0.2 0 9.7 0.2 0 9.8 0.2 0 9.9 0.2 0 10 0.2 0 0 0.3 0 0.1 0.3 0 0.2 0.3 0 0.3 0.3 0 0.4 0.3 0 0.5 0.3 0 0.6 0.3 0 0.7 0.3 0 0.8 0.3 0 0.9 0.3 0 1 0.3 0 1.1 0.3 0 1.2 0.3 0 1.3 0.3 0 1.4 0.3 0 1.5 0.3 0 1.6 0.3 0 1.7 0.3 0 1.8 0.3 0 1.9 0.3 0 2 0.3 0 2.1 0.3 0 2.2 0.3 0 2.3 0.3 0 2.4 0.3 0 2.5 0.3 0 2.6 0.3 0 2.7 0.3 0 2.8 0.3 0 2.9 0.3 0 3 0.3 0 3.1 0.3 0 3.2 0.3 0 3.3 0.3 0 3.4 0.3 0 3.5 0.3 0 3.6 0.3 0 3.7 0.3 0 3.8 0.3 0 3.9 0.3 0 4 0.3 0 4.1 0.3 0 4.2 0.3 0 4.3 0.3 0 4.4 0.3 0 4.5 0.3 0 4.6 0.3 0 4.7 0.3 0 4.8 0.3 0 4.9 0.3 0 5 0.3 0 5.1 0.3 0 5.2 0.3 0 5.3 0.3 0 5.4 0.3 0 5.5 0.3 0 5.6 0.3 0 5.7 0.3 0 5.8 0.3 0 5.9 0.3 0 6 0.3 0 6.1 0.3 0 6.2 0.3 0 6.3 0.3 0 6.4 0.3 0 6.5 0.3 0 6.6 0.3 0 6.7 0.3 0 6.8 0.3 0 6.9 0.3 0 7 0.3 0 7.1 0.3 0 7.2 0.3 0 7.3 0.3 0 7.4 0.3 0 7.5 0.3 0 7.6 0.3 0 7.7 0.3 0 7.8 0.3 0 7.9 0.3 0 8 0.3 0 8.1 0.3 0 8.2 0.3 0 8.3 0.3 0 8.4 0.3 0 8.5 0.3 0 8.6 0.3 0 8.7 0.3 0 8.8 0.3 0 8.9 0.3 0 9 0.3 0 9.1 0.3 0 9.2 0.3 0 9.3 0.3 0 9.4 0.3 0 9.5 0.3 0 9.6 0.3 0 9.7 0.3 0 9.8 0.3 0 9.9 0.3 0 10 0.3 0 0 0.4 0 0.1 0.4 0 0.2 0.4 0 0.3 0.4 0 0.4 0.4 0 0.5 0.4 0 0.6 0.4 0 0.7 0.4 0 0.8 0.4 0 0.9 0.4 0 1 0.4 0 1.1 0.4 0 1.2 0.4 0 1.3 0.4 0 1.4 0.4 0 1.5 0.4 0 1.6 0.4 0 1.7 0.4 0 1.8 0.4 0 1.9 0.4 0 2 0.4 0 2.1 0.4 0 2.2 0.4 0 2.3 0.4 0 2.4 0.4 0 2.5 0.4 0 2.6 0.4 0 2.7 0.4 0 2.8 0.4 0 2.9 0.4 0 3 0.4 0 3.1 0.4 0 3.2 0.4 0 3.3 0.4 0 3.4 0.4 0 3.5 0.4 0 3.6 0.4 0 3.7 0.4 0 3.8 0.4 0 3.9 0.4 0 4 0.4 0 4.1 0.4 0 4.2 0.4 0 4.3 0.4 0 4.4 0.4 0 4.5 0.4 0 4.6 0.4 0 4.7 0.4 0 4.8 0.4 0 4.9 0.4 0 5 0.4 0 5.1 0.4 0 5.2 0.4 0 5.3 0.4 0 5.4 0.4 0 5.5 0.4 0 5.6 0.4 0 5.7 0.4 0 5.8 0.4 0 5.9 0.4 0 6 0.4 0 6.1 0.4 0 6.2 0.4 0 6.3 0.4 0 6.4 0.4 0 6.5 0.4 0 6.6 0.4 0 6.7 0.4 0 6.8 0.4 0 6.9 0.4 0 7 0.4 0 7.1 0.4 0 7.2 0.4 0 7.3 0.4 0 7.4 0.4 0 7.5 0.4 0 7.6 0.4 0 7.7 0.4 0 7.8 0.4 0 7.9 0.4 0 8 0.4 0 8.1 0.4 0 8.2 0.4 0 8.3 0.4 0 8.4 0.4 0 8.5 0.4 0 8.6 0.4 0 8.7 0.4 0 8.8 0.4 0 8.9 0.4 0 9 0.4 0 9.1 0.4 0 9.2 0.4 0 9.3 0.4 0 9.4 0.4 0 9.5 0.4 0 9.6 0.4 0 9.7 0.4 0 9.8 0.4 0 9.9 0.4 0 10 0.4 0 0 0.5 0 0.1 0.5 0 0.2 0.5 0 0.3 0.5 0 0.4 0.5 0 0.5 0.5 0 0.6 0.5 0 0.7 0.5 0 0.8 0.5 0 0.9 0.5 0 1 0.5 0 1.1 0.5 0 1.2 0.5 0 1.3 0.5 0 1.4 0.5 0 1.5 0.5 0 1.6 0.5 0 1.7 0.5 0 1.8 0.5 0 1.9 0.5 0 2 0.5 0 2.1 0.5 0 2.2 0.5 0 2.3 0.5 0 2.4 0.5 0 2.5 0.5 0 2.6 0.5 0 2.7 0.5 0 2.8 0.5 0 2.9 0.5 0 3 0.5 0 3.1 0.5 0 3.2 0.5 0 3.3 0.5 0 3.4 0.5 0 3.5 0.5 0 3.6 0.5 0 3.7 0.5 0 3.8 0.5 0 3.9 0.5 0 4 0.5 0 4.1 0.5 0 4.2 0.5 0 4.3 0.5 0 4.4 0.5 0 4.5 0.5 0 4.6 0.5 0 4.7 0.5 0 4.8 0.5 0 4.9 0.5 0 5 0.5 0 5.1 0.5 0 5.2 0.5 0 5.3 0.5 0 5.4 0.5 0 5.5 0.5 0 5.6 0.5 0 5.7 0.5 0 5.8 0.5 0 5.9 0.5 0 6 0.5 0 6.1 0.5 0 6.2 0.5 0 6.3 0.5 0 6.4 0.5 0 6.5 0.5 0 6.6 0.5 0 6.7 0.5 0 6.8 0.5 0 6.9 0.5 0 7 0.5 0 7.1 0.5 0 7.2 0.5 0 7.3 0.5 0 7.4 0.5 0 7.5 0.5 0 7.6 0.5 0 7.7 0.5 0 7.8 0.5 0 7.9 0.5 0 8 0.5 0 8.1 0.5 0 8.2 0.5 0 8.3 0.5 0 8.4 0.5 0 8.5 0.5 0 8.6 0.5 0 8.7 0.5 0 8.8 0.5 0 8.9 0.5 0 9 0.5 0 9.1 0.5 0 9.2 0.5 0 9.3 0.5 0 9.4 0.5 0 9.5 0.5 0 9.6 0.5 0 9.7 0.5 0 9.8 0.5 0 9.9 0.5 0 10 0.5 0 0 0.6 0 0.1 0.6 0 0.2 0.6 0 0.3 0.6 0 0.4 0.6 0 0.5 0.6 0 0.6 0.6 0 0.7 0.6 0 0.8 0.6 0 0.9 0.6 0 1 0.6 0 1.1 0.6 0 1.2 0.6 0 1.3 0.6 0 1.4 0.6 0 1.5 0.6 0 1.6 0.6 0 1.7 0.6 0 1.8 0.6 0 1.9 0.6 0 2 0.6 0 2.1 0.6 0 2.2 0.6 0 2.3 0.6 0 2.4 0.6 0 2.5 0.6 0 2.6 0.6 0 2.7 0.6 0 2.8 0.6 0 2.9 0.6 0 3 0.6 0 3.1 0.6 0 3.2 0.6 0 3.3 0.6 0 3.4 0.6 0 3.5 0.6 0 3.6 0.6 0 3.7 0.6 0 3.8 0.6 0 3.9 0.6 0 4 0.6 0 4.1 0.6 0 4.2 0.6 0 4.3 0.6 0 4.4 0.6 0 4.5 0.6 0 4.6 0.6 0 4.7 0.6 0 4.8 0.6 0 4.9 0.6 0 5 0.6 0 5.1 0.6 0 5.2 0.6 0 5.3 0.6 0 5.4 0.6 0 5.5 0.6 0 5.6 0.6 0 5.7 0.6 0 5.8 0.6 0 5.9 0.6 0 6 0.6 0 6.1 0.6 0 6.2 0.6 0 6.3 0.6 0 6.4 0.6 0 6.5 0.6 0 6.6 0.6 0 6.7 0.6 0 6.8 0.6 0 6.9 0.6 0 7 0.6 0 7.1 0.6 0 7.2 0.6 0 7.3 0.6 0 7.4 0.6 0 7.5 0.6 0 7.6 0.6 0 7.7 0.6 0 7.8 0.6 0 7.9 0.6 0 8 0.6 0 8.1 0.6 0 8.2 0.6 0 8.3 0.6 0 8.4 0.6 0 8.5 0.6 0 8.6 0.6 0 8.7 0.6 0 8.8 0.6 0 8.9 0.6 0 9 0.6 0 9.1 0.6 0 9.2 0.6 0 9.3 0.6 0 9.4 0.6 0 9.5 0.6 0 9.6 0.6 0 9.7 0.6 0 9.8 0.6 0 9.9 0.6 0 10 0.6 0 0 0.7 0 0.1 0.7 0 0.2 0.7 0 0.3 0.7 0 0.4 0.7 0 0.5 0.7 0 0.6 0.7 0 0.7 0.7 0 0.8 0.7 0 0.9 0.7 0 1 0.7 0 1.1 0.7 0 1.2 0.7 0 1.3 0.7 0 1.4 0.7 0 1.5 0.7 0 1.6 0.7 0 1.7 0.7 0 1.8 0.7 0 1.9 0.7 0 2 0.7 0 2.1 0.7 0 2.2 0.7 0 2.3 0.7 0 2.4 0.7 0 2.5 0.7 0 2.6 0.7 0 2.7 0.7 0 2.8 0.7 0 2.9 0.7 0 3 0.7 0 3.1 0.7 0 3.2 0.7 0 3.3 0.7 0 3.4 0.7 0 3.5 0.7 0 3.6 0.7 0 3.7 0.7 0 3.8 0.7 0 3.9 0.7 0 4 0.7 0 4.1 0.7 0 4.2 0.7 0 4.3 0.7 0 4.4 0.7 0 4.5 0.7 0 4.6 0.7 0 4.7 0.7 0 4.8 0.7 0 4.9 0.7 0 5 0.7 0 5.1 0.7 0 5.2 0.7 0 5.3 0.7 0 5.4 0.7 0 5.5 0.7 0 5.6 0.7 0 5.7 0.7 0 5.8 0.7 0 5.9 0.7 0 6 0.7 0 6.1 0.7 0 6.2 0.7 0 6.3 0.7 0 6.4 0.7 0 6.5 0.7 0 6.6 0.7 0 6.7 0.7 0 6.8 0.7 0 6.9 0.7 0 7 0.7 0 7.1 0.7 0 7.2 0.7 0 7.3 0.7 0 7.4 0.7 0 7.5 0.7 0 7.6 0.7 0 7.7 0.7 0 7.8 0.7 0 7.9 0.7 0 8 0.7 0 8.1 0.7 0 8.2 0.7 0 8.3 0.7 0 8.4 0.7 0 8.5 0.7 0 8.6 0.7 0 8.7 0.7 0 8.8 0.7 0 8.9 0.7 0 9 0.7 0 9.1 0.7 0 9.2 0.7 0 9.3 0.7 0 9.4 0.7 0 9.5 0.7 0 9.6 0.7 0 9.7 0.7 0 9.8 0.7 0 9.9 0.7 0 10 0.7 0 0 0.8 0 0.1 0.8 0 0.2 0.8 0 0.3 0.8 0 0.4 0.8 0 0.5 0.8 0 0.6 0.8 0 0.7 0.8 0 0.8 0.8 0 0.9 0.8 0 1 0.8 0 1.1 0.8 0 1.2 0.8 0 1.3 0.8 0 1.4 0.8 0 1.5 0.8 0 1.6 0.8 0 1.7 0.8 0 1.8 0.8 0 1.9 0.8 0 2 0.8 0 2.1 0.8 0 2.2 0.8 0 2.3 0.8 0 2.4 0.8 0 2.5 0.8 0 2.6 0.8 0 2.7 0.8 0 2.8 0.8 0 2.9 0.8 0 3 0.8 0 3.1 0.8 0 3.2 0.8 0 3.3 0.8 0 3.4 0.8 0 3.5 0.8 0 3.6 0.8 0 3.7 0.8 0 3.8 0.8 0 3.9 0.8 0 4 0.8 0 4.1 0.8 0 4.2 0.8 0 4.3 0.8 0 4.4 0.8 0 4.5 0.8 0 4.6 0.8 0 4.7 0.8 0 4.8 0.8 0 4.9 0.8 0 5 0.8 0 5.1 0.8 0 5.2 0.8 0 5.3 0.8 0 5.4 0.8 0 5.5 0.8 0 5.6 0.8 0 5.7 0.8 0 5.8 0.8 0 5.9 0.8 0 6 0.8 0 6.1 0.8 0 6.2 0.8 0 6.3 0.8 0 6.4 0.8 0 6.5 0.8 0 6.6 0.8 0 6.7 0.8 0 6.8 0.8 0 6.9 0.8 0 7 0.8 0 7.1 0.8 0 7.2 0.8 0 7.3 0.8 0 7.4 0.8 0 7.5 0.8 0 7.6 0.8 0 7.7 0.8 0 7.8 0.8 0 7.9 0.8 0 8 0.8 0 8.1 0.8 0 8.2 0.8 0 8.3 0.8 0 8.4 0.8 0 8.5 0.8 0 8.6 0.8 0 8.7 0.8 0 8.8 0.8 0 8.9 0.8 0 9 0.8 0 9.1 0.8 0 9.2 0.8 0 9.3 0.8 0 9.4 0.8 0 9.5 0.8 0 9.6 0.8 0 9.7 0.8 0 9.8 0.8 0 9.9 0.8 0 10 0.8 0 0 0.9 0 0.1 0.9 0 0.2 0.9 0 0.3 0.9 0 0.4 0.9 0 0.5 0.9 0 0.6 0.9 0 0.7 0.9 0 0.8 0.9 0 0.9 0.9 0 1 0.9 0 1.1 0.9 0 1.2 0.9 0 1.3 0.9 0 1.4 0.9 0 1.5 0.9 0 1.6 0.9 0 1.7 0.9 0 1.8 0.9 0 1.9 0.9 0 2 0.9 0 2.1 0.9 0 2.2 0.9 0 2.3 0.9 0 2.4 0.9 0 2.5 0.9 0 2.6 0.9 0 2.7 0.9 0 2.8 0.9 0 2.9 0.9 0 3 0.9 0 3.1 0.9 0 3.2 0.9 0 3.3 0.9 0 3.4 0.9 0 3.5 0.9 0 3.6 0.9 0 3.7 0.9 0 3.8 0.9 0 3.9 0.9 0 4 0.9 0 4.1 0.9 0 4.2 0.9 0 4.3 0.9 0 4.4 0.9 0 4.5 0.9 0 4.6 0.9 0 4.7 0.9 0 4.8 0.9 0 4.9 0.9 0 5 0.9 0 5.1 0.9 0 5.2 0.9 0 5.3 0.9 0 5.4 0.9 0 5.5 0.9 0 5.6 0.9 0 5.7 0.9 0 5.8 0.9 0 5.9 0.9 0 6 0.9 0 6.1 0.9 0 6.2 0.9 0 6.3 0.9 0 6.4 0.9 0 6.5 0.9 0 6.6 0.9 0 6.7 0.9 0 6.8 0.9 0 6.9 0.9 0 7 0.9 0 7.1 0.9 0 7.2 0.9 0 7.3 0.9 0 7.4 0.9 0 7.5 0.9 0 7.6 0.9 0 7.7 0.9 0 7.8 0.9 0 7.9 0.9 0 8 0.9 0 8.1 0.9 0 8.2 0.9 0 8.3 0.9 0 8.4 0.9 0 8.5 0.9 0 8.6 0.9 0 8.7 0.9 0 8.8 0.9 0 8.9 0.9 0 9 0.9 0 9.1 0.9 0 9.2 0.9 0 9.3 0.9 0 9.4 0.9 0 9.5 0.9 0 9.6 0.9 0 9.7 0.9 0 9.8 0.9 0 9.9 0.9 0 10 0.9 0 0 1 0 0.1 1 0 0.2 1 0 0.3 1 0 0.4 1 0 0.5 1 0 0.6 1 0 0.7 1 0 0.8 1 0 0.9 1 0 1 1 0 1.1 1 0 1.2 1 0 1.3 1 0 1.4 1 0 1.5 1 0 1.6 1 0 1.7 1 0 1.8 1 0 1.9 1 0 2 1 0 2.1 1 0 2.2 1 0 2.3 1 0 2.4 1 0 2.5 1 0 2.6 1 0 2.7 1 0 2.8 1 0 2.9 1 0 3 1 0 3.1 1 0 3.2 1 0 3.3 1 0 3.4 1 0 3.5 1 0 3.6 1 0 3.7 1 0 3.8 1 0 3.9 1 0 4 1 0 4.1 1 0 4.2 1 0 4.3 1 0 4.4 1 0 4.5 1 0 4.6 1 0 4.7 1 0 4.8 1 0 4.9 1 0 5 1 0 5.1 1 0 5.2 1 0 5.3 1 0 5.4 1 0 5.5 1 0 5.6 1 0 5.7 1 0 5.8 1 0 5.9 1 0 6 1 0 6.1 1 0 6.2 1 0 6.3 1 0 6.4 1 0 6.5 1 0 6.6 1 0 6.7 1 0 6.8 1 0 6.9 1 0 7 1 0 7.1 1 0 7.2 1 0 7.3 1 0 7.4 1 0 7.5 1 0 7.6 1 0 7.7 1 0 7.8 1 0 7.9 1 0 8 1 0 8.1 1 0 8.2 1 0 8.3 1 0 8.4 1 0 8.5 1 0 8.6 1 0 8.7 1 0 8.8 1 0 8.9 1 0 9 1 0 9.1 1 0 9.2 1 0 9.3 1 0 9.4 1 0 9.5 1 0 9.6 1 0 9.7 1 0 9.8 1 0 9.9 1 0 10 1 0 0 1.1 0 0.1 1.1 0 0.2 1.1 0 0.3 1.1 0 0.4 1.1 0 0.5 1.1 0 0.6 1.1 0 0.7 1.1 0 0.8 1.1 0 0.9 1.1 0 1 1.1 0 1.1 1.1 0 1.2 1.1 0 1.3 1.1 0 1.4 1.1 0 1.5 1.1 0 1.6 1.1 0 1.7 1.1 0 1.8 1.1 0 1.9 1.1 0 2 1.1 0 2.1 1.1 0 2.2 1.1 0 2.3 1.1 0 2.4 1.1 0 2.5 1.1 0 2.6 1.1 0 2.7 1.1 0 2.8 1.1 0 2.9 1.1 0 3 1.1 0 3.1 1.1 0 3.2 1.1 0 3.3 1.1 0 3.4 1.1 0 3.5 1.1 0 3.6 1.1 0 3.7 1.1 0 3.8 1.1 0 3.9 1.1 0 4 1.1 0 4.1 1.1 0 4.2 1.1 0 4.3 1.1 0 4.4 1.1 0 4.5 1.1 0 4.6 1.1 0 4.7 1.1 0 4.8 1.1 0 4.9 1.1 0 5 1.1 0 5.1 1.1 0 5.2 1.1 0 5.3 1.1 0 5.4 1.1 0 5.5 1.1 0 5.6 1.1 0 5.7 1.1 0 5.8 1.1 0 5.9 1.1 0 6 1.1 0 6.1 1.1 0 6.2 1.1 0 6.3 1.1 0 6.4 1.1 0 6.5 1.1 0 6.6 1.1 0 6.7 1.1 0 6.8 1.1 0 6.9 1.1 0 7 1.1 0 7.1 1.1 0 7.2 1.1 0 7.3 1.1 0 7.4 1.1 0 7.5 1.1 0 7.6 1.1 0 7.7 1.1 0 7.8 1.1 0 7.9 1.1 0 8 1.1 0 8.1 1.1 0 8.2 1.1 0 8.3 1.1 0 8.4 1.1 0 8.5 1.1 0 8.6 1.1 0 8.7 1.1 0 8.8 1.1 0 8.9 1.1 0 9 1.1 0 9.1 1.1 0 9.2 1.1 0 9.3 1.1 0 9.4 1.1 0 9.5 1.1 0 9.6 1.1 0 9.7 1.1 0 9.8 1.1 0 9.9 1.1 0 10 1.1 0 0 1.2 0 0.1 1.2 0 0.2 1.2 0 0.3 1.2 0 0.4 1.2 0 0.5 1.2 0 0.6 1.2 0 0.7 1.2 0 0.8 1.2 0 0.9 1.2 0 1 1.2 0 1.1 1.2 0 1.2 1.2 0 1.3 1.2 0 1.4 1.2 0 1.5 1.2 0 1.6 1.2 0 1.7 1.2 0 1.8 1.2 0 1.9 1.2 0 2 1.2 0 2.1 1.2 0 2.2 1.2 0 2.3 1.2 0 2.4 1.2 0 2.5 1.2 0 2.6 1.2 0 2.7 1.2 0 2.8 1.2 0 2.9 1.2 0 3 1.2 0 3.1 1.2 0 3.2 1.2 0 3.3 1.2 0 3.4 1.2 0 3.5 1.2 0 3.6 1.2 0 3.7 1.2 0 3.8 1.2 0 3.9 1.2 0 4 1.2 0 4.1 1.2 0 4.2 1.2 0 4.3 1.2 0 4.4 1.2 0 4.5 1.2 0 4.6 1.2 0 4.7 1.2 0 4.8 1.2 0 4.9 1.2 0 5 1.2 0 5.1 1.2 0 5.2 1.2 0 5.3 1.2 0 5.4 1.2 0 5.5 1.2 0 5.6 1.2 0 5.7 1.2 0 5.8 1.2 0 5.9 1.2 0 6 1.2 0 6.1 1.2 0 6.2 1.2 0 6.3 1.2 0 6.4 1.2 0 6.5 1.2 0 6.6 1.2 0 6.7 1.2 0 6.8 1.2 0 6.9 1.2 0 7 1.2 0 7.1 1.2 0 7.2 1.2 0 7.3 1.2 0 7.4 1.2 0 7.5 1.2 0 7.6 1.2 0 7.7 1.2 0 7.8 1.2 0 7.9 1.2 0 8 1.2 0 8.1 1.2 0 8.2 1.2 0 8.3 1.2 0 8.4 1.2 0 8.5 1.2 0 8.6 1.2 0 8.7 1.2 0 8.8 1.2 0 8.9 1.2 0 9 1.2 0 9.1 1.2 0 9.2 1.2 0 9.3 1.2 0 9.4 1.2 0 9.5 1.2 0 9.6 1.2 0 9.7 1.2 0 9.8 1.2 0 9.9 1.2 0 10 1.2 0 0 1.3 0 0.1 1.3 0 0.2 1.3 0 0.3 1.3 0 0.4 1.3 0 0.5 1.3 0 0.6 1.3 0 0.7 1.3 0 0.8 1.3 0 0.9 1.3 0 1 1.3 0 1.1 1.3 0 1.2 1.3 0 1.3 1.3 0 1.4 1.3 0 1.5 1.3 0 1.6 1.3 0 1.7 1.3 0 1.8 1.3 0 1.9 1.3 0 2 1.3 0 2.1 1.3 0 2.2 1.3 0 2.3 1.3 0 2.4 1.3 0 2.5 1.3 0 2.6 1.3 0 2.7 1.3 0 2.8 1.3 0 2.9 1.3 0 3 1.3 0 3.1 1.3 0 3.2 1.3 0 3.3 1.3 0 3.4 1.3 0 3.5 1.3 0 3.6 1.3 0 3.7 1.3 0 3.8 1.3 0 3.9 1.3 0 4 1.3 0 4.1 1.3 0 4.2 1.3 0 4.3 1.3 0 4.4 1.3 0 4.5 1.3 0 4.6 1.3 0 4.7 1.3 0 4.8 1.3 0 4.9 1.3 0 5 1.3 0 5.1 1.3 0 5.2 1.3 0 5.3 1.3 0 5.4 1.3 0 5.5 1.3 0 5.6 1.3 0 5.7 1.3 0 5.8 1.3 0 5.9 1.3 0 6 1.3 0 6.1 1.3 0 6.2 1.3 0 6.3 1.3 0 6.4 1.3 0 6.5 1.3 0 6.6 1.3 0 6.7 1.3 0 6.8 1.3 0 6.9 1.3 0 7 1.3 0 7.1 1.3 0 7.2 1.3 0 7.3 1.3 0 7.4 1.3 0 7.5 1.3 0 7.6 1.3 0 7.7 1.3 0 7.8 1.3 0 7.9 1.3 0 8 1.3 0 8.1 1.3 0 8.2 1.3 0 8.3 1.3 0 8.4 1.3 0 8.5 1.3 0 8.6 1.3 0 8.7 1.3 0 8.8 1.3 0 8.9 1.3 0 9 1.3 0 9.1 1.3 0 9.2 1.3 0 9.3 1.3 0 9.4 1.3 0 9.5 1.3 0 9.6 1.3 0 9.7 1.3 0 9.8 1.3 0 9.9 1.3 0 10 1.3 0 0 1.4 0 0.1 1.4 0 0.2 1.4 0 0.3 1.4 0 0.4 1.4 0 0.5 1.4 0 0.6 1.4 0 0.7 1.4 0 0.8 1.4 0 0.9 1.4 0 1 1.4 0 1.1 1.4 0 1.2 1.4 0 1.3 1.4 0 1.4 1.4 0 1.5 1.4 0 1.6 1.4 0 1.7 1.4 0 1.8 1.4 0 1.9 1.4 0 2 1.4 0 2.1 1.4 0 2.2 1.4 0 2.3 1.4 0 2.4 1.4 0 2.5 1.4 0 2.6 1.4 0 2.7 1.4 0 2.8 1.4 0 2.9 1.4 0 3 1.4 0 3.1 1.4 0 3.2 1.4 0 3.3 1.4 0 3.4 1.4 0 3.5 1.4 0 3.6 1.4 0 3.7 1.4 0 3.8 1.4 0 3.9 1.4 0 4 1.4 0 4.1 1.4 0 4.2 1.4 0 4.3 1.4 0 4.4 1.4 0 4.5 1.4 0 4.6 1.4 0 4.7 1.4 0 4.8 1.4 0 4.9 1.4 0 5 1.4 0 5.1 1.4 0 5.2 1.4 0 5.3 1.4 0 5.4 1.4 0 5.5 1.4 0 5.6 1.4 0 5.7 1.4 0 5.8 1.4 0 5.9 1.4 0 6 1.4 0 6.1 1.4 0 6.2 1.4 0 6.3 1.4 0 6.4 1.4 0 6.5 1.4 0 6.6 1.4 0 6.7 1.4 0 6.8 1.4 0 6.9 1.4 0 7 1.4 0 7.1 1.4 0 7.2 1.4 0 7.3 1.4 0 7.4 1.4 0 7.5 1.4 0 7.6 1.4 0 7.7 1.4 0 7.8 1.4 0 7.9 1.4 0 8 1.4 0 8.1 1.4 0 8.2 1.4 0 8.3 1.4 0 8.4 1.4 0 8.5 1.4 0 8.6 1.4 0 8.7 1.4 0 8.8 1.4 0 8.9 1.4 0 9 1.4 0 9.1 1.4 0 9.2 1.4 0 9.3 1.4 0 9.4 1.4 0 9.5 1.4 0 9.6 1.4 0 9.7 1.4 0 9.8 1.4 0 9.9 1.4 0 10 1.4 0 0 1.5 0 0.1 1.5 0 0.2 1.5 0 0.3 1.5 0 0.4 1.5 0 0.5 1.5 0 0.6 1.5 0 0.7 1.5 0 0.8 1.5 0 0.9 1.5 0 1 1.5 0 1.1 1.5 0 1.2 1.5 0 1.3 1.5 0 1.4 1.5 0 1.5 1.5 0 1.6 1.5 0 1.7 1.5 0 1.8 1.5 0 1.9 1.5 0 2 1.5 0 2.1 1.5 0 2.2 1.5 0 2.3 1.5 0 2.4 1.5 0 2.5 1.5 0 2.6 1.5 0 2.7 1.5 0 2.8 1.5 0 2.9 1.5 0 3 1.5 0 3.1 1.5 0 3.2 1.5 0 3.3 1.5 0 3.4 1.5 0 3.5 1.5 0 3.6 1.5 0 3.7 1.5 0 3.8 1.5 0 3.9 1.5 0 4 1.5 0 4.1 1.5 0 4.2 1.5 0 4.3 1.5 0 4.4 1.5 0 4.5 1.5 0 4.6 1.5 0 4.7 1.5 0 4.8 1.5 0 4.9 1.5 0 5 1.5 0 5.1 1.5 0 5.2 1.5 0 5.3 1.5 0 5.4 1.5 0 5.5 1.5 0 5.6 1.5 0 5.7 1.5 0 5.8 1.5 0 5.9 1.5 0 6 1.5 0 6.1 1.5 0 6.2 1.5 0 6.3 1.5 0 6.4 1.5 0 6.5 1.5 0 6.6 1.5 0 6.7 1.5 0 6.8 1.5 0 6.9 1.5 0 7 1.5 0 7.1 1.5 0 7.2 1.5 0 7.3 1.5 0 7.4 1.5 0 7.5 1.5 0 7.6 1.5 0 7.7 1.5 0 7.8 1.5 0 7.9 1.5 0 8 1.5 0 8.1 1.5 0 8.2 1.5 0 8.3 1.5 0 8.4 1.5 0 8.5 1.5 0 8.6 1.5 0 8.7 1.5 0 8.8 1.5 0 8.9 1.5 0 9 1.5 0 9.1 1.5 0 9.2 1.5 0 9.3 1.5 0 9.4 1.5 0 9.5 1.5 0 9.6 1.5 0 9.7 1.5 0 9.8 1.5 0 9.9 1.5 0 10 1.5 0 0 1.6 0 0.1 1.6 0 0.2 1.6 0 0.3 1.6 0 0.4 1.6 0 0.5 1.6 0 0.6 1.6 0 0.7 1.6 0 0.8 1.6 0 0.9 1.6 0 1 1.6 0 1.1 1.6 0 1.2 1.6 0 1.3 1.6 0 1.4 1.6 0 1.5 1.6 0 1.6 1.6 0 1.7 1.6 0 1.8 1.6 0 1.9 1.6 0 2 1.6 0 2.1 1.6 0 2.2 1.6 0 2.3 1.6 0 2.4 1.6 0 2.5 1.6 0 2.6 1.6 0 2.7 1.6 0 2.8 1.6 0 2.9 1.6 0 3 1.6 0 3.1 1.6 0 3.2 1.6 0 3.3 1.6 0 3.4 1.6 0 3.5 1.6 0 3.6 1.6 0 3.7 1.6 0 3.8 1.6 0 3.9 1.6 0 4 1.6 0 4.1 1.6 0 4.2 1.6 0 4.3 1.6 0 4.4 1.6 0 4.5 1.6 0 4.6 1.6 0 4.7 1.6 0 4.8 1.6 0 4.9 1.6 0 5 1.6 0 5.1 1.6 0 5.2 1.6 0 5.3 1.6 0 5.4 1.6 0 5.5 1.6 0 5.6 1.6 0 5.7 1.6 0 5.8 1.6 0 5.9 1.6 0 6 1.6 0 6.1 1.6 0 6.2 1.6 0 6.3 1.6 0 6.4 1.6 0 6.5 1.6 0 6.6 1.6 0 6.7 1.6 0 6.8 1.6 0 6.9 1.6 0 7 1.6 0 7.1 1.6 0 7.2 1.6 0 7.3 1.6 0 7.4 1.6 0 7.5 1.6 0 7.6 1.6 0 7.7 1.6 0 7.8 1.6 0 7.9 1.6 0 8 1.6 0 8.1 1.6 0 8.2 1.6 0 8.3 1.6 0 8.4 1.6 0 8.5 1.6 0 8.6 1.6 0 8.7 1.6 0 8.8 1.6 0 8.9 1.6 0 9 1.6 0 9.1 1.6 0 9.2 1.6 0 9.3 1.6 0 9.4 1.6 0 9.5 1.6 0 9.6 1.6 0 9.7 1.6 0 9.8 1.6 0 9.9 1.6 0 10 1.6 0 0 1.7 0 0.1 1.7 0 0.2 1.7 0 0.3 1.7 0 0.4 1.7 0 0.5 1.7 0 0.6 1.7 0 0.7 1.7 0 0.8 1.7 0 0.9 1.7 0 1 1.7 0 1.1 1.7 0 1.2 1.7 0 1.3 1.7 0 1.4 1.7 0 1.5 1.7 0 1.6 1.7 0 1.7 1.7 0 1.8 1.7 0 1.9 1.7 0 2 1.7 0 2.1 1.7 0 2.2 1.7 0 2.3 1.7 0 2.4 1.7 0 2.5 1.7 0 2.6 1.7 0 2.7 1.7 0 2.8 1.7 0 2.9 1.7 0 3 1.7 0 3.1 1.7 0 3.2 1.7 0 3.3 1.7 0 3.4 1.7 0 3.5 1.7 0 3.6 1.7 0 3.7 1.7 0 3.8 1.7 0 3.9 1.7 0 4 1.7 0 4.1 1.7 0 4.2 1.7 0 4.3 1.7 0 4.4 1.7 0 4.5 1.7 0 4.6 1.7 0 4.7 1.7 0 4.8 1.7 0 4.9 1.7 0 5 1.7 0 5.1 1.7 0 5.2 1.7 0 5.3 1.7 0 5.4 1.7 0 5.5 1.7 0 5.6 1.7 0 5.7 1.7 0 5.8 1.7 0 5.9 1.7 0 6 1.7 0 6.1 1.7 0 6.2 1.7 0 6.3 1.7 0 6.4 1.7 0 6.5 1.7 0 6.6 1.7 0 6.7 1.7 0 6.8 1.7 0 6.9 1.7 0 7 1.7 0 7.1 1.7 0 7.2 1.7 0 7.3 1.7 0 7.4 1.7 0 7.5 1.7 0 7.6 1.7 0 7.7 1.7 0 7.8 1.7 0 7.9 1.7 0 8 1.7 0 8.1 1.7 0 8.2 1.7 0 8.3 1.7 0 8.4 1.7 0 8.5 1.7 0 8.6 1.7 0 8.7 1.7 0 8.8 1.7 0 8.9 1.7 0 9 1.7 0 9.1 1.7 0 9.2 1.7 0 9.3 1.7 0 9.4 1.7 0 9.5 1.7 0 9.6 1.7 0 9.7 1.7 0 9.8 1.7 0 9.9 1.7 0 10 1.7 0 0 1.8 0 0.1 1.8 0 0.2 1.8 0 0.3 1.8 0 0.4 1.8 0 0.5 1.8 0 0.6 1.8 0 0.7 1.8 0 0.8 1.8 0 0.9 1.8 0 1 1.8 0 1.1 1.8 0 1.2 1.8 0 1.3 1.8 0 1.4 1.8 0 1.5 1.8 0 1.6 1.8 0 1.7 1.8 0 1.8 1.8 0 1.9 1.8 0 2 1.8 0 2.1 1.8 0 2.2 1.8 0 2.3 1.8 0 2.4 1.8 0 2.5 1.8 0 2.6 1.8 0 2.7 1.8 0 2.8 1.8 0 2.9 1.8 0 3 1.8 0 3.1 1.8 0 3.2 1.8 0 3.3 1.8 0 3.4 1.8 0 3.5 1.8 0 3.6 1.8 0 3.7 1.8 0 3.8 1.8 0 3.9 1.8 0 4 1.8 0 4.1 1.8 0 4.2 1.8 0 4.3 1.8 0 4.4 1.8 0 4.5 1.8 0 4.6 1.8 0 4.7 1.8 0 4.8 1.8 0 4.9 1.8 0 5 1.8 0 5.1 1.8 0 5.2 1.8 0 5.3 1.8 0 5.4 1.8 0 5.5 1.8 0 5.6 1.8 0 5.7 1.8 0 5.8 1.8 0 5.9 1.8 0 6 1.8 0 6.1 1.8 0 6.2 1.8 0 6.3 1.8 0 6.4 1.8 0 6.5 1.8 0 6.6 1.8 0 6.7 1.8 0 6.8 1.8 0 6.9 1.8 0 7 1.8 0 7.1 1.8 0 7.2 1.8 0 7.3 1.8 0 7.4 1.8 0 7.5 1.8 0 7.6 1.8 0 7.7 1.8 0 7.8 1.8 0 7.9 1.8 0 8 1.8 0 8.1 1.8 0 8.2 1.8 0 8.3 1.8 0 8.4 1.8 0 8.5 1.8 0 8.6 1.8 0 8.7 1.8 0 8.8 1.8 0 8.9 1.8 0 9 1.8 0 9.1 1.8 0 9.2 1.8 0 9.3 1.8 0 9.4 1.8 0 9.5 1.8 0 9.6 1.8 0 9.7 1.8 0 9.8 1.8 0 9.9 1.8 0 10 1.8 0 0 1.9 0 0.1 1.9 0 0.2 1.9 0 0.3 1.9 0 0.4 1.9 0 0.5 1.9 0 0.6 1.9 0 0.7 1.9 0 0.8 1.9 0 0.9 1.9 0 1 1.9 0 1.1 1.9 0 1.2 1.9 0 1.3 1.9 0 1.4 1.9 0 1.5 1.9 0 1.6 1.9 0 1.7 1.9 0 1.8 1.9 0 1.9 1.9 0 2 1.9 0 2.1 1.9 0 2.2 1.9 0 2.3 1.9 0 2.4 1.9 0 2.5 1.9 0 2.6 1.9 0 2.7 1.9 0 2.8 1.9 0 2.9 1.9 0 3 1.9 0 3.1 1.9 0 3.2 1.9 0 3.3 1.9 0 3.4 1.9 0 3.5 1.9 0 3.6 1.9 0 3.7 1.9 0 3.8 1.9 0 3.9 1.9 0 4 1.9 0 4.1 1.9 0 4.2 1.9 0 4.3 1.9 0 4.4 1.9 0 4.5 1.9 0 4.6 1.9 0 4.7 1.9 0 4.8 1.9 0 4.9 1.9 0 5 1.9 0 5.1 1.9 0 5.2 1.9 0 5.3 1.9 0 5.4 1.9 0 5.5 1.9 0 5.6 1.9 0 5.7 1.9 0 5.8 1.9 0 5.9 1.9 0 6 1.9 0 6.1 1.9 0 6.2 1.9 0 6.3 1.9 0 6.4 1.9 0 6.5 1.9 0 6.6 1.9 0 6.7 1.9 0 6.8 1.9 0 6.9 1.9 0 7 1.9 0 7.1 1.9 0 7.2 1.9 0 7.3 1.9 0 7.4 1.9 0 7.5 1.9 0 7.6 1.9 0 7.7 1.9 0 7.8 1.9 0 7.9 1.9 0 8 1.9 0 8.1 1.9 0 8.2 1.9 0 8.3 1.9 0 8.4 1.9 0 8.5 1.9 0 8.6 1.9 0 8.7 1.9 0 8.8 1.9 0 8.9 1.9 0 9 1.9 0 9.1 1.9 0 9.2 1.9 0 9.3 1.9 0 9.4 1.9 0 9.5 1.9 0 9.6 1.9 0 9.7 1.9 0 9.8 1.9 0 9.9 1.9 0 10 1.9 0 0 2 0 0.1 2 0 0.2 2 0 0.3 2 0 0.4 2 0 0.5 2 0 0.6 2 0 0.7 2 0 0.8 2 0 0.9 2 0 1 2 0 1.1 2 0 1.2 2 0 1.3 2 0 1.4 2 0 1.5 2 0 1.6 2 0 1.7 2 0 1.8 2 0 1.9 2 0 2 2 0 2.1 2 0 2.2 2 0 2.3 2 0 2.4 2 0 2.5 2 0 2.6 2 0 2.7 2 0 2.8 2 0 2.9 2 0 3 2 0 3.1 2 0 3.2 2 0 3.3 2 0 3.4 2 0 3.5 2 0 3.6 2 0 3.7 2 0 3.8 2 0 3.9 2 0 4 2 0 4.1 2 0 4.2 2 0 4.3 2 0 4.4 2 0 4.5 2 0 4.6 2 0 4.7 2 0 4.8 2 0 4.9 2 0 5 2 0 5.1 2 0 5.2 2 0 5.3 2 0 5.4 2 0 5.5 2 0 5.6 2 0 5.7 2 0 5.8 2 0 5.9 2 0 6 2 0 6.1 2 0 6.2 2 0 6.3 2 0 6.4 2 0 6.5 2 0 6.6 2 0 6.7 2 0 6.8 2 0 6.9 2 0 7 2 0 7.1 2 0 7.2 2 0 7.3 2 0 7.4 2 0 7.5 2 0 7.6 2 0 7.7 2 0 7.8 2 0 7.9 2 0 8 2 0 8.1 2 0 8.2 2 0 8.3 2 0 8.4 2 0 8.5 2 0 8.6 2 0 8.7 2 0 8.8 2 0 8.9 2 0 9 2 0 9.1 2 0 9.2 2 0 9.3 2 0 9.4 2 0 9.5 2 0 9.6 2 0 9.7 2 0 9.8 2 0 9.9 2 0 10 2 0 0 2.1 0 0.1 2.1 0 0.2 2.1 0 0.3 2.1 0 0.4 2.1 0 0.5 2.1 0 0.6 2.1 0 0.7 2.1 0 0.8 2.1 0 0.9 2.1 0 1 2.1 0 1.1 2.1 0 1.2 2.1 0 1.3 2.1 0 1.4 2.1 0 1.5 2.1 0 1.6 2.1 0 1.7 2.1 0 1.8 2.1 0 1.9 2.1 0 2 2.1 0 2.1 2.1 0 2.2 2.1 0 2.3 2.1 0 2.4 2.1 0 2.5 2.1 0 2.6 2.1 0 2.7 2.1 0 2.8 2.1 0 2.9 2.1 0 3 2.1 0 3.1 2.1 0 3.2 2.1 0 3.3 2.1 0 3.4 2.1 0 3.5 2.1 0 3.6 2.1 0 3.7 2.1 0 3.8 2.1 0 3.9 2.1 0 4 2.1 0 4.1 2.1 0 4.2 2.1 0 4.3 2.1 0 4.4 2.1 0 4.5 2.1 0 4.6 2.1 0 4.7 2.1 0 4.8 2.1 0 4.9 2.1 0 5 2.1 0 5.1 2.1 0 5.2 2.1 0 5.3 2.1 0 5.4 2.1 0 5.5 2.1 0 5.6 2.1 0 5.7 2.1 0 5.8 2.1 0 5.9 2.1 0 6 2.1 0 6.1 2.1 0 6.2 2.1 0 6.3 2.1 0 6.4 2.1 0 6.5 2.1 0 6.6 2.1 0 6.7 2.1 0 6.8 2.1 0 6.9 2.1 0 7 2.1 0 7.1 2.1 0 7.2 2.1 0 7.3 2.1 0 7.4 2.1 0 7.5 2.1 0 7.6 2.1 0 7.7 2.1 0 7.8 2.1 0 7.9 2.1 0 8 2.1 0 8.1 2.1 0 8.2 2.1 0 8.3 2.1 0 8.4 2.1 0 8.5 2.1 0 8.6 2.1 0 8.7 2.1 0 8.8 2.1 0 8.9 2.1 0 9 2.1 0 9.1 2.1 0 9.2 2.1 0 9.3 2.1 0 9.4 2.1 0 9.5 2.1 0 9.6 2.1 0 9.7 2.1 0 9.8 2.1 0 9.9 2.1 0 10 2.1 0 0 2.2 0 0.1 2.2 0 0.2 2.2 0 0.3 2.2 0 0.4 2.2 0 0.5 2.2 0 0.6 2.2 0 0.7 2.2 0 0.8 2.2 0 0.9 2.2 0 1 2.2 0 1.1 2.2 0 1.2 2.2 0 1.3 2.2 0 1.4 2.2 0 1.5 2.2 0 1.6 2.2 0 1.7 2.2 0 1.8 2.2 0 1.9 2.2 0 2 2.2 0 2.1 2.2 0 2.2 2.2 0 2.3 2.2 0 2.4 2.2 0 2.5 2.2 0 2.6 2.2 0 2.7 2.2 0 2.8 2.2 0 2.9 2.2 0 3 2.2 0 3.1 2.2 0 3.2 2.2 0 3.3 2.2 0 3.4 2.2 0 3.5 2.2 0 3.6 2.2 0 3.7 2.2 0 3.8 2.2 0 3.9 2.2 0 4 2.2 0 4.1 2.2 0 4.2 2.2 0 4.3 2.2 0 4.4 2.2 0 4.5 2.2 0 4.6 2.2 0 4.7 2.2 0 4.8 2.2 0 4.9 2.2 0 5 2.2 0 5.1 2.2 0 5.2 2.2 0 5.3 2.2 0 5.4 2.2 0 5.5 2.2 0 5.6 2.2 0 5.7 2.2 0 5.8 2.2 0 5.9 2.2 0 6 2.2 0 6.1 2.2 0 6.2 2.2 0 6.3 2.2 0 6.4 2.2 0 6.5 2.2 0 6.6 2.2 0 6.7 2.2 0 6.8 2.2 0 6.9 2.2 0 7 2.2 0 7.1 2.2 0 7.2 2.2 0 7.3 2.2 0 7.4 2.2 0 7.5 2.2 0 7.6 2.2 0 7.7 2.2 0 7.8 2.2 0 7.9 2.2 0 8 2.2 0 8.1 2.2 0 8.2 2.2 0 8.3 2.2 0 8.4 2.2 0 8.5 2.2 0 8.6 2.2 0 8.7 2.2 0 8.8 2.2 0 8.9 2.2 0 9 2.2 0 9.1 2.2 0 9.2 2.2 0 9.3 2.2 0 9.4 2.2 0 9.5 2.2 0 9.6 2.2 0 9.7 2.2 0 9.8 2.2 0 9.9 2.2 0 10 2.2 0 0 2.3 0 0.1 2.3 0 0.2 2.3 0 0.3 2.3 0 0.4 2.3 0 0.5 2.3 0 0.6 2.3 0 0.7 2.3 0 0.8 2.3 0 0.9 2.3 0 1 2.3 0 1.1 2.3 0 1.2 2.3 0 1.3 2.3 0 1.4 2.3 0 1.5 2.3 0 1.6 2.3 0 1.7 2.3 0 1.8 2.3 0 1.9 2.3 0 2 2.3 0 2.1 2.3 0 2.2 2.3 0 2.3 2.3 0 2.4 2.3 0 2.5 2.3 0 2.6 2.3 0 2.7 2.3 0 2.8 2.3 0 2.9 2.3 0 3 2.3 0 3.1 2.3 0 3.2 2.3 0 3.3 2.3 0 3.4 2.3 0 3.5 2.3 0 3.6 2.3 0 3.7 2.3 0 3.8 2.3 0 3.9 2.3 0 4 2.3 0 4.1 2.3 0 4.2 2.3 0 4.3 2.3 0 4.4 2.3 0 4.5 2.3 0 4.6 2.3 0 4.7 2.3 0 4.8 2.3 0 4.9 2.3 0 5 2.3 0 5.1 2.3 0 5.2 2.3 0 5.3 2.3 0 5.4 2.3 0 5.5 2.3 0 5.6 2.3 0 5.7 2.3 0 5.8 2.3 0 5.9 2.3 0 6 2.3 0 6.1 2.3 0 6.2 2.3 0 6.3 2.3 0 6.4 2.3 0 6.5 2.3 0 6.6 2.3 0 6.7 2.3 0 6.8 2.3 0 6.9 2.3 0 7 2.3 0 7.1 2.3 0 7.2 2.3 0 7.3 2.3 0 7.4 2.3 0 7.5 2.3 0 7.6 2.3 0 7.7 2.3 0 7.8 2.3 0 7.9 2.3 0 8 2.3 0 8.1 2.3 0 8.2 2.3 0 8.3 2.3 0 8.4 2.3 0 8.5 2.3 0 8.6 2.3 0 8.7 2.3 0 8.8 2.3 0 8.9 2.3 0 9 2.3 0 9.1 2.3 0 9.2 2.3 0 9.3 2.3 0 9.4 2.3 0 9.5 2.3 0 9.6 2.3 0 9.7 2.3 0 9.8 2.3 0 9.9 2.3 0 10 2.3 0 0 2.4 0 0.1 2.4 0 0.2 2.4 0 0.3 2.4 0 0.4 2.4 0 0.5 2.4 0 0.6 2.4 0 0.7 2.4 0 0.8 2.4 0 0.9 2.4 0 1 2.4 0 1.1 2.4 0 1.2 2.4 0 1.3 2.4 0 1.4 2.4 0 1.5 2.4 0 1.6 2.4 0 1.7 2.4 0 1.8 2.4 0 1.9 2.4 0 2 2.4 0 2.1 2.4 0 2.2 2.4 0 2.3 2.4 0 2.4 2.4 0 2.5 2.4 0 2.6 2.4 0 2.7 2.4 0 2.8 2.4 0 2.9 2.4 0 3 2.4 0 3.1 2.4 0 3.2 2.4 0 3.3 2.4 0 3.4 2.4 0 3.5 2.4 0 3.6 2.4 0 3.7 2.4 0 3.8 2.4 0 3.9 2.4 0 4 2.4 0 4.1 2.4 0 4.2 2.4 0 4.3 2.4 0 4.4 2.4 0 4.5 2.4 0 4.6 2.4 0 4.7 2.4 0 4.8 2.4 0 4.9 2.4 0 5 2.4 0 5.1 2.4 0 5.2 2.4 0 5.3 2.4 0 5.4 2.4 0 5.5 2.4 0 5.6 2.4 0 5.7 2.4 0 5.8 2.4 0 5.9 2.4 0 6 2.4 0 6.1 2.4 0 6.2 2.4 0 6.3 2.4 0 6.4 2.4 0 6.5 2.4 0 6.6 2.4 0 6.7 2.4 0 6.8 2.4 0 6.9 2.4 0 7 2.4 0 7.1 2.4 0 7.2 2.4 0 7.3 2.4 0 7.4 2.4 0 7.5 2.4 0 7.6 2.4 0 7.7 2.4 0 7.8 2.4 0 7.9 2.4 0 8 2.4 0 8.1 2.4 0 8.2 2.4 0 8.3 2.4 0 8.4 2.4 0 8.5 2.4 0 8.6 2.4 0 8.7 2.4 0 8.8 2.4 0 8.9 2.4 0 9 2.4 0 9.1 2.4 0 9.2 2.4 0 9.3 2.4 0 9.4 2.4 0 9.5 2.4 0 9.6 2.4 0 9.7 2.4 0 9.8 2.4 0 9.9 2.4 0 10 2.4 0 0 2.5 0 0.1 2.5 0 0.2 2.5 0 0.3 2.5 0 0.4 2.5 0 0.5 2.5 0 0.6 2.5 0 0.7 2.5 0 0.8 2.5 0 0.9 2.5 0 1 2.5 0 1.1 2.5 0 1.2 2.5 0 1.3 2.5 0 1.4 2.5 0 1.5 2.5 0 1.6 2.5 0 1.7 2.5 0 1.8 2.5 0 1.9 2.5 0 2 2.5 0 2.1 2.5 0 2.2 2.5 0 2.3 2.5 0 2.4 2.5 0 2.5 2.5 0 2.6 2.5 0 2.7 2.5 0 2.8 2.5 0 2.9 2.5 0 3 2.5 0 3.1 2.5 0 3.2 2.5 0 3.3 2.5 0 3.4 2.5 0 3.5 2.5 0 3.6 2.5 0 3.7 2.5 0 3.8 2.5 0 3.9 2.5 0 4 2.5 0 4.1 2.5 0 4.2 2.5 0 4.3 2.5 0 4.4 2.5 0 4.5 2.5 0 4.6 2.5 0 4.7 2.5 0 4.8 2.5 0 4.9 2.5 0 5 2.5 0 5.1 2.5 0 5.2 2.5 0 5.3 2.5 0 5.4 2.5 0 5.5 2.5 0 5.6 2.5 0 5.7 2.5 0 5.8 2.5 0 5.9 2.5 0 6 2.5 0 6.1 2.5 0 6.2 2.5 0 6.3 2.5 0 6.4 2.5 0 6.5 2.5 0 6.6 2.5 0 6.7 2.5 0 6.8 2.5 0 6.9 2.5 0 7 2.5 0 7.1 2.5 0 7.2 2.5 0 7.3 2.5 0 7.4 2.5 0 7.5 2.5 0 7.6 2.5 0 7.7 2.5 0 7.8 2.5 0 7.9 2.5 0 8 2.5 0 8.1 2.5 0 8.2 2.5 0 8.3 2.5 0 8.4 2.5 0 8.5 2.5 0 8.6 2.5 0 8.7 2.5 0 8.8 2.5 0 8.9 2.5 0 9 2.5 0 9.1 2.5 0 9.2 2.5 0 9.3 2.5 0 9.4 2.5 0 9.5 2.5 0 9.6 2.5 0 9.7 2.5 0 9.8 2.5 0 9.9 2.5 0 10 2.5 0 0 2.6 0 0.1 2.6 0 0.2 2.6 0 0.3 2.6 0 0.4 2.6 0 0.5 2.6 0 0.6 2.6 0 0.7 2.6 0 0.8 2.6 0 0.9 2.6 0 1 2.6 0 1.1 2.6 0 1.2 2.6 0 1.3 2.6 0 1.4 2.6 0 1.5 2.6 0 1.6 2.6 0 1.7 2.6 0 1.8 2.6 0 1.9 2.6 0 2 2.6 0 2.1 2.6 0 2.2 2.6 0 2.3 2.6 0 2.4 2.6 0 2.5 2.6 0 2.6 2.6 0 2.7 2.6 0 2.8 2.6 0 2.9 2.6 0 3 2.6 0 3.1 2.6 0 3.2 2.6 0 3.3 2.6 0 3.4 2.6 0 3.5 2.6 0 3.6 2.6 0 3.7 2.6 0 3.8 2.6 0 3.9 2.6 0 4 2.6 0 4.1 2.6 0 4.2 2.6 0 4.3 2.6 0 4.4 2.6 0 4.5 2.6 0 4.6 2.6 0 4.7 2.6 0 4.8 2.6 0 4.9 2.6 0 5 2.6 0 5.1 2.6 0 5.2 2.6 0 5.3 2.6 0 5.4 2.6 0 5.5 2.6 0 5.6 2.6 0 5.7 2.6 0 5.8 2.6 0 5.9 2.6 0 6 2.6 0 6.1 2.6 0 6.2 2.6 0 6.3 2.6 0 6.4 2.6 0 6.5 2.6 0 6.6 2.6 0 6.7 2.6 0 6.8 2.6 0 6.9 2.6 0 7 2.6 0 7.1 2.6 0 7.2 2.6 0 7.3 2.6 0 7.4 2.6 0 7.5 2.6 0 7.6 2.6 0 7.7 2.6 0 7.8 2.6 0 7.9 2.6 0 8 2.6 0 8.1 2.6 0 8.2 2.6 0 8.3 2.6 0 8.4 2.6 0 8.5 2.6 0 8.6 2.6 0 8.7 2.6 0 8.8 2.6 0 8.9 2.6 0 9 2.6 0 9.1 2.6 0 9.2 2.6 0 9.3 2.6 0 9.4 2.6 0 9.5 2.6 0 9.6 2.6 0 9.7 2.6 0 9.8 2.6 0 9.9 2.6 0 10 2.6 0 0 2.7 0 0.1 2.7 0 0.2 2.7 0 0.3 2.7 0 0.4 2.7 0 0.5 2.7 0 0.6 2.7 0 0.7 2.7 0 0.8 2.7 0 0.9 2.7 0 1 2.7 0 1.1 2.7 0 1.2 2.7 0 1.3 2.7 0 1.4 2.7 0 1.5 2.7 0 1.6 2.7 0 1.7 2.7 0 1.8 2.7 0 1.9 2.7 0 2 2.7 0 2.1 2.7 0 2.2 2.7 0 2.3 2.7 0 2.4 2.7 0 2.5 2.7 0 2.6 2.7 0 2.7 2.7 0 2.8 2.7 0 2.9 2.7 0 3 2.7 0 3.1 2.7 0 3.2 2.7 0 3.3 2.7 0 3.4 2.7 0 3.5 2.7 0 3.6 2.7 0 3.7 2.7 0 3.8 2.7 0 3.9 2.7 0 4 2.7 0 4.1 2.7 0 4.2 2.7 0 4.3 2.7 0 4.4 2.7 0 4.5 2.7 0 4.6 2.7 0 4.7 2.7 0 4.8 2.7 0 4.9 2.7 0 5 2.7 0 5.1 2.7 0 5.2 2.7 0 5.3 2.7 0 5.4 2.7 0 5.5 2.7 0 5.6 2.7 0 5.7 2.7 0 5.8 2.7 0 5.9 2.7 0 6 2.7 0 6.1 2.7 0 6.2 2.7 0 6.3 2.7 0 6.4 2.7 0 6.5 2.7 0 6.6 2.7 0 6.7 2.7 0 6.8 2.7 0 6.9 2.7 0 7 2.7 0 7.1 2.7 0 7.2 2.7 0 7.3 2.7 0 7.4 2.7 0 7.5 2.7 0 7.6 2.7 0 7.7 2.7 0 7.8 2.7 0 7.9 2.7 0 8 2.7 0 8.1 2.7 0 8.2 2.7 0 8.3 2.7 0 8.4 2.7 0 8.5 2.7 0 8.6 2.7 0 8.7 2.7 0 8.8 2.7 0 8.9 2.7 0 9 2.7 0 9.1 2.7 0 9.2 2.7 0 9.3 2.7 0 9.4 2.7 0 9.5 2.7 0 9.6 2.7 0 9.7 2.7 0 9.8 2.7 0 9.9 2.7 0 10 2.7 0 0 2.8 0 0.1 2.8 0 0.2 2.8 0 0.3 2.8 0 0.4 2.8 0 0.5 2.8 0 0.6 2.8 0 0.7 2.8 0 0.8 2.8 0 0.9 2.8 0 1 2.8 0 1.1 2.8 0 1.2 2.8 0 1.3 2.8 0 1.4 2.8 0 1.5 2.8 0 1.6 2.8 0 1.7 2.8 0 1.8 2.8 0 1.9 2.8 0 2 2.8 0 2.1 2.8 0 2.2 2.8 0 2.3 2.8 0 2.4 2.8 0 2.5 2.8 0 2.6 2.8 0 2.7 2.8 0 2.8 2.8 0 2.9 2.8 0 3 2.8 0 3.1 2.8 0 3.2 2.8 0 3.3 2.8 0 3.4 2.8 0 3.5 2.8 0 3.6 2.8 0 3.7 2.8 0 3.8 2.8 0 3.9 2.8 0 4 2.8 0 4.1 2.8 0 4.2 2.8 0 4.3 2.8 0 4.4 2.8 0 4.5 2.8 0 4.6 2.8 0 4.7 2.8 0 4.8 2.8 0 4.9 2.8 0 5 2.8 0 5.1 2.8 0 5.2 2.8 0 5.3 2.8 0 5.4 2.8 0 5.5 2.8 0 5.6 2.8 0 5.7 2.8 0 5.8 2.8 0 5.9 2.8 0 6 2.8 0 6.1 2.8 0 6.2 2.8 0 6.3 2.8 0 6.4 2.8 0 6.5 2.8 0 6.6 2.8 0 6.7 2.8 0 6.8 2.8 0 6.9 2.8 0 7 2.8 0 7.1 2.8 0 7.2 2.8 0 7.3 2.8 0 7.4 2.8 0 7.5 2.8 0 7.6 2.8 0 7.7 2.8 0 7.8 2.8 0 7.9 2.8 0 8 2.8 0 8.1 2.8 0 8.2 2.8 0 8.3 2.8 0 8.4 2.8 0 8.5 2.8 0 8.6 2.8 0 8.7 2.8 0 8.8 2.8 0 8.9 2.8 0 9 2.8 0 9.1 2.8 0 9.2 2.8 0 9.3 2.8 0 9.4 2.8 0 9.5 2.8 0 9.6 2.8 0 9.7 2.8 0 9.8 2.8 0 9.9 2.8 0 10 2.8 0 0 2.9 0 0.1 2.9 0 0.2 2.9 0 0.3 2.9 0 0.4 2.9 0 0.5 2.9 0 0.6 2.9 0 0.7 2.9 0 0.8 2.9 0 0.9 2.9 0 1 2.9 0 1.1 2.9 0 1.2 2.9 0 1.3 2.9 0 1.4 2.9 0 1.5 2.9 0 1.6 2.9 0 1.7 2.9 0 1.8 2.9 0 1.9 2.9 0 2 2.9 0 2.1 2.9 0 2.2 2.9 0 2.3 2.9 0 2.4 2.9 0 2.5 2.9 0 2.6 2.9 0 2.7 2.9 0 2.8 2.9 0 2.9 2.9 0 3 2.9 0 3.1 2.9 0 3.2 2.9 0 3.3 2.9 0 3.4 2.9 0 3.5 2.9 0 3.6 2.9 0 3.7 2.9 0 3.8 2.9 0 3.9 2.9 0 4 2.9 0 4.1 2.9 0 4.2 2.9 0 4.3 2.9 0 4.4 2.9 0 4.5 2.9 0 4.6 2.9 0 4.7 2.9 0 4.8 2.9 0 4.9 2.9 0 5 2.9 0 5.1 2.9 0 5.2 2.9 0 5.3 2.9 0 5.4 2.9 0 5.5 2.9 0 5.6 2.9 0 5.7 2.9 0 5.8 2.9 0 5.9 2.9 0 6 2.9 0 6.1 2.9 0 6.2 2.9 0 6.3 2.9 0 6.4 2.9 0 6.5 2.9 0 6.6 2.9 0 6.7 2.9 0 6.8 2.9 0 6.9 2.9 0 7 2.9 0 7.1 2.9 0 7.2 2.9 0 7.3 2.9 0 7.4 2.9 0 7.5 2.9 0 7.6 2.9 0 7.7 2.9 0 7.8 2.9 0 7.9 2.9 0 8 2.9 0 8.1 2.9 0 8.2 2.9 0 8.3 2.9 0 8.4 2.9 0 8.5 2.9 0 8.6 2.9 0 8.7 2.9 0 8.8 2.9 0 8.9 2.9 0 9 2.9 0 9.1 2.9 0 9.2 2.9 0 9.3 2.9 0 9.4 2.9 0 9.5 2.9 0 9.6 2.9 0 9.7 2.9 0 9.8 2.9 0 9.9 2.9 0 10 2.9 0 0 3 0 0.1 3 0 0.2 3 0 0.3 3 0 0.4 3 0 0.5 3 0 0.6 3 0 0.7 3 0 0.8 3 0 0.9 3 0 1 3 0 1.1 3 0 1.2 3 0 1.3 3 0 1.4 3 0 1.5 3 0 1.6 3 0 1.7 3 0 1.8 3 0 1.9 3 0 2 3 0 2.1 3 0 2.2 3 0 2.3 3 0 2.4 3 0 2.5 3 0 2.6 3 0 2.7 3 0 2.8 3 0 2.9 3 0 3 3 0 3.1 3 0 3.2 3 0 3.3 3 0 3.4 3 0 3.5 3 0 3.6 3 0 3.7 3 0 3.8 3 0 3.9 3 0 4 3 0 4.1 3 0 4.2 3 0 4.3 3 0 4.4 3 0 4.5 3 0 4.6 3 0 4.7 3 0 4.8 3 0 4.9 3 0 5 3 0 5.1 3 0 5.2 3 0 5.3 3 0 5.4 3 0 5.5 3 0 5.6 3 0 5.7 3 0 5.8 3 0 5.9 3 0 6 3 0 6.1 3 0 6.2 3 0 6.3 3 0 6.4 3 0 6.5 3 0 6.6 3 0 6.7 3 0 6.8 3 0 6.9 3 0 7 3 0 7.1 3 0 7.2 3 0 7.3 3 0 7.4 3 0 7.5 3 0 7.6 3 0 7.7 3 0 7.8 3 0 7.9 3 0 8 3 0 8.1 3 0 8.2 3 0 8.3 3 0 8.4 3 0 8.5 3 0 8.6 3 0 8.7 3 0 8.8 3 0 8.9 3 0 9 3 0 9.1 3 0 9.2 3 0 9.3 3 0 9.4 3 0 9.5 3 0 9.6 3 0 9.7 3 0 9.8 3 0 9.9 3 0 10 3 0 0 3.1 0 0.1 3.1 0 0.2 3.1 0 0.3 3.1 0 0.4 3.1 0 0.5 3.1 0 0.6 3.1 0 0.7 3.1 0 0.8 3.1 0 0.9 3.1 0 1 3.1 0 1.1 3.1 0 1.2 3.1 0 1.3 3.1 0 1.4 3.1 0 1.5 3.1 0 1.6 3.1 0 1.7 3.1 0 1.8 3.1 0 1.9 3.1 0 2 3.1 0 2.1 3.1 0 2.2 3.1 0 2.3 3.1 0 2.4 3.1 0 2.5 3.1 0 2.6 3.1 0 2.7 3.1 0 2.8 3.1 0 2.9 3.1 0 3 3.1 0 3.1 3.1 0 3.2 3.1 0 3.3 3.1 0 3.4 3.1 0 3.5 3.1 0 3.6 3.1 0 3.7 3.1 0 3.8 3.1 0 3.9 3.1 0 4 3.1 0 4.1 3.1 0 4.2 3.1 0 4.3 3.1 0 4.4 3.1 0 4.5 3.1 0 4.6 3.1 0 4.7 3.1 0 4.8 3.1 0 4.9 3.1 0 5 3.1 0 5.1 3.1 0 5.2 3.1 0 5.3 3.1 0 5.4 3.1 0 5.5 3.1 0 5.6 3.1 0 5.7 3.1 0 5.8 3.1 0 5.9 3.1 0 6 3.1 0 6.1 3.1 0 6.2 3.1 0 6.3 3.1 0 6.4 3.1 0 6.5 3.1 0 6.6 3.1 0 6.7 3.1 0 6.8 3.1 0 6.9 3.1 0 7 3.1 0 7.1 3.1 0 7.2 3.1 0 7.3 3.1 0 7.4 3.1 0 7.5 3.1 0 7.6 3.1 0 7.7 3.1 0 7.8 3.1 0 7.9 3.1 0 8 3.1 0 8.1 3.1 0 8.2 3.1 0 8.3 3.1 0 8.4 3.1 0 8.5 3.1 0 8.6 3.1 0 8.7 3.1 0 8.8 3.1 0 8.9 3.1 0 9 3.1 0 9.1 3.1 0 9.2 3.1 0 9.3 3.1 0 9.4 3.1 0 9.5 3.1 0 9.6 3.1 0 9.7 3.1 0 9.8 3.1 0 9.9 3.1 0 10 3.1 0 0 3.2 0 0.1 3.2 0 0.2 3.2 0 0.3 3.2 0 0.4 3.2 0 0.5 3.2 0 0.6 3.2 0 0.7 3.2 0 0.8 3.2 0 0.9 3.2 0 1 3.2 0 1.1 3.2 0 1.2 3.2 0 1.3 3.2 0 1.4 3.2 0 1.5 3.2 0 1.6 3.2 0 1.7 3.2 0 1.8 3.2 0 1.9 3.2 0 2 3.2 0 2.1 3.2 0 2.2 3.2 0 2.3 3.2 0 2.4 3.2 0 2.5 3.2 0 2.6 3.2 0 2.7 3.2 0 2.8 3.2 0 2.9 3.2 0 3 3.2 0 3.1 3.2 0 3.2 3.2 0 3.3 3.2 0 3.4 3.2 0 3.5 3.2 0 3.6 3.2 0 3.7 3.2 0 3.8 3.2 0 3.9 3.2 0 4 3.2 0 4.1 3.2 0 4.2 3.2 0 4.3 3.2 0 4.4 3.2 0 4.5 3.2 0 4.6 3.2 0 4.7 3.2 0 4.8 3.2 0 4.9 3.2 0 5 3.2 0 5.1 3.2 0 5.2 3.2 0 5.3 3.2 0 5.4 3.2 0 5.5 3.2 0 5.6 3.2 0 5.7 3.2 0 5.8 3.2 0 5.9 3.2 0 6 3.2 0 6.1 3.2 0 6.2 3.2 0 6.3 3.2 0 6.4 3.2 0 6.5 3.2 0 6.6 3.2 0 6.7 3.2 0 6.8 3.2 0 6.9 3.2 0 7 3.2 0 7.1 3.2 0 7.2 3.2 0 7.3 3.2 0 7.4 3.2 0 7.5 3.2 0 7.6 3.2 0 7.7 3.2 0 7.8 3.2 0 7.9 3.2 0 8 3.2 0 8.1 3.2 0 8.2 3.2 0 8.3 3.2 0 8.4 3.2 0 8.5 3.2 0 8.6 3.2 0 8.7 3.2 0 8.8 3.2 0 8.9 3.2 0 9 3.2 0 9.1 3.2 0 9.2 3.2 0 9.3 3.2 0 9.4 3.2 0 9.5 3.2 0 9.6 3.2 0 9.7 3.2 0 9.8 3.2 0 9.9 3.2 0 10 3.2 0 0 3.3 0 0.1 3.3 0 0.2 3.3 0 0.3 3.3 0 0.4 3.3 0 0.5 3.3 0 0.6 3.3 0 0.7 3.3 0 0.8 3.3 0 0.9 3.3 0 1 3.3 0 1.1 3.3 0 1.2 3.3 0 1.3 3.3 0 1.4 3.3 0 1.5 3.3 0 1.6 3.3 0 1.7 3.3 0 1.8 3.3 0 1.9 3.3 0 2 3.3 0 2.1 3.3 0 2.2 3.3 0 2.3 3.3 0 2.4 3.3 0 2.5 3.3 0 2.6 3.3 0 2.7 3.3 0 2.8 3.3 0 2.9 3.3 0 3 3.3 0 3.1 3.3 0 3.2 3.3 0 3.3 3.3 0 3.4 3.3 0 3.5 3.3 0 3.6 3.3 0 3.7 3.3 0 3.8 3.3 0 3.9 3.3 0 4 3.3 0 4.1 3.3 0 4.2 3.3 0 4.3 3.3 0 4.4 3.3 0 4.5 3.3 0 4.6 3.3 0 4.7 3.3 0 4.8 3.3 0 4.9 3.3 0 5 3.3 0 5.1 3.3 0 5.2 3.3 0 5.3 3.3 0 5.4 3.3 0 5.5 3.3 0 5.6 3.3 0 5.7 3.3 0 5.8 3.3 0 5.9 3.3 0 6 3.3 0 6.1 3.3 0 6.2 3.3 0 6.3 3.3 0 6.4 3.3 0 6.5 3.3 0 6.6 3.3 0 6.7 3.3 0 6.8 3.3 0 6.9 3.3 0 7 3.3 0 7.1 3.3 0 7.2 3.3 0 7.3 3.3 0 7.4 3.3 0 7.5 3.3 0 7.6 3.3 0 7.7 3.3 0 7.8 3.3 0 7.9 3.3 0 8 3.3 0 8.1 3.3 0 8.2 3.3 0 8.3 3.3 0 8.4 3.3 0 8.5 3.3 0 8.6 3.3 0 8.7 3.3 0 8.8 3.3 0 8.9 3.3 0 9 3.3 0 9.1 3.3 0 9.2 3.3 0 9.3 3.3 0 9.4 3.3 0 9.5 3.3 0 9.6 3.3 0 9.7 3.3 0 9.8 3.3 0 9.9 3.3 0 10 3.3 0 0 3.4 0 0.1 3.4 0 0.2 3.4 0 0.3 3.4 0 0.4 3.4 0 0.5 3.4 0 0.6 3.4 0 0.7 3.4 0 0.8 3.4 0 0.9 3.4 0 1 3.4 0 1.1 3.4 0 1.2 3.4 0 1.3 3.4 0 1.4 3.4 0 1.5 3.4 0 1.6 3.4 0 1.7 3.4 0 1.8 3.4 0 1.9 3.4 0 2 3.4 0 2.1 3.4 0 2.2 3.4 0 2.3 3.4 0 2.4 3.4 0 2.5 3.4 0 2.6 3.4 0 2.7 3.4 0 2.8 3.4 0 2.9 3.4 0 3 3.4 0 3.1 3.4 0 3.2 3.4 0 3.3 3.4 0 3.4 3.4 0 3.5 3.4 0 3.6 3.4 0 3.7 3.4 0 3.8 3.4 0 3.9 3.4 0 4 3.4 0 4.1 3.4 0 4.2 3.4 0 4.3 3.4 0 4.4 3.4 0 4.5 3.4 0 4.6 3.4 0 4.7 3.4 0 4.8 3.4 0 4.9 3.4 0 5 3.4 0 5.1 3.4 0 5.2 3.4 0 5.3 3.4 0 5.4 3.4 0 5.5 3.4 0 5.6 3.4 0 5.7 3.4 0 5.8 3.4 0 5.9 3.4 0 6 3.4 0 6.1 3.4 0 6.2 3.4 0 6.3 3.4 0 6.4 3.4 0 6.5 3.4 0 6.6 3.4 0 6.7 3.4 0 6.8 3.4 0 6.9 3.4 0 7 3.4 0 7.1 3.4 0 7.2 3.4 0 7.3 3.4 0 7.4 3.4 0 7.5 3.4 0 7.6 3.4 0 7.7 3.4 0 7.8 3.4 0 7.9 3.4 0 8 3.4 0 8.1 3.4 0 8.2 3.4 0 8.3 3.4 0 8.4 3.4 0 8.5 3.4 0 8.6 3.4 0 8.7 3.4 0 8.8 3.4 0 8.9 3.4 0 9 3.4 0 9.1 3.4 0 9.2 3.4 0 9.3 3.4 0 9.4 3.4 0 9.5 3.4 0 9.6 3.4 0 9.7 3.4 0 9.8 3.4 0 9.9 3.4 0 10 3.4 0 0 3.5 0 0.1 3.5 0 0.2 3.5 0 0.3 3.5 0 0.4 3.5 0 0.5 3.5 0 0.6 3.5 0 0.7 3.5 0 0.8 3.5 0 0.9 3.5 0 1 3.5 0 1.1 3.5 0 1.2 3.5 0 1.3 3.5 0 1.4 3.5 0 1.5 3.5 0 1.6 3.5 0 1.7 3.5 0 1.8 3.5 0 1.9 3.5 0 2 3.5 0 2.1 3.5 0 2.2 3.5 0 2.3 3.5 0 2.4 3.5 0 2.5 3.5 0 2.6 3.5 0 2.7 3.5 0 2.8 3.5 0 2.9 3.5 0 3 3.5 0 3.1 3.5 0 3.2 3.5 0 3.3 3.5 0 3.4 3.5 0 3.5 3.5 0 3.6 3.5 0 3.7 3.5 0 3.8 3.5 0 3.9 3.5 0 4 3.5 0 4.1 3.5 0 4.2 3.5 0 4.3 3.5 0 4.4 3.5 0 4.5 3.5 0 4.6 3.5 0 4.7 3.5 0 4.8 3.5 0 4.9 3.5 0 5 3.5 0 5.1 3.5 0 5.2 3.5 0 5.3 3.5 0 5.4 3.5 0 5.5 3.5 0 5.6 3.5 0 5.7 3.5 0 5.8 3.5 0 5.9 3.5 0 6 3.5 0 6.1 3.5 0 6.2 3.5 0 6.3 3.5 0 6.4 3.5 0 6.5 3.5 0 6.6 3.5 0 6.7 3.5 0 6.8 3.5 0 6.9 3.5 0 7 3.5 0 7.1 3.5 0 7.2 3.5 0 7.3 3.5 0 7.4 3.5 0 7.5 3.5 0 7.6 3.5 0 7.7 3.5 0 7.8 3.5 0 7.9 3.5 0 8 3.5 0 8.1 3.5 0 8.2 3.5 0 8.3 3.5 0 8.4 3.5 0 8.5 3.5 0 8.6 3.5 0 8.7 3.5 0 8.8 3.5 0 8.9 3.5 0 9 3.5 0 9.1 3.5 0 9.2 3.5 0 9.3 3.5 0 9.4 3.5 0 9.5 3.5 0 9.6 3.5 0 9.7 3.5 0 9.8 3.5 0 9.9 3.5 0 10 3.5 0 0 3.6 0 0.1 3.6 0 0.2 3.6 0 0.3 3.6 0 0.4 3.6 0 0.5 3.6 0 0.6 3.6 0 0.7 3.6 0 0.8 3.6 0 0.9 3.6 0 1 3.6 0 1.1 3.6 0 1.2 3.6 0 1.3 3.6 0 1.4 3.6 0 1.5 3.6 0 1.6 3.6 0 1.7 3.6 0 1.8 3.6 0 1.9 3.6 0 2 3.6 0 2.1 3.6 0 2.2 3.6 0 2.3 3.6 0 2.4 3.6 0 2.5 3.6 0 2.6 3.6 0 2.7 3.6 0 2.8 3.6 0 2.9 3.6 0 3 3.6 0 3.1 3.6 0 3.2 3.6 0 3.3 3.6 0 3.4 3.6 0 3.5 3.6 0 3.6 3.6 0 3.7 3.6 0 3.8 3.6 0 3.9 3.6 0 4 3.6 0 4.1 3.6 0 4.2 3.6 0 4.3 3.6 0 4.4 3.6 0 4.5 3.6 0 4.6 3.6 0 4.7 3.6 0 4.8 3.6 0 4.9 3.6 0 5 3.6 0 5.1 3.6 0 5.2 3.6 0 5.3 3.6 0 5.4 3.6 0 5.5 3.6 0 5.6 3.6 0 5.7 3.6 0 5.8 3.6 0 5.9 3.6 0 6 3.6 0 6.1 3.6 0 6.2 3.6 0 6.3 3.6 0 6.4 3.6 0 6.5 3.6 0 6.6 3.6 0 6.7 3.6 0 6.8 3.6 0 6.9 3.6 0 7 3.6 0 7.1 3.6 0 7.2 3.6 0 7.3 3.6 0 7.4 3.6 0 7.5 3.6 0 7.6 3.6 0 7.7 3.6 0 7.8 3.6 0 7.9 3.6 0 8 3.6 0 8.1 3.6 0 8.2 3.6 0 8.3 3.6 0 8.4 3.6 0 8.5 3.6 0 8.6 3.6 0 8.7 3.6 0 8.8 3.6 0 8.9 3.6 0 9 3.6 0 9.1 3.6 0 9.2 3.6 0 9.3 3.6 0 9.4 3.6 0 9.5 3.6 0 9.6 3.6 0 9.7 3.6 0 9.8 3.6 0 9.9 3.6 0 10 3.6 0 0 3.7 0 0.1 3.7 0 0.2 3.7 0 0.3 3.7 0 0.4 3.7 0 0.5 3.7 0 0.6 3.7 0 0.7 3.7 0 0.8 3.7 0 0.9 3.7 0 1 3.7 0 1.1 3.7 0 1.2 3.7 0 1.3 3.7 0 1.4 3.7 0 1.5 3.7 0 1.6 3.7 0 1.7 3.7 0 1.8 3.7 0 1.9 3.7 0 2 3.7 0 2.1 3.7 0 2.2 3.7 0 2.3 3.7 0 2.4 3.7 0 2.5 3.7 0 2.6 3.7 0 2.7 3.7 0 2.8 3.7 0 2.9 3.7 0 3 3.7 0 3.1 3.7 0 3.2 3.7 0 3.3 3.7 0 3.4 3.7 0 3.5 3.7 0 3.6 3.7 0 3.7 3.7 0 3.8 3.7 0 3.9 3.7 0 4 3.7 0 4.1 3.7 0 4.2 3.7 0 4.3 3.7 0 4.4 3.7 0 4.5 3.7 0 4.6 3.7 0 4.7 3.7 0 4.8 3.7 0 4.9 3.7 0 5 3.7 0 5.1 3.7 0 5.2 3.7 0 5.3 3.7 0 5.4 3.7 0 5.5 3.7 0 5.6 3.7 0 5.7 3.7 0 5.8 3.7 0 5.9 3.7 0 6 3.7 0 6.1 3.7 0 6.2 3.7 0 6.3 3.7 0 6.4 3.7 0 6.5 3.7 0 6.6 3.7 0 6.7 3.7 0 6.8 3.7 0 6.9 3.7 0 7 3.7 0 7.1 3.7 0 7.2 3.7 0 7.3 3.7 0 7.4 3.7 0 7.5 3.7 0 7.6 3.7 0 7.7 3.7 0 7.8 3.7 0 7.9 3.7 0 8 3.7 0 8.1 3.7 0 8.2 3.7 0 8.3 3.7 0 8.4 3.7 0 8.5 3.7 0 8.6 3.7 0 8.7 3.7 0 8.8 3.7 0 8.9 3.7 0 9 3.7 0 9.1 3.7 0 9.2 3.7 0 9.3 3.7 0 9.4 3.7 0 9.5 3.7 0 9.6 3.7 0 9.7 3.7 0 9.8 3.7 0 9.9 3.7 0 10 3.7 0 0 3.8 0 0.1 3.8 0 0.2 3.8 0 0.3 3.8 0 0.4 3.8 0 0.5 3.8 0 0.6 3.8 0 0.7 3.8 0 0.8 3.8 0 0.9 3.8 0 1 3.8 0 1.1 3.8 0 1.2 3.8 0 1.3 3.8 0 1.4 3.8 0 1.5 3.8 0 1.6 3.8 0 1.7 3.8 0 1.8 3.8 0 1.9 3.8 0 2 3.8 0 2.1 3.8 0 2.2 3.8 0 2.3 3.8 0 2.4 3.8 0 2.5 3.8 0 2.6 3.8 0 2.7 3.8 0 2.8 3.8 0 2.9 3.8 0 3 3.8 0 3.1 3.8 0 3.2 3.8 0 3.3 3.8 0 3.4 3.8 0 3.5 3.8 0 3.6 3.8 0 3.7 3.8 0 3.8 3.8 0 3.9 3.8 0 4 3.8 0 4.1 3.8 0 4.2 3.8 0 4.3 3.8 0 4.4 3.8 0 4.5 3.8 0 4.6 3.8 0 4.7 3.8 0 4.8 3.8 0 4.9 3.8 0 5 3.8 0 5.1 3.8 0 5.2 3.8 0 5.3 3.8 0 5.4 3.8 0 5.5 3.8 0 5.6 3.8 0 5.7 3.8 0 5.8 3.8 0 5.9 3.8 0 6 3.8 0 6.1 3.8 0 6.2 3.8 0 6.3 3.8 0 6.4 3.8 0 6.5 3.8 0 6.6 3.8 0 6.7 3.8 0 6.8 3.8 0 6.9 3.8 0 7 3.8 0 7.1 3.8 0 7.2 3.8 0 7.3 3.8 0 7.4 3.8 0 7.5 3.8 0 7.6 3.8 0 7.7 3.8 0 7.8 3.8 0 7.9 3.8 0 8 3.8 0 8.1 3.8 0 8.2 3.8 0 8.3 3.8 0 8.4 3.8 0 8.5 3.8 0 8.6 3.8 0 8.7 3.8 0 8.8 3.8 0 8.9 3.8 0 9 3.8 0 9.1 3.8 0 9.2 3.8 0 9.3 3.8 0 9.4 3.8 0 9.5 3.8 0 9.6 3.8 0 9.7 3.8 0 9.8 3.8 0 9.9 3.8 0 10 3.8 0 0 3.9 0 0.1 3.9 0 0.2 3.9 0 0.3 3.9 0 0.4 3.9 0 0.5 3.9 0 0.6 3.9 0 0.7 3.9 0 0.8 3.9 0 0.9 3.9 0 1 3.9 0 1.1 3.9 0 1.2 3.9 0 1.3 3.9 0 1.4 3.9 0 1.5 3.9 0 1.6 3.9 0 1.7 3.9 0 1.8 3.9 0 1.9 3.9 0 2 3.9 0 2.1 3.9 0 2.2 3.9 0 2.3 3.9 0 2.4 3.9 0 2.5 3.9 0 2.6 3.9 0 2.7 3.9 0 2.8 3.9 0 2.9 3.9 0 3 3.9 0 3.1 3.9 0 3.2 3.9 0 3.3 3.9 0 3.4 3.9 0 3.5 3.9 0 3.6 3.9 0 3.7 3.9 0 3.8 3.9 0 3.9 3.9 0 4 3.9 0 4.1 3.9 0 4.2 3.9 0 4.3 3.9 0 4.4 3.9 0 4.5 3.9 0 4.6 3.9 0 4.7 3.9 0 4.8 3.9 0 4.9 3.9 0 5 3.9 0 5.1 3.9 0 5.2 3.9 0 5.3 3.9 0 5.4 3.9 0 5.5 3.9 0 5.6 3.9 0 5.7 3.9 0 5.8 3.9 0 5.9 3.9 0 6 3.9 0 6.1 3.9 0 6.2 3.9 0 6.3 3.9 0 6.4 3.9 0 6.5 3.9 0 6.6 3.9 0 6.7 3.9 0 6.8 3.9 0 6.9 3.9 0 7 3.9 0 7.1 3.9 0 7.2 3.9 0 7.3 3.9 0 7.4 3.9 0 7.5 3.9 0 7.6 3.9 0 7.7 3.9 0 7.8 3.9 0 7.9 3.9 0 8 3.9 0 8.1 3.9 0 8.2 3.9 0 8.3 3.9 0 8.4 3.9 0 8.5 3.9 0 8.6 3.9 0 8.7 3.9 0 8.8 3.9 0 8.9 3.9 0 9 3.9 0 9.1 3.9 0 9.2 3.9 0 9.3 3.9 0 9.4 3.9 0 9.5 3.9 0 9.6 3.9 0 9.7 3.9 0 9.8 3.9 0 9.9 3.9 0 10 3.9 0 0 4 0 0.1 4 0 0.2 4 0 0.3 4 0 0.4 4 0 0.5 4 0 0.6 4 0 0.7 4 0 0.8 4 0 0.9 4 0 1 4 0 1.1 4 0 1.2 4 0 1.3 4 0 1.4 4 0 1.5 4 0 1.6 4 0 1.7 4 0 1.8 4 0 1.9 4 0 2 4 0 2.1 4 0 2.2 4 0 2.3 4 0 2.4 4 0 2.5 4 0 2.6 4 0 2.7 4 0 2.8 4 0 2.9 4 0 3 4 0 3.1 4 0 3.2 4 0 3.3 4 0 3.4 4 0 3.5 4 0 3.6 4 0 3.7 4 0 3.8 4 0 3.9 4 0 4 4 0 4.1 4 0 4.2 4 0 4.3 4 0 4.4 4 0 4.5 4 0 4.6 4 0 4.7 4 0 4.8 4 0 4.9 4 0 5 4 0 5.1 4 0 5.2 4 0 5.3 4 0 5.4 4 0 5.5 4 0 5.6 4 0 5.7 4 0 5.8 4 0 5.9 4 0 6 4 0 6.1 4 0 6.2 4 0 6.3 4 0 6.4 4 0 6.5 4 0 6.6 4 0 6.7 4 0 6.8 4 0 6.9 4 0 7 4 0 7.1 4 0 7.2 4 0 7.3 4 0 7.4 4 0 7.5 4 0 7.6 4 0 7.7 4 0 7.8 4 0 7.9 4 0 8 4 0 8.1 4 0 8.2 4 0 8.3 4 0 8.4 4 0 8.5 4 0 8.6 4 0 8.7 4 0 8.8 4 0 8.9 4 0 9 4 0 9.1 4 0 9.2 4 0 9.3 4 0 9.4 4 0 9.5 4 0 9.6 4 0 9.7 4 0 9.8 4 0 9.9 4 0 10 4 0 0 4.1 0 0.1 4.1 0 0.2 4.1 0 0.3 4.1 0 0.4 4.1 0 0.5 4.1 0 0.6 4.1 0 0.7 4.1 0 0.8 4.1 0 0.9 4.1 0 1 4.1 0 1.1 4.1 0 1.2 4.1 0 1.3 4.1 0 1.4 4.1 0 1.5 4.1 0 1.6 4.1 0 1.7 4.1 0 1.8 4.1 0 1.9 4.1 0 2 4.1 0 2.1 4.1 0 2.2 4.1 0 2.3 4.1 0 2.4 4.1 0 2.5 4.1 0 2.6 4.1 0 2.7 4.1 0 2.8 4.1 0 2.9 4.1 0 3 4.1 0 3.1 4.1 0 3.2 4.1 0 3.3 4.1 0 3.4 4.1 0 3.5 4.1 0 3.6 4.1 0 3.7 4.1 0 3.8 4.1 0 3.9 4.1 0 4 4.1 0 4.1 4.1 0 4.2 4.1 0 4.3 4.1 0 4.4 4.1 0 4.5 4.1 0 4.6 4.1 0 4.7 4.1 0 4.8 4.1 0 4.9 4.1 0 5 4.1 0 5.1 4.1 0 5.2 4.1 0 5.3 4.1 0 5.4 4.1 0 5.5 4.1 0 5.6 4.1 0 5.7 4.1 0 5.8 4.1 0 5.9 4.1 0 6 4.1 0 6.1 4.1 0 6.2 4.1 0 6.3 4.1 0 6.4 4.1 0 6.5 4.1 0 6.6 4.1 0 6.7 4.1 0 6.8 4.1 0 6.9 4.1 0 7 4.1 0 7.1 4.1 0 7.2 4.1 0 7.3 4.1 0 7.4 4.1 0 7.5 4.1 0 7.6 4.1 0 7.7 4.1 0 7.8 4.1 0 7.9 4.1 0 8 4.1 0 8.1 4.1 0 8.2 4.1 0 8.3 4.1 0 8.4 4.1 0 8.5 4.1 0 8.6 4.1 0 8.7 4.1 0 8.8 4.1 0 8.9 4.1 0 9 4.1 0 9.1 4.1 0 9.2 4.1 0 9.3 4.1 0 9.4 4.1 0 9.5 4.1 0 9.6 4.1 0 9.7 4.1 0 9.8 4.1 0 9.9 4.1 0 10 4.1 0 0 4.2 0 0.1 4.2 0 0.2 4.2 0 0.3 4.2 0 0.4 4.2 0 0.5 4.2 0 0.6 4.2 0 0.7 4.2 0 0.8 4.2 0 0.9 4.2 0 1 4.2 0 1.1 4.2 0 1.2 4.2 0 1.3 4.2 0 1.4 4.2 0 1.5 4.2 0 1.6 4.2 0 1.7 4.2 0 1.8 4.2 0 1.9 4.2 0 2 4.2 0 2.1 4.2 0 2.2 4.2 0 2.3 4.2 0 2.4 4.2 0 2.5 4.2 0 2.6 4.2 0 2.7 4.2 0 2.8 4.2 0 2.9 4.2 0 3 4.2 0 3.1 4.2 0 3.2 4.2 0 3.3 4.2 0 3.4 4.2 0 3.5 4.2 0 3.6 4.2 0 3.7 4.2 0 3.8 4.2 0 3.9 4.2 0 4 4.2 0 4.1 4.2 0 4.2 4.2 0 4.3 4.2 0 4.4 4.2 0 4.5 4.2 0 4.6 4.2 0 4.7 4.2 0 4.8 4.2 0 4.9 4.2 0 5 4.2 0 5.1 4.2 0 5.2 4.2 0 5.3 4.2 0 5.4 4.2 0 5.5 4.2 0 5.6 4.2 0 5.7 4.2 0 5.8 4.2 0 5.9 4.2 0 6 4.2 0 6.1 4.2 0 6.2 4.2 0 6.3 4.2 0 6.4 4.2 0 6.5 4.2 0 6.6 4.2 0 6.7 4.2 0 6.8 4.2 0 6.9 4.2 0 7 4.2 0 7.1 4.2 0 7.2 4.2 0 7.3 4.2 0 7.4 4.2 0 7.5 4.2 0 7.6 4.2 0 7.7 4.2 0 7.8 4.2 0 7.9 4.2 0 8 4.2 0 8.1 4.2 0 8.2 4.2 0 8.3 4.2 0 8.4 4.2 0 8.5 4.2 0 8.6 4.2 0 8.7 4.2 0 8.8 4.2 0 8.9 4.2 0 9 4.2 0 9.1 4.2 0 9.2 4.2 0 9.3 4.2 0 9.4 4.2 0 9.5 4.2 0 9.6 4.2 0 9.7 4.2 0 9.8 4.2 0 9.9 4.2 0 10 4.2 0 0 4.3 0 0.1 4.3 0 0.2 4.3 0 0.3 4.3 0 0.4 4.3 0 0.5 4.3 0 0.6 4.3 0 0.7 4.3 0 0.8 4.3 0 0.9 4.3 0 1 4.3 0 1.1 4.3 0 1.2 4.3 0 1.3 4.3 0 1.4 4.3 0 1.5 4.3 0 1.6 4.3 0 1.7 4.3 0 1.8 4.3 0 1.9 4.3 0 2 4.3 0 2.1 4.3 0 2.2 4.3 0 2.3 4.3 0 2.4 4.3 0 2.5 4.3 0 2.6 4.3 0 2.7 4.3 0 2.8 4.3 0 2.9 4.3 0 3 4.3 0 3.1 4.3 0 3.2 4.3 0 3.3 4.3 0 3.4 4.3 0 3.5 4.3 0 3.6 4.3 0 3.7 4.3 0 3.8 4.3 0 3.9 4.3 0 4 4.3 0 4.1 4.3 0 4.2 4.3 0 4.3 4.3 0 4.4 4.3 0 4.5 4.3 0 4.6 4.3 0 4.7 4.3 0 4.8 4.3 0 4.9 4.3 0 5 4.3 0 5.1 4.3 0 5.2 4.3 0 5.3 4.3 0 5.4 4.3 0 5.5 4.3 0 5.6 4.3 0 5.7 4.3 0 5.8 4.3 0 5.9 4.3 0 6 4.3 0 6.1 4.3 0 6.2 4.3 0 6.3 4.3 0 6.4 4.3 0 6.5 4.3 0 6.6 4.3 0 6.7 4.3 0 6.8 4.3 0 6.9 4.3 0 7 4.3 0 7.1 4.3 0 7.2 4.3 0 7.3 4.3 0 7.4 4.3 0 7.5 4.3 0 7.6 4.3 0 7.7 4.3 0 7.8 4.3 0 7.9 4.3 0 8 4.3 0 8.1 4.3 0 8.2 4.3 0 8.3 4.3 0 8.4 4.3 0 8.5 4.3 0 8.6 4.3 0 8.7 4.3 0 8.8 4.3 0 8.9 4.3 0 9 4.3 0 9.1 4.3 0 9.2 4.3 0 9.3 4.3 0 9.4 4.3 0 9.5 4.3 0 9.6 4.3 0 9.7 4.3 0 9.8 4.3 0 9.9 4.3 0 10 4.3 0 0 4.4 0 0.1 4.4 0 0.2 4.4 0 0.3 4.4 0 0.4 4.4 0 0.5 4.4 0 0.6 4.4 0 0.7 4.4 0 0.8 4.4 0 0.9 4.4 0 1 4.4 0 1.1 4.4 0 1.2 4.4 0 1.3 4.4 0 1.4 4.4 0 1.5 4.4 0 1.6 4.4 0 1.7 4.4 0 1.8 4.4 0 1.9 4.4 0 2 4.4 0 2.1 4.4 0 2.2 4.4 0 2.3 4.4 0 2.4 4.4 0 2.5 4.4 0 2.6 4.4 0 2.7 4.4 0 2.8 4.4 0 2.9 4.4 0 3 4.4 0 3.1 4.4 0 3.2 4.4 0 3.3 4.4 0 3.4 4.4 0 3.5 4.4 0 3.6 4.4 0 3.7 4.4 0 3.8 4.4 0 3.9 4.4 0 4 4.4 0 4.1 4.4 0 4.2 4.4 0 4.3 4.4 0 4.4 4.4 0 4.5 4.4 0 4.6 4.4 0 4.7 4.4 0 4.8 4.4 0 4.9 4.4 0 5 4.4 0 5.1 4.4 0 5.2 4.4 0 5.3 4.4 0 5.4 4.4 0 5.5 4.4 0 5.6 4.4 0 5.7 4.4 0 5.8 4.4 0 5.9 4.4 0 6 4.4 0 6.1 4.4 0 6.2 4.4 0 6.3 4.4 0 6.4 4.4 0 6.5 4.4 0 6.6 4.4 0 6.7 4.4 0 6.8 4.4 0 6.9 4.4 0 7 4.4 0 7.1 4.4 0 7.2 4.4 0 7.3 4.4 0 7.4 4.4 0 7.5 4.4 0 7.6 4.4 0 7.7 4.4 0 7.8 4.4 0 7.9 4.4 0 8 4.4 0 8.1 4.4 0 8.2 4.4 0 8.3 4.4 0 8.4 4.4 0 8.5 4.4 0 8.6 4.4 0 8.7 4.4 0 8.8 4.4 0 8.9 4.4 0 9 4.4 0 9.1 4.4 0 9.2 4.4 0 9.3 4.4 0 9.4 4.4 0 9.5 4.4 0 9.6 4.4 0 9.7 4.4 0 9.8 4.4 0 9.9 4.4 0 10 4.4 0 0 4.5 0 0.1 4.5 0 0.2 4.5 0 0.3 4.5 0 0.4 4.5 0 0.5 4.5 0 0.6 4.5 0 0.7 4.5 0 0.8 4.5 0 0.9 4.5 0 1 4.5 0 1.1 4.5 0 1.2 4.5 0 1.3 4.5 0 1.4 4.5 0 1.5 4.5 0 1.6 4.5 0 1.7 4.5 0 1.8 4.5 0 1.9 4.5 0 2 4.5 0 2.1 4.5 0 2.2 4.5 0 2.3 4.5 0 2.4 4.5 0 2.5 4.5 0 2.6 4.5 0 2.7 4.5 0 2.8 4.5 0 2.9 4.5 0 3 4.5 0 3.1 4.5 0 3.2 4.5 0 3.3 4.5 0 3.4 4.5 0 3.5 4.5 0 3.6 4.5 0 3.7 4.5 0 3.8 4.5 0 3.9 4.5 0 4 4.5 0 4.1 4.5 0 4.2 4.5 0 4.3 4.5 0 4.4 4.5 0 4.5 4.5 0 4.6 4.5 0 4.7 4.5 0 4.8 4.5 0 4.9 4.5 0 5 4.5 0 5.1 4.5 0 5.2 4.5 0 5.3 4.5 0 5.4 4.5 0 5.5 4.5 0 5.6 4.5 0 5.7 4.5 0 5.8 4.5 0 5.9 4.5 0 6 4.5 0 6.1 4.5 0 6.2 4.5 0 6.3 4.5 0 6.4 4.5 0 6.5 4.5 0 6.6 4.5 0 6.7 4.5 0 6.8 4.5 0 6.9 4.5 0 7 4.5 0 7.1 4.5 0 7.2 4.5 0 7.3 4.5 0 7.4 4.5 0 7.5 4.5 0 7.6 4.5 0 7.7 4.5 0 7.8 4.5 0 7.9 4.5 0 8 4.5 0 8.1 4.5 0 8.2 4.5 0 8.3 4.5 0 8.4 4.5 0 8.5 4.5 0 8.6 4.5 0 8.7 4.5 0 8.8 4.5 0 8.9 4.5 0 9 4.5 0 9.1 4.5 0 9.2 4.5 0 9.3 4.5 0 9.4 4.5 0 9.5 4.5 0 9.6 4.5 0 9.7 4.5 0 9.8 4.5 0 9.9 4.5 0 10 4.5 0 0 4.6 0 0.1 4.6 0 0.2 4.6 0 0.3 4.6 0 0.4 4.6 0 0.5 4.6 0 0.6 4.6 0 0.7 4.6 0 0.8 4.6 0 0.9 4.6 0 1 4.6 0 1.1 4.6 0 1.2 4.6 0 1.3 4.6 0 1.4 4.6 0 1.5 4.6 0 1.6 4.6 0 1.7 4.6 0 1.8 4.6 0 1.9 4.6 0 2 4.6 0 2.1 4.6 0 2.2 4.6 0 2.3 4.6 0 2.4 4.6 0 2.5 4.6 0 2.6 4.6 0 2.7 4.6 0 2.8 4.6 0 2.9 4.6 0 3 4.6 0 3.1 4.6 0 3.2 4.6 0 3.3 4.6 0 3.4 4.6 0 3.5 4.6 0 3.6 4.6 0 3.7 4.6 0 3.8 4.6 0 3.9 4.6 0 4 4.6 0 4.1 4.6 0 4.2 4.6 0 4.3 4.6 0 4.4 4.6 0 4.5 4.6 0 4.6 4.6 0 4.7 4.6 0 4.8 4.6 0 4.9 4.6 0 5 4.6 0 5.1 4.6 0 5.2 4.6 0 5.3 4.6 0 5.4 4.6 0 5.5 4.6 0 5.6 4.6 0 5.7 4.6 0 5.8 4.6 0 5.9 4.6 0 6 4.6 0 6.1 4.6 0 6.2 4.6 0 6.3 4.6 0 6.4 4.6 0 6.5 4.6 0 6.6 4.6 0 6.7 4.6 0 6.8 4.6 0 6.9 4.6 0 7 4.6 0 7.1 4.6 0 7.2 4.6 0 7.3 4.6 0 7.4 4.6 0 7.5 4.6 0 7.6 4.6 0 7.7 4.6 0 7.8 4.6 0 7.9 4.6 0 8 4.6 0 8.1 4.6 0 8.2 4.6 0 8.3 4.6 0 8.4 4.6 0 8.5 4.6 0 8.6 4.6 0 8.7 4.6 0 8.8 4.6 0 8.9 4.6 0 9 4.6 0 9.1 4.6 0 9.2 4.6 0 9.3 4.6 0 9.4 4.6 0 9.5 4.6 0 9.6 4.6 0 9.7 4.6 0 9.8 4.6 0 9.9 4.6 0 10 4.6 0 0 4.7 0 0.1 4.7 0 0.2 4.7 0 0.3 4.7 0 0.4 4.7 0 0.5 4.7 0 0.6 4.7 0 0.7 4.7 0 0.8 4.7 0 0.9 4.7 0 1 4.7 0 1.1 4.7 0 1.2 4.7 0 1.3 4.7 0 1.4 4.7 0 1.5 4.7 0 1.6 4.7 0 1.7 4.7 0 1.8 4.7 0 1.9 4.7 0 2 4.7 0 2.1 4.7 0 2.2 4.7 0 2.3 4.7 0 2.4 4.7 0 2.5 4.7 0 2.6 4.7 0 2.7 4.7 0 2.8 4.7 0 2.9 4.7 0 3 4.7 0 3.1 4.7 0 3.2 4.7 0 3.3 4.7 0 3.4 4.7 0 3.5 4.7 0 3.6 4.7 0 3.7 4.7 0 3.8 4.7 0 3.9 4.7 0 4 4.7 0 4.1 4.7 0 4.2 4.7 0 4.3 4.7 0 4.4 4.7 0 4.5 4.7 0 4.6 4.7 0 4.7 4.7 0 4.8 4.7 0 4.9 4.7 0 5 4.7 0 5.1 4.7 0 5.2 4.7 0 5.3 4.7 0 5.4 4.7 0 5.5 4.7 0 5.6 4.7 0 5.7 4.7 0 5.8 4.7 0 5.9 4.7 0 6 4.7 0 6.1 4.7 0 6.2 4.7 0 6.3 4.7 0 6.4 4.7 0 6.5 4.7 0 6.6 4.7 0 6.7 4.7 0 6.8 4.7 0 6.9 4.7 0 7 4.7 0 7.1 4.7 0 7.2 4.7 0 7.3 4.7 0 7.4 4.7 0 7.5 4.7 0 7.6 4.7 0 7.7 4.7 0 7.8 4.7 0 7.9 4.7 0 8 4.7 0 8.1 4.7 0 8.2 4.7 0 8.3 4.7 0 8.4 4.7 0 8.5 4.7 0 8.6 4.7 0 8.7 4.7 0 8.8 4.7 0 8.9 4.7 0 9 4.7 0 9.1 4.7 0 9.2 4.7 0 9.3 4.7 0 9.4 4.7 0 9.5 4.7 0 9.6 4.7 0 9.7 4.7 0 9.8 4.7 0 9.9 4.7 0 10 4.7 0 0 4.8 0 0.1 4.8 0 0.2 4.8 0 0.3 4.8 0 0.4 4.8 0 0.5 4.8 0 0.6 4.8 0 0.7 4.8 0 0.8 4.8 0 0.9 4.8 0 1 4.8 0 1.1 4.8 0 1.2 4.8 0 1.3 4.8 0 1.4 4.8 0 1.5 4.8 0 1.6 4.8 0 1.7 4.8 0 1.8 4.8 0 1.9 4.8 0 2 4.8 0 2.1 4.8 0 2.2 4.8 0 2.3 4.8 0 2.4 4.8 0 2.5 4.8 0 2.6 4.8 0 2.7 4.8 0 2.8 4.8 0 2.9 4.8 0 3 4.8 0 3.1 4.8 0 3.2 4.8 0 3.3 4.8 0 3.4 4.8 0 3.5 4.8 0 3.6 4.8 0 3.7 4.8 0 3.8 4.8 0 3.9 4.8 0 4 4.8 0 4.1 4.8 0 4.2 4.8 0 4.3 4.8 0 4.4 4.8 0 4.5 4.8 0 4.6 4.8 0 4.7 4.8 0 4.8 4.8 0 4.9 4.8 0 5 4.8 0 5.1 4.8 0 5.2 4.8 0 5.3 4.8 0 5.4 4.8 0 5.5 4.8 0 5.6 4.8 0 5.7 4.8 0 5.8 4.8 0 5.9 4.8 0 6 4.8 0 6.1 4.8 0 6.2 4.8 0 6.3 4.8 0 6.4 4.8 0 6.5 4.8 0 6.6 4.8 0 6.7 4.8 0 6.8 4.8 0 6.9 4.8 0 7 4.8 0 7.1 4.8 0 7.2 4.8 0 7.3 4.8 0 7.4 4.8 0 7.5 4.8 0 7.6 4.8 0 7.7 4.8 0 7.8 4.8 0 7.9 4.8 0 8 4.8 0 8.1 4.8 0 8.2 4.8 0 8.3 4.8 0 8.4 4.8 0 8.5 4.8 0 8.6 4.8 0 8.7 4.8 0 8.8 4.8 0 8.9 4.8 0 9 4.8 0 9.1 4.8 0 9.2 4.8 0 9.3 4.8 0 9.4 4.8 0 9.5 4.8 0 9.6 4.8 0 9.7 4.8 0 9.8 4.8 0 9.9 4.8 0 10 4.8 0 0 4.9 0 0.1 4.9 0 0.2 4.9 0 0.3 4.9 0 0.4 4.9 0 0.5 4.9 0 0.6 4.9 0 0.7 4.9 0 0.8 4.9 0 0.9 4.9 0 1 4.9 0 1.1 4.9 0 1.2 4.9 0 1.3 4.9 0 1.4 4.9 0 1.5 4.9 0 1.6 4.9 0 1.7 4.9 0 1.8 4.9 0 1.9 4.9 0 2 4.9 0 2.1 4.9 0 2.2 4.9 0 2.3 4.9 0 2.4 4.9 0 2.5 4.9 0 2.6 4.9 0 2.7 4.9 0 2.8 4.9 0 2.9 4.9 0 3 4.9 0 3.1 4.9 0 3.2 4.9 0 3.3 4.9 0 3.4 4.9 0 3.5 4.9 0 3.6 4.9 0 3.7 4.9 0 3.8 4.9 0 3.9 4.9 0 4 4.9 0 4.1 4.9 0 4.2 4.9 0 4.3 4.9 0 4.4 4.9 0 4.5 4.9 0 4.6 4.9 0 4.7 4.9 0 4.8 4.9 0 4.9 4.9 0 5 4.9 0 5.1 4.9 0 5.2 4.9 0 5.3 4.9 0 5.4 4.9 0 5.5 4.9 0 5.6 4.9 0 5.7 4.9 0 5.8 4.9 0 5.9 4.9 0 6 4.9 0 6.1 4.9 0 6.2 4.9 0 6.3 4.9 0 6.4 4.9 0 6.5 4.9 0 6.6 4.9 0 6.7 4.9 0 6.8 4.9 0 6.9 4.9 0 7 4.9 0 7.1 4.9 0 7.2 4.9 0 7.3 4.9 0 7.4 4.9 0 7.5 4.9 0 7.6 4.9 0 7.7 4.9 0 7.8 4.9 0 7.9 4.9 0 8 4.9 0 8.1 4.9 0 8.2 4.9 0 8.3 4.9 0 8.4 4.9 0 8.5 4.9 0 8.6 4.9 0 8.7 4.9 0 8.8 4.9 0 8.9 4.9 0 9 4.9 0 9.1 4.9 0 9.2 4.9 0 9.3 4.9 0 9.4 4.9 0 9.5 4.9 0 9.6 4.9 0 9.7 4.9 0 9.8 4.9 0 9.9 4.9 0 10 4.9 0 0 5 0 0.1 5 0 0.2 5 0 0.3 5 0 0.4 5 0 0.5 5 0 0.6 5 0 0.7 5 0 0.8 5 0 0.9 5 0 1 5 0 1.1 5 0 1.2 5 0 1.3 5 0 1.4 5 0 1.5 5 0 1.6 5 0 1.7 5 0 1.8 5 0 1.9 5 0 2 5 0 2.1 5 0 2.2 5 0 2.3 5 0 2.4 5 0 2.5 5 0 2.6 5 0 2.7 5 0 2.8 5 0 2.9 5 0 3 5 0 3.1 5 0 3.2 5 0 3.3 5 0 3.4 5 0 3.5 5 0 3.6 5 0 3.7 5 0 3.8 5 0 3.9 5 0 4 5 0 4.1 5 0 4.2 5 0 4.3 5 0 4.4 5 0 4.5 5 0 4.6 5 0 4.7 5 0 4.8 5 0 4.9 5 0 5 5 0 5.1 5 0 5.2 5 0 5.3 5 0 5.4 5 0 5.5 5 0 5.6 5 0 5.7 5 0 5.8 5 0 5.9 5 0 6 5 0 6.1 5 0 6.2 5 0 6.3 5 0 6.4 5 0 6.5 5 0 6.6 5 0 6.7 5 0 6.8 5 0 6.9 5 0 7 5 0 7.1 5 0 7.2 5 0 7.3 5 0 7.4 5 0 7.5 5 0 7.6 5 0 7.7 5 0 7.8 5 0 7.9 5 0 8 5 0 8.1 5 0 8.2 5 0 8.3 5 0 8.4 5 0 8.5 5 0 8.6 5 0 8.7 5 0 8.8 5 0 8.9 5 0 9 5 0 9.1 5 0 9.2 5 0 9.3 5 0 9.4 5 0 9.5 5 0 9.6 5 0 9.7 5 0 9.8 5 0 9.9 5 0 10 5 0 0 5.1 0 0.1 5.1 0 0.2 5.1 0 0.3 5.1 0 0.4 5.1 0 0.5 5.1 0 0.6 5.1 0 0.7 5.1 0 0.8 5.1 0 0.9 5.1 0 1 5.1 0 1.1 5.1 0 1.2 5.1 0 1.3 5.1 0 1.4 5.1 0 1.5 5.1 0 1.6 5.1 0 1.7 5.1 0 1.8 5.1 0 1.9 5.1 0 2 5.1 0 2.1 5.1 0 2.2 5.1 0 2.3 5.1 0 2.4 5.1 0 2.5 5.1 0 2.6 5.1 0 2.7 5.1 0 2.8 5.1 0 2.9 5.1 0 3 5.1 0 3.1 5.1 0 3.2 5.1 0 3.3 5.1 0 3.4 5.1 0 3.5 5.1 0 3.6 5.1 0 3.7 5.1 0 3.8 5.1 0 3.9 5.1 0 4 5.1 0 4.1 5.1 0 4.2 5.1 0 4.3 5.1 0 4.4 5.1 0 4.5 5.1 0 4.6 5.1 0 4.7 5.1 0 4.8 5.1 0 4.9 5.1 0 5 5.1 0 5.1 5.1 0 5.2 5.1 0 5.3 5.1 0 5.4 5.1 0 5.5 5.1 0 5.6 5.1 0 5.7 5.1 0 5.8 5.1 0 5.9 5.1 0 6 5.1 0 6.1 5.1 0 6.2 5.1 0 6.3 5.1 0 6.4 5.1 0 6.5 5.1 0 6.6 5.1 0 6.7 5.1 0 6.8 5.1 0 6.9 5.1 0 7 5.1 0 7.1 5.1 0 7.2 5.1 0 7.3 5.1 0 7.4 5.1 0 7.5 5.1 0 7.6 5.1 0 7.7 5.1 0 7.8 5.1 0 7.9 5.1 0 8 5.1 0 8.1 5.1 0 8.2 5.1 0 8.3 5.1 0 8.4 5.1 0 8.5 5.1 0 8.6 5.1 0 8.7 5.1 0 8.8 5.1 0 8.9 5.1 0 9 5.1 0 9.1 5.1 0 9.2 5.1 0 9.3 5.1 0 9.4 5.1 0 9.5 5.1 0 9.6 5.1 0 9.7 5.1 0 9.8 5.1 0 9.9 5.1 0 10 5.1 0 0 5.2 0 0.1 5.2 0 0.2 5.2 0 0.3 5.2 0 0.4 5.2 0 0.5 5.2 0 0.6 5.2 0 0.7 5.2 0 0.8 5.2 0 0.9 5.2 0 1 5.2 0 1.1 5.2 0 1.2 5.2 0 1.3 5.2 0 1.4 5.2 0 1.5 5.2 0 1.6 5.2 0 1.7 5.2 0 1.8 5.2 0 1.9 5.2 0 2 5.2 0 2.1 5.2 0 2.2 5.2 0 2.3 5.2 0 2.4 5.2 0 2.5 5.2 0 2.6 5.2 0 2.7 5.2 0 2.8 5.2 0 2.9 5.2 0 3 5.2 0 3.1 5.2 0 3.2 5.2 0 3.3 5.2 0 3.4 5.2 0 3.5 5.2 0 3.6 5.2 0 3.7 5.2 0 3.8 5.2 0 3.9 5.2 0 4 5.2 0 4.1 5.2 0 4.2 5.2 0 4.3 5.2 0 4.4 5.2 0 4.5 5.2 0 4.6 5.2 0 4.7 5.2 0 4.8 5.2 0 4.9 5.2 0 5 5.2 0 5.1 5.2 0 5.2 5.2 0 5.3 5.2 0 5.4 5.2 0 5.5 5.2 0 5.6 5.2 0 5.7 5.2 0 5.8 5.2 0 5.9 5.2 0 6 5.2 0 6.1 5.2 0 6.2 5.2 0 6.3 5.2 0 6.4 5.2 0 6.5 5.2 0 6.6 5.2 0 6.7 5.2 0 6.8 5.2 0 6.9 5.2 0 7 5.2 0 7.1 5.2 0 7.2 5.2 0 7.3 5.2 0 7.4 5.2 0 7.5 5.2 0 7.6 5.2 0 7.7 5.2 0 7.8 5.2 0 7.9 5.2 0 8 5.2 0 8.1 5.2 0 8.2 5.2 0 8.3 5.2 0 8.4 5.2 0 8.5 5.2 0 8.6 5.2 0 8.7 5.2 0 8.8 5.2 0 8.9 5.2 0 9 5.2 0 9.1 5.2 0 9.2 5.2 0 9.3 5.2 0 9.4 5.2 0 9.5 5.2 0 9.6 5.2 0 9.7 5.2 0 9.8 5.2 0 9.9 5.2 0 10 5.2 0 0 5.3 0 0.1 5.3 0 0.2 5.3 0 0.3 5.3 0 0.4 5.3 0 0.5 5.3 0 0.6 5.3 0 0.7 5.3 0 0.8 5.3 0 0.9 5.3 0 1 5.3 0 1.1 5.3 0 1.2 5.3 0 1.3 5.3 0 1.4 5.3 0 1.5 5.3 0 1.6 5.3 0 1.7 5.3 0 1.8 5.3 0 1.9 5.3 0 2 5.3 0 2.1 5.3 0 2.2 5.3 0 2.3 5.3 0 2.4 5.3 0 2.5 5.3 0 2.6 5.3 0 2.7 5.3 0 2.8 5.3 0 2.9 5.3 0 3 5.3 0 3.1 5.3 0 3.2 5.3 0 3.3 5.3 0 3.4 5.3 0 3.5 5.3 0 3.6 5.3 0 3.7 5.3 0 3.8 5.3 0 3.9 5.3 0 4 5.3 0 4.1 5.3 0 4.2 5.3 0 4.3 5.3 0 4.4 5.3 0 4.5 5.3 0 4.6 5.3 0 4.7 5.3 0 4.8 5.3 0 4.9 5.3 0 5 5.3 0 5.1 5.3 0 5.2 5.3 0 5.3 5.3 0 5.4 5.3 0 5.5 5.3 0 5.6 5.3 0 5.7 5.3 0 5.8 5.3 0 5.9 5.3 0 6 5.3 0 6.1 5.3 0 6.2 5.3 0 6.3 5.3 0 6.4 5.3 0 6.5 5.3 0 6.6 5.3 0 6.7 5.3 0 6.8 5.3 0 6.9 5.3 0 7 5.3 0 7.1 5.3 0 7.2 5.3 0 7.3 5.3 0 7.4 5.3 0 7.5 5.3 0 7.6 5.3 0 7.7 5.3 0 7.8 5.3 0 7.9 5.3 0 8 5.3 0 8.1 5.3 0 8.2 5.3 0 8.3 5.3 0 8.4 5.3 0 8.5 5.3 0 8.6 5.3 0 8.7 5.3 0 8.8 5.3 0 8.9 5.3 0 9 5.3 0 9.1 5.3 0 9.2 5.3 0 9.3 5.3 0 9.4 5.3 0 9.5 5.3 0 9.6 5.3 0 9.7 5.3 0 9.8 5.3 0 9.9 5.3 0 10 5.3 0 0 5.4 0 0.1 5.4 0 0.2 5.4 0 0.3 5.4 0 0.4 5.4 0 0.5 5.4 0 0.6 5.4 0 0.7 5.4 0 0.8 5.4 0 0.9 5.4 0 1 5.4 0 1.1 5.4 0 1.2 5.4 0 1.3 5.4 0 1.4 5.4 0 1.5 5.4 0 1.6 5.4 0 1.7 5.4 0 1.8 5.4 0 1.9 5.4 0 2 5.4 0 2.1 5.4 0 2.2 5.4 0 2.3 5.4 0 2.4 5.4 0 2.5 5.4 0 2.6 5.4 0 2.7 5.4 0 2.8 5.4 0 2.9 5.4 0 3 5.4 0 3.1 5.4 0 3.2 5.4 0 3.3 5.4 0 3.4 5.4 0 3.5 5.4 0 3.6 5.4 0 3.7 5.4 0 3.8 5.4 0 3.9 5.4 0 4 5.4 0 4.1 5.4 0 4.2 5.4 0 4.3 5.4 0 4.4 5.4 0 4.5 5.4 0 4.6 5.4 0 4.7 5.4 0 4.8 5.4 0 4.9 5.4 0 5 5.4 0 5.1 5.4 0 5.2 5.4 0 5.3 5.4 0 5.4 5.4 0 5.5 5.4 0 5.6 5.4 0 5.7 5.4 0 5.8 5.4 0 5.9 5.4 0 6 5.4 0 6.1 5.4 0 6.2 5.4 0 6.3 5.4 0 6.4 5.4 0 6.5 5.4 0 6.6 5.4 0 6.7 5.4 0 6.8 5.4 0 6.9 5.4 0 7 5.4 0 7.1 5.4 0 7.2 5.4 0 7.3 5.4 0 7.4 5.4 0 7.5 5.4 0 7.6 5.4 0 7.7 5.4 0 7.8 5.4 0 7.9 5.4 0 8 5.4 0 8.1 5.4 0 8.2 5.4 0 8.3 5.4 0 8.4 5.4 0 8.5 5.4 0 8.6 5.4 0 8.7 5.4 0 8.8 5.4 0 8.9 5.4 0 9 5.4 0 9.1 5.4 0 9.2 5.4 0 9.3 5.4 0 9.4 5.4 0 9.5 5.4 0 9.6 5.4 0 9.7 5.4 0 9.8 5.4 0 9.9 5.4 0 10 5.4 0 0 5.5 0 0.1 5.5 0 0.2 5.5 0 0.3 5.5 0 0.4 5.5 0 0.5 5.5 0 0.6 5.5 0 0.7 5.5 0 0.8 5.5 0 0.9 5.5 0 1 5.5 0 1.1 5.5 0 1.2 5.5 0 1.3 5.5 0 1.4 5.5 0 1.5 5.5 0 1.6 5.5 0 1.7 5.5 0 1.8 5.5 0 1.9 5.5 0 2 5.5 0 2.1 5.5 0 2.2 5.5 0 2.3 5.5 0 2.4 5.5 0 2.5 5.5 0 2.6 5.5 0 2.7 5.5 0 2.8 5.5 0 2.9 5.5 0 3 5.5 0 3.1 5.5 0 3.2 5.5 0 3.3 5.5 0 3.4 5.5 0 3.5 5.5 0 3.6 5.5 0 3.7 5.5 0 3.8 5.5 0 3.9 5.5 0 4 5.5 0 4.1 5.5 0 4.2 5.5 0 4.3 5.5 0 4.4 5.5 0 4.5 5.5 0 4.6 5.5 0 4.7 5.5 0 4.8 5.5 0 4.9 5.5 0 5 5.5 0 5.1 5.5 0 5.2 5.5 0 5.3 5.5 0 5.4 5.5 0 5.5 5.5 0 5.6 5.5 0 5.7 5.5 0 5.8 5.5 0 5.9 5.5 0 6 5.5 0 6.1 5.5 0 6.2 5.5 0 6.3 5.5 0 6.4 5.5 0 6.5 5.5 0 6.6 5.5 0 6.7 5.5 0 6.8 5.5 0 6.9 5.5 0 7 5.5 0 7.1 5.5 0 7.2 5.5 0 7.3 5.5 0 7.4 5.5 0 7.5 5.5 0 7.6 5.5 0 7.7 5.5 0 7.8 5.5 0 7.9 5.5 0 8 5.5 0 8.1 5.5 0 8.2 5.5 0 8.3 5.5 0 8.4 5.5 0 8.5 5.5 0 8.6 5.5 0 8.7 5.5 0 8.8 5.5 0 8.9 5.5 0 9 5.5 0 9.1 5.5 0 9.2 5.5 0 9.3 5.5 0 9.4 5.5 0 9.5 5.5 0 9.6 5.5 0 9.7 5.5 0 9.8 5.5 0 9.9 5.5 0 10 5.5 0 0 5.6 0 0.1 5.6 0 0.2 5.6 0 0.3 5.6 0 0.4 5.6 0 0.5 5.6 0 0.6 5.6 0 0.7 5.6 0 0.8 5.6 0 0.9 5.6 0 1 5.6 0 1.1 5.6 0 1.2 5.6 0 1.3 5.6 0 1.4 5.6 0 1.5 5.6 0 1.6 5.6 0 1.7 5.6 0 1.8 5.6 0 1.9 5.6 0 2 5.6 0 2.1 5.6 0 2.2 5.6 0 2.3 5.6 0 2.4 5.6 0 2.5 5.6 0 2.6 5.6 0 2.7 5.6 0 2.8 5.6 0 2.9 5.6 0 3 5.6 0 3.1 5.6 0 3.2 5.6 0 3.3 5.6 0 3.4 5.6 0 3.5 5.6 0 3.6 5.6 0 3.7 5.6 0 3.8 5.6 0 3.9 5.6 0 4 5.6 0 4.1 5.6 0 4.2 5.6 0 4.3 5.6 0 4.4 5.6 0 4.5 5.6 0 4.6 5.6 0 4.7 5.6 0 4.8 5.6 0 4.9 5.6 0 5 5.6 0 5.1 5.6 0 5.2 5.6 0 5.3 5.6 0 5.4 5.6 0 5.5 5.6 0 5.6 5.6 0 5.7 5.6 0 5.8 5.6 0 5.9 5.6 0 6 5.6 0 6.1 5.6 0 6.2 5.6 0 6.3 5.6 0 6.4 5.6 0 6.5 5.6 0 6.6 5.6 0 6.7 5.6 0 6.8 5.6 0 6.9 5.6 0 7 5.6 0 7.1 5.6 0 7.2 5.6 0 7.3 5.6 0 7.4 5.6 0 7.5 5.6 0 7.6 5.6 0 7.7 5.6 0 7.8 5.6 0 7.9 5.6 0 8 5.6 0 8.1 5.6 0 8.2 5.6 0 8.3 5.6 0 8.4 5.6 0 8.5 5.6 0 8.6 5.6 0 8.7 5.6 0 8.8 5.6 0 8.9 5.6 0 9 5.6 0 9.1 5.6 0 9.2 5.6 0 9.3 5.6 0 9.4 5.6 0 9.5 5.6 0 9.6 5.6 0 9.7 5.6 0 9.8 5.6 0 9.9 5.6 0 10 5.6 0 0 5.7 0 0.1 5.7 0 0.2 5.7 0 0.3 5.7 0 0.4 5.7 0 0.5 5.7 0 0.6 5.7 0 0.7 5.7 0 0.8 5.7 0 0.9 5.7 0 1 5.7 0 1.1 5.7 0 1.2 5.7 0 1.3 5.7 0 1.4 5.7 0 1.5 5.7 0 1.6 5.7 0 1.7 5.7 0 1.8 5.7 0 1.9 5.7 0 2 5.7 0 2.1 5.7 0 2.2 5.7 0 2.3 5.7 0 2.4 5.7 0 2.5 5.7 0 2.6 5.7 0 2.7 5.7 0 2.8 5.7 0 2.9 5.7 0 3 5.7 0 3.1 5.7 0 3.2 5.7 0 3.3 5.7 0 3.4 5.7 0 3.5 5.7 0 3.6 5.7 0 3.7 5.7 0 3.8 5.7 0 3.9 5.7 0 4 5.7 0 4.1 5.7 0 4.2 5.7 0 4.3 5.7 0 4.4 5.7 0 4.5 5.7 0 4.6 5.7 0 4.7 5.7 0 4.8 5.7 0 4.9 5.7 0 5 5.7 0 5.1 5.7 0 5.2 5.7 0 5.3 5.7 0 5.4 5.7 0 5.5 5.7 0 5.6 5.7 0 5.7 5.7 0 5.8 5.7 0 5.9 5.7 0 6 5.7 0 6.1 5.7 0 6.2 5.7 0 6.3 5.7 0 6.4 5.7 0 6.5 5.7 0 6.6 5.7 0 6.7 5.7 0 6.8 5.7 0 6.9 5.7 0 7 5.7 0 7.1 5.7 0 7.2 5.7 0 7.3 5.7 0 7.4 5.7 0 7.5 5.7 0 7.6 5.7 0 7.7 5.7 0 7.8 5.7 0 7.9 5.7 0 8 5.7 0 8.1 5.7 0 8.2 5.7 0 8.3 5.7 0 8.4 5.7 0 8.5 5.7 0 8.6 5.7 0 8.7 5.7 0 8.8 5.7 0 8.9 5.7 0 9 5.7 0 9.1 5.7 0 9.2 5.7 0 9.3 5.7 0 9.4 5.7 0 9.5 5.7 0 9.6 5.7 0 9.7 5.7 0 9.8 5.7 0 9.9 5.7 0 10 5.7 0 0 5.8 0 0.1 5.8 0 0.2 5.8 0 0.3 5.8 0 0.4 5.8 0 0.5 5.8 0 0.6 5.8 0 0.7 5.8 0 0.8 5.8 0 0.9 5.8 0 1 5.8 0 1.1 5.8 0 1.2 5.8 0 1.3 5.8 0 1.4 5.8 0 1.5 5.8 0 1.6 5.8 0 1.7 5.8 0 1.8 5.8 0 1.9 5.8 0 2 5.8 0 2.1 5.8 0 2.2 5.8 0 2.3 5.8 0 2.4 5.8 0 2.5 5.8 0 2.6 5.8 0 2.7 5.8 0 2.8 5.8 0 2.9 5.8 0 3 5.8 0 3.1 5.8 0 3.2 5.8 0 3.3 5.8 0 3.4 5.8 0 3.5 5.8 0 3.6 5.8 0 3.7 5.8 0 3.8 5.8 0 3.9 5.8 0 4 5.8 0 4.1 5.8 0 4.2 5.8 0 4.3 5.8 0 4.4 5.8 0 4.5 5.8 0 4.6 5.8 0 4.7 5.8 0 4.8 5.8 0 4.9 5.8 0 5 5.8 0 5.1 5.8 0 5.2 5.8 0 5.3 5.8 0 5.4 5.8 0 5.5 5.8 0 5.6 5.8 0 5.7 5.8 0 5.8 5.8 0 5.9 5.8 0 6 5.8 0 6.1 5.8 0 6.2 5.8 0 6.3 5.8 0 6.4 5.8 0 6.5 5.8 0 6.6 5.8 0 6.7 5.8 0 6.8 5.8 0 6.9 5.8 0 7 5.8 0 7.1 5.8 0 7.2 5.8 0 7.3 5.8 0 7.4 5.8 0 7.5 5.8 0 7.6 5.8 0 7.7 5.8 0 7.8 5.8 0 7.9 5.8 0 8 5.8 0 8.1 5.8 0 8.2 5.8 0 8.3 5.8 0 8.4 5.8 0 8.5 5.8 0 8.6 5.8 0 8.7 5.8 0 8.8 5.8 0 8.9 5.8 0 9 5.8 0 9.1 5.8 0 9.2 5.8 0 9.3 5.8 0 9.4 5.8 0 9.5 5.8 0 9.6 5.8 0 9.7 5.8 0 9.8 5.8 0 9.9 5.8 0 10 5.8 0 0 5.9 0 0.1 5.9 0 0.2 5.9 0 0.3 5.9 0 0.4 5.9 0 0.5 5.9 0 0.6 5.9 0 0.7 5.9 0 0.8 5.9 0 0.9 5.9 0 1 5.9 0 1.1 5.9 0 1.2 5.9 0 1.3 5.9 0 1.4 5.9 0 1.5 5.9 0 1.6 5.9 0 1.7 5.9 0 1.8 5.9 0 1.9 5.9 0 2 5.9 0 2.1 5.9 0 2.2 5.9 0 2.3 5.9 0 2.4 5.9 0 2.5 5.9 0 2.6 5.9 0 2.7 5.9 0 2.8 5.9 0 2.9 5.9 0 3 5.9 0 3.1 5.9 0 3.2 5.9 0 3.3 5.9 0 3.4 5.9 0 3.5 5.9 0 3.6 5.9 0 3.7 5.9 0 3.8 5.9 0 3.9 5.9 0 4 5.9 0 4.1 5.9 0 4.2 5.9 0 4.3 5.9 0 4.4 5.9 0 4.5 5.9 0 4.6 5.9 0 4.7 5.9 0 4.8 5.9 0 4.9 5.9 0 5 5.9 0 5.1 5.9 0 5.2 5.9 0 5.3 5.9 0 5.4 5.9 0 5.5 5.9 0 5.6 5.9 0 5.7 5.9 0 5.8 5.9 0 5.9 5.9 0 6 5.9 0 6.1 5.9 0 6.2 5.9 0 6.3 5.9 0 6.4 5.9 0 6.5 5.9 0 6.6 5.9 0 6.7 5.9 0 6.8 5.9 0 6.9 5.9 0 7 5.9 0 7.1 5.9 0 7.2 5.9 0 7.3 5.9 0 7.4 5.9 0 7.5 5.9 0 7.6 5.9 0 7.7 5.9 0 7.8 5.9 0 7.9 5.9 0 8 5.9 0 8.1 5.9 0 8.2 5.9 0 8.3 5.9 0 8.4 5.9 0 8.5 5.9 0 8.6 5.9 0 8.7 5.9 0 8.8 5.9 0 8.9 5.9 0 9 5.9 0 9.1 5.9 0 9.2 5.9 0 9.3 5.9 0 9.4 5.9 0 9.5 5.9 0 9.6 5.9 0 9.7 5.9 0 9.8 5.9 0 9.9 5.9 0 10 5.9 0 0 6 0 0.1 6 0 0.2 6 0 0.3 6 0 0.4 6 0 0.5 6 0 0.6 6 0 0.7 6 0 0.8 6 0 0.9 6 0 1 6 0 1.1 6 0 1.2 6 0 1.3 6 0 1.4 6 0 1.5 6 0 1.6 6 0 1.7 6 0 1.8 6 0 1.9 6 0 2 6 0 2.1 6 0 2.2 6 0 2.3 6 0 2.4 6 0 2.5 6 0 2.6 6 0 2.7 6 0 2.8 6 0 2.9 6 0 3 6 0 3.1 6 0 3.2 6 0 3.3 6 0 3.4 6 0 3.5 6 0 3.6 6 0 3.7 6 0 3.8 6 0 3.9 6 0 4 6 0 4.1 6 0 4.2 6 0 4.3 6 0 4.4 6 0 4.5 6 0 4.6 6 0 4.7 6 0 4.8 6 0 4.9 6 0 5 6 0 5.1 6 0 5.2 6 0 5.3 6 0 5.4 6 0 5.5 6 0 5.6 6 0 5.7 6 0 5.8 6 0 5.9 6 0 6 6 0 6.1 6 0 6.2 6 0 6.3 6 0 6.4 6 0 6.5 6 0 6.6 6 0 6.7 6 0 6.8 6 0 6.9 6 0 7 6 0 7.1 6 0 7.2 6 0 7.3 6 0 7.4 6 0 7.5 6 0 7.6 6 0 7.7 6 0 7.8 6 0 7.9 6 0 8 6 0 8.1 6 0 8.2 6 0 8.3 6 0 8.4 6 0 8.5 6 0 8.6 6 0 8.7 6 0 8.8 6 0 8.9 6 0 9 6 0 9.1 6 0 9.2 6 0 9.3 6 0 9.4 6 0 9.5 6 0 9.6 6 0 9.7 6 0 9.8 6 0 9.9 6 0 10 6 0 0 6.1 0 0.1 6.1 0 0.2 6.1 0 0.3 6.1 0 0.4 6.1 0 0.5 6.1 0 0.6 6.1 0 0.7 6.1 0 0.8 6.1 0 0.9 6.1 0 1 6.1 0 1.1 6.1 0 1.2 6.1 0 1.3 6.1 0 1.4 6.1 0 1.5 6.1 0 1.6 6.1 0 1.7 6.1 0 1.8 6.1 0 1.9 6.1 0 2 6.1 0 2.1 6.1 0 2.2 6.1 0 2.3 6.1 0 2.4 6.1 0 2.5 6.1 0 2.6 6.1 0 2.7 6.1 0 2.8 6.1 0 2.9 6.1 0 3 6.1 0 3.1 6.1 0 3.2 6.1 0 3.3 6.1 0 3.4 6.1 0 3.5 6.1 0 3.6 6.1 0 3.7 6.1 0 3.8 6.1 0 3.9 6.1 0 4 6.1 0 4.1 6.1 0 4.2 6.1 0 4.3 6.1 0 4.4 6.1 0 4.5 6.1 0 4.6 6.1 0 4.7 6.1 0 4.8 6.1 0 4.9 6.1 0 5 6.1 0 5.1 6.1 0 5.2 6.1 0 5.3 6.1 0 5.4 6.1 0 5.5 6.1 0 5.6 6.1 0 5.7 6.1 0 5.8 6.1 0 5.9 6.1 0 6 6.1 0 6.1 6.1 0 6.2 6.1 0 6.3 6.1 0 6.4 6.1 0 6.5 6.1 0 6.6 6.1 0 6.7 6.1 0 6.8 6.1 0 6.9 6.1 0 7 6.1 0 7.1 6.1 0 7.2 6.1 0 7.3 6.1 0 7.4 6.1 0 7.5 6.1 0 7.6 6.1 0 7.7 6.1 0 7.8 6.1 0 7.9 6.1 0 8 6.1 0 8.1 6.1 0 8.2 6.1 0 8.3 6.1 0 8.4 6.1 0 8.5 6.1 0 8.6 6.1 0 8.7 6.1 0 8.8 6.1 0 8.9 6.1 0 9 6.1 0 9.1 6.1 0 9.2 6.1 0 9.3 6.1 0 9.4 6.1 0 9.5 6.1 0 9.6 6.1 0 9.7 6.1 0 9.8 6.1 0 9.9 6.1 0 10 6.1 0 0 6.2 0 0.1 6.2 0 0.2 6.2 0 0.3 6.2 0 0.4 6.2 0 0.5 6.2 0 0.6 6.2 0 0.7 6.2 0 0.8 6.2 0 0.9 6.2 0 1 6.2 0 1.1 6.2 0 1.2 6.2 0 1.3 6.2 0 1.4 6.2 0 1.5 6.2 0 1.6 6.2 0 1.7 6.2 0 1.8 6.2 0 1.9 6.2 0 2 6.2 0 2.1 6.2 0 2.2 6.2 0 2.3 6.2 0 2.4 6.2 0 2.5 6.2 0 2.6 6.2 0 2.7 6.2 0 2.8 6.2 0 2.9 6.2 0 3 6.2 0 3.1 6.2 0 3.2 6.2 0 3.3 6.2 0 3.4 6.2 0 3.5 6.2 0 3.6 6.2 0 3.7 6.2 0 3.8 6.2 0 3.9 6.2 0 4 6.2 0 4.1 6.2 0 4.2 6.2 0 4.3 6.2 0 4.4 6.2 0 4.5 6.2 0 4.6 6.2 0 4.7 6.2 0 4.8 6.2 0 4.9 6.2 0 5 6.2 0 5.1 6.2 0 5.2 6.2 0 5.3 6.2 0 5.4 6.2 0 5.5 6.2 0 5.6 6.2 0 5.7 6.2 0 5.8 6.2 0 5.9 6.2 0 6 6.2 0 6.1 6.2 0 6.2 6.2 0 6.3 6.2 0 6.4 6.2 0 6.5 6.2 0 6.6 6.2 0 6.7 6.2 0 6.8 6.2 0 6.9 6.2 0 7 6.2 0 7.1 6.2 0 7.2 6.2 0 7.3 6.2 0 7.4 6.2 0 7.5 6.2 0 7.6 6.2 0 7.7 6.2 0 7.8 6.2 0 7.9 6.2 0 8 6.2 0 8.1 6.2 0 8.2 6.2 0 8.3 6.2 0 8.4 6.2 0 8.5 6.2 0 8.6 6.2 0 8.7 6.2 0 8.8 6.2 0 8.9 6.2 0 9 6.2 0 9.1 6.2 0 9.2 6.2 0 9.3 6.2 0 9.4 6.2 0 9.5 6.2 0 9.6 6.2 0 9.7 6.2 0 9.8 6.2 0 9.9 6.2 0 10 6.2 0 0 6.3 0 0.1 6.3 0 0.2 6.3 0 0.3 6.3 0 0.4 6.3 0 0.5 6.3 0 0.6 6.3 0 0.7 6.3 0 0.8 6.3 0 0.9 6.3 0 1 6.3 0 1.1 6.3 0 1.2 6.3 0 1.3 6.3 0 1.4 6.3 0 1.5 6.3 0 1.6 6.3 0 1.7 6.3 0 1.8 6.3 0 1.9 6.3 0 2 6.3 0 2.1 6.3 0 2.2 6.3 0 2.3 6.3 0 2.4 6.3 0 2.5 6.3 0 2.6 6.3 0 2.7 6.3 0 2.8 6.3 0 2.9 6.3 0 3 6.3 0 3.1 6.3 0 3.2 6.3 0 3.3 6.3 0 3.4 6.3 0 3.5 6.3 0 3.6 6.3 0 3.7 6.3 0 3.8 6.3 0 3.9 6.3 0 4 6.3 0 4.1 6.3 0 4.2 6.3 0 4.3 6.3 0 4.4 6.3 0 4.5 6.3 0 4.6 6.3 0 4.7 6.3 0 4.8 6.3 0 4.9 6.3 0 5 6.3 0 5.1 6.3 0 5.2 6.3 0 5.3 6.3 0 5.4 6.3 0 5.5 6.3 0 5.6 6.3 0 5.7 6.3 0 5.8 6.3 0 5.9 6.3 0 6 6.3 0 6.1 6.3 0 6.2 6.3 0 6.3 6.3 0 6.4 6.3 0 6.5 6.3 0 6.6 6.3 0 6.7 6.3 0 6.8 6.3 0 6.9 6.3 0 7 6.3 0 7.1 6.3 0 7.2 6.3 0 7.3 6.3 0 7.4 6.3 0 7.5 6.3 0 7.6 6.3 0 7.7 6.3 0 7.8 6.3 0 7.9 6.3 0 8 6.3 0 8.1 6.3 0 8.2 6.3 0 8.3 6.3 0 8.4 6.3 0 8.5 6.3 0 8.6 6.3 0 8.7 6.3 0 8.8 6.3 0 8.9 6.3 0 9 6.3 0 9.1 6.3 0 9.2 6.3 0 9.3 6.3 0 9.4 6.3 0 9.5 6.3 0 9.6 6.3 0 9.7 6.3 0 9.8 6.3 0 9.9 6.3 0 10 6.3 0 0 6.4 0 0.1 6.4 0 0.2 6.4 0 0.3 6.4 0 0.4 6.4 0 0.5 6.4 0 0.6 6.4 0 0.7 6.4 0 0.8 6.4 0 0.9 6.4 0 1 6.4 0 1.1 6.4 0 1.2 6.4 0 1.3 6.4 0 1.4 6.4 0 1.5 6.4 0 1.6 6.4 0 1.7 6.4 0 1.8 6.4 0 1.9 6.4 0 2 6.4 0 2.1 6.4 0 2.2 6.4 0 2.3 6.4 0 2.4 6.4 0 2.5 6.4 0 2.6 6.4 0 2.7 6.4 0 2.8 6.4 0 2.9 6.4 0 3 6.4 0 3.1 6.4 0 3.2 6.4 0 3.3 6.4 0 3.4 6.4 0 3.5 6.4 0 3.6 6.4 0 3.7 6.4 0 3.8 6.4 0 3.9 6.4 0 4 6.4 0 4.1 6.4 0 4.2 6.4 0 4.3 6.4 0 4.4 6.4 0 4.5 6.4 0 4.6 6.4 0 4.7 6.4 0 4.8 6.4 0 4.9 6.4 0 5 6.4 0 5.1 6.4 0 5.2 6.4 0 5.3 6.4 0 5.4 6.4 0 5.5 6.4 0 5.6 6.4 0 5.7 6.4 0 5.8 6.4 0 5.9 6.4 0 6 6.4 0 6.1 6.4 0 6.2 6.4 0 6.3 6.4 0 6.4 6.4 0 6.5 6.4 0 6.6 6.4 0 6.7 6.4 0 6.8 6.4 0 6.9 6.4 0 7 6.4 0 7.1 6.4 0 7.2 6.4 0 7.3 6.4 0 7.4 6.4 0 7.5 6.4 0 7.6 6.4 0 7.7 6.4 0 7.8 6.4 0 7.9 6.4 0 8 6.4 0 8.1 6.4 0 8.2 6.4 0 8.3 6.4 0 8.4 6.4 0 8.5 6.4 0 8.6 6.4 0 8.7 6.4 0 8.8 6.4 0 8.9 6.4 0 9 6.4 0 9.1 6.4 0 9.2 6.4 0 9.3 6.4 0 9.4 6.4 0 9.5 6.4 0 9.6 6.4 0 9.7 6.4 0 9.8 6.4 0 9.9 6.4 0 10 6.4 0 0 6.5 0 0.1 6.5 0 0.2 6.5 0 0.3 6.5 0 0.4 6.5 0 0.5 6.5 0 0.6 6.5 0 0.7 6.5 0 0.8 6.5 0 0.9 6.5 0 1 6.5 0 1.1 6.5 0 1.2 6.5 0 1.3 6.5 0 1.4 6.5 0 1.5 6.5 0 1.6 6.5 0 1.7 6.5 0 1.8 6.5 0 1.9 6.5 0 2 6.5 0 2.1 6.5 0 2.2 6.5 0 2.3 6.5 0 2.4 6.5 0 2.5 6.5 0 2.6 6.5 0 2.7 6.5 0 2.8 6.5 0 2.9 6.5 0 3 6.5 0 3.1 6.5 0 3.2 6.5 0 3.3 6.5 0 3.4 6.5 0 3.5 6.5 0 3.6 6.5 0 3.7 6.5 0 3.8 6.5 0 3.9 6.5 0 4 6.5 0 4.1 6.5 0 4.2 6.5 0 4.3 6.5 0 4.4 6.5 0 4.5 6.5 0 4.6 6.5 0 4.7 6.5 0 4.8 6.5 0 4.9 6.5 0 5 6.5 0 5.1 6.5 0 5.2 6.5 0 5.3 6.5 0 5.4 6.5 0 5.5 6.5 0 5.6 6.5 0 5.7 6.5 0 5.8 6.5 0 5.9 6.5 0 6 6.5 0 6.1 6.5 0 6.2 6.5 0 6.3 6.5 0 6.4 6.5 0 6.5 6.5 0 6.6 6.5 0 6.7 6.5 0 6.8 6.5 0 6.9 6.5 0 7 6.5 0 7.1 6.5 0 7.2 6.5 0 7.3 6.5 0 7.4 6.5 0 7.5 6.5 0 7.6 6.5 0 7.7 6.5 0 7.8 6.5 0 7.9 6.5 0 8 6.5 0 8.1 6.5 0 8.2 6.5 0 8.3 6.5 0 8.4 6.5 0 8.5 6.5 0 8.6 6.5 0 8.7 6.5 0 8.8 6.5 0 8.9 6.5 0 9 6.5 0 9.1 6.5 0 9.2 6.5 0 9.3 6.5 0 9.4 6.5 0 9.5 6.5 0 9.6 6.5 0 9.7 6.5 0 9.8 6.5 0 9.9 6.5 0 10 6.5 0 0 6.6 0 0.1 6.6 0 0.2 6.6 0 0.3 6.6 0 0.4 6.6 0 0.5 6.6 0 0.6 6.6 0 0.7 6.6 0 0.8 6.6 0 0.9 6.6 0 1 6.6 0 1.1 6.6 0 1.2 6.6 0 1.3 6.6 0 1.4 6.6 0 1.5 6.6 0 1.6 6.6 0 1.7 6.6 0 1.8 6.6 0 1.9 6.6 0 2 6.6 0 2.1 6.6 0 2.2 6.6 0 2.3 6.6 0 2.4 6.6 0 2.5 6.6 0 2.6 6.6 0 2.7 6.6 0 2.8 6.6 0 2.9 6.6 0 3 6.6 0 3.1 6.6 0 3.2 6.6 0 3.3 6.6 0 3.4 6.6 0 3.5 6.6 0 3.6 6.6 0 3.7 6.6 0 3.8 6.6 0 3.9 6.6 0 4 6.6 0 4.1 6.6 0 4.2 6.6 0 4.3 6.6 0 4.4 6.6 0 4.5 6.6 0 4.6 6.6 0 4.7 6.6 0 4.8 6.6 0 4.9 6.6 0 5 6.6 0 5.1 6.6 0 5.2 6.6 0 5.3 6.6 0 5.4 6.6 0 5.5 6.6 0 5.6 6.6 0 5.7 6.6 0 5.8 6.6 0 5.9 6.6 0 6 6.6 0 6.1 6.6 0 6.2 6.6 0 6.3 6.6 0 6.4 6.6 0 6.5 6.6 0 6.6 6.6 0 6.7 6.6 0 6.8 6.6 0 6.9 6.6 0 7 6.6 0 7.1 6.6 0 7.2 6.6 0 7.3 6.6 0 7.4 6.6 0 7.5 6.6 0 7.6 6.6 0 7.7 6.6 0 7.8 6.6 0 7.9 6.6 0 8 6.6 0 8.1 6.6 0 8.2 6.6 0 8.3 6.6 0 8.4 6.6 0 8.5 6.6 0 8.6 6.6 0 8.7 6.6 0 8.8 6.6 0 8.9 6.6 0 9 6.6 0 9.1 6.6 0 9.2 6.6 0 9.3 6.6 0 9.4 6.6 0 9.5 6.6 0 9.6 6.6 0 9.7 6.6 0 9.8 6.6 0 9.9 6.6 0 10 6.6 0 0 6.7 0 0.1 6.7 0 0.2 6.7 0 0.3 6.7 0 0.4 6.7 0 0.5 6.7 0 0.6 6.7 0 0.7 6.7 0 0.8 6.7 0 0.9 6.7 0 1 6.7 0 1.1 6.7 0 1.2 6.7 0 1.3 6.7 0 1.4 6.7 0 1.5 6.7 0 1.6 6.7 0 1.7 6.7 0 1.8 6.7 0 1.9 6.7 0 2 6.7 0 2.1 6.7 0 2.2 6.7 0 2.3 6.7 0 2.4 6.7 0 2.5 6.7 0 2.6 6.7 0 2.7 6.7 0 2.8 6.7 0 2.9 6.7 0 3 6.7 0 3.1 6.7 0 3.2 6.7 0 3.3 6.7 0 3.4 6.7 0 3.5 6.7 0 3.6 6.7 0 3.7 6.7 0 3.8 6.7 0 3.9 6.7 0 4 6.7 0 4.1 6.7 0 4.2 6.7 0 4.3 6.7 0 4.4 6.7 0 4.5 6.7 0 4.6 6.7 0 4.7 6.7 0 4.8 6.7 0 4.9 6.7 0 5 6.7 0 5.1 6.7 0 5.2 6.7 0 5.3 6.7 0 5.4 6.7 0 5.5 6.7 0 5.6 6.7 0 5.7 6.7 0 5.8 6.7 0 5.9 6.7 0 6 6.7 0 6.1 6.7 0 6.2 6.7 0 6.3 6.7 0 6.4 6.7 0 6.5 6.7 0 6.6 6.7 0 6.7 6.7 0 6.8 6.7 0 6.9 6.7 0 7 6.7 0 7.1 6.7 0 7.2 6.7 0 7.3 6.7 0 7.4 6.7 0 7.5 6.7 0 7.6 6.7 0 7.7 6.7 0 7.8 6.7 0 7.9 6.7 0 8 6.7 0 8.1 6.7 0 8.2 6.7 0 8.3 6.7 0 8.4 6.7 0 8.5 6.7 0 8.6 6.7 0 8.7 6.7 0 8.8 6.7 0 8.9 6.7 0 9 6.7 0 9.1 6.7 0 9.2 6.7 0 9.3 6.7 0 9.4 6.7 0 9.5 6.7 0 9.6 6.7 0 9.7 6.7 0 9.8 6.7 0 9.9 6.7 0 10 6.7 0 0 6.8 0 0.1 6.8 0 0.2 6.8 0 0.3 6.8 0 0.4 6.8 0 0.5 6.8 0 0.6 6.8 0 0.7 6.8 0 0.8 6.8 0 0.9 6.8 0 1 6.8 0 1.1 6.8 0 1.2 6.8 0 1.3 6.8 0 1.4 6.8 0 1.5 6.8 0 1.6 6.8 0 1.7 6.8 0 1.8 6.8 0 1.9 6.8 0 2 6.8 0 2.1 6.8 0 2.2 6.8 0 2.3 6.8 0 2.4 6.8 0 2.5 6.8 0 2.6 6.8 0 2.7 6.8 0 2.8 6.8 0 2.9 6.8 0 3 6.8 0 3.1 6.8 0 3.2 6.8 0 3.3 6.8 0 3.4 6.8 0 3.5 6.8 0 3.6 6.8 0 3.7 6.8 0 3.8 6.8 0 3.9 6.8 0 4 6.8 0 4.1 6.8 0 4.2 6.8 0 4.3 6.8 0 4.4 6.8 0 4.5 6.8 0 4.6 6.8 0 4.7 6.8 0 4.8 6.8 0 4.9 6.8 0 5 6.8 0 5.1 6.8 0 5.2 6.8 0 5.3 6.8 0 5.4 6.8 0 5.5 6.8 0 5.6 6.8 0 5.7 6.8 0 5.8 6.8 0 5.9 6.8 0 6 6.8 0 6.1 6.8 0 6.2 6.8 0 6.3 6.8 0 6.4 6.8 0 6.5 6.8 0 6.6 6.8 0 6.7 6.8 0 6.8 6.8 0 6.9 6.8 0 7 6.8 0 7.1 6.8 0 7.2 6.8 0 7.3 6.8 0 7.4 6.8 0 7.5 6.8 0 7.6 6.8 0 7.7 6.8 0 7.8 6.8 0 7.9 6.8 0 8 6.8 0 8.1 6.8 0 8.2 6.8 0 8.3 6.8 0 8.4 6.8 0 8.5 6.8 0 8.6 6.8 0 8.7 6.8 0 8.8 6.8 0 8.9 6.8 0 9 6.8 0 9.1 6.8 0 9.2 6.8 0 9.3 6.8 0 9.4 6.8 0 9.5 6.8 0 9.6 6.8 0 9.7 6.8 0 9.8 6.8 0 9.9 6.8 0 10 6.8 0 0 6.9 0 0.1 6.9 0 0.2 6.9 0 0.3 6.9 0 0.4 6.9 0 0.5 6.9 0 0.6 6.9 0 0.7 6.9 0 0.8 6.9 0 0.9 6.9 0 1 6.9 0 1.1 6.9 0 1.2 6.9 0 1.3 6.9 0 1.4 6.9 0 1.5 6.9 0 1.6 6.9 0 1.7 6.9 0 1.8 6.9 0 1.9 6.9 0 2 6.9 0 2.1 6.9 0 2.2 6.9 0 2.3 6.9 0 2.4 6.9 0 2.5 6.9 0 2.6 6.9 0 2.7 6.9 0 2.8 6.9 0 2.9 6.9 0 3 6.9 0 3.1 6.9 0 3.2 6.9 0 3.3 6.9 0 3.4 6.9 0 3.5 6.9 0 3.6 6.9 0 3.7 6.9 0 3.8 6.9 0 3.9 6.9 0 4 6.9 0 4.1 6.9 0 4.2 6.9 0 4.3 6.9 0 4.4 6.9 0 4.5 6.9 0 4.6 6.9 0 4.7 6.9 0 4.8 6.9 0 4.9 6.9 0 5 6.9 0 5.1 6.9 0 5.2 6.9 0 5.3 6.9 0 5.4 6.9 0 5.5 6.9 0 5.6 6.9 0 5.7 6.9 0 5.8 6.9 0 5.9 6.9 0 6 6.9 0 6.1 6.9 0 6.2 6.9 0 6.3 6.9 0 6.4 6.9 0 6.5 6.9 0 6.6 6.9 0 6.7 6.9 0 6.8 6.9 0 6.9 6.9 0 7 6.9 0 7.1 6.9 0 7.2 6.9 0 7.3 6.9 0 7.4 6.9 0 7.5 6.9 0 7.6 6.9 0 7.7 6.9 0 7.8 6.9 0 7.9 6.9 0 8 6.9 0 8.1 6.9 0 8.2 6.9 0 8.3 6.9 0 8.4 6.9 0 8.5 6.9 0 8.6 6.9 0 8.7 6.9 0 8.8 6.9 0 8.9 6.9 0 9 6.9 0 9.1 6.9 0 9.2 6.9 0 9.3 6.9 0 9.4 6.9 0 9.5 6.9 0 9.6 6.9 0 9.7 6.9 0 9.8 6.9 0 9.9 6.9 0 10 6.9 0 0 7 0 0.1 7 0 0.2 7 0 0.3 7 0 0.4 7 0 0.5 7 0 0.6 7 0 0.7 7 0 0.8 7 0 0.9 7 0 1 7 0 1.1 7 0 1.2 7 0 1.3 7 0 1.4 7 0 1.5 7 0 1.6 7 0 1.7 7 0 1.8 7 0 1.9 7 0 2 7 0 2.1 7 0 2.2 7 0 2.3 7 0 2.4 7 0 2.5 7 0 2.6 7 0 2.7 7 0 2.8 7 0 2.9 7 0 3 7 0 3.1 7 0 3.2 7 0 3.3 7 0 3.4 7 0 3.5 7 0 3.6 7 0 3.7 7 0 3.8 7 0 3.9 7 0 4 7 0 4.1 7 0 4.2 7 0 4.3 7 0 4.4 7 0 4.5 7 0 4.6 7 0 4.7 7 0 4.8 7 0 4.9 7 0 5 7 0 5.1 7 0 5.2 7 0 5.3 7 0 5.4 7 0 5.5 7 0 5.6 7 0 5.7 7 0 5.8 7 0 5.9 7 0 6 7 0 6.1 7 0 6.2 7 0 6.3 7 0 6.4 7 0 6.5 7 0 6.6 7 0 6.7 7 0 6.8 7 0 6.9 7 0 7 7 0 7.1 7 0 7.2 7 0 7.3 7 0 7.4 7 0 7.5 7 0 7.6 7 0 7.7 7 0 7.8 7 0 7.9 7 0 8 7 0 8.1 7 0 8.2 7 0 8.3 7 0 8.4 7 0 8.5 7 0 8.6 7 0 8.7 7 0 8.8 7 0 8.9 7 0 9 7 0 9.1 7 0 9.2 7 0 9.3 7 0 9.4 7 0 9.5 7 0 9.6 7 0 9.7 7 0 9.8 7 0 9.9 7 0 10 7 0 0 7.1 0 0.1 7.1 0 0.2 7.1 0 0.3 7.1 0 0.4 7.1 0 0.5 7.1 0 0.6 7.1 0 0.7 7.1 0 0.8 7.1 0 0.9 7.1 0 1 7.1 0 1.1 7.1 0 1.2 7.1 0 1.3 7.1 0 1.4 7.1 0 1.5 7.1 0 1.6 7.1 0 1.7 7.1 0 1.8 7.1 0 1.9 7.1 0 2 7.1 0 2.1 7.1 0 2.2 7.1 0 2.3 7.1 0 2.4 7.1 0 2.5 7.1 0 2.6 7.1 0 2.7 7.1 0 2.8 7.1 0 2.9 7.1 0 3 7.1 0 3.1 7.1 0 3.2 7.1 0 3.3 7.1 0 3.4 7.1 0 3.5 7.1 0 3.6 7.1 0 3.7 7.1 0 3.8 7.1 0 3.9 7.1 0 4 7.1 0 4.1 7.1 0 4.2 7.1 0 4.3 7.1 0 4.4 7.1 0 4.5 7.1 0 4.6 7.1 0 4.7 7.1 0 4.8 7.1 0 4.9 7.1 0 5 7.1 0 5.1 7.1 0 5.2 7.1 0 5.3 7.1 0 5.4 7.1 0 5.5 7.1 0 5.6 7.1 0 5.7 7.1 0 5.8 7.1 0 5.9 7.1 0 6 7.1 0 6.1 7.1 0 6.2 7.1 0 6.3 7.1 0 6.4 7.1 0 6.5 7.1 0 6.6 7.1 0 6.7 7.1 0 6.8 7.1 0 6.9 7.1 0 7 7.1 0 7.1 7.1 0 7.2 7.1 0 7.3 7.1 0 7.4 7.1 0 7.5 7.1 0 7.6 7.1 0 7.7 7.1 0 7.8 7.1 0 7.9 7.1 0 8 7.1 0 8.1 7.1 0 8.2 7.1 0 8.3 7.1 0 8.4 7.1 0 8.5 7.1 0 8.6 7.1 0 8.7 7.1 0 8.8 7.1 0 8.9 7.1 0 9 7.1 0 9.1 7.1 0 9.2 7.1 0 9.3 7.1 0 9.4 7.1 0 9.5 7.1 0 9.6 7.1 0 9.7 7.1 0 9.8 7.1 0 9.9 7.1 0 10 7.1 0 0 7.2 0 0.1 7.2 0 0.2 7.2 0 0.3 7.2 0 0.4 7.2 0 0.5 7.2 0 0.6 7.2 0 0.7 7.2 0 0.8 7.2 0 0.9 7.2 0 1 7.2 0 1.1 7.2 0 1.2 7.2 0 1.3 7.2 0 1.4 7.2 0 1.5 7.2 0 1.6 7.2 0 1.7 7.2 0 1.8 7.2 0 1.9 7.2 0 2 7.2 0 2.1 7.2 0 2.2 7.2 0 2.3 7.2 0 2.4 7.2 0 2.5 7.2 0 2.6 7.2 0 2.7 7.2 0 2.8 7.2 0 2.9 7.2 0 3 7.2 0 3.1 7.2 0 3.2 7.2 0 3.3 7.2 0 3.4 7.2 0 3.5 7.2 0 3.6 7.2 0 3.7 7.2 0 3.8 7.2 0 3.9 7.2 0 4 7.2 0 4.1 7.2 0 4.2 7.2 0 4.3 7.2 0 4.4 7.2 0 4.5 7.2 0 4.6 7.2 0 4.7 7.2 0 4.8 7.2 0 4.9 7.2 0 5 7.2 0 5.1 7.2 0 5.2 7.2 0 5.3 7.2 0 5.4 7.2 0 5.5 7.2 0 5.6 7.2 0 5.7 7.2 0 5.8 7.2 0 5.9 7.2 0 6 7.2 0 6.1 7.2 0 6.2 7.2 0 6.3 7.2 0 6.4 7.2 0 6.5 7.2 0 6.6 7.2 0 6.7 7.2 0 6.8 7.2 0 6.9 7.2 0 7 7.2 0 7.1 7.2 0 7.2 7.2 0 7.3 7.2 0 7.4 7.2 0 7.5 7.2 0 7.6 7.2 0 7.7 7.2 0 7.8 7.2 0 7.9 7.2 0 8 7.2 0 8.1 7.2 0 8.2 7.2 0 8.3 7.2 0 8.4 7.2 0 8.5 7.2 0 8.6 7.2 0 8.7 7.2 0 8.8 7.2 0 8.9 7.2 0 9 7.2 0 9.1 7.2 0 9.2 7.2 0 9.3 7.2 0 9.4 7.2 0 9.5 7.2 0 9.6 7.2 0 9.7 7.2 0 9.8 7.2 0 9.9 7.2 0 10 7.2 0 0 7.3 0 0.1 7.3 0 0.2 7.3 0 0.3 7.3 0 0.4 7.3 0 0.5 7.3 0 0.6 7.3 0 0.7 7.3 0 0.8 7.3 0 0.9 7.3 0 1 7.3 0 1.1 7.3 0 1.2 7.3 0 1.3 7.3 0 1.4 7.3 0 1.5 7.3 0 1.6 7.3 0 1.7 7.3 0 1.8 7.3 0 1.9 7.3 0 2 7.3 0 2.1 7.3 0 2.2 7.3 0 2.3 7.3 0 2.4 7.3 0 2.5 7.3 0 2.6 7.3 0 2.7 7.3 0 2.8 7.3 0 2.9 7.3 0 3 7.3 0 3.1 7.3 0 3.2 7.3 0 3.3 7.3 0 3.4 7.3 0 3.5 7.3 0 3.6 7.3 0 3.7 7.3 0 3.8 7.3 0 3.9 7.3 0 4 7.3 0 4.1 7.3 0 4.2 7.3 0 4.3 7.3 0 4.4 7.3 0 4.5 7.3 0 4.6 7.3 0 4.7 7.3 0 4.8 7.3 0 4.9 7.3 0 5 7.3 0 5.1 7.3 0 5.2 7.3 0 5.3 7.3 0 5.4 7.3 0 5.5 7.3 0 5.6 7.3 0 5.7 7.3 0 5.8 7.3 0 5.9 7.3 0 6 7.3 0 6.1 7.3 0 6.2 7.3 0 6.3 7.3 0 6.4 7.3 0 6.5 7.3 0 6.6 7.3 0 6.7 7.3 0 6.8 7.3 0 6.9 7.3 0 7 7.3 0 7.1 7.3 0 7.2 7.3 0 7.3 7.3 0 7.4 7.3 0 7.5 7.3 0 7.6 7.3 0 7.7 7.3 0 7.8 7.3 0 7.9 7.3 0 8 7.3 0 8.1 7.3 0 8.2 7.3 0 8.3 7.3 0 8.4 7.3 0 8.5 7.3 0 8.6 7.3 0 8.7 7.3 0 8.8 7.3 0 8.9 7.3 0 9 7.3 0 9.1 7.3 0 9.2 7.3 0 9.3 7.3 0 9.4 7.3 0 9.5 7.3 0 9.6 7.3 0 9.7 7.3 0 9.8 7.3 0 9.9 7.3 0 10 7.3 0 0 7.4 0 0.1 7.4 0 0.2 7.4 0 0.3 7.4 0 0.4 7.4 0 0.5 7.4 0 0.6 7.4 0 0.7 7.4 0 0.8 7.4 0 0.9 7.4 0 1 7.4 0 1.1 7.4 0 1.2 7.4 0 1.3 7.4 0 1.4 7.4 0 1.5 7.4 0 1.6 7.4 0 1.7 7.4 0 1.8 7.4 0 1.9 7.4 0 2 7.4 0 2.1 7.4 0 2.2 7.4 0 2.3 7.4 0 2.4 7.4 0 2.5 7.4 0 2.6 7.4 0 2.7 7.4 0 2.8 7.4 0 2.9 7.4 0 3 7.4 0 3.1 7.4 0 3.2 7.4 0 3.3 7.4 0 3.4 7.4 0 3.5 7.4 0 3.6 7.4 0 3.7 7.4 0 3.8 7.4 0 3.9 7.4 0 4 7.4 0 4.1 7.4 0 4.2 7.4 0 4.3 7.4 0 4.4 7.4 0 4.5 7.4 0 4.6 7.4 0 4.7 7.4 0 4.8 7.4 0 4.9 7.4 0 5 7.4 0 5.1 7.4 0 5.2 7.4 0 5.3 7.4 0 5.4 7.4 0 5.5 7.4 0 5.6 7.4 0 5.7 7.4 0 5.8 7.4 0 5.9 7.4 0 6 7.4 0 6.1 7.4 0 6.2 7.4 0 6.3 7.4 0 6.4 7.4 0 6.5 7.4 0 6.6 7.4 0 6.7 7.4 0 6.8 7.4 0 6.9 7.4 0 7 7.4 0 7.1 7.4 0 7.2 7.4 0 7.3 7.4 0 7.4 7.4 0 7.5 7.4 0 7.6 7.4 0 7.7 7.4 0 7.8 7.4 0 7.9 7.4 0 8 7.4 0 8.1 7.4 0 8.2 7.4 0 8.3 7.4 0 8.4 7.4 0 8.5 7.4 0 8.6 7.4 0 8.7 7.4 0 8.8 7.4 0 8.9 7.4 0 9 7.4 0 9.1 7.4 0 9.2 7.4 0 9.3 7.4 0 9.4 7.4 0 9.5 7.4 0 9.6 7.4 0 9.7 7.4 0 9.8 7.4 0 9.9 7.4 0 10 7.4 0 0 7.5 0 0.1 7.5 0 0.2 7.5 0 0.3 7.5 0 0.4 7.5 0 0.5 7.5 0 0.6 7.5 0 0.7 7.5 0 0.8 7.5 0 0.9 7.5 0 1 7.5 0 1.1 7.5 0 1.2 7.5 0 1.3 7.5 0 1.4 7.5 0 1.5 7.5 0 1.6 7.5 0 1.7 7.5 0 1.8 7.5 0 1.9 7.5 0 2 7.5 0 2.1 7.5 0 2.2 7.5 0 2.3 7.5 0 2.4 7.5 0 2.5 7.5 0 2.6 7.5 0 2.7 7.5 0 2.8 7.5 0 2.9 7.5 0 3 7.5 0 3.1 7.5 0 3.2 7.5 0 3.3 7.5 0 3.4 7.5 0 3.5 7.5 0 3.6 7.5 0 3.7 7.5 0 3.8 7.5 0 3.9 7.5 0 4 7.5 0 4.1 7.5 0 4.2 7.5 0 4.3 7.5 0 4.4 7.5 0 4.5 7.5 0 4.6 7.5 0 4.7 7.5 0 4.8 7.5 0 4.9 7.5 0 5 7.5 0 5.1 7.5 0 5.2 7.5 0 5.3 7.5 0 5.4 7.5 0 5.5 7.5 0 5.6 7.5 0 5.7 7.5 0 5.8 7.5 0 5.9 7.5 0 6 7.5 0 6.1 7.5 0 6.2 7.5 0 6.3 7.5 0 6.4 7.5 0 6.5 7.5 0 6.6 7.5 0 6.7 7.5 0 6.8 7.5 0 6.9 7.5 0 7 7.5 0 7.1 7.5 0 7.2 7.5 0 7.3 7.5 0 7.4 7.5 0 7.5 7.5 0 7.6 7.5 0 7.7 7.5 0 7.8 7.5 0 7.9 7.5 0 8 7.5 0 8.1 7.5 0 8.2 7.5 0 8.3 7.5 0 8.4 7.5 0 8.5 7.5 0 8.6 7.5 0 8.7 7.5 0 8.8 7.5 0 8.9 7.5 0 9 7.5 0 9.1 7.5 0 9.2 7.5 0 9.3 7.5 0 9.4 7.5 0 9.5 7.5 0 9.6 7.5 0 9.7 7.5 0 9.8 7.5 0 9.9 7.5 0 10 7.5 0 0 7.6 0 0.1 7.6 0 0.2 7.6 0 0.3 7.6 0 0.4 7.6 0 0.5 7.6 0 0.6 7.6 0 0.7 7.6 0 0.8 7.6 0 0.9 7.6 0 1 7.6 0 1.1 7.6 0 1.2 7.6 0 1.3 7.6 0 1.4 7.6 0 1.5 7.6 0 1.6 7.6 0 1.7 7.6 0 1.8 7.6 0 1.9 7.6 0 2 7.6 0 2.1 7.6 0 2.2 7.6 0 2.3 7.6 0 2.4 7.6 0 2.5 7.6 0 2.6 7.6 0 2.7 7.6 0 2.8 7.6 0 2.9 7.6 0 3 7.6 0 3.1 7.6 0 3.2 7.6 0 3.3 7.6 0 3.4 7.6 0 3.5 7.6 0 3.6 7.6 0 3.7 7.6 0 3.8 7.6 0 3.9 7.6 0 4 7.6 0 4.1 7.6 0 4.2 7.6 0 4.3 7.6 0 4.4 7.6 0 4.5 7.6 0 4.6 7.6 0 4.7 7.6 0 4.8 7.6 0 4.9 7.6 0 5 7.6 0 5.1 7.6 0 5.2 7.6 0 5.3 7.6 0 5.4 7.6 0 5.5 7.6 0 5.6 7.6 0 5.7 7.6 0 5.8 7.6 0 5.9 7.6 0 6 7.6 0 6.1 7.6 0 6.2 7.6 0 6.3 7.6 0 6.4 7.6 0 6.5 7.6 0 6.6 7.6 0 6.7 7.6 0 6.8 7.6 0 6.9 7.6 0 7 7.6 0 7.1 7.6 0 7.2 7.6 0 7.3 7.6 0 7.4 7.6 0 7.5 7.6 0 7.6 7.6 0 7.7 7.6 0 7.8 7.6 0 7.9 7.6 0 8 7.6 0 8.1 7.6 0 8.2 7.6 0 8.3 7.6 0 8.4 7.6 0 8.5 7.6 0 8.6 7.6 0 8.7 7.6 0 8.8 7.6 0 8.9 7.6 0 9 7.6 0 9.1 7.6 0 9.2 7.6 0 9.3 7.6 0 9.4 7.6 0 9.5 7.6 0 9.6 7.6 0 9.7 7.6 0 9.8 7.6 0 9.9 7.6 0 10 7.6 0 0 7.7 0 0.1 7.7 0 0.2 7.7 0 0.3 7.7 0 0.4 7.7 0 0.5 7.7 0 0.6 7.7 0 0.7 7.7 0 0.8 7.7 0 0.9 7.7 0 1 7.7 0 1.1 7.7 0 1.2 7.7 0 1.3 7.7 0 1.4 7.7 0 1.5 7.7 0 1.6 7.7 0 1.7 7.7 0 1.8 7.7 0 1.9 7.7 0 2 7.7 0 2.1 7.7 0 2.2 7.7 0 2.3 7.7 0 2.4 7.7 0 2.5 7.7 0 2.6 7.7 0 2.7 7.7 0 2.8 7.7 0 2.9 7.7 0 3 7.7 0 3.1 7.7 0 3.2 7.7 0 3.3 7.7 0 3.4 7.7 0 3.5 7.7 0 3.6 7.7 0 3.7 7.7 0 3.8 7.7 0 3.9 7.7 0 4 7.7 0 4.1 7.7 0 4.2 7.7 0 4.3 7.7 0 4.4 7.7 0 4.5 7.7 0 4.6 7.7 0 4.7 7.7 0 4.8 7.7 0 4.9 7.7 0 5 7.7 0 5.1 7.7 0 5.2 7.7 0 5.3 7.7 0 5.4 7.7 0 5.5 7.7 0 5.6 7.7 0 5.7 7.7 0 5.8 7.7 0 5.9 7.7 0 6 7.7 0 6.1 7.7 0 6.2 7.7 0 6.3 7.7 0 6.4 7.7 0 6.5 7.7 0 6.6 7.7 0 6.7 7.7 0 6.8 7.7 0 6.9 7.7 0 7 7.7 0 7.1 7.7 0 7.2 7.7 0 7.3 7.7 0 7.4 7.7 0 7.5 7.7 0 7.6 7.7 0 7.7 7.7 0 7.8 7.7 0 7.9 7.7 0 8 7.7 0 8.1 7.7 0 8.2 7.7 0 8.3 7.7 0 8.4 7.7 0 8.5 7.7 0 8.6 7.7 0 8.7 7.7 0 8.8 7.7 0 8.9 7.7 0 9 7.7 0 9.1 7.7 0 9.2 7.7 0 9.3 7.7 0 9.4 7.7 0 9.5 7.7 0 9.6 7.7 0 9.7 7.7 0 9.8 7.7 0 9.9 7.7 0 10 7.7 0 0 7.8 0 0.1 7.8 0 0.2 7.8 0 0.3 7.8 0 0.4 7.8 0 0.5 7.8 0 0.6 7.8 0 0.7 7.8 0 0.8 7.8 0 0.9 7.8 0 1 7.8 0 1.1 7.8 0 1.2 7.8 0 1.3 7.8 0 1.4 7.8 0 1.5 7.8 0 1.6 7.8 0 1.7 7.8 0 1.8 7.8 0 1.9 7.8 0 2 7.8 0 2.1 7.8 0 2.2 7.8 0 2.3 7.8 0 2.4 7.8 0 2.5 7.8 0 2.6 7.8 0 2.7 7.8 0 2.8 7.8 0 2.9 7.8 0 3 7.8 0 3.1 7.8 0 3.2 7.8 0 3.3 7.8 0 3.4 7.8 0 3.5 7.8 0 3.6 7.8 0 3.7 7.8 0 3.8 7.8 0 3.9 7.8 0 4 7.8 0 4.1 7.8 0 4.2 7.8 0 4.3 7.8 0 4.4 7.8 0 4.5 7.8 0 4.6 7.8 0 4.7 7.8 0 4.8 7.8 0 4.9 7.8 0 5 7.8 0 5.1 7.8 0 5.2 7.8 0 5.3 7.8 0 5.4 7.8 0 5.5 7.8 0 5.6 7.8 0 5.7 7.8 0 5.8 7.8 0 5.9 7.8 0 6 7.8 0 6.1 7.8 0 6.2 7.8 0 6.3 7.8 0 6.4 7.8 0 6.5 7.8 0 6.6 7.8 0 6.7 7.8 0 6.8 7.8 0 6.9 7.8 0 7 7.8 0 7.1 7.8 0 7.2 7.8 0 7.3 7.8 0 7.4 7.8 0 7.5 7.8 0 7.6 7.8 0 7.7 7.8 0 7.8 7.8 0 7.9 7.8 0 8 7.8 0 8.1 7.8 0 8.2 7.8 0 8.3 7.8 0 8.4 7.8 0 8.5 7.8 0 8.6 7.8 0 8.7 7.8 0 8.8 7.8 0 8.9 7.8 0 9 7.8 0 9.1 7.8 0 9.2 7.8 0 9.3 7.8 0 9.4 7.8 0 9.5 7.8 0 9.6 7.8 0 9.7 7.8 0 9.8 7.8 0 9.9 7.8 0 10 7.8 0 0 7.9 0 0.1 7.9 0 0.2 7.9 0 0.3 7.9 0 0.4 7.9 0 0.5 7.9 0 0.6 7.9 0 0.7 7.9 0 0.8 7.9 0 0.9 7.9 0 1 7.9 0 1.1 7.9 0 1.2 7.9 0 1.3 7.9 0 1.4 7.9 0 1.5 7.9 0 1.6 7.9 0 1.7 7.9 0 1.8 7.9 0 1.9 7.9 0 2 7.9 0 2.1 7.9 0 2.2 7.9 0 2.3 7.9 0 2.4 7.9 0 2.5 7.9 0 2.6 7.9 0 2.7 7.9 0 2.8 7.9 0 2.9 7.9 0 3 7.9 0 3.1 7.9 0 3.2 7.9 0 3.3 7.9 0 3.4 7.9 0 3.5 7.9 0 3.6 7.9 0 3.7 7.9 0 3.8 7.9 0 3.9 7.9 0 4 7.9 0 4.1 7.9 0 4.2 7.9 0 4.3 7.9 0 4.4 7.9 0 4.5 7.9 0 4.6 7.9 0 4.7 7.9 0 4.8 7.9 0 4.9 7.9 0 5 7.9 0 5.1 7.9 0 5.2 7.9 0 5.3 7.9 0 5.4 7.9 0 5.5 7.9 0 5.6 7.9 0 5.7 7.9 0 5.8 7.9 0 5.9 7.9 0 6 7.9 0 6.1 7.9 0 6.2 7.9 0 6.3 7.9 0 6.4 7.9 0 6.5 7.9 0 6.6 7.9 0 6.7 7.9 0 6.8 7.9 0 6.9 7.9 0 7 7.9 0 7.1 7.9 0 7.2 7.9 0 7.3 7.9 0 7.4 7.9 0 7.5 7.9 0 7.6 7.9 0 7.7 7.9 0 7.8 7.9 0 7.9 7.9 0 8 7.9 0 8.1 7.9 0 8.2 7.9 0 8.3 7.9 0 8.4 7.9 0 8.5 7.9 0 8.6 7.9 0 8.7 7.9 0 8.8 7.9 0 8.9 7.9 0 9 7.9 0 9.1 7.9 0 9.2 7.9 0 9.3 7.9 0 9.4 7.9 0 9.5 7.9 0 9.6 7.9 0 9.7 7.9 0 9.8 7.9 0 9.9 7.9 0 10 7.9 0 0 8 0 0.1 8 0 0.2 8 0 0.3 8 0 0.4 8 0 0.5 8 0 0.6 8 0 0.7 8 0 0.8 8 0 0.9 8 0 1 8 0 1.1 8 0 1.2 8 0 1.3 8 0 1.4 8 0 1.5 8 0 1.6 8 0 1.7 8 0 1.8 8 0 1.9 8 0 2 8 0 2.1 8 0 2.2 8 0 2.3 8 0 2.4 8 0 2.5 8 0 2.6 8 0 2.7 8 0 2.8 8 0 2.9 8 0 3 8 0 3.1 8 0 3.2 8 0 3.3 8 0 3.4 8 0 3.5 8 0 3.6 8 0 3.7 8 0 3.8 8 0 3.9 8 0 4 8 0 4.1 8 0 4.2 8 0 4.3 8 0 4.4 8 0 4.5 8 0 4.6 8 0 4.7 8 0 4.8 8 0 4.9 8 0 5 8 0 5.1 8 0 5.2 8 0 5.3 8 0 5.4 8 0 5.5 8 0 5.6 8 0 5.7 8 0 5.8 8 0 5.9 8 0 6 8 0 6.1 8 0 6.2 8 0 6.3 8 0 6.4 8 0 6.5 8 0 6.6 8 0 6.7 8 0 6.8 8 0 6.9 8 0 7 8 0 7.1 8 0 7.2 8 0 7.3 8 0 7.4 8 0 7.5 8 0 7.6 8 0 7.7 8 0 7.8 8 0 7.9 8 0 8 8 0 8.1 8 0 8.2 8 0 8.3 8 0 8.4 8 0 8.5 8 0 8.6 8 0 8.7 8 0 8.8 8 0 8.9 8 0 9 8 0 9.1 8 0 9.2 8 0 9.3 8 0 9.4 8 0 9.5 8 0 9.6 8 0 9.7 8 0 9.8 8 0 9.9 8 0 10 8 0 0 8.1 0 0.1 8.1 0 0.2 8.1 0 0.3 8.1 0 0.4 8.1 0 0.5 8.1 0 0.6 8.1 0 0.7 8.1 0 0.8 8.1 0 0.9 8.1 0 1 8.1 0 1.1 8.1 0 1.2 8.1 0 1.3 8.1 0 1.4 8.1 0 1.5 8.1 0 1.6 8.1 0 1.7 8.1 0 1.8 8.1 0 1.9 8.1 0 2 8.1 0 2.1 8.1 0 2.2 8.1 0 2.3 8.1 0 2.4 8.1 0 2.5 8.1 0 2.6 8.1 0 2.7 8.1 0 2.8 8.1 0 2.9 8.1 0 3 8.1 0 3.1 8.1 0 3.2 8.1 0 3.3 8.1 0 3.4 8.1 0 3.5 8.1 0 3.6 8.1 0 3.7 8.1 0 3.8 8.1 0 3.9 8.1 0 4 8.1 0 4.1 8.1 0 4.2 8.1 0 4.3 8.1 0 4.4 8.1 0 4.5 8.1 0 4.6 8.1 0 4.7 8.1 0 4.8 8.1 0 4.9 8.1 0 5 8.1 0 5.1 8.1 0 5.2 8.1 0 5.3 8.1 0 5.4 8.1 0 5.5 8.1 0 5.6 8.1 0 5.7 8.1 0 5.8 8.1 0 5.9 8.1 0 6 8.1 0 6.1 8.1 0 6.2 8.1 0 6.3 8.1 0 6.4 8.1 0 6.5 8.1 0 6.6 8.1 0 6.7 8.1 0 6.8 8.1 0 6.9 8.1 0 7 8.1 0 7.1 8.1 0 7.2 8.1 0 7.3 8.1 0 7.4 8.1 0 7.5 8.1 0 7.6 8.1 0 7.7 8.1 0 7.8 8.1 0 7.9 8.1 0 8 8.1 0 8.1 8.1 0 8.2 8.1 0 8.3 8.1 0 8.4 8.1 0 8.5 8.1 0 8.6 8.1 0 8.7 8.1 0 8.8 8.1 0 8.9 8.1 0 9 8.1 0 9.1 8.1 0 9.2 8.1 0 9.3 8.1 0 9.4 8.1 0 9.5 8.1 0 9.6 8.1 0 9.7 8.1 0 9.8 8.1 0 9.9 8.1 0 10 8.1 0 0 8.2 0 0.1 8.2 0 0.2 8.2 0 0.3 8.2 0 0.4 8.2 0 0.5 8.2 0 0.6 8.2 0 0.7 8.2 0 0.8 8.2 0 0.9 8.2 0 1 8.2 0 1.1 8.2 0 1.2 8.2 0 1.3 8.2 0 1.4 8.2 0 1.5 8.2 0 1.6 8.2 0 1.7 8.2 0 1.8 8.2 0 1.9 8.2 0 2 8.2 0 2.1 8.2 0 2.2 8.2 0 2.3 8.2 0 2.4 8.2 0 2.5 8.2 0 2.6 8.2 0 2.7 8.2 0 2.8 8.2 0 2.9 8.2 0 3 8.2 0 3.1 8.2 0 3.2 8.2 0 3.3 8.2 0 3.4 8.2 0 3.5 8.2 0 3.6 8.2 0 3.7 8.2 0 3.8 8.2 0 3.9 8.2 0 4 8.2 0 4.1 8.2 0 4.2 8.2 0 4.3 8.2 0 4.4 8.2 0 4.5 8.2 0 4.6 8.2 0 4.7 8.2 0 4.8 8.2 0 4.9 8.2 0 5 8.2 0 5.1 8.2 0 5.2 8.2 0 5.3 8.2 0 5.4 8.2 0 5.5 8.2 0 5.6 8.2 0 5.7 8.2 0 5.8 8.2 0 5.9 8.2 0 6 8.2 0 6.1 8.2 0 6.2 8.2 0 6.3 8.2 0 6.4 8.2 0 6.5 8.2 0 6.6 8.2 0 6.7 8.2 0 6.8 8.2 0 6.9 8.2 0 7 8.2 0 7.1 8.2 0 7.2 8.2 0 7.3 8.2 0 7.4 8.2 0 7.5 8.2 0 7.6 8.2 0 7.7 8.2 0 7.8 8.2 0 7.9 8.2 0 8 8.2 0 8.1 8.2 0 8.2 8.2 0 8.3 8.2 0 8.4 8.2 0 8.5 8.2 0 8.6 8.2 0 8.7 8.2 0 8.8 8.2 0 8.9 8.2 0 9 8.2 0 9.1 8.2 0 9.2 8.2 0 9.3 8.2 0 9.4 8.2 0 9.5 8.2 0 9.6 8.2 0 9.7 8.2 0 9.8 8.2 0 9.9 8.2 0 10 8.2 0 0 8.3 0 0.1 8.3 0 0.2 8.3 0 0.3 8.3 0 0.4 8.3 0 0.5 8.3 0 0.6 8.3 0 0.7 8.3 0 0.8 8.3 0 0.9 8.3 0 1 8.3 0 1.1 8.3 0 1.2 8.3 0 1.3 8.3 0 1.4 8.3 0 1.5 8.3 0 1.6 8.3 0 1.7 8.3 0 1.8 8.3 0 1.9 8.3 0 2 8.3 0 2.1 8.3 0 2.2 8.3 0 2.3 8.3 0 2.4 8.3 0 2.5 8.3 0 2.6 8.3 0 2.7 8.3 0 2.8 8.3 0 2.9 8.3 0 3 8.3 0 3.1 8.3 0 3.2 8.3 0 3.3 8.3 0 3.4 8.3 0 3.5 8.3 0 3.6 8.3 0 3.7 8.3 0 3.8 8.3 0 3.9 8.3 0 4 8.3 0 4.1 8.3 0 4.2 8.3 0 4.3 8.3 0 4.4 8.3 0 4.5 8.3 0 4.6 8.3 0 4.7 8.3 0 4.8 8.3 0 4.9 8.3 0 5 8.3 0 5.1 8.3 0 5.2 8.3 0 5.3 8.3 0 5.4 8.3 0 5.5 8.3 0 5.6 8.3 0 5.7 8.3 0 5.8 8.3 0 5.9 8.3 0 6 8.3 0 6.1 8.3 0 6.2 8.3 0 6.3 8.3 0 6.4 8.3 0 6.5 8.3 0 6.6 8.3 0 6.7 8.3 0 6.8 8.3 0 6.9 8.3 0 7 8.3 0 7.1 8.3 0 7.2 8.3 0 7.3 8.3 0 7.4 8.3 0 7.5 8.3 0 7.6 8.3 0 7.7 8.3 0 7.8 8.3 0 7.9 8.3 0 8 8.3 0 8.1 8.3 0 8.2 8.3 0 8.3 8.3 0 8.4 8.3 0 8.5 8.3 0 8.6 8.3 0 8.7 8.3 0 8.8 8.3 0 8.9 8.3 0 9 8.3 0 9.1 8.3 0 9.2 8.3 0 9.3 8.3 0 9.4 8.3 0 9.5 8.3 0 9.6 8.3 0 9.7 8.3 0 9.8 8.3 0 9.9 8.3 0 10 8.3 0 0 8.4 0 0.1 8.4 0 0.2 8.4 0 0.3 8.4 0 0.4 8.4 0 0.5 8.4 0 0.6 8.4 0 0.7 8.4 0 0.8 8.4 0 0.9 8.4 0 1 8.4 0 1.1 8.4 0 1.2 8.4 0 1.3 8.4 0 1.4 8.4 0 1.5 8.4 0 1.6 8.4 0 1.7 8.4 0 1.8 8.4 0 1.9 8.4 0 2 8.4 0 2.1 8.4 0 2.2 8.4 0 2.3 8.4 0 2.4 8.4 0 2.5 8.4 0 2.6 8.4 0 2.7 8.4 0 2.8 8.4 0 2.9 8.4 0 3 8.4 0 3.1 8.4 0 3.2 8.4 0 3.3 8.4 0 3.4 8.4 0 3.5 8.4 0 3.6 8.4 0 3.7 8.4 0 3.8 8.4 0 3.9 8.4 0 4 8.4 0 4.1 8.4 0 4.2 8.4 0 4.3 8.4 0 4.4 8.4 0 4.5 8.4 0 4.6 8.4 0 4.7 8.4 0 4.8 8.4 0 4.9 8.4 0 5 8.4 0 5.1 8.4 0 5.2 8.4 0 5.3 8.4 0 5.4 8.4 0 5.5 8.4 0 5.6 8.4 0 5.7 8.4 0 5.8 8.4 0 5.9 8.4 0 6 8.4 0 6.1 8.4 0 6.2 8.4 0 6.3 8.4 0 6.4 8.4 0 6.5 8.4 0 6.6 8.4 0 6.7 8.4 0 6.8 8.4 0 6.9 8.4 0 7 8.4 0 7.1 8.4 0 7.2 8.4 0 7.3 8.4 0 7.4 8.4 0 7.5 8.4 0 7.6 8.4 0 7.7 8.4 0 7.8 8.4 0 7.9 8.4 0 8 8.4 0 8.1 8.4 0 8.2 8.4 0 8.3 8.4 0 8.4 8.4 0 8.5 8.4 0 8.6 8.4 0 8.7 8.4 0 8.8 8.4 0 8.9 8.4 0 9 8.4 0 9.1 8.4 0 9.2 8.4 0 9.3 8.4 0 9.4 8.4 0 9.5 8.4 0 9.6 8.4 0 9.7 8.4 0 9.8 8.4 0 9.9 8.4 0 10 8.4 0 0 8.5 0 0.1 8.5 0 0.2 8.5 0 0.3 8.5 0 0.4 8.5 0 0.5 8.5 0 0.6 8.5 0 0.7 8.5 0 0.8 8.5 0 0.9 8.5 0 1 8.5 0 1.1 8.5 0 1.2 8.5 0 1.3 8.5 0 1.4 8.5 0 1.5 8.5 0 1.6 8.5 0 1.7 8.5 0 1.8 8.5 0 1.9 8.5 0 2 8.5 0 2.1 8.5 0 2.2 8.5 0 2.3 8.5 0 2.4 8.5 0 2.5 8.5 0 2.6 8.5 0 2.7 8.5 0 2.8 8.5 0 2.9 8.5 0 3 8.5 0 3.1 8.5 0 3.2 8.5 0 3.3 8.5 0 3.4 8.5 0 3.5 8.5 0 3.6 8.5 0 3.7 8.5 0 3.8 8.5 0 3.9 8.5 0 4 8.5 0 4.1 8.5 0 4.2 8.5 0 4.3 8.5 0 4.4 8.5 0 4.5 8.5 0 4.6 8.5 0 4.7 8.5 0 4.8 8.5 0 4.9 8.5 0 5 8.5 0 5.1 8.5 0 5.2 8.5 0 5.3 8.5 0 5.4 8.5 0 5.5 8.5 0 5.6 8.5 0 5.7 8.5 0 5.8 8.5 0 5.9 8.5 0 6 8.5 0 6.1 8.5 0 6.2 8.5 0 6.3 8.5 0 6.4 8.5 0 6.5 8.5 0 6.6 8.5 0 6.7 8.5 0 6.8 8.5 0 6.9 8.5 0 7 8.5 0 7.1 8.5 0 7.2 8.5 0 7.3 8.5 0 7.4 8.5 0 7.5 8.5 0 7.6 8.5 0 7.7 8.5 0 7.8 8.5 0 7.9 8.5 0 8 8.5 0 8.1 8.5 0 8.2 8.5 0 8.3 8.5 0 8.4 8.5 0 8.5 8.5 0 8.6 8.5 0 8.7 8.5 0 8.8 8.5 0 8.9 8.5 0 9 8.5 0 9.1 8.5 0 9.2 8.5 0 9.3 8.5 0 9.4 8.5 0 9.5 8.5 0 9.6 8.5 0 9.7 8.5 0 9.8 8.5 0 9.9 8.5 0 10 8.5 0 0 8.6 0 0.1 8.6 0 0.2 8.6 0 0.3 8.6 0 0.4 8.6 0 0.5 8.6 0 0.6 8.6 0 0.7 8.6 0 0.8 8.6 0 0.9 8.6 0 1 8.6 0 1.1 8.6 0 1.2 8.6 0 1.3 8.6 0 1.4 8.6 0 1.5 8.6 0 1.6 8.6 0 1.7 8.6 0 1.8 8.6 0 1.9 8.6 0 2 8.6 0 2.1 8.6 0 2.2 8.6 0 2.3 8.6 0 2.4 8.6 0 2.5 8.6 0 2.6 8.6 0 2.7 8.6 0 2.8 8.6 0 2.9 8.6 0 3 8.6 0 3.1 8.6 0 3.2 8.6 0 3.3 8.6 0 3.4 8.6 0 3.5 8.6 0 3.6 8.6 0 3.7 8.6 0 3.8 8.6 0 3.9 8.6 0 4 8.6 0 4.1 8.6 0 4.2 8.6 0 4.3 8.6 0 4.4 8.6 0 4.5 8.6 0 4.6 8.6 0 4.7 8.6 0 4.8 8.6 0 4.9 8.6 0 5 8.6 0 5.1 8.6 0 5.2 8.6 0 5.3 8.6 0 5.4 8.6 0 5.5 8.6 0 5.6 8.6 0 5.7 8.6 0 5.8 8.6 0 5.9 8.6 0 6 8.6 0 6.1 8.6 0 6.2 8.6 0 6.3 8.6 0 6.4 8.6 0 6.5 8.6 0 6.6 8.6 0 6.7 8.6 0 6.8 8.6 0 6.9 8.6 0 7 8.6 0 7.1 8.6 0 7.2 8.6 0 7.3 8.6 0 7.4 8.6 0 7.5 8.6 0 7.6 8.6 0 7.7 8.6 0 7.8 8.6 0 7.9 8.6 0 8 8.6 0 8.1 8.6 0 8.2 8.6 0 8.3 8.6 0 8.4 8.6 0 8.5 8.6 0 8.6 8.6 0 8.7 8.6 0 8.8 8.6 0 8.9 8.6 0 9 8.6 0 9.1 8.6 0 9.2 8.6 0 9.3 8.6 0 9.4 8.6 0 9.5 8.6 0 9.6 8.6 0 9.7 8.6 0 9.8 8.6 0 9.9 8.6 0 10 8.6 0 0 8.7 0 0.1 8.7 0 0.2 8.7 0 0.3 8.7 0 0.4 8.7 0 0.5 8.7 0 0.6 8.7 0 0.7 8.7 0 0.8 8.7 0 0.9 8.7 0 1 8.7 0 1.1 8.7 0 1.2 8.7 0 1.3 8.7 0 1.4 8.7 0 1.5 8.7 0 1.6 8.7 0 1.7 8.7 0 1.8 8.7 0 1.9 8.7 0 2 8.7 0 2.1 8.7 0 2.2 8.7 0 2.3 8.7 0 2.4 8.7 0 2.5 8.7 0 2.6 8.7 0 2.7 8.7 0 2.8 8.7 0 2.9 8.7 0 3 8.7 0 3.1 8.7 0 3.2 8.7 0 3.3 8.7 0 3.4 8.7 0 3.5 8.7 0 3.6 8.7 0 3.7 8.7 0 3.8 8.7 0 3.9 8.7 0 4 8.7 0 4.1 8.7 0 4.2 8.7 0 4.3 8.7 0 4.4 8.7 0 4.5 8.7 0 4.6 8.7 0 4.7 8.7 0 4.8 8.7 0 4.9 8.7 0 5 8.7 0 5.1 8.7 0 5.2 8.7 0 5.3 8.7 0 5.4 8.7 0 5.5 8.7 0 5.6 8.7 0 5.7 8.7 0 5.8 8.7 0 5.9 8.7 0 6 8.7 0 6.1 8.7 0 6.2 8.7 0 6.3 8.7 0 6.4 8.7 0 6.5 8.7 0 6.6 8.7 0 6.7 8.7 0 6.8 8.7 0 6.9 8.7 0 7 8.7 0 7.1 8.7 0 7.2 8.7 0 7.3 8.7 0 7.4 8.7 0 7.5 8.7 0 7.6 8.7 0 7.7 8.7 0 7.8 8.7 0 7.9 8.7 0 8 8.7 0 8.1 8.7 0 8.2 8.7 0 8.3 8.7 0 8.4 8.7 0 8.5 8.7 0 8.6 8.7 0 8.7 8.7 0 8.8 8.7 0 8.9 8.7 0 9 8.7 0 9.1 8.7 0 9.2 8.7 0 9.3 8.7 0 9.4 8.7 0 9.5 8.7 0 9.6 8.7 0 9.7 8.7 0 9.8 8.7 0 9.9 8.7 0 10 8.7 0 0 8.8 0 0.1 8.8 0 0.2 8.8 0 0.3 8.8 0 0.4 8.8 0 0.5 8.8 0 0.6 8.8 0 0.7 8.8 0 0.8 8.8 0 0.9 8.8 0 1 8.8 0 1.1 8.8 0 1.2 8.8 0 1.3 8.8 0 1.4 8.8 0 1.5 8.8 0 1.6 8.8 0 1.7 8.8 0 1.8 8.8 0 1.9 8.8 0 2 8.8 0 2.1 8.8 0 2.2 8.8 0 2.3 8.8 0 2.4 8.8 0 2.5 8.8 0 2.6 8.8 0 2.7 8.8 0 2.8 8.8 0 2.9 8.8 0 3 8.8 0 3.1 8.8 0 3.2 8.8 0 3.3 8.8 0 3.4 8.8 0 3.5 8.8 0 3.6 8.8 0 3.7 8.8 0 3.8 8.8 0 3.9 8.8 0 4 8.8 0 4.1 8.8 0 4.2 8.8 0 4.3 8.8 0 4.4 8.8 0 4.5 8.8 0 4.6 8.8 0 4.7 8.8 0 4.8 8.8 0 4.9 8.8 0 5 8.8 0 5.1 8.8 0 5.2 8.8 0 5.3 8.8 0 5.4 8.8 0 5.5 8.8 0 5.6 8.8 0 5.7 8.8 0 5.8 8.8 0 5.9 8.8 0 6 8.8 0 6.1 8.8 0 6.2 8.8 0 6.3 8.8 0 6.4 8.8 0 6.5 8.8 0 6.6 8.8 0 6.7 8.8 0 6.8 8.8 0 6.9 8.8 0 7 8.8 0 7.1 8.8 0 7.2 8.8 0 7.3 8.8 0 7.4 8.8 0 7.5 8.8 0 7.6 8.8 0 7.7 8.8 0 7.8 8.8 0 7.9 8.8 0 8 8.8 0 8.1 8.8 0 8.2 8.8 0 8.3 8.8 0 8.4 8.8 0 8.5 8.8 0 8.6 8.8 0 8.7 8.8 0 8.8 8.8 0 8.9 8.8 0 9 8.8 0 9.1 8.8 0 9.2 8.8 0 9.3 8.8 0 9.4 8.8 0 9.5 8.8 0 9.6 8.8 0 9.7 8.8 0 9.8 8.8 0 9.9 8.8 0 10 8.8 0 0 8.9 0 0.1 8.9 0 0.2 8.9 0 0.3 8.9 0 0.4 8.9 0 0.5 8.9 0 0.6 8.9 0 0.7 8.9 0 0.8 8.9 0 0.9 8.9 0 1 8.9 0 1.1 8.9 0 1.2 8.9 0 1.3 8.9 0 1.4 8.9 0 1.5 8.9 0 1.6 8.9 0 1.7 8.9 0 1.8 8.9 0 1.9 8.9 0 2 8.9 0 2.1 8.9 0 2.2 8.9 0 2.3 8.9 0 2.4 8.9 0 2.5 8.9 0 2.6 8.9 0 2.7 8.9 0 2.8 8.9 0 2.9 8.9 0 3 8.9 0 3.1 8.9 0 3.2 8.9 0 3.3 8.9 0 3.4 8.9 0 3.5 8.9 0 3.6 8.9 0 3.7 8.9 0 3.8 8.9 0 3.9 8.9 0 4 8.9 0 4.1 8.9 0 4.2 8.9 0 4.3 8.9 0 4.4 8.9 0 4.5 8.9 0 4.6 8.9 0 4.7 8.9 0 4.8 8.9 0 4.9 8.9 0 5 8.9 0 5.1 8.9 0 5.2 8.9 0 5.3 8.9 0 5.4 8.9 0 5.5 8.9 0 5.6 8.9 0 5.7 8.9 0 5.8 8.9 0 5.9 8.9 0 6 8.9 0 6.1 8.9 0 6.2 8.9 0 6.3 8.9 0 6.4 8.9 0 6.5 8.9 0 6.6 8.9 0 6.7 8.9 0 6.8 8.9 0 6.9 8.9 0 7 8.9 0 7.1 8.9 0 7.2 8.9 0 7.3 8.9 0 7.4 8.9 0 7.5 8.9 0 7.6 8.9 0 7.7 8.9 0 7.8 8.9 0 7.9 8.9 0 8 8.9 0 8.1 8.9 0 8.2 8.9 0 8.3 8.9 0 8.4 8.9 0 8.5 8.9 0 8.6 8.9 0 8.7 8.9 0 8.8 8.9 0 8.9 8.9 0 9 8.9 0 9.1 8.9 0 9.2 8.9 0 9.3 8.9 0 9.4 8.9 0 9.5 8.9 0 9.6 8.9 0 9.7 8.9 0 9.8 8.9 0 9.9 8.9 0 10 8.9 0 0 9 0 0.1 9 0 0.2 9 0 0.3 9 0 0.4 9 0 0.5 9 0 0.6 9 0 0.7 9 0 0.8 9 0 0.9 9 0 1 9 0 1.1 9 0 1.2 9 0 1.3 9 0 1.4 9 0 1.5 9 0 1.6 9 0 1.7 9 0 1.8 9 0 1.9 9 0 2 9 0 2.1 9 0 2.2 9 0 2.3 9 0 2.4 9 0 2.5 9 0 2.6 9 0 2.7 9 0 2.8 9 0 2.9 9 0 3 9 0 3.1 9 0 3.2 9 0 3.3 9 0 3.4 9 0 3.5 9 0 3.6 9 0 3.7 9 0 3.8 9 0 3.9 9 0 4 9 0 4.1 9 0 4.2 9 0 4.3 9 0 4.4 9 0 4.5 9 0 4.6 9 0 4.7 9 0 4.8 9 0 4.9 9 0 5 9 0 5.1 9 0 5.2 9 0 5.3 9 0 5.4 9 0 5.5 9 0 5.6 9 0 5.7 9 0 5.8 9 0 5.9 9 0 6 9 0 6.1 9 0 6.2 9 0 6.3 9 0 6.4 9 0 6.5 9 0 6.6 9 0 6.7 9 0 6.8 9 0 6.9 9 0 7 9 0 7.1 9 0 7.2 9 0 7.3 9 0 7.4 9 0 7.5 9 0 7.6 9 0 7.7 9 0 7.8 9 0 7.9 9 0 8 9 0 8.1 9 0 8.2 9 0 8.3 9 0 8.4 9 0 8.5 9 0 8.6 9 0 8.7 9 0 8.8 9 0 8.9 9 0 9 9 0 9.1 9 0 9.2 9 0 9.3 9 0 9.4 9 0 9.5 9 0 9.6 9 0 9.7 9 0 9.8 9 0 9.9 9 0 10 9 0 0 9.1 0 0.1 9.1 0 0.2 9.1 0 0.3 9.1 0 0.4 9.1 0 0.5 9.1 0 0.6 9.1 0 0.7 9.1 0 0.8 9.1 0 0.9 9.1 0 1 9.1 0 1.1 9.1 0 1.2 9.1 0 1.3 9.1 0 1.4 9.1 0 1.5 9.1 0 1.6 9.1 0 1.7 9.1 0 1.8 9.1 0 1.9 9.1 0 2 9.1 0 2.1 9.1 0 2.2 9.1 0 2.3 9.1 0 2.4 9.1 0 2.5 9.1 0 2.6 9.1 0 2.7 9.1 0 2.8 9.1 0 2.9 9.1 0 3 9.1 0 3.1 9.1 0 3.2 9.1 0 3.3 9.1 0 3.4 9.1 0 3.5 9.1 0 3.6 9.1 0 3.7 9.1 0 3.8 9.1 0 3.9 9.1 0 4 9.1 0 4.1 9.1 0 4.2 9.1 0 4.3 9.1 0 4.4 9.1 0 4.5 9.1 0 4.6 9.1 0 4.7 9.1 0 4.8 9.1 0 4.9 9.1 0 5 9.1 0 5.1 9.1 0 5.2 9.1 0 5.3 9.1 0 5.4 9.1 0 5.5 9.1 0 5.6 9.1 0 5.7 9.1 0 5.8 9.1 0 5.9 9.1 0 6 9.1 0 6.1 9.1 0 6.2 9.1 0 6.3 9.1 0 6.4 9.1 0 6.5 9.1 0 6.6 9.1 0 6.7 9.1 0 6.8 9.1 0 6.9 9.1 0 7 9.1 0 7.1 9.1 0 7.2 9.1 0 7.3 9.1 0 7.4 9.1 0 7.5 9.1 0 7.6 9.1 0 7.7 9.1 0 7.8 9.1 0 7.9 9.1 0 8 9.1 0 8.1 9.1 0 8.2 9.1 0 8.3 9.1 0 8.4 9.1 0 8.5 9.1 0 8.6 9.1 0 8.7 9.1 0 8.8 9.1 0 8.9 9.1 0 9 9.1 0 9.1 9.1 0 9.2 9.1 0 9.3 9.1 0 9.4 9.1 0 9.5 9.1 0 9.6 9.1 0 9.7 9.1 0 9.8 9.1 0 9.9 9.1 0 10 9.1 0 0 9.2 0 0.1 9.2 0 0.2 9.2 0 0.3 9.2 0 0.4 9.2 0 0.5 9.2 0 0.6 9.2 0 0.7 9.2 0 0.8 9.2 0 0.9 9.2 0 1 9.2 0 1.1 9.2 0 1.2 9.2 0 1.3 9.2 0 1.4 9.2 0 1.5 9.2 0 1.6 9.2 0 1.7 9.2 0 1.8 9.2 0 1.9 9.2 0 2 9.2 0 2.1 9.2 0 2.2 9.2 0 2.3 9.2 0 2.4 9.2 0 2.5 9.2 0 2.6 9.2 0 2.7 9.2 0 2.8 9.2 0 2.9 9.2 0 3 9.2 0 3.1 9.2 0 3.2 9.2 0 3.3 9.2 0 3.4 9.2 0 3.5 9.2 0 3.6 9.2 0 3.7 9.2 0 3.8 9.2 0 3.9 9.2 0 4 9.2 0 4.1 9.2 0 4.2 9.2 0 4.3 9.2 0 4.4 9.2 0 4.5 9.2 0 4.6 9.2 0 4.7 9.2 0 4.8 9.2 0 4.9 9.2 0 5 9.2 0 5.1 9.2 0 5.2 9.2 0 5.3 9.2 0 5.4 9.2 0 5.5 9.2 0 5.6 9.2 0 5.7 9.2 0 5.8 9.2 0 5.9 9.2 0 6 9.2 0 6.1 9.2 0 6.2 9.2 0 6.3 9.2 0 6.4 9.2 0 6.5 9.2 0 6.6 9.2 0 6.7 9.2 0 6.8 9.2 0 6.9 9.2 0 7 9.2 0 7.1 9.2 0 7.2 9.2 0 7.3 9.2 0 7.4 9.2 0 7.5 9.2 0 7.6 9.2 0 7.7 9.2 0 7.8 9.2 0 7.9 9.2 0 8 9.2 0 8.1 9.2 0 8.2 9.2 0 8.3 9.2 0 8.4 9.2 0 8.5 9.2 0 8.6 9.2 0 8.7 9.2 0 8.8 9.2 0 8.9 9.2 0 9 9.2 0 9.1 9.2 0 9.2 9.2 0 9.3 9.2 0 9.4 9.2 0 9.5 9.2 0 9.6 9.2 0 9.7 9.2 0 9.8 9.2 0 9.9 9.2 0 10 9.2 0 0 9.3 0 0.1 9.3 0 0.2 9.3 0 0.3 9.3 0 0.4 9.3 0 0.5 9.3 0 0.6 9.3 0 0.7 9.3 0 0.8 9.3 0 0.9 9.3 0 1 9.3 0 1.1 9.3 0 1.2 9.3 0 1.3 9.3 0 1.4 9.3 0 1.5 9.3 0 1.6 9.3 0 1.7 9.3 0 1.8 9.3 0 1.9 9.3 0 2 9.3 0 2.1 9.3 0 2.2 9.3 0 2.3 9.3 0 2.4 9.3 0 2.5 9.3 0 2.6 9.3 0 2.7 9.3 0 2.8 9.3 0 2.9 9.3 0 3 9.3 0 3.1 9.3 0 3.2 9.3 0 3.3 9.3 0 3.4 9.3 0 3.5 9.3 0 3.6 9.3 0 3.7 9.3 0 3.8 9.3 0 3.9 9.3 0 4 9.3 0 4.1 9.3 0 4.2 9.3 0 4.3 9.3 0 4.4 9.3 0 4.5 9.3 0 4.6 9.3 0 4.7 9.3 0 4.8 9.3 0 4.9 9.3 0 5 9.3 0 5.1 9.3 0 5.2 9.3 0 5.3 9.3 0 5.4 9.3 0 5.5 9.3 0 5.6 9.3 0 5.7 9.3 0 5.8 9.3 0 5.9 9.3 0 6 9.3 0 6.1 9.3 0 6.2 9.3 0 6.3 9.3 0 6.4 9.3 0 6.5 9.3 0 6.6 9.3 0 6.7 9.3 0 6.8 9.3 0 6.9 9.3 0 7 9.3 0 7.1 9.3 0 7.2 9.3 0 7.3 9.3 0 7.4 9.3 0 7.5 9.3 0 7.6 9.3 0 7.7 9.3 0 7.8 9.3 0 7.9 9.3 0 8 9.3 0 8.1 9.3 0 8.2 9.3 0 8.3 9.3 0 8.4 9.3 0 8.5 9.3 0 8.6 9.3 0 8.7 9.3 0 8.8 9.3 0 8.9 9.3 0 9 9.3 0 9.1 9.3 0 9.2 9.3 0 9.3 9.3 0 9.4 9.3 0 9.5 9.3 0 9.6 9.3 0 9.7 9.3 0 9.8 9.3 0 9.9 9.3 0 10 9.3 0 0 9.4 0 0.1 9.4 0 0.2 9.4 0 0.3 9.4 0 0.4 9.4 0 0.5 9.4 0 0.6 9.4 0 0.7 9.4 0 0.8 9.4 0 0.9 9.4 0 1 9.4 0 1.1 9.4 0 1.2 9.4 0 1.3 9.4 0 1.4 9.4 0 1.5 9.4 0 1.6 9.4 0 1.7 9.4 0 1.8 9.4 0 1.9 9.4 0 2 9.4 0 2.1 9.4 0 2.2 9.4 0 2.3 9.4 0 2.4 9.4 0 2.5 9.4 0 2.6 9.4 0 2.7 9.4 0 2.8 9.4 0 2.9 9.4 0 3 9.4 0 3.1 9.4 0 3.2 9.4 0 3.3 9.4 0 3.4 9.4 0 3.5 9.4 0 3.6 9.4 0 3.7 9.4 0 3.8 9.4 0 3.9 9.4 0 4 9.4 0 4.1 9.4 0 4.2 9.4 0 4.3 9.4 0 4.4 9.4 0 4.5 9.4 0 4.6 9.4 0 4.7 9.4 0 4.8 9.4 0 4.9 9.4 0 5 9.4 0 5.1 9.4 0 5.2 9.4 0 5.3 9.4 0 5.4 9.4 0 5.5 9.4 0 5.6 9.4 0 5.7 9.4 0 5.8 9.4 0 5.9 9.4 0 6 9.4 0 6.1 9.4 0 6.2 9.4 0 6.3 9.4 0 6.4 9.4 0 6.5 9.4 0 6.6 9.4 0 6.7 9.4 0 6.8 9.4 0 6.9 9.4 0 7 9.4 0 7.1 9.4 0 7.2 9.4 0 7.3 9.4 0 7.4 9.4 0 7.5 9.4 0 7.6 9.4 0 7.7 9.4 0 7.8 9.4 0 7.9 9.4 0 8 9.4 0 8.1 9.4 0 8.2 9.4 0 8.3 9.4 0 8.4 9.4 0 8.5 9.4 0 8.6 9.4 0 8.7 9.4 0 8.8 9.4 0 8.9 9.4 0 9 9.4 0 9.1 9.4 0 9.2 9.4 0 9.3 9.4 0 9.4 9.4 0 9.5 9.4 0 9.6 9.4 0 9.7 9.4 0 9.8 9.4 0 9.9 9.4 0 10 9.4 0 0 9.5 0 0.1 9.5 0 0.2 9.5 0 0.3 9.5 0 0.4 9.5 0 0.5 9.5 0 0.6 9.5 0 0.7 9.5 0 0.8 9.5 0 0.9 9.5 0 1 9.5 0 1.1 9.5 0 1.2 9.5 0 1.3 9.5 0 1.4 9.5 0 1.5 9.5 0 1.6 9.5 0 1.7 9.5 0 1.8 9.5 0 1.9 9.5 0 2 9.5 0 2.1 9.5 0 2.2 9.5 0 2.3 9.5 0 2.4 9.5 0 2.5 9.5 0 2.6 9.5 0 2.7 9.5 0 2.8 9.5 0 2.9 9.5 0 3 9.5 0 3.1 9.5 0 3.2 9.5 0 3.3 9.5 0 3.4 9.5 0 3.5 9.5 0 3.6 9.5 0 3.7 9.5 0 3.8 9.5 0 3.9 9.5 0 4 9.5 0 4.1 9.5 0 4.2 9.5 0 4.3 9.5 0 4.4 9.5 0 4.5 9.5 0 4.6 9.5 0 4.7 9.5 0 4.8 9.5 0 4.9 9.5 0 5 9.5 0 5.1 9.5 0 5.2 9.5 0 5.3 9.5 0 5.4 9.5 0 5.5 9.5 0 5.6 9.5 0 5.7 9.5 0 5.8 9.5 0 5.9 9.5 0 6 9.5 0 6.1 9.5 0 6.2 9.5 0 6.3 9.5 0 6.4 9.5 0 6.5 9.5 0 6.6 9.5 0 6.7 9.5 0 6.8 9.5 0 6.9 9.5 0 7 9.5 0 7.1 9.5 0 7.2 9.5 0 7.3 9.5 0 7.4 9.5 0 7.5 9.5 0 7.6 9.5 0 7.7 9.5 0 7.8 9.5 0 7.9 9.5 0 8 9.5 0 8.1 9.5 0 8.2 9.5 0 8.3 9.5 0 8.4 9.5 0 8.5 9.5 0 8.6 9.5 0 8.7 9.5 0 8.8 9.5 0 8.9 9.5 0 9 9.5 0 9.1 9.5 0 9.2 9.5 0 9.3 9.5 0 9.4 9.5 0 9.5 9.5 0 9.6 9.5 0 9.7 9.5 0 9.8 9.5 0 9.9 9.5 0 10 9.5 0 0 9.6 0 0.1 9.6 0 0.2 9.6 0 0.3 9.6 0 0.4 9.6 0 0.5 9.6 0 0.6 9.6 0 0.7 9.6 0 0.8 9.6 0 0.9 9.6 0 1 9.6 0 1.1 9.6 0 1.2 9.6 0 1.3 9.6 0 1.4 9.6 0 1.5 9.6 0 1.6 9.6 0 1.7 9.6 0 1.8 9.6 0 1.9 9.6 0 2 9.6 0 2.1 9.6 0 2.2 9.6 0 2.3 9.6 0 2.4 9.6 0 2.5 9.6 0 2.6 9.6 0 2.7 9.6 0 2.8 9.6 0 2.9 9.6 0 3 9.6 0 3.1 9.6 0 3.2 9.6 0 3.3 9.6 0 3.4 9.6 0 3.5 9.6 0 3.6 9.6 0 3.7 9.6 0 3.8 9.6 0 3.9 9.6 0 4 9.6 0 4.1 9.6 0 4.2 9.6 0 4.3 9.6 0 4.4 9.6 0 4.5 9.6 0 4.6 9.6 0 4.7 9.6 0 4.8 9.6 0 4.9 9.6 0 5 9.6 0 5.1 9.6 0 5.2 9.6 0 5.3 9.6 0 5.4 9.6 0 5.5 9.6 0 5.6 9.6 0 5.7 9.6 0 5.8 9.6 0 5.9 9.6 0 6 9.6 0 6.1 9.6 0 6.2 9.6 0 6.3 9.6 0 6.4 9.6 0 6.5 9.6 0 6.6 9.6 0 6.7 9.6 0 6.8 9.6 0 6.9 9.6 0 7 9.6 0 7.1 9.6 0 7.2 9.6 0 7.3 9.6 0 7.4 9.6 0 7.5 9.6 0 7.6 9.6 0 7.7 9.6 0 7.8 9.6 0 7.9 9.6 0 8 9.6 0 8.1 9.6 0 8.2 9.6 0 8.3 9.6 0 8.4 9.6 0 8.5 9.6 0 8.6 9.6 0 8.7 9.6 0 8.8 9.6 0 8.9 9.6 0 9 9.6 0 9.1 9.6 0 9.2 9.6 0 9.3 9.6 0 9.4 9.6 0 9.5 9.6 0 9.6 9.6 0 9.7 9.6 0 9.8 9.6 0 9.9 9.6 0 10 9.6 0 0 9.7 0 0.1 9.7 0 0.2 9.7 0 0.3 9.7 0 0.4 9.7 0 0.5 9.7 0 0.6 9.7 0 0.7 9.7 0 0.8 9.7 0 0.9 9.7 0 1 9.7 0 1.1 9.7 0 1.2 9.7 0 1.3 9.7 0 1.4 9.7 0 1.5 9.7 0 1.6 9.7 0 1.7 9.7 0 1.8 9.7 0 1.9 9.7 0 2 9.7 0 2.1 9.7 0 2.2 9.7 0 2.3 9.7 0 2.4 9.7 0 2.5 9.7 0 2.6 9.7 0 2.7 9.7 0 2.8 9.7 0 2.9 9.7 0 3 9.7 0 3.1 9.7 0 3.2 9.7 0 3.3 9.7 0 3.4 9.7 0 3.5 9.7 0 3.6 9.7 0 3.7 9.7 0 3.8 9.7 0 3.9 9.7 0 4 9.7 0 4.1 9.7 0 4.2 9.7 0 4.3 9.7 0 4.4 9.7 0 4.5 9.7 0 4.6 9.7 0 4.7 9.7 0 4.8 9.7 0 4.9 9.7 0 5 9.7 0 5.1 9.7 0 5.2 9.7 0 5.3 9.7 0 5.4 9.7 0 5.5 9.7 0 5.6 9.7 0 5.7 9.7 0 5.8 9.7 0 5.9 9.7 0 6 9.7 0 6.1 9.7 0 6.2 9.7 0 6.3 9.7 0 6.4 9.7 0 6.5 9.7 0 6.6 9.7 0 6.7 9.7 0 6.8 9.7 0 6.9 9.7 0 7 9.7 0 7.1 9.7 0 7.2 9.7 0 7.3 9.7 0 7.4 9.7 0 7.5 9.7 0 7.6 9.7 0 7.7 9.7 0 7.8 9.7 0 7.9 9.7 0 8 9.7 0 8.1 9.7 0 8.2 9.7 0 8.3 9.7 0 8.4 9.7 0 8.5 9.7 0 8.6 9.7 0 8.7 9.7 0 8.8 9.7 0 8.9 9.7 0 9 9.7 0 9.1 9.7 0 9.2 9.7 0 9.3 9.7 0 9.4 9.7 0 9.5 9.7 0 9.6 9.7 0 9.7 9.7 0 9.8 9.7 0 9.9 9.7 0 10 9.7 0 0 9.8 0 0.1 9.8 0 0.2 9.8 0 0.3 9.8 0 0.4 9.8 0 0.5 9.8 0 0.6 9.8 0 0.7 9.8 0 0.8 9.8 0 0.9 9.8 0 1 9.8 0 1.1 9.8 0 1.2 9.8 0 1.3 9.8 0 1.4 9.8 0 1.5 9.8 0 1.6 9.8 0 1.7 9.8 0 1.8 9.8 0 1.9 9.8 0 2 9.8 0 2.1 9.8 0 2.2 9.8 0 2.3 9.8 0 2.4 9.8 0 2.5 9.8 0 2.6 9.8 0 2.7 9.8 0 2.8 9.8 0 2.9 9.8 0 3 9.8 0 3.1 9.8 0 3.2 9.8 0 3.3 9.8 0 3.4 9.8 0 3.5 9.8 0 3.6 9.8 0 3.7 9.8 0 3.8 9.8 0 3.9 9.8 0 4 9.8 0 4.1 9.8 0 4.2 9.8 0 4.3 9.8 0 4.4 9.8 0 4.5 9.8 0 4.6 9.8 0 4.7 9.8 0 4.8 9.8 0 4.9 9.8 0 5 9.8 0 5.1 9.8 0 5.2 9.8 0 5.3 9.8 0 5.4 9.8 0 5.5 9.8 0 5.6 9.8 0 5.7 9.8 0 5.8 9.8 0 5.9 9.8 0 6 9.8 0 6.1 9.8 0 6.2 9.8 0 6.3 9.8 0 6.4 9.8 0 6.5 9.8 0 6.6 9.8 0 6.7 9.8 0 6.8 9.8 0 6.9 9.8 0 7 9.8 0 7.1 9.8 0 7.2 9.8 0 7.3 9.8 0 7.4 9.8 0 7.5 9.8 0 7.6 9.8 0 7.7 9.8 0 7.8 9.8 0 7.9 9.8 0 8 9.8 0 8.1 9.8 0 8.2 9.8 0 8.3 9.8 0 8.4 9.8 0 8.5 9.8 0 8.6 9.8 0 8.7 9.8 0 8.8 9.8 0 8.9 9.8 0 9 9.8 0 9.1 9.8 0 9.2 9.8 0 9.3 9.8 0 9.4 9.8 0 9.5 9.8 0 9.6 9.8 0 9.7 9.8 0 9.8 9.8 0 9.9 9.8 0 10 9.8 0 0 9.9 0 0.1 9.9 0 0.2 9.9 0 0.3 9.9 0 0.4 9.9 0 0.5 9.9 0 0.6 9.9 0 0.7 9.9 0 0.8 9.9 0 0.9 9.9 0 1 9.9 0 1.1 9.9 0 1.2 9.9 0 1.3 9.9 0 1.4 9.9 0 1.5 9.9 0 1.6 9.9 0 1.7 9.9 0 1.8 9.9 0 1.9 9.9 0 2 9.9 0 2.1 9.9 0 2.2 9.9 0 2.3 9.9 0 2.4 9.9 0 2.5 9.9 0 2.6 9.9 0 2.7 9.9 0 2.8 9.9 0 2.9 9.9 0 3 9.9 0 3.1 9.9 0 3.2 9.9 0 3.3 9.9 0 3.4 9.9 0 3.5 9.9 0 3.6 9.9 0 3.7 9.9 0 3.8 9.9 0 3.9 9.9 0 4 9.9 0 4.1 9.9 0 4.2 9.9 0 4.3 9.9 0 4.4 9.9 0 4.5 9.9 0 4.6 9.9 0 4.7 9.9 0 4.8 9.9 0 4.9 9.9 0 5 9.9 0 5.1 9.9 0 5.2 9.9 0 5.3 9.9 0 5.4 9.9 0 5.5 9.9 0 5.6 9.9 0 5.7 9.9 0 5.8 9.9 0 5.9 9.9 0 6 9.9 0 6.1 9.9 0 6.2 9.9 0 6.3 9.9 0 6.4 9.9 0 6.5 9.9 0 6.6 9.9 0 6.7 9.9 0 6.8 9.9 0 6.9 9.9 0 7 9.9 0 7.1 9.9 0 7.2 9.9 0 7.3 9.9 0 7.4 9.9 0 7.5 9.9 0 7.6 9.9 0 7.7 9.9 0 7.8 9.9 0 7.9 9.9 0 8 9.9 0 8.1 9.9 0 8.2 9.9 0 8.3 9.9 0 8.4 9.9 0 8.5 9.9 0 8.6 9.9 0 8.7 9.9 0 8.8 9.9 0 8.9 9.9 0 9 9.9 0 9.1 9.9 0 9.2 9.9 0 9.3 9.9 0 9.4 9.9 0 9.5 9.9 0 9.6 9.9 0 9.7 9.9 0 9.8 9.9 0 9.9 9.9 0 10 9.9 0 0 10 0 0.1 10 0 0.2 10 0 0.3 10 0 0.4 10 0 0.5 10 0 0.6 10 0 0.7 10 0 0.8 10 0 0.9 10 0 1 10 0 1.1 10 0 1.2 10 0 1.3 10 0 1.4 10 0 1.5 10 0 1.6 10 0 1.7 10 0 1.8 10 0 1.9 10 0 2 10 0 2.1 10 0 2.2 10 0 2.3 10 0 2.4 10 0 2.5 10 0 2.6 10 0 2.7 10 0 2.8 10 0 2.9 10 0 3 10 0 3.1 10 0 3.2 10 0 3.3 10 0 3.4 10 0 3.5 10 0 3.6 10 0 3.7 10 0 3.8 10 0 3.9 10 0 4 10 0 4.1 10 0 4.2 10 0 4.3 10 0 4.4 10 0 4.5 10 0 4.6 10 0 4.7 10 0 4.8 10 0 4.9 10 0 5 10 0 5.1 10 0 5.2 10 0 5.3 10 0 5.4 10 0 5.5 10 0 5.6 10 0 5.7 10 0 5.8 10 0 5.9 10 0 6 10 0 6.1 10 0 6.2 10 0 6.3 10 0 6.4 10 0 6.5 10 0 6.6 10 0 6.7 10 0 6.8 10 0 6.9 10 0 7 10 0 7.1 10 0 7.2 10 0 7.3 10 0 7.4 10 0 7.5 10 0 7.6 10 0 7.7 10 0 7.8 10 0 7.9 10 0 8 10 0 8.1 10 0 8.2 10 0 8.3 10 0 8.4 10 0 8.5 10 0 8.6 10 0 8.7 10 0 8.8 10 0 8.9 10 0 9 10 0 9.1 10 0 9.2 10 0 9.3 10 0 9.4 10 0 9.5 10 0 9.6 10 0 9.7 10 0 9.8 10 0 9.9 10 0 10 10 0 
</DataArray>
</Points> 
</Piece> 
</StructuredGrid> 
</VTKFile> 
