<?xml version="1.0"?> 
<VTKFile type="StructuredGrid" version="0.1"> 
<StructuredGrid WholeExtent="0 100 0 100 0 0"> 
<Piece Extent="0 100 0 100 0 0"> 
<PointData>
<DataArray type="Float32" Name="value" format="ascii" NumberOfComponents="1"> 
89.0648 89.0722 89.0954 89.1332 89.1842 89.2472 89.3208 89.4036 89.4931 89.5863 89.6799 89.7708 89.8561 89.9325 89.9965 90.0445 90.0727 90.0774 90.0547 90.0009 89.9126 89.7869 89.6209 89.4119 89.1571 88.8537 88.4992 88.0925 87.6328 87.1193 86.5512 85.9279 85.2486 84.514 83.7257 82.8849 81.9932 81.052 80.0626 79.0273 77.9492 76.831 75.6758 74.4867 73.2665 72.0184 70.7459 69.4526 68.1418 66.8172 65.4822 64.1403 62.7947 61.4485 60.1049 58.7669 57.4377 56.1203 54.8172 53.5307 52.263 51.0161 49.7924 48.5939 47.4224 46.2791 45.1651 44.0815 43.0295 42.0103 41.0247 40.0731 39.1559 38.2732 37.4254 36.6129 35.8358 35.094 34.3872 33.7154 33.0781 32.4753 31.9067 31.3719 30.8706 30.4023 29.9666 29.563 29.1913 28.851 28.5417 28.2631 28.0149 27.7967 27.6082 27.4491 27.3192 27.2184 27.1465 27.1035 27.0891 89.0722 89.0797 89.1031 89.1411 89.1925 89.2559 89.3301 89.4136 89.5039 89.5979 89.6925 89.7845 89.8709 89.9485 90.0138 90.0632 90.0928 90.0988 90.0776 90.0253 89.9385 89.8142 89.6498 89.4423 89.189 88.8869 88.5338 88.1284 87.6699 87.1576 86.5907 85.9684 85.29 84.5563 83.7686 82.9285 82.0372 81.0964 80.1073 79.0722 77.994 76.8758 75.7204 74.531 73.3104 72.0618 70.7887 69.4946 68.1831 66.8576 65.5217 64.1788 62.8322 61.4849 60.1401 58.801 57.4706 56.152 54.8477 53.56 52.2909 51.0428 49.8179 48.6182 47.4455 46.301 45.1858 44.1011 43.0481 42.0278 41.0412 40.0886 39.1704 38.2868 37.4382 36.6249 35.847 35.1044 34.397 33.7244 33.0866 32.4832 31.914 31.3787 30.8769 30.4082 29.972 29.5681 29.1961 28.8554 28.5459 28.267 28.0186 27.8002 27.6116 27.4523 27.3223 27.2214 27.1495 27.1064 27.092 89.0954 89.1031 89.1269 89.1658 89.2183 89.2832 89.3592 89.4447 89.5374 89.6341 89.7316 89.8268 89.9165 89.9977 90.0669 90.1202 90.1539 90.1643 90.1474 90.0995 90.0172 89.8974 89.7374 89.5344 89.2854 88.9876 88.6386 88.2371 87.7824 87.2736 86.7099 86.0906 85.4149 84.6836 83.898 83.0597 82.1699 81.2301 80.2417 79.207 78.1289 77.0103 75.8544 74.6639 73.4421 72.1919 70.917 69.6208 68.3069 66.9788 65.6401 64.2943 62.9445 61.5939 60.2457 58.9031 57.5691 56.2468 54.9389 53.6474 52.3747 51.1228 49.8942 48.6909 47.5147 46.3666 45.248 44.16 43.1036 42.0802 41.0906 40.1351 39.214 38.3277 37.4765 36.6607 35.8805 35.1357 34.4261 33.7516 33.1119 32.5067 31.9359 31.3991 30.8959 30.4258 29.9885 29.5834 29.2103 28.8688 28.5584 28.2788 28.0297 27.8108 27.6216 27.4619 27.3316 27.2304 27.1583 27.1151 27.1007 89.1332 89.1411 89.1658 89.206 89.2604 89.3277 89.4066 89.4956 89.5922 89.6933 89.7956 89.896 89.9914 90.0786 90.1541 90.2141 90.2548 90.2722 90.2626 90.2221 90.1472 90.035 89.8825 89.6868 89.4451 89.1544 88.8122 88.4173 87.9688 87.466 86.9078 86.2936 85.6225 84.8952 84.1132 83.2778 82.3905 81.4526 80.4655 79.4314 78.3534 77.2344 76.0774 74.8855 73.6615 72.4088 71.1308 69.8311 68.5133 67.1809 65.8376 64.4868 63.1317 61.7757 60.4218 59.0733 57.7333 56.405 55.0909 53.7933 52.5143 51.2563 50.0216 48.8122 47.63 46.4761 45.3518 44.2581 43.1963 42.1676 41.1729 40.2125 39.2867 38.3959 37.5404 36.7204 35.9363 35.1878 34.4747 33.7969 33.154 32.546 31.9724 31.4331 30.9275 30.4552 30.0158 29.6089 29.2341 28.891 28.5792 28.2984 28.0482 27.8283 27.6383 27.4779 27.347 27.2454 27.173 27.1296 27.1151 89.1842 89.1925 89.2183 89.2604 89.3174 89.3881 89.4711 89.5649 89.667 89.7741 89.8832 89.9909 90.0942 90.1898 90.2742 90.3435 90.3937 90.4211 90.4217 90.3916 90.3272 90.2254 90.0834 89.8981 89.6666 89.386 89.0534 88.6678 88.2282 87.7337 87.1834 86.5763 85.9117 85.1903 84.4133 83.5823 82.6984 81.7632 80.7781 79.7451 78.6673 77.5477 76.3894 75.1954 73.9686 72.7123 71.4301 70.1255 68.8023 67.464 66.1142 64.7564 63.3941 62.0304 60.6686 59.3119 57.9635 56.6267 55.304 53.9977 52.7101 51.4435 50.2001 48.9823 47.7917 46.6296 45.4972 44.3957 43.3263 42.2902 41.2883 40.321 39.3886 38.4914 37.6298 36.8041 36.0144 35.2607 34.5428 33.8603 33.2131 32.6009 32.0235 31.4806 30.9716 30.4963 30.0541 29.6446 29.2674 28.9221 28.6084 28.3258 28.0741 27.8528 27.6617 27.5003 27.3686 27.2664 27.1936 27.1499 27.1353 89.2472 89.2559 89.2832 89.3277 89.3881 89.463 89.5512 89.6512 89.7602 89.8752 89.9929 90.1101 90.2234 90.3298 90.4256 90.5067 90.5694 90.6095 90.6232 90.6064 90.5555 90.4674 90.3389 90.167 89.9488 89.681 89.361 88.9875 88.5594 88.0757 87.5356 86.9379 86.2818 85.5679 84.7977 83.9723 83.0931 82.1616 81.179 80.1475 79.0701 77.95 76.7901 75.5935 74.3631 73.1024 71.8148 70.5041 69.174 67.8281 66.47 65.1035 63.7318 62.3583 60.9862 59.619 58.2599 56.9122 55.5784 54.261 52.9622 51.6844 50.43 49.2012 47.9998 46.8271 45.6844 44.5727 43.4935 42.4478 41.4367 40.4606 39.5197 38.6143 37.7449 36.9117 36.115 35.3546 34.6303 33.9418 33.2889 32.6715 32.0891 31.5416 31.0284 30.5491 30.1032 29.6904 29.3101 28.9621 28.6458 28.361 28.1073 27.8843 27.6916 27.529 27.3963 27.2933 27.2199 27.1759 27.1612 89.3208 89.3301 89.3592 89.4066 89.4711 89.5512 89.6457 89.7531 89.8707 89.9952 90.1234 90.252 90.3776 90.4971 90.6067 90.7025 90.7802 90.836 90.8657 90.8652 90.8308 90.7593 90.6475 90.4921 90.2901 90.0382 89.7337 89.375 88.9611 88.4909 87.9633 87.3772 86.7317 86.0274 85.2654 84.4472 83.5739 82.647 81.6677 80.6383 79.5616 78.4409 77.2792 76.0796 74.8451 73.579 72.2851 70.9669 69.6284 68.2733 66.9052 65.5279 64.1449 62.7594 61.375 59.9949 58.6227 57.2616 55.9143 54.5832 53.2708 51.9793 50.7114 49.4692 48.2546 47.0689 45.9135 44.7894 43.6981 42.6408 41.6184 40.6314 39.68 38.7647 37.8857 37.0434 36.238 35.4693 34.7372 34.0414 33.3817 32.7577 32.1693 31.6162 31.0977 30.6135 30.1632 29.7462 29.3622 29.0108 28.6914 28.4039 28.1477 27.9226 27.7281 27.564 27.43 27.326 27.252 27.2076 27.1927 89.4036 89.4136 89.4447 89.4956 89.5649 89.6512 89.7531 89.8692 89.9968 90.1325 90.2731 90.4151 90.5552 90.6901 90.8161 90.929 91.0246 91.0988 91.1474 91.1663 91.1515 91.0997 91.0076 90.8718 90.6891 90.4561 90.17 89.829 89.4321 88.978 88.4655 87.8933 87.2606 86.5676 85.8157 85.0062 84.1402 83.2189 82.2438 81.2169 80.1414 79.0203 77.8566 76.6536 75.4144 74.1421 72.8407 71.514 70.1657 68.7997 67.4199 66.03 64.6335 63.234 61.8349 60.4398 59.052 57.6751 56.3118 54.9646 53.636 52.3284 51.0444 49.7863 48.5561 47.3551 46.1846 45.0458 43.9403 42.8691 41.8333 40.8334 39.8697 38.9425 38.0522 37.199 36.3833 35.605 34.8637 34.1592 33.4912 32.8596 32.2641 31.7042 31.1795 30.6896 30.234 29.8122 29.4237 29.0682 28.7453 28.4545 28.1954 27.9678 27.7711 27.6052 27.4697 27.3646 27.2897 27.2449 27.2299 89.4931 89.5039 89.5374 89.5922 89.667 89.7602 89.8707 89.9968 90.1358 90.2844 90.439 90.5965 90.7532 90.9059 91.0507 91.1833 91.2995 91.3949 91.4654 91.5065 91.5144 91.4854 91.4161 91.303 91.1428 90.9318 90.6671 90.3468 89.9698 89.5345 89.0397 88.484 87.8662 87.1868 86.4469 85.6477 84.7904 83.8761 82.9062 81.8826 80.8086 79.6873 78.5218 77.3152 76.0707 74.7916 73.4818 72.1452 70.7859 69.4076 68.0143 66.61 65.1982 63.7825 62.3666 60.9541 59.5484 58.1533 56.7715 55.4057 54.0584 52.7321 51.4295 50.153 48.9047 47.6859 46.498 45.3423 44.2201 43.1329 42.0817 41.0669 40.0888 39.1479 38.2444 37.3788 36.5512 35.7615 35.0096 34.295 33.6176 32.9771 32.3733 31.8057 31.2739 30.7773 30.3156 29.8881 29.4945 29.1344 28.8072 28.5126 28.2503 28.0197 27.8206 27.6525 27.5154 27.409 27.3331 27.2877 27.2725 89.5863 89.5979 89.6341 89.6933 89.7741 89.8752 89.9952 90.1325 90.2844 90.4473 90.6178 90.7925 90.968 91.1406 91.3066 91.4615 91.6009 91.7203 91.8155 91.882 91.9155 91.9125 91.8692 91.7821 91.6475 91.4617 91.2216 90.9251 90.5709 90.1574 89.6831 89.1465 88.5462 87.8827 87.1568 86.3699 85.5229 84.6171 83.6534 82.6342 81.5625 80.4414 79.2741 78.0638 76.8137 75.5272 74.2082 72.8609 71.4892 70.0972 68.6889 67.2683 65.8392 64.4054 62.9705 61.5382 60.1124 58.6966 57.2939 55.9069 54.5384 53.1909 51.8671 50.5697 49.3008 48.0618 46.854 45.679 44.538 43.4326 42.3638 41.332 40.3376 39.381 38.4626 37.5827 36.7416 35.9391 35.175 34.449 33.7608 33.1103 32.497 31.9206 31.3806 30.8765 30.4078 29.974 29.5745 29.2091 28.8771 28.5783 28.3122 28.0783 27.8764 27.7059 27.5669 27.4589 27.382 27.336 27.3206 89.6799 89.6925 89.7316 89.7956 89.8832 89.9929 90.1234 90.2731 90.439 90.6178 90.8059 90.9998 91.1959 91.3907 91.5801 91.7597 91.925 92.0712 92.194 92.2887 92.351 92.3771 92.3631 92.3051 92.1994 92.0422 91.8299 91.5605 91.2323 90.8436 90.3928 89.8781 89.298 88.6528 87.9433 87.1708 86.336 85.4402 84.4843 83.4705 82.4019 81.2816 80.113 78.8991 77.6433 76.3489 75.0201 73.661 72.2758 70.8688 69.4439 68.0054 66.5572 65.1031 63.6471 62.1929 60.7445 59.3057 57.8795 56.4689 55.0765 53.7052 52.3578 51.037 49.7449 48.4832 47.2532 46.0564 44.8943 43.7684 42.6798 41.6289 40.6162 39.642 38.7068 37.8109 36.9546 36.1377 35.3599 34.6211 33.9209 33.259 32.6351 32.0489 31.4997 30.9871 30.5106 30.0696 29.6637 29.2923 28.955 28.6514 28.381 28.1435 27.9384 27.7653 27.624 27.5144 27.4364 27.3896 27.3739 89.7708 89.7845 89.8268 89.896 89.9909 90.1101 90.252 90.4151 90.5965 90.7925 90.9998 91.2145 91.4332 91.6523 91.8675 92.0743 92.2679 92.4436 92.5968 92.7227 92.8169 92.8753 92.8938 92.8684 92.795 92.6696 92.4885 92.2495 91.9506 91.59 91.1658 90.676 90.119 89.4948 88.8043 88.0484 87.228 86.344 85.3975 84.3904 83.3259 82.2073 81.0379 79.8207 78.559 77.2565 75.9173 74.5457 73.1461 71.7226 70.2798 68.8217 67.3525 65.8762 64.3969 62.9186 61.4453 59.9809 58.5289 57.092 55.6733 54.2756 52.9019 51.5551 50.2375 48.9505 47.6957 46.4748 45.2892 44.1405 43.0299 41.9578 40.9247 39.931 38.9771 38.0634 37.1902 36.3573 35.5644 34.8113 34.0977 33.4232 32.7876 32.1904 31.6311 31.1092 30.624 30.1751 29.7619 29.3839 29.0407 28.7318 28.4567 28.2151 28.0065 27.8304 27.6868 27.5754 27.496 27.4484 27.4325 89.8561 89.8709 89.9165 89.9914 90.0942 90.2234 90.3776 90.5552 90.7532 90.968 91.1959 91.4332 91.6764 91.9217 92.1649 92.4012 92.6257 92.8336 93.0201 93.1802 93.3094 93.4032 93.4575 93.468 93.4304 93.3403 93.194 92.9888 92.7228 92.3936 91.9993 91.5376 91.0067 90.4064 89.7375 89.0008 88.197 87.327 86.3915 85.3927 84.3337 83.2177 82.0481 80.828 79.5607 78.2499 76.8998 75.5151 74.1 72.6591 71.1968 69.7176 68.2256 66.7252 65.2205 63.7158 62.2152 60.723 59.2425 57.777 56.3293 54.9027 53.5001 52.1247 50.7788 49.4641 48.1821 46.9345 45.7231 44.5492 43.4144 42.3189 41.2634 40.2481 39.2737 38.3403 37.4485 36.598 35.7885 35.0196 34.2912 33.6029 32.9544 32.3452 31.7748 31.2425 30.7478 30.2901 29.869 29.4838 29.1341 28.8193 28.5392 28.2931 28.0806 27.9013 27.755 27.6416 27.5607 27.5123 27.4961 89.9325 89.9485 89.9977 90.0786 90.1898 90.3298 90.4971 90.6901 90.9059 91.1406 91.3907 91.6523 91.9217 92.1953 92.4686 92.7368 92.9947 93.2374 93.4598 93.6571 93.8244 93.957 94.0504 94.1002 94.1018 94.0507 93.9427 93.775 93.5454 93.2512 92.8903 92.4601 91.9586 91.3853 90.7409 90.026 89.2414 88.3875 87.4652 86.4764 85.4242 84.312 83.1431 81.9206 80.648 79.3289 77.9677 76.5692 75.1379 73.6785 72.1955 70.6935 69.1771 67.6506 66.1184 64.5851 63.0549 61.5324 60.0211 58.5242 57.0451 55.5868 54.1528 52.7462 51.3694 50.0243 48.7126 47.436 46.1962 44.9949 43.8335 42.7125 41.6323 40.5935 39.5965 38.6418 37.7296 36.8598 36.0321 35.2461 34.5016 33.7982 33.1355 32.5132 31.9306 31.387 30.8819 30.4148 29.9849 29.5919 29.2351 28.914 28.6283 28.3773 28.1606 27.9778 27.8287 27.713 27.6306 27.5812 27.5647 89.9965 90.0138 90.0669 90.1541 90.2742 90.4256 90.6067 90.8161 91.0507 91.3066 91.5801 91.8675 92.1649 92.4686 92.7741 93.0763 93.37 93.65 93.9113 94.1486 94.357 94.5315 94.6675 94.7601 94.8045 94.7959 94.73 94.6035 94.414 94.1586 93.8347 93.4396 92.9709 92.4279 91.8112 91.1213 90.3585 89.5234 88.6165 87.6396 86.596 85.4891 84.3219 83.098 81.8205 80.4933 79.121 77.7083 76.2601 74.7812 73.2763 71.7502 70.2076 68.6531 67.0915 65.5274 63.9654 62.4101 60.8654 59.3347 57.8214 56.329 54.8608 53.4203 52.0101 50.632 49.2879 47.9796 46.709 45.4778 44.2875 43.1387 42.0319 40.9674 39.9459 38.9679 38.0335 37.1428 36.2953 35.4907 34.7286 34.0088 33.3309 32.6943 32.0984 31.5427 31.0264 30.5489 30.1096 29.708 29.3435 29.0157 28.7238 28.4676 28.2464 28.0598 27.9075 27.7895 27.7053 27.655 27.6381 90.0445 90.0632 90.1202 90.2141 90.3435 90.5067 90.7025 90.929 91.1833 91.4615 91.7597 92.0743 92.4012 92.7368 93.0763 93.4145 93.7462 94.0661 94.3687 94.6489 94.9013 95.121 95.3028 95.4416 95.5324 95.5701 95.5499 95.4686 95.323 95.1103 94.8273 94.4712 94.039 93.53 92.9445 92.2828 91.5451 90.7316 89.8427 88.8802 87.8473 86.7473 85.5835 84.3593 83.0778 81.7429 80.3596 78.9326 77.4671 75.9679 74.4401 72.8886 71.3183 69.7341 68.1411 66.544 64.9478 63.3575 61.7769 60.2097 58.6597 57.1303 55.6252 54.1481 52.7016 51.2878 49.9087 48.5662 47.2621 45.9986 44.7771 43.5981 42.4623 41.3701 40.3221 39.3188 38.3605 37.4471 36.5782 35.7534 34.9724 34.2349 33.5404 32.8884 32.2783 31.7093 31.1809 30.6923 30.2429 29.8321 29.4593 29.1241 28.8257 28.5638 28.3377 28.147 27.9914 27.8708 27.7848 27.7334 27.7162 90.0727 90.0928 90.1539 90.2548 90.3937 90.5694 90.7802 91.0246 91.2995 91.6009 91.925 92.2679 92.6257 92.9947 93.37 93.7462 94.118 94.4799 94.8264 95.1521 95.4516 95.7194 95.9502 96.1387 96.2795 96.3671 96.3967 96.3644 96.2669 96.1009 95.8629 95.5497 95.1581 94.6871 94.1367 93.5068 92.7976 92.0091 91.1413 90.1959 89.1762 88.0853 86.9267 85.7036 84.4192 83.0775 81.6836 80.2424 78.7593 77.2394 75.6878 74.1096 72.5102 70.8947 69.2683 67.6362 66.0037 64.3758 62.7568 61.1506 59.561 57.9919 56.4471 54.9305 53.445 51.9928 50.5758 49.1963 47.8563 46.5578 45.3025 44.0911 42.924 41.8019 40.7253 39.6947 38.7106 37.7727 36.8808 36.0343 35.2329 34.4762 33.764 33.0954 32.47 31.8868 31.3453 30.8448 30.3845 29.9639 29.5822 29.239 28.9337 28.6657 28.4344 28.2393 28.0801 27.9567 27.8688 27.8162 27.7986 90.0774 90.0988 90.1643 90.2722 90.4211 90.6095 90.836 91.0988 91.3949 91.7203 92.0712 92.4436 92.8336 93.2374 93.65 94.0661 94.4799 94.886 95.2787 95.6525 96.0017 96.3207 96.6038 96.8454 97.0397 97.1811 97.2643 97.2851 97.2399 97.1248 96.9362 96.6703 96.3237 95.8948 95.3836 94.7896 94.1128 93.3529 92.5096 91.5844 90.5807 89.5015 88.3502 87.1301 85.8443 84.4969 83.093 81.638 80.1372 78.5961 77.02 75.4143 73.7845 72.1361 70.4746 68.8055 67.1343 65.4664 63.8064 62.1585 60.5266 58.915 57.3276 55.7686 54.2412 52.7476 51.2901 49.8708 48.492 47.156 45.8644 44.618 43.4173 42.263 41.1557 40.0958 39.084 38.1199 37.2031 36.3333 35.51 34.7329 34.0016 33.3153 32.6734 32.0751 31.5196 31.0063 30.5344 30.1032 29.7121 29.3604 29.0477 28.7731 28.5362 28.3364 28.1735 28.0472 27.9572 27.9033 27.8853 90.0547 90.0776 90.1474 90.2626 90.4217 90.6232 90.8657 91.1474 91.4654 91.8155 92.194 92.5968 93.0201 93.4598 93.9113 94.3687 94.8264 95.2787 95.7199 96.1442 96.5459 96.919 97.2576 97.5556 97.807 98.006 98.1468 98.225 98.2363 98.1767 98.042 97.828 97.5308 97.1487 96.6811 96.1275 95.4873 94.7599 93.9449 93.0435 92.059 90.9944 89.853 88.638 87.3526 86.0007 84.5879 83.1195 81.6014 80.0389 78.4378 76.8037 75.1423 73.4594 71.7611 70.0529 68.3409 66.6307 64.9272 63.2348 61.5578 59.9007 58.2678 56.6635 55.0912 53.5533 52.0522 50.5903 49.17 47.7937 46.4632 45.1793 43.9426 42.7538 41.6135 40.5224 39.4808 38.4886 37.5453 36.6505 35.8038 35.0048 34.2531 33.5478 32.8884 32.2739 31.7036 31.1767 30.6923 30.2499 29.8487 29.488 29.1673 28.8859 28.643 28.4383 28.2713 28.1418 28.0496 27.9945 27.976 90.0009 90.0253 90.0995 90.2221 90.3916 90.6064 90.8652 91.1663 91.5065 91.882 92.2887 92.7227 93.1802 93.6571 94.1486 94.6489 95.1521 95.6525 96.1442 96.6215 97.0782 97.5083 97.9054 98.2632 98.5755 98.8359 99.0384 99.1782 99.2506 99.2511 99.1749 99.0176 98.7747 98.4442 98.0252 97.5166 96.9176 96.2272 95.4446 94.5709 93.6092 92.5624 91.4338 90.2265 88.9435 87.5889 86.1682 84.6874 83.1522 81.5684 79.9419 78.2786 76.5846 74.866 73.1291 71.38 69.625 67.87 66.1204 64.3807 62.6558 60.9502 59.2688 57.6161 55.9958 54.4106 52.863 51.3555 49.8908 48.4714 47.0994 45.7754 44.5003 43.2746 42.0991 40.9745 39.9012 38.8789 37.9074 36.986 36.1143 35.2919 34.5184 33.793 33.1149 32.4832 31.8971 31.3557 30.8582 30.4038 29.9919 29.6217 29.2925 29.0038 28.7546 28.5446 28.3733 28.2406 28.1461 28.0895 28.0705 89.9126 89.9385 90.0172 90.1472 90.3272 90.5555 90.8308 91.1515 91.5144 91.9155 92.351 92.8169 93.3094 93.8244 94.357 94.9013 95.4516 96.0017 96.5459 97.0782 97.5926 98.0824 98.541 98.9619 99.3385 99.6641 99.9325 100.138 100.276 100.342 100.329 100.233 100.05 99.7764 99.411 98.9525 98.3997 97.7511 97.0056 96.1639 95.229 94.2038 93.0912 91.8944 90.6163 89.2609 87.8341 86.3418 84.7903 83.1854 81.5334 79.8403 78.1127 76.3571 74.5801 72.7883 70.9881 69.186 67.3875 65.5977 63.8219 62.0649 60.3319 58.6278 56.9565 55.3207 53.7235 52.1674 50.6553 49.19 47.7736 46.4069 45.0908 43.8258 42.6128 41.4524 40.3453 39.2911 38.2893 37.3396 36.4414 35.5942 34.7976 34.0507 33.3527 32.7028 32.0999 31.5431 31.0317 30.5647 30.1414 29.7611 29.4231 29.1266 28.8708 28.6552 28.4794 28.3432 28.2462 28.1881 28.1687 89.7869 89.8142 89.8974 90.035 90.2254 90.4674 90.7593 91.0997 91.4854 91.9125 92.3771 92.8753 93.4032 93.957 94.5315 95.121 95.7194 96.3207 96.919 97.5083 98.0824 98.6343 99.1572 99.6443 100.089 100.483 100.822 101.098 101.306 101.441 101.497 101.468 101.35 101.139 100.832 100.43 99.9283 99.3268 98.6234 97.8188 96.9154 95.916 94.8234 93.6404 92.3701 91.0164 89.5854 88.0833 86.5165 84.8911 83.2136 81.4904 79.7283 77.9346 76.1162 74.28 72.4326 70.5806 68.7303 66.8873 65.0575 63.2464 61.459 59.7004 57.9748 56.2854 54.6352 53.0273 51.4647 49.9505 48.4867 47.0745 45.7146 44.4078 43.1548 41.9565 40.8133 39.7251 38.6913 37.7114 36.785 35.9114 35.0903 34.3207 33.6017 32.9324 32.3118 31.7388 31.2126 30.7323 30.2971 29.9061 29.5587 29.254 28.9912 28.7697 28.5892 28.4493 28.3497 28.2901 28.2701 89.6209 89.6498 89.7374 89.8825 90.0834 90.3389 90.6475 91.0076 91.4161 91.8692 92.3631 92.8938 93.4575 94.0504 94.6675 95.3028 95.9502 96.6038 97.2576 97.9054 98.541 99.1572 99.7469 100.303 100.818 101.285 101.698 102.049 102.332 102.541 102.671 102.715 102.667 102.524 102.283 101.942 101.498 100.949 100.294 99.5319 98.6654 97.6966 96.6281 95.4628 94.2037 92.8547 91.4221 89.9123 88.3316 86.6867 84.984 83.2303 81.4332 79.6004 77.7395 75.8574 73.9607 72.0562 70.1506 68.251 66.3643 64.4962 62.6518 60.8359 59.0528 57.3062 55.5996 53.9366 52.3202 50.7538 49.2397 47.7791 46.3726 45.0212 43.7257 42.4869 41.3055 40.1811 39.1133 38.1015 37.1451 36.2436 35.3965 34.6029 33.8617 33.1719 32.5325 31.9425 31.4007 30.9063 30.4585 30.0563 29.699 29.3857 29.1156 28.8879 28.7024 28.5586 28.4563 28.3951 28.3745 89.4119 89.4423 89.5344 89.6868 89.8981 90.167 90.4921 90.8718 91.303 91.7821 92.3051 92.8684 93.468 94.1002 94.7601 95.4416 96.1387 96.8454 97.5556 98.2632 98.9619 99.6443 100.303 100.93 101.52 102.063 102.553 102.983 103.346 103.635 103.843 103.965 103.994 103.926 103.757 103.484 103.103 102.614 102.012 101.299 100.476 99.5429 98.5034 97.36 96.116 94.7753 93.3442 91.8292 90.2366 88.5733 86.8461 85.062 83.2294 81.3566 79.4521 77.5228 75.5749 73.615 71.6509 69.6913 67.7446 65.8167 63.9124 62.0361 60.1921 58.3848 56.6183 54.8966 53.223 51.6012 50.0335 48.5213 47.0653 45.6664 44.3257 43.044 41.822 40.6593 39.5554 38.5097 37.5216 36.5906 35.716 34.897 34.1324 33.421 32.7619 32.1538 31.5957 31.0865 30.6254 30.2115 29.8438 29.5215 29.2436 29.0095 28.8188 28.6709 28.5657 28.5028 28.4817 89.1571 89.189 89.2854 89.4451 89.6666 89.9488 90.2901 90.6891 91.1428 91.6475 92.1994 92.795 93.4304 94.1018 94.8045 95.5324 96.2795 97.0397 97.807 98.5755 99.3385 100.089 100.818 101.52 102.185 102.808 103.379 103.893 104.34 104.713 105.005 105.211 105.323 105.336 105.246 105.047 104.738 104.314 103.774 103.116 102.342 101.451 100.446 99.3301 98.1057 96.7775 95.3516 93.8343 92.2321 90.5521 88.8015 86.9877 85.1196 83.2064 81.2568 79.2782 77.2769 75.2598 73.2356 71.2138 69.2038 67.2123 65.2439 63.303 61.3944 59.5227 57.6927 55.9087 54.1744 52.4936 50.869 49.3019 47.7933 46.3441 44.9554 43.6281 42.363 41.1597 40.0176 38.9361 37.9145 36.9523 36.0488 35.2029 34.4136 33.6795 32.9996 32.3725 31.7972 31.2725 30.7975 30.3712 29.9927 29.661 29.375 29.1342 28.9379 28.7859 28.6777 28.6129 28.5913 88.8537 88.8869 88.9876 89.1544 89.386 89.681 90.0382 90.4561 90.9318 91.4617 92.0422 92.6696 93.3403 94.0507 94.7959 95.5701 96.3671 97.1811 98.006 98.8359 99.6641 100.483 101.285 102.063 102.808 103.512 104.169 104.769 105.304 105.767 106.149 106.445 106.646 106.747 106.742 106.626 106.394 106.044 105.573 104.978 104.26 103.418 102.454 101.371 100.172 98.8607 97.4442 95.928 94.3187 92.624 90.8517 89.0096 87.107 85.1528 83.1564 81.1258 79.0689 76.9937 74.909 72.8241 70.7478 68.6876 66.6492 64.6385 62.6609 60.7212 58.8241 56.9742 55.1756 53.4322 51.7472 50.1219 48.5574 47.0548 45.6151 44.2395 42.9287 41.6824 40.5 39.3806 38.3237 37.3286 36.3946 35.5205 34.7051 33.9472 33.2454 32.5984 32.005 31.4641 30.9745 30.5353 30.1454 29.8038 29.5095 29.2616 29.0596 28.9031 28.7918 28.7252 28.7029 88.4992 88.5338 88.6386 88.8122 89.0534 89.361 89.7337 90.17 90.6671 91.2216 91.8299 92.4885 93.194 93.9427 94.73 95.5499 96.3967 97.2643 98.1468 99.0384 99.9325 100.822 101.698 102.553 103.379 104.169 104.913 105.604 106.232 106.789 107.267 107.658 107.955 108.15 108.238 108.212 108.067 107.799 107.404 106.88 106.225 105.44 104.524 103.48 102.312 101.024 99.6215 98.1104 96.4972 94.7903 92.9984 91.1301 89.1941 87.1991 85.1537 83.0684 80.9536 78.8198 76.6751 74.5265 72.3808 70.2461 68.1313 66.045 63.9938 61.9821 60.0143 58.0947 56.2279 54.4181 52.6691 50.982 49.3582 47.7989 46.3053 44.8785 43.5194 42.2277 41.0026 39.8433 38.7492 37.7194 36.7532 35.8495 35.0068 34.2237 33.499 32.8312 32.2189 31.6609 31.1561 30.7034 30.3017 29.9498 29.6467 29.3914 29.1834 29.0224 28.9079 28.8393 28.8164 88.0925 88.1284 88.2371 88.4173 88.6678 88.9875 89.375 89.829 90.3468 90.9251 91.5605 92.2495 92.9888 93.775 94.6035 95.4686 96.3644 97.2851 98.225 99.1782 100.138 101.098 102.049 102.983 103.893 104.769 105.604 106.388 107.112 107.768 108.347 108.84 109.239 109.537 109.725 109.797 109.747 109.569 109.26 108.815 108.233 107.511 106.651 105.654 104.525 103.266 101.883 100.381 98.7683 97.0527 95.244 93.3513 91.383 89.3473 87.2529 85.1119 82.9376 80.7426 78.5345 76.3185 74.0997 71.887 69.692 67.526 65.3969 63.3089 61.2659 59.2725 57.3333 55.4532 53.6361 51.8835 50.1968 48.5774 47.0265 45.5456 44.1354 42.7957 41.5255 40.3241 39.1907 38.1244 37.1245 36.1895 35.3181 34.5088 33.76 33.0703 32.4383 31.8626 31.3419 30.8751 30.461 30.0984 29.7862 29.5232 29.3091 29.1433 29.0253 28.9548 28.9312 87.6328 87.6699 87.7824 87.9688 88.2282 88.5594 88.9611 89.4321 89.9698 90.5709 91.2323 91.9506 92.7228 93.5454 94.414 95.323 96.2669 97.2399 98.2363 99.2506 100.276 101.306 102.332 103.346 104.34 105.304 106.232 107.112 107.937 108.696 109.381 109.982 110.489 110.896 111.192 111.371 111.425 111.347 111.132 110.776 110.275 109.627 108.831 107.89 106.807 105.583 104.226 102.74 101.133 99.4133 97.5909 95.6752 93.6751 91.5996 89.4581 87.2631 85.0283 82.7667 80.4871 78.1959 75.8998 73.6083 71.3331 69.0859 66.8749 64.7053 62.582 60.5098 58.4939 56.5393 54.65 52.8278 51.0744 49.3912 47.7797 46.2413 44.7771 43.3866 42.0689 40.823 39.6482 38.5435 37.508 36.5403 35.6388 34.8019 34.028 33.3155 32.6628 32.0685 31.5313 31.0499 30.623 30.2492 29.9275 29.6566 29.436 29.2653 29.1439 29.0712 29.0469 87.1193 87.1576 87.2736 87.466 87.7337 88.0757 88.4909 88.978 89.5345 90.1574 90.8436 91.59 92.3936 93.2512 94.1586 95.1103 96.1009 97.1248 98.1767 99.2511 100.342 101.441 102.541 103.635 104.713 105.767 106.789 107.768 108.696 109.563 110.358 111.072 111.695 112.218 112.63 112.925 113.092 113.124 113.014 112.756 112.346 111.782 111.061 110.184 109.155 107.974 106.649 105.186 103.591 101.874 100.042 98.1044 96.0728 93.9587 91.7735 89.5279 87.2322 84.897 82.5346 80.1579 77.7797 75.4102 73.0572 70.7285 68.432 66.1751 63.9653 61.8092 59.7119 57.6782 55.7123 53.8162 51.9919 50.2411 48.5654 46.9663 45.4449 44.0007 42.6327 41.34 40.1215 38.9764 37.9035 36.9014 35.9683 35.1026 34.3024 33.5661 32.892 32.2784 31.7239 31.2273 30.787 30.4018 30.0702 29.791 29.5638 29.388 29.263 29.1882 29.1631 86.5512 86.5907 86.7099 86.9078 87.1834 87.5356 87.9633 88.4655 89.0397 89.6831 90.3928 91.1658 91.9993 92.8903 93.8347 94.8273 95.8629 96.9362 98.042 99.1749 100.329 101.497 102.671 103.843 105.005 106.149 107.267 108.347 109.381 110.358 111.268 112.1 112.845 113.491 114.028 114.447 114.737 114.889 114.894 114.745 114.438 113.967 113.331 112.53 111.564 110.436 109.152 107.72 106.145 104.435 102.598 100.643 98.5827 96.4318 94.204 91.9079 89.5501 87.1385 84.689 82.2222 79.7579 77.3065 74.8718 72.4573 70.07 67.7204 65.4189 63.1736 60.9897 58.8721 56.8247 54.8501 52.9505 51.128 49.3843 47.721 46.1391 44.6382 43.2172 41.875 40.6105 39.4228 38.3106 37.2724 36.3064 35.4105 34.5829 33.8218 33.1253 32.4916 31.9193 31.4068 30.9527 30.5556 30.2138 29.9262 29.6921 29.511 29.3822 29.3052 29.2794 85.9279 85.9684 86.0906 86.2936 86.5763 86.9379 87.3772 87.8933 88.484 89.1465 89.8781 90.676 91.5376 92.4601 93.4396 94.4712 95.5497 96.6703 97.828 99.0176 100.233 101.468 102.715 103.965 105.211 106.445 107.658 108.84 109.982 111.072 112.1 113.056 113.927 114.704 115.374 115.925 116.347 116.63 116.761 116.733 116.54 116.175 115.635 114.92 114.03 112.965 111.734 110.34 108.793 107.098 105.263 103.296 101.213 99.0272 96.7542 94.4029 91.9807 89.4961 86.9664 84.4138 81.8598 79.3158 76.7861 74.275 71.7903 69.3434 66.9456 64.606 62.33 60.1228 57.9887 55.9307 53.9513 52.0529 50.2372 48.5059 46.8602 45.2994 43.8224 42.4279 41.115 39.8825 38.7291 37.6531 36.6525 35.7251 34.869 34.0821 33.3623 32.7077 32.1169 31.588 31.1197 30.7101 30.3578 30.0615 29.8203 29.6338 29.5012 29.4219 29.3953 85.2486 85.29 85.4149 85.6225 85.9117 86.2818 86.7317 87.2606 87.8662 88.5462 89.298 90.119 91.0067 91.9586 92.9709 94.039 95.1581 96.3237 97.5308 98.7747 100.05 101.35 102.667 103.994 105.323 106.646 107.955 109.239 110.489 111.695 112.845 113.927 114.931 115.845 116.654 117.348 117.912 118.335 118.604 118.71 118.643 118.396 117.965 117.348 116.546 115.559 114.391 113.048 111.536 109.862 108.037 106.069 103.97 101.753 99.4293 97.0144 94.5244 91.9751 89.3804 86.7532 84.1064 81.4535 78.8084 76.185 73.5946 71.0462 68.5485 66.1094 63.7353 61.4325 59.2062 57.0595 54.9954 53.0166 51.1248 49.3218 47.6085 45.9844 44.4483 42.9988 41.6348 40.3552 39.1585 38.043 37.0062 36.0461 35.1602 34.3464 33.6025 32.9263 32.3162 31.7705 31.2873 30.865 30.5019 30.1965 29.9481 29.756 29.6194 29.5378 29.5104 84.514 84.5563 84.6836 84.8952 85.1903 85.5679 86.0274 86.5676 87.1868 87.8827 88.6528 89.4948 90.4064 91.3853 92.4279 93.53 94.6871 95.8948 97.1487 98.4442 99.7764 101.139 102.524 103.926 105.336 106.747 108.15 109.537 110.896 112.218 113.491 114.704 115.845 116.9 117.857 118.7 119.416 119.99 120.409 120.66 120.733 120.618 120.309 119.805 119.105 118.209 117.12 115.84 114.374 112.732 110.925 108.965 106.858 104.612 102.237 99.7562 97.1963 94.5833 91.926 89.2247 86.4807 83.7099 80.9389 78.1939 75.491 72.8354 70.2323 67.6875 65.2089 62.8041 60.4795 58.2386 56.0846 54.0205 52.048 50.1689 48.3842 46.6932 45.0946 43.5872 42.1695 40.8404 39.5984 38.4414 37.3669 36.3726 35.4558 34.6141 33.8451 33.1466 32.5166 31.9534 31.455 31.0196 30.6453 30.3307 30.0748 29.877 29.7364 29.6524 29.6242 83.7257 83.7686 83.898 84.1132 84.4133 84.7977 85.2654 85.8157 86.4469 87.1568 87.9433 88.8043 89.7375 90.7409 91.8112 92.9445 94.1367 95.3836 96.6811 98.0252 99.411 100.832 102.283 103.757 105.246 106.742 108.238 109.725 111.192 112.63 114.028 115.374 116.654 117.857 118.966 119.966 120.843 121.579 122.159 122.568 122.795 122.827 122.655 122.279 121.697 120.908 119.912 118.711 117.308 115.711 113.934 111.986 109.874 107.605 105.188 102.649 100.02 97.3298 94.5884 91.7938 88.9458 86.062 83.1733 80.3103 77.4908 74.7199 72.0023 69.3442 66.7543 64.2411 61.8118 59.4705 57.2208 55.0659 53.0077 51.0478 49.1874 47.4256 45.761 44.1924 42.7183 41.3373 40.0478 38.8475 37.7337 36.7038 35.7549 34.8843 34.0894 33.3677 32.7173 32.1361 31.622 31.1732 30.7875 30.4634 30.1999 29.9962 29.8515 29.765 29.736 82.8849 82.9285 83.0597 83.2778 83.5823 83.9723 84.4472 85.0062 85.6477 86.3699 87.1708 88.0484 89.0008 90.026 91.1213 92.2828 93.5068 94.7896 96.1275 97.5166 98.9525 100.43 101.942 103.484 105.047 106.626 108.212 109.797 111.371 112.925 114.447 115.925 117.348 118.7 119.966 121.131 122.177 123.085 123.838 124.418 124.813 125.007 124.991 124.762 124.314 123.647 122.761 121.656 120.336 118.804 117.068 115.135 113.018 110.732 108.289 105.711 103.015 100.224 97.3559 94.4316 91.4705 88.4908 85.5092 82.5424 79.6047 76.708 73.8641 71.0836 68.3749 65.7467 63.2062 60.7578 58.4059 56.1542 54.0047 51.9589 50.0181 48.1813 46.4471 44.814 43.2806 41.8452 40.506 39.2605 38.1058 37.0388 36.0566 35.1561 34.3344 33.5889 32.9174 32.3178 31.7877 31.3251 30.9278 30.5939 30.3226 30.113 29.9641 29.8751 29.8452 81.9932 82.0372 82.1699 82.3905 82.6984 83.0931 83.5739 84.1402 84.7904 85.5229 86.336 87.228 88.197 89.2414 90.3585 91.5451 92.7976 94.1128 95.4873 96.9176 98.3997 99.9283 101.498 103.103 104.738 106.394 108.067 109.747 111.425 113.092 114.737 116.347 117.912 119.416 120.843 122.177 123.399 124.488 125.425 126.189 126.766 127.139 127.298 127.235 126.943 126.418 125.662 124.675 123.458 122.01 120.33 118.422 116.305 114.007 111.55 108.941 106.181 103.275 100.259 97.1848 94.1035 91.0326 87.9659 84.8977 81.8363 78.8038 75.8232 72.9111 70.0759 67.3252 64.6658 62.1031 59.6421 57.2871 55.0401 52.9028 50.8765 48.9601 47.1522 45.4514 43.8557 42.3633 40.9723 39.6797 38.4823 37.3768 36.36 35.4286 34.5793 33.8093 33.1162 32.4977 31.9513 31.4747 31.0655 30.7217 30.4425 30.2268 30.0736 29.9821 29.9513 81.052 81.0964 81.2301 81.4526 81.7632 82.1616 82.647 83.2189 83.8761 84.6171 85.4402 86.344 87.327 88.3875 89.5234 90.7316 92.0091 93.3529 94.7599 96.2272 97.7511 99.3268 100.949 102.614 104.314 106.044 107.799 109.569 111.347 113.124 114.889 116.63 118.335 119.99 121.579 123.085 124.488 125.766 126.896 127.857 128.631 129.202 129.554 129.679 129.566 129.211 128.611 127.766 126.673 125.326 123.721 121.856 119.757 117.454 114.976 112.326 109.498 106.494 103.357 100.155 96.9506 93.7632 90.5786 87.3833 84.184 81.0085 77.8851 74.8337 71.863 68.9808 66.1942 63.5091 60.9314 58.4658 56.1148 53.8799 51.7626 49.7619 47.8762 46.1039 44.4429 42.891 41.4458 40.1041 38.8624 37.717 36.6644 35.701 34.8232 34.0281 33.3129 32.675 32.112 31.6211 31.1999 30.8461 30.5588 30.3369 30.1794 30.0854 30.0537 80.0626 80.1073 80.2417 80.4655 80.7781 81.179 81.6677 82.2438 82.9062 83.6534 84.4843 85.3975 86.3915 87.4652 88.6165 89.8427 91.1413 92.5096 93.9449 95.4446 97.0056 98.6234 100.294 102.012 103.774 105.573 107.404 109.26 111.132 113.014 114.894 116.761 118.604 120.409 122.159 123.838 125.425 126.896 128.228 129.399 130.387 131.171 131.736 132.072 132.168 132.016 131.606 130.93 129.98 128.751 127.241 125.45 123.395 121.095 118.573 115.85 112.949 109.891 106.709 103.438 100.113 96.7551 93.3813 90.0061 86.6471 83.3236 80.0554 76.8582 73.7425 70.7184 67.7948 64.9785 62.2758 59.6921 57.2298 54.8909 52.6767 50.5864 48.6184 46.7709 45.0416 43.4275 41.9258 40.533 39.2451 38.0583 36.9687 35.9723 35.0653 34.2444 33.5066 32.8491 32.2692 31.7639 31.3304 30.9665 30.671 30.4428 30.2809 30.1843 30.1518 79.0273 79.0722 79.207 79.4314 79.7451 80.1475 80.6383 81.2169 81.8826 82.6342 83.4705 84.3904 85.3927 86.4764 87.6396 88.8802 90.1959 91.5844 93.0435 94.5709 96.1639 97.8188 99.5319 101.299 103.116 104.978 106.88 108.815 110.776 112.756 114.745 116.733 118.71 120.66 122.568 124.418 126.189 127.857 129.399 130.79 132.007 133.024 133.823 134.395 134.731 134.817 134.634 134.159 133.377 132.289 130.898 129.208 127.22 124.932 122.354 119.538 116.556 113.474 110.294 106.992 103.543 99.9794 96.3679 92.7766 89.2407 85.7629 82.3448 78.9929 75.721 72.5435 69.4722 66.5147 63.6778 60.9673 58.3859 55.9358 53.6185 51.433 49.3779 47.4513 45.6503 43.9713 42.4108 40.9648 39.6291 38.3995 37.2717 36.2414 35.3044 34.4571 33.6963 33.0189 32.4219 31.902 31.4562 31.0821 30.7783 30.5438 30.3775 30.2783 30.245 77.9492 77.994 78.1289 78.3534 78.6673 79.0701 79.5616 80.1414 80.8086 81.5625 82.4019 83.3259 84.3337 85.4242 86.596 87.8473 89.1762 90.5807 92.059 93.6092 95.229 96.9154 98.6654 100.476 102.342 104.26 106.225 108.233 110.275 112.346 114.438 116.54 118.643 120.733 122.795 124.813 126.766 128.631 130.387 132.007 133.464 134.733 135.792 136.63 137.237 137.595 137.673 137.438 136.864 135.952 134.707 133.13 131.213 128.947 126.333 123.447 120.388 117.246 114.013 110.631 107.051 103.305 99.4925 95.7078 91.9964 88.3527 84.769 81.2479 77.8066 74.463 71.2319 68.1217 65.14 62.2931 59.5839 57.0148 54.5873 52.3007 50.1532 48.1432 46.2669 44.5201 42.8984 41.3973 40.0123 38.7386 37.5715 36.5066 35.5391 34.665 33.8809 33.1834 32.5691 32.0346 31.5764 31.192 30.88 30.6391 30.4684 30.3665 30.3324 76.831 76.8758 77.0103 77.2344 77.5477 77.95 78.4409 79.0203 79.6873 80.4414 81.2816 82.2073 83.2177 84.312 85.4891 86.7473 88.0853 89.5015 90.9944 92.5624 94.2038 95.916 97.6966 99.5429 101.451 103.418 105.44 107.511 109.627 111.782 113.967 116.175 118.396 120.618 122.827 125.007 127.139 129.202 131.171 133.024 134.733 136.272 137.62 138.758 139.669 140.329 140.702 140.749 140.439 139.754 138.682 137.211 135.353 133.118 130.528 127.636 124.51 121.211 117.764 114.173 110.441 106.603 102.71 98.8137 94.9464 91.1195 87.3437 83.6334 80.0071 76.484 73.0797 69.8038 66.6652 63.671 60.8244 58.1277 55.5826 53.1881 50.9428 48.8447 46.8894 45.0717 43.3864 41.8283 40.3924 39.0735 37.8665 36.7663 35.7679 34.8667 34.0591 33.3413 32.7097 32.1605 31.69 31.2954 30.9751 30.728 30.5529 30.4485 30.4136 75.6758 75.7204 75.8544 76.0774 76.3894 76.7901 77.2792 77.8566 78.5218 79.2741 80.113 81.0379 82.0481 83.1431 84.3219 85.5835 86.9267 88.3502 89.853 91.4338 93.0912 94.8234 96.6281 98.5034 100.446 102.454 104.524 106.651 108.831 111.061 113.331 115.635 117.965 120.309 122.655 124.991 127.298 129.554 131.736 133.823 135.792 137.62 139.284 140.754 142.002 142.997 143.702 144.079 144.089 143.685 142.816 141.455 139.646 137.455 134.938 132.098 128.917 125.387 121.6 117.693 113.798 109.939 106.064 102.121 98.1088 94.0786 90.0834 86.162 82.3333 78.6147 75.0216 71.565 68.2556 65.1019 62.1072 59.2737 56.6029 54.0939 51.7449 49.5539 47.5156 45.6239 43.8724 42.2555 40.7674 39.4024 38.1548 37.019 35.9893 35.0609 34.2297 33.4916 32.8427 32.2789 31.7962 31.3914 31.063 30.8097 30.6302 30.5233 30.4876 74.4867 74.531 74.6639 74.8855 75.1954 75.5935 76.0796 76.6536 77.3152 78.0638 78.8991 79.8207 80.828 81.9206 83.098 84.3593 85.7036 87.1301 88.638 90.2265 91.8944 93.6404 95.4628 97.36 99.3301 101.371 103.48 105.654 107.89 110.184 112.53 114.92 117.348 119.805 122.279 124.762 127.235 129.679 132.072 134.395 136.63 138.758 140.754 142.581 144.201 145.575 146.661 147.417 147.789 147.702 147.076 145.863 144.135 141.999 139.541 136.732 133.504 129.808 125.777 121.632 117.587 113.658 109.727 105.675 101.483 97.2301 93.0003 88.8501 84.7995 80.8657 77.0647 73.4095 69.9132 66.586 63.4311 60.4507 57.6461 55.0157 52.5575 50.2688 48.1435 46.1743 44.3543 42.6766 41.135 39.7231 38.4346 37.2629 36.202 35.2463 34.3914 33.6331 32.967 32.3887 31.8939 31.4791 31.1427 30.8834 30.6998 30.5904 30.5538 73.2665 73.3104 73.4421 73.6615 73.9686 74.3631 74.8451 75.4144 76.0707 76.8137 77.6433 78.559 79.5607 80.648 81.8205 83.0778 84.4192 85.8443 87.3526 88.9435 90.6163 92.3701 94.2037 96.116 98.1057 100.172 102.312 104.525 106.807 109.155 111.564 114.03 116.546 119.105 121.697 124.314 126.943 129.566 132.168 134.731 137.237 139.669 142.002 144.201 146.229 148.04 149.57 150.751 151.51 151.763 151.426 150.44 148.867 146.797 144.311 141.432 138.161 134.51 130.565 126.454 122.298 118.119 113.875 109.521 105.066 100.573 96.1068 91.7144 87.4205 83.2475 79.2158 75.3414 71.6397 68.1231 64.7948 61.6566 58.7096 55.9513 53.3785 50.9873 48.7708 46.7209 44.8296 43.0895 41.4933 40.0339 38.7041 37.4966 36.4044 35.4215 34.5432 33.7648 33.0816 32.4889 31.9822 31.5576 31.2136 30.9484 30.7607 30.6489 30.6115 72.0184 72.0618 72.1919 72.4088 72.7123 73.1024 73.579 74.1421 74.7916 75.5272 76.3489 77.2565 78.2499 79.3289 80.4933 81.7429 83.0775 84.4969 86.0007 87.5889 89.2609 91.0164 92.8547 94.7753 96.7775 98.8607 101.024 103.266 105.583 107.974 110.436 112.965 115.559 118.209 120.908 123.647 126.418 129.211 132.016 134.817 137.595 140.329 142.997 145.575 148.04 150.341 152.374 154.029 155.206 155.83 155.831 155.156 153.812 151.821 149.225 146.18 142.88 139.495 135.981 132.185 127.963 123.357 118.542 113.691 108.89 104.138 99.4295 94.7765 90.2119 85.7703 81.4811 77.3637 73.4359 69.712 66.1955 62.8879 59.7896 56.8966 54.2037 51.7054 49.3938 47.26 45.2952 43.4911 41.8395 40.3322 38.9611 37.718 36.5948 35.585 34.6835 33.8852 33.1852 32.5786 32.0602 31.6262 31.2747 31.004 30.8124 30.6983 30.66 70.7459 70.7887 70.917 71.1308 71.4301 71.8148 72.2851 72.8407 73.4818 74.2082 75.0201 75.9173 76.8998 77.9677 79.121 80.3596 81.6836 83.093 84.5879 86.1682 87.8341 89.5854 91.4221 93.3442 95.3516 97.4442 99.6215 101.883 104.226 106.649 109.152 111.734 114.391 117.12 119.912 122.761 125.662 128.611 131.606 134.634 137.673 140.702 143.702 146.661 149.57 152.374 154.94 157.123 158.796 159.87 160.267 159.916 158.798 156.904 154.263 151.131 147.847 144.701 141.542 137.999 133.723 128.769 123.479 118.191 113.051 108.014 103.023 98.0674 93.1909 88.4434 83.8648 79.4772 75.3003 71.3495 67.6283 64.138 60.8784 57.8433 55.025 52.4156 50.0057 47.7857 45.746 43.8771 42.1697 40.6147 39.2028 37.9246 36.7711 35.7349 34.8106 33.993 33.2768 32.6565 32.127 31.684 31.3254 31.0494 30.8542 30.7379 30.6987 69.4526 69.4946 69.6208 69.8311 70.1255 70.5041 70.9669 71.514 72.1452 72.8609 73.661 74.5457 75.5151 76.5692 77.7083 78.9326 80.2424 81.638 83.1195 84.6874 86.3418 88.0833 89.9123 91.8292 93.8343 95.928 98.1104 100.381 102.74 105.186 107.72 110.34 113.048 115.84 118.711 121.656 124.675 127.766 130.93 134.159 137.438 140.749 144.079 147.417 150.751 154.029 157.123 159.894 162.194 163.856 164.707 164.618 163.639 161.863 159.401 156.458 153.275 150.059 146.711 142.976 138.619 133.682 128.402 123.02 117.653 112.298 106.947 101.619 96.375 91.276 86.3709 81.6827 77.2312 73.0317 69.0877 65.4001 61.9683 58.7831 55.8339 53.1096 50.5994 48.2921 46.1769 44.2431 42.4803 40.8781 39.4261 38.1137 36.9307 35.869 34.9229 34.0868 33.3549 32.7218 32.1816 31.7301 31.3648 31.0839 30.8852 30.7669 30.7269 68.1418 68.1831 68.3069 68.5133 68.8023 69.174 69.6284 70.1657 70.7859 71.4892 72.2758 73.1461 74.1 75.1379 76.2601 77.4671 78.7593 80.1372 81.6014 83.1522 84.7903 86.5165 88.3316 90.2366 92.2321 94.3187 96.4972 98.7683 101.133 103.591 106.145 108.793 111.536 114.374 117.308 120.336 123.458 126.673 129.98 133.377 136.864 140.439 144.089 147.789 151.51 155.206 158.796 162.194 165.252 167.64 169.003 169.101 168.17 166.564 164.583 162.192 159.239 155.601 151.418 146.965 142.499 138.019 133.335 128.264 122.789 117.063 111.245 105.46 99.7798 94.2756 89.0007 83.9769 79.2224 74.751 70.5652 66.6656 63.0502 59.707 56.6215 53.7794 51.1675 48.7728 46.5825 44.5846 42.7673 41.119 39.6281 38.2827 37.0715 35.9855 35.0186 34.1649 33.4185 32.7732 32.2232 31.7637 31.3922 31.1067 30.9049 30.7847 30.7439 66.8172 66.8576 66.9788 67.1809 67.464 67.8281 68.2733 68.7997 69.4076 70.0972 70.8688 71.7226 72.6591 73.6785 74.7812 75.9679 77.2394 78.5961 80.0389 81.5684 83.1854 84.8911 86.6867 88.5733 90.5521 92.624 94.7903 97.0527 99.4133 101.874 104.435 107.098 109.862 112.732 115.711 118.804 122.01 125.326 128.751 132.289 135.952 139.754 143.685 147.702 151.763 155.83 159.87 163.856 167.64 170.753 172.668 173.047 172.295 171.006 169.649 167.966 165.44 161.64 156.898 151.939 147.44 143.36 139.143 134.238 128.526 122.315 115.933 109.604 103.416 97.4451 91.7481 86.3461 81.2553 76.4879 72.0435 67.9198 64.1118 60.604 57.3781 54.4165 51.7029 49.2218 46.9578 44.8972 43.0269 41.3341 39.8057 38.429 37.191 36.0821 35.0959 34.226 33.4661 32.8098 32.2508 31.784 31.4069 31.1172 30.9126 30.7906 30.7492 65.4822 65.5217 65.6401 65.8376 66.1142 66.47 66.9052 67.4199 68.0143 68.6889 69.4439 70.2798 71.1968 72.1955 73.2763 74.4401 75.6878 77.02 78.4378 79.9419 81.5334 83.2136 84.984 86.8461 88.8015 90.8517 92.9984 95.244 97.5909 100.042 102.598 105.263 108.037 110.925 113.934 117.068 120.33 123.721 127.241 130.898 134.707 138.682 142.816 147.076 151.426 155.831 160.267 164.707 169.003 172.668 175.156 176.11 175.932 175.211 174.422 173.345 171.516 168.535 164.604 160.234 155.902 151.571 146.835 141.297 134.925 128.049 121.016 114.066 107.294 100.786 94.6058 88.7744 83.3093 78.2213 73.5038 69.1473 65.1402 61.4629 58.0941 55.0124 52.1984 49.6329 47.2975 45.1763 43.2551 41.5198 39.9561 38.5499 37.287 36.157 35.1531 34.2685 33.4965 32.8304 32.2634 31.7902 31.4081 31.1147 30.9074 30.784 30.742 64.1403 64.1788 64.2943 64.4868 64.7564 65.1035 65.5279 66.03 66.61 67.2683 68.0054 68.8217 69.7176 70.6935 71.7502 72.8886 74.1096 75.4143 76.8037 78.2786 79.8403 81.4904 83.2303 85.062 86.9877 89.0096 91.1301 93.3513 95.6752 98.1044 100.643 103.296 106.069 108.965 111.986 115.135 118.422 121.856 125.45 129.208 133.13 137.211 141.455 145.863 150.44 155.156 159.916 164.618 169.101 173.047 176.11 178.042 178.981 179.161 178.813 178.14 177.334 176.527 175.332 173.09 169.188 163.658 156.992 149.688 142.071 134.298 126.517 118.855 111.413 104.288 97.5556 91.2395 85.3603 79.9279 74.9252 70.3299 66.1199 62.2708 58.7582 55.5578 52.646 49.9996 47.596 45.4173 43.4481 41.6729 40.0762 38.6428 37.3572 36.2082 35.1886 34.2911 33.5086 32.834 32.2602 31.7815 31.3951 31.0984 30.889 30.7643 30.7218 62.7947 62.8322 62.9445 63.1317 63.3941 63.7318 64.1449 64.6335 65.1982 65.8392 66.5572 67.3525 68.2256 69.1771 70.2076 71.3183 72.5102 73.7845 75.1423 76.5846 78.1127 79.7283 81.4332 83.2294 85.1196 87.107 89.1941 91.383 93.6751 96.0728 98.5827 101.213 103.97 106.858 109.874 113.018 116.305 119.757 123.395 127.22 131.213 135.353 139.646 144.135 148.867 153.812 158.798 163.639 168.17 172.295 175.932 178.981 181.284 182.671 183.084 183.135 183.682 185.387 187.236 187.348 183.973 177.207 168.48 159.218 150.137 141.244 132.512 123.972 115.727 107.889 100.536 93.6911 87.37 81.5757 76.2776 71.4392 67.0254 63.0065 59.3539 56.0396 53.0353 50.3134 47.8465 45.6147 43.6013 41.7896 40.1632 38.7053 37.3997 36.2342 35.201 34.2926 33.5015 32.82 32.2407 31.7574 31.3674 31.068 30.8568 30.731 30.6883 61.4485 61.4849 61.5939 61.7757 62.0304 62.3583 62.7594 63.234 63.7825 64.4054 65.1031 65.8762 66.7252 67.6506 68.6531 69.7341 70.8947 72.1361 73.4594 74.866 76.3571 77.9346 79.6004 81.3566 83.2064 85.1528 87.1991 89.3473 91.5996 93.9587 96.4318 99.0272 101.753 104.612 107.605 110.732 114.007 117.454 121.095 124.932 128.947 133.118 137.455 141.999 146.797 151.821 156.904 161.863 166.564 171.006 175.211 179.161 182.671 185.518 187.582 189.363 191.58 194.766 197.81 198.754 195.774 188.95 179.736 169.587 159.319 149.105 139.092 129.413 120.182 111.511 103.474 96.0721 89.2968 83.1305 77.5292 72.4441 67.8289 63.6468 59.8632 56.4438 53.3554 50.5653 48.0419 45.7628 43.7102 41.8665 40.2141 38.7353 37.4127 36.2335 35.1893 34.2723 33.4745 32.7878 32.2042 31.7175 31.3247 31.0233 30.8106 30.6841 30.6413 60.1049 60.1401 60.2457 60.4218 60.6686 60.9862 61.375 61.8349 62.3666 62.9705 63.6471 64.3969 65.2205 66.1184 67.0915 68.1411 69.2683 70.4746 71.7611 73.1291 74.5801 76.1162 77.7395 79.4521 81.2568 83.1564 85.1537 87.2529 89.4581 91.7735 94.204 96.7542 99.4293 102.237 105.188 108.289 111.55 114.976 118.573 122.354 126.333 130.528 134.938 139.541 144.311 149.225 154.263 159.401 164.583 169.649 174.422 178.813 183.084 187.582 192.54 197.497 201.741 204.601 205.731 204.959 202.116 197.132 190.003 180.746 169.798 158.019 146.277 135.13 124.699 115.073 106.296 98.3206 91.0914 84.5517 78.6448 73.3139 68.5043 64.1705 60.269 56.7568 53.5952 50.7467 48.175 45.8558 43.7703 41.8999 40.2262 38.7305 37.3945 36.2047 35.1524 34.2292 33.4268 32.7366 32.1503 31.6614 31.2667 30.9639 30.7503 30.6233 30.5805 58.7669 58.801 58.9031 59.0733 59.3119 59.619 59.9949 60.4398 60.9541 61.5382 62.1929 62.9186 63.7158 64.5851 65.5274 66.544 67.6362 68.8055 70.0529 71.38 72.7883 74.28 75.8574 77.5228 79.2782 81.1258 83.0684 85.1119 87.2631 89.5279 91.9079 94.4029 97.0144 99.7562 102.649 105.711 108.941 112.326 115.85 119.538 123.447 127.636 132.098 136.732 141.432 146.18 151.131 156.458 162.192 167.966 173.345 178.14 183.135 189.363 197.497 206.13 213.104 216.507 216.598 214.753 212.246 208.844 203.225 194.11 181.692 167.638 153.667 140.793 129.064 118.453 108.911 100.346 92.6597 85.7605 79.5722 74.0208 69.0368 64.5663 60.5593 56.9667 53.744 50.8484 48.2387 45.888 43.7769 41.8862 40.1966 38.6886 37.3432 36.1464 35.089 34.1624 33.3576 32.6659 32.0785 31.5885 31.193 30.8895 30.6755 30.5483 30.5056 57.4377 57.4706 57.5691 57.7333 57.9635 58.2599 58.6227 59.052 59.5484 60.1124 60.7445 61.4453 62.2152 63.0549 63.9654 64.9478 66.0037 67.1343 68.3409 69.625 70.9881 72.4326 73.9607 75.5749 77.2769 79.0689 80.9536 82.9376 85.0283 87.2322 89.5501 91.9807 94.5244 97.1963 100.02 103.015 106.181 109.498 112.949 116.556 120.388 124.51 128.917 133.504 138.161 142.88 147.847 153.275 159.239 165.44 171.516 177.334 183.682 191.58 201.741 213.104 223.965 232.708 238.511 240.959 239.654 234.379 225.049 211.626 195.09 177.443 160.71 145.976 133.016 121.515 111.226 102.047 93.8913 86.6645 80.2527 74.5383 69.4156 64.8264 60.7241 57.0622 53.7914 50.8618 48.2257 45.8537 43.7256 41.8218 40.1223 38.6073 37.2571 36.0572 34.9982 34.0709 33.2663 32.5751 31.9882 31.4985 31.1033 30.7999 30.5859 30.459 30.4166 56.1203 56.152 56.2468 56.405 56.6267 56.9122 57.2616 57.6751 58.1533 58.6966 59.3057 59.9809 60.723 61.5324 62.4101 63.3575 64.3758 65.4664 66.6307 67.87 69.186 70.5806 72.0562 73.615 75.2598 76.9937 78.8198 80.7426 82.7667 84.897 87.1385 89.4961 91.9751 94.5833 97.3298 100.224 103.275 106.494 109.891 113.474 117.246 121.211 125.387 129.808 134.51 139.495 144.701 150.059 155.601 161.64 168.535 176.527 185.387 194.766 204.601 216.507 232.708 254.7 277.673 293.565 294.853 281.672 259.68 234.557 209.826 186.843 166.851 150.254 136.289 124.108 113.135 103.323 94.6831 87.1789 80.6316 74.8389 69.6275 64.9413 60.7531 57.0324 53.7274 50.7787 48.1296 45.7475 43.6122 41.7034 40.0009 38.4846 37.1345 35.9358 34.8788 33.954 33.1521 32.4635 31.8789 31.3911 30.9971 30.6947 30.4815 30.3551 30.3131 54.8172 54.8477 54.9389 55.0909 55.304 55.5784 55.9143 56.3118 56.7715 57.2939 57.8795 58.5289 59.2425 60.0211 60.8654 61.7769 62.7568 63.8064 64.9272 66.1204 67.3875 68.7303 70.1506 71.6509 73.2356 74.909 76.6751 78.5345 80.4871 82.5346 84.689 86.9664 89.3804 91.926 94.5884 97.3559 100.259 103.357 106.709 110.294 114.013 117.764 121.6 125.777 130.565 135.981 141.542 146.711 151.418 156.898 164.604 175.332 187.236 197.81 205.731 216.598 238.511 277.673 323.74 357.846 362.404 338.093 298.758 258.237 223.501 194.651 171.479 153.266 138.585 125.962 114.439 104.063 94.9946 87.2869 80.6864 74.8881 69.6378 64.8855 60.6322 56.8709 53.5489 50.5968 47.9486 45.5683 43.4357 41.5303 39.832 38.3204 36.9755 35.7823 34.731 33.8118 33.0152 32.3314 31.7509 31.2663 30.8749 30.5743 30.3624 30.2369 30.1955 53.5307 53.56 53.6474 53.7933 53.9977 54.261 54.5832 54.9646 55.4057 55.9069 56.4689 57.092 57.777 58.5242 59.3347 60.2097 61.1506 62.1585 63.2348 64.3807 65.5977 66.8873 68.251 69.6913 71.2138 72.8241 74.5265 76.3185 78.1959 80.1579 82.2222 84.4138 86.7532 89.2247 91.7938 94.4316 97.1848 100.155 103.438 106.992 110.631 114.173 117.693 121.632 126.454 132.185 137.999 142.976 146.965 151.939 160.234 173.09 187.348 198.754 204.959 214.753 240.959 293.565 357.846 406.356 413.508 380.419 327.455 274.941 232.565 199.377 173.959 154.677 139.59 126.744 114.89 104.154 94.8174 87.0064 80.4113 74.6481 69.4009 64.6254 60.3454 56.5734 53.2563 50.3173 47.6835 45.3168 43.1968 41.3034 39.6164 38.1156 36.781 35.5977 34.5557 33.6451 32.8563 32.1794 31.6046 31.1247 30.7369 30.4391 30.2292 30.1049 30.0642 52.263 52.2909 52.3747 52.5143 52.7101 52.9622 53.2708 53.636 54.0584 54.5384 55.0765 55.6733 56.3293 57.0451 57.8214 58.6597 59.561 60.5266 61.5578 62.6558 63.8219 65.0575 66.3643 67.7446 69.2038 70.7478 72.3808 74.0997 75.8998 77.7797 79.7579 81.8598 84.1064 86.4807 88.9458 91.4705 94.1035 96.9506 100.113 103.543 107.051 110.441 113.798 117.587 122.298 127.963 133.723 138.619 142.499 147.44 155.902 169.188 183.973 195.774 202.116 212.246 239.654 294.853 362.404 413.508 421.316 387.003 331.941 277.457 233.698 199.621 173.695 154.172 139.008 126.141 114.256 103.49 94.1438 86.3545 79.801 74.0837 68.8743 64.1297 59.8782 56.1361 52.8499 49.9412 47.3353 44.9938 42.8965 41.0236 39.3551 37.8711 36.552 35.3828 34.3536 33.4546 32.676 32.0079 31.4406 30.9668 30.5838 30.2897 30.0823 29.9597 29.9197 51.0161 51.0428 51.1228 51.2563 51.4435 51.6844 51.9793 52.3284 52.7321 53.1909 53.7052 54.2756 54.9027 55.5868 56.329 57.1303 57.9919 58.915 59.9007 60.9502 62.0649 63.2464 64.4962 65.8167 67.2123 68.6876 70.2461 71.887 73.6083 75.4102 77.3065 79.3158 81.4535 83.7099 86.062 88.4908 91.0326 93.7632 96.7551 99.9794 103.305 106.603 109.939 113.658 118.119 123.357 128.769 133.682 138.019 143.36 151.571 163.658 177.207 188.95 197.132 208.844 234.379 281.672 338.093 380.419 387.003 358.714 312.649 265.888 226.852 195.306 170.626 151.716 136.822 124.148 112.536 102.069 92.9706 85.3292 78.8559 73.1973 68.0613 63.4015 59.2329 55.5607 52.3312 49.4695 46.9048 44.6 42.5354 40.6915 39.0488 37.5879 36.2893 35.1385 34.1257 33.241 32.4749 31.8175 31.2593 30.793 30.4161 30.1265 29.9223 29.8016 29.7624 49.7924 49.8179 49.8942 50.0216 50.2001 50.43 50.7114 51.0444 51.4295 51.8671 52.3578 52.9019 53.5001 54.1528 54.8608 55.6252 56.4471 57.3276 58.2678 59.2688 60.3319 61.459 62.6518 63.9124 65.2439 66.6492 68.1313 69.692 71.3331 73.0572 74.8718 76.7861 78.8084 80.9389 83.1733 85.5092 87.9659 90.5786 93.3813 96.3679 99.4925 102.71 106.064 109.727 113.875 118.542 123.479 128.402 133.335 139.143 146.835 156.992 168.48 179.736 190.003 203.225 225.049 259.68 298.758 327.455 331.941 312.649 280.294 245.602 214.339 187.308 165.083 147.469 133.211 120.977 109.892 99.963 91.298 83.9149 77.5804 72.0184 66.998 62.4685 58.4244 54.8532 51.7021 48.9034 46.393 44.1363 42.1144 40.3081 38.6986 37.2668 35.9939 34.8657 33.8726 33.0051 32.2536 31.6089 31.0613 30.6038 30.2341 29.95 29.7498 29.6313 29.5928 48.5939 48.6182 48.6909 48.8122 48.9823 49.2012 49.4692 49.7863 50.153 50.5697 51.037 51.5551 52.1247 52.7462 53.4203 54.1481 54.9305 55.7686 56.6635 57.6161 58.6278 59.7004 60.8359 62.0361 63.303 64.6385 66.045 67.526 69.0859 70.7285 72.4573 74.275 76.185 78.1939 80.3103 82.5424 84.8977 87.3833 90.0061 92.7766 95.7078 98.8137 102.121 105.675 109.521 113.691 118.191 123.02 128.264 134.238 141.297 149.688 159.218 169.587 180.746 194.11 211.626 234.557 258.237 274.941 277.457 265.888 245.602 222.001 198.499 176.527 157.41 141.605 128.363 116.847 106.491 97.2476 89.1286 82.0975 75.9797 70.5772 65.7211 61.359 57.4676 54.0199 50.9651 48.2441 45.8008 43.6036 41.6343 39.8743 38.3052 36.9088 35.6667 34.5653 33.5952 32.7475 32.0129 31.3824 30.847 30.3998 30.0384 29.7608 29.5651 29.4493 29.4115 47.4224 47.4455 47.5147 47.63 47.7917 47.9998 48.2546 48.5561 48.9047 49.3008 49.7449 50.2375 50.7788 51.3694 52.0101 52.7016 53.445 54.2412 55.0912 55.9958 56.9565 57.9748 59.0528 60.1921 61.3944 62.6609 63.9938 65.3969 66.8749 68.432 70.07 71.7903 73.5946 75.491 77.4908 79.6047 81.8363 84.184 86.6471 89.2407 91.9964 94.9464 98.1088 101.483 105.066 108.89 113.051 117.653 122.789 128.526 134.925 142.071 150.137 159.319 169.798 181.692 195.09 209.826 223.501 232.565 233.698 226.852 214.339 198.499 181.229 163.979 148.166 134.468 122.548 111.992 102.506 94.0256 86.5131 79.9072 74.084 68.9089 64.2639 60.0986 56.3797 53.0717 50.128 47.4981 45.1337 43.0067 41.0991 39.3933 37.8716 36.5163 35.3098 34.239 33.2951 32.4696 31.7539 31.1394 30.6175 30.1819 29.8299 29.5597 29.3691 29.2563 29.2191 46.2791 46.301 46.3666 46.4761 46.6296 46.8271 47.0689 47.3551 47.6859 48.0618 48.4832 48.9505 49.4641 50.0243 50.632 51.2878 51.9928 52.7476 53.5533 54.4106 55.3207 56.2854 57.3062 58.3848 59.5227 60.7212 61.9821 63.3089 64.7053 66.1751 67.7204 69.3434 71.0462 72.8354 74.7199 76.708 78.8038 81.0085 83.3236 85.7629 88.3527 91.1195 94.0786 97.2301 100.573 104.138 108.014 112.298 117.063 122.315 128.049 134.298 141.244 149.105 158.019 167.638 177.443 186.843 194.651 199.377 199.621 195.306 187.308 176.527 163.979 150.801 138.119 126.572 116.116 106.656 98.1125 90.4282 83.5504 77.4178 71.9477 67.0532 62.6561 58.7106 55.1794 52.0243 49.2043 46.677 44.4018 42.3538 40.5158 38.8711 37.4025 36.0931 34.9263 33.8895 32.9745 32.1735 31.4785 30.8815 30.3745 29.9515 29.6099 29.3478 29.1629 29.0533 29.0168 45.1651 45.1858 45.248 45.3518 45.4972 45.6844 45.9135 46.1846 46.498 46.854 47.2532 47.6957 48.1821 48.7126 49.2879 49.9087 50.5758 51.2901 52.0522 52.863 53.7235 54.6352 55.5996 56.6183 57.6927 58.8241 60.0143 61.2659 62.582 63.9653 65.4189 66.9456 68.5485 70.2323 72.0023 73.8641 75.8232 77.8851 80.0554 82.3448 84.769 87.3437 90.0834 93.0003 96.1068 99.4295 103.023 106.947 111.245 115.933 121.016 126.517 132.512 139.092 146.277 153.667 160.71 166.851 171.479 173.959 173.695 170.626 165.083 157.41 148.166 138.119 128.043 118.437 109.421 101.088 93.4881 86.5871 80.3415 74.7053 69.6261 65.0503 60.9274 57.2181 53.8856 50.8939 48.2077 45.7926 43.6152 41.6536 39.8917 38.3133 36.9025 35.6431 34.5193 33.5193 32.6357 31.8613 31.1886 30.6105 30.1195 29.7101 29.3798 29.1263 28.9476 28.8414 28.8056 44.0815 44.1011 44.16 44.2581 44.3957 44.5727 44.7894 45.0458 45.3423 45.679 46.0564 46.4748 46.9345 47.436 47.9796 48.5662 49.1963 49.8708 50.5903 51.3555 52.1674 53.0273 53.9366 54.8966 55.9087 56.9742 58.0947 59.2725 60.5098 61.8092 63.1736 64.606 66.1094 67.6875 69.3442 71.0836 72.9111 74.8337 76.8582 78.9929 81.2479 83.6334 86.162 88.8501 91.7144 94.7765 98.0674 101.619 105.46 109.604 114.066 118.855 123.972 129.413 135.13 140.793 145.976 150.254 153.266 154.677 154.172 151.716 147.469 141.605 134.468 126.572 118.437 110.432 102.728 95.4761 88.7745 82.6154 76.979 71.8422 67.1732 62.9389 59.1064 55.6432 52.5171 49.6962 47.1519 44.8567 42.784 40.9147 39.2337 37.726 36.3765 35.1701 34.0919 33.1312 32.281 31.5349 30.8861 30.3281 29.8542 29.4593 29.1408 28.8965 28.7241 28.6216 28.5866 43.0295 43.0481 43.1036 43.1963 43.3263 43.4935 43.6981 43.9403 44.2201 44.538 44.8943 45.2892 45.7231 46.1962 46.709 47.2621 47.8563 48.492 49.17 49.8908 50.6553 51.4647 52.3202 53.223 54.1744 55.1756 56.2279 57.3333 58.4939 59.7119 60.9897 62.33 63.7353 65.2089 66.7543 68.3749 70.0759 71.863 73.7425 75.721 77.8066 80.0071 82.3333 84.7995 87.4205 90.2119 93.1909 96.375 99.7798 103.416 107.294 111.413 115.727 120.182 124.699 129.064 133.016 136.289 138.585 139.59 139.008 136.822 133.211 128.363 122.548 116.116 109.421 102.728 96.1861 89.9329 84.0655 78.6001 73.5437 68.8965 64.641 60.7562 57.2202 54.0076 51.0918 48.447 46.0505 43.8812 41.9184 40.1456 38.5491 37.1149 35.8292 34.6779 33.6474 32.7277 31.9127 31.1964 30.5729 30.0362 29.5803 29.2004 28.8942 28.6594 28.4937 28.3949 28.361 42.0103 42.0278 42.0802 42.1676 42.2902 42.4478 42.6408 42.8691 43.1329 43.4326 43.7684 44.1405 44.5492 44.9949 45.4778 45.9986 46.5578 47.156 47.7937 48.4714 49.19 49.9505 50.7538 51.6012 52.4936 53.4322 54.4181 55.4532 56.5393 57.6782 58.8721 60.1228 61.4325 62.8041 64.2411 65.7467 67.3252 68.9808 70.7184 72.5435 74.463 76.484 78.6147 80.8657 83.2475 85.7703 88.4434 91.276 94.2756 97.4451 100.786 104.288 107.889 111.511 115.073 118.453 121.515 124.108 125.962 126.744 126.141 124.148 120.977 116.847 111.992 106.656 101.088 95.4761 89.9329 84.5644 79.4514 74.6262 70.1152 65.936 62.0812 58.5389 55.2958 52.3324 49.6279 47.1619 44.9172 42.8779 41.0284 39.355 37.845 36.486 35.2653 34.1704 33.1888 32.3114 31.5329 30.8479 30.2508 29.7364 29.2993 28.9351 28.6414 28.4162 28.2573 28.1625 28.1297 41.0247 41.0412 41.0906 41.1729 41.2883 41.4367 41.6184 41.8333 42.0817 42.3638 42.6798 43.0299 43.4144 43.8335 44.2875 44.7771 45.3025 45.8644 46.4632 47.0994 47.7736 48.4867 49.2397 50.0335 50.869 51.7472 52.6691 53.6361 54.65 55.7123 56.8247 57.9887 59.2062 60.4795 61.8118 63.2062 64.6658 66.1942 67.7948 69.4722 71.2319 73.0797 75.0216 77.0647 79.2158 81.4811 83.8648 86.3709 89.0007 91.7481 94.6058 97.5556 100.536 103.474 106.296 108.911 111.226 113.135 114.439 114.89 114.256 112.536 109.892 106.491 102.506 98.1125 93.4881 88.7745 84.0655 79.4514 75.0044 70.7618 66.7573 63.0155 59.5376 56.3205 53.359 50.6386 48.1429 45.8559 43.7646 41.8576 40.1233 38.5505 37.128 35.8447 34.6896 33.6514 32.7193 31.8853 31.1443 30.4914 29.9218 29.4305 29.0128 28.6646 28.3837 28.1682 28.016 27.9253 27.8939 40.0731 40.0886 40.1351 40.2125 40.321 40.4606 40.6314 40.8334 41.0669 41.332 41.6289 41.9578 42.3189 42.7125 43.1387 43.5981 44.0911 44.618 45.1793 45.7754 46.4069 47.0745 47.7791 48.5213 49.3019 50.1219 50.982 51.8835 52.8278 53.8162 54.8501 55.9307 57.0595 58.2386 59.4705 60.7578 62.1031 63.5091 64.9785 66.5147 68.1217 69.8038 71.565 73.4095 75.3414 77.3637 79.4772 81.6827 83.9769 86.3461 88.7744 91.2395 93.6911 96.0721 98.3206 100.346 102.047 103.323 104.063 104.154 103.49 102.069 99.963 97.2476 94.0256 90.4282 86.5871 82.6154 78.6001 74.6262 70.7618 67.0431 63.5023 60.1649 57.0385 54.1275 51.4333 48.9461 46.653 44.5419 42.6034 40.829 39.2104 37.7383 36.4032 35.1956 34.106 33.1247 32.2425 31.4522 30.7492 30.1293 29.5878 29.1203 28.7223 28.3904 28.1224 27.9166 27.7713 27.6846 27.6548 39.1559 39.1704 39.214 39.2867 39.3886 39.5197 39.68 39.8697 40.0888 40.3376 40.6162 40.9247 41.2634 41.6323 42.0319 42.4623 42.924 43.4173 43.9426 44.5003 45.0908 45.7146 46.3726 47.0653 47.7933 48.5574 49.3582 50.1968 51.0744 51.9919 52.9505 53.9513 54.9954 56.0846 57.2208 58.4059 59.6421 60.9314 62.2758 63.6778 65.14 66.6652 68.2556 69.9132 71.6397 73.4359 75.3003 77.2312 79.2224 81.2553 83.3093 85.3603 87.37 89.2968 91.0914 92.6597 93.8913 94.6831 94.9946 94.8174 94.1438 92.9706 91.298 89.1286 86.5131 83.5504 80.3415 76.979 73.5437 70.1152 66.7573 63.5023 60.379 57.4114 54.6106 51.9855 49.542 47.2744 45.1742 43.233 41.444 39.8007 38.2966 36.9244 35.6759 34.5434 33.5188 32.5941 31.7616 31.0151 30.3505 29.7638 29.2507 28.8073 28.4294 28.1138 27.8588 27.6627 27.5242 27.4417 27.4136 38.2732 38.2868 38.3277 38.3959 38.4914 38.6143 38.7647 38.9425 39.1479 39.381 39.642 39.931 40.2481 40.5935 40.9674 41.3701 41.8019 42.263 42.7538 43.2746 43.8258 44.4078 45.0212 45.6664 46.3441 47.0548 47.7989 48.5774 49.3912 50.2411 51.128 52.0529 53.0166 54.0205 55.0659 56.1542 57.2871 58.4658 59.6921 60.9673 62.2931 63.671 65.1019 66.586 68.1231 69.712 71.3495 73.0317 74.751 76.4879 78.2213 79.9279 81.5757 83.1305 84.5517 85.7605 86.6645 87.1789 87.2869 87.0064 86.3545 85.3292 83.9149 82.0975 79.9072 77.4178 74.7053 71.8422 68.8965 65.936 63.0155 60.1649 57.4114 54.778 52.2763 49.9161 47.7049 45.6413 43.7215 41.9417 40.2968 38.7811 37.3891 36.1146 34.9513 33.8925 32.9321 32.0634 31.2801 30.5772 29.9508 29.3972 28.9126 28.4933 28.1355 27.8363 27.5942 27.4079 27.2762 27.1978 27.1713 37.4254 37.4382 37.4765 37.5404 37.6298 37.7449 37.8857 38.0522 38.2444 38.4626 38.7068 38.9771 39.2737 39.5965 39.9459 40.3221 40.7253 41.1557 41.6135 42.0991 42.6128 43.1548 43.7257 44.3257 44.9554 45.6151 46.3053 47.0265 47.7797 48.5654 49.3843 50.2372 51.1248 52.048 53.0077 54.0047 55.0401 56.1148 57.2298 58.3859 59.5839 60.8244 62.1072 63.4311 64.7948 66.1955 67.6283 69.0877 70.5652 72.0435 73.5038 74.9252 76.2776 77.5292 78.6448 79.5722 80.2527 80.6316 80.6864 80.4113 79.801 78.8559 77.5804 75.9797 74.084 71.9477 69.6261 67.1732 64.641 62.0812 59.5376 57.0385 54.6106 52.2763 50.0462 47.929 45.9322 44.0579 42.307 40.6796 39.172 37.7789 36.495 35.3151 34.2344 33.2477 32.35 31.5362 30.8015 30.1414 29.5527 29.0319 28.5754 28.18 27.8421 27.5591 27.3299 27.1533 27.0284 26.9541 26.9293 36.6129 36.6249 36.6607 36.7204 36.8041 36.9117 37.0434 37.199 37.3788 37.5827 37.8109 38.0634 38.3403 38.6418 38.9679 39.3188 39.6947 40.0958 40.5224 40.9745 41.4524 41.9565 42.4869 43.044 43.6281 44.2395 44.8785 45.5456 46.2413 46.9663 47.721 48.5059 49.3218 50.1689 51.0478 51.9589 52.9028 53.8799 54.8909 55.9358 57.0148 58.1277 59.2737 60.4507 61.6566 62.8879 64.138 65.4001 66.6656 67.9198 69.1473 70.3299 71.4392 72.4441 73.3139 74.0208 74.5383 74.8389 74.8881 74.6481 74.0837 73.1973 72.0184 70.5772 68.9089 67.0532 65.0503 62.9389 60.7562 58.5389 56.3205 54.1275 51.9855 49.9161 47.929 46.032 44.2323 42.5343 40.9419 39.458 38.0798 36.8025 35.6212 34.5318 33.5304 32.6133 31.7766 31.0164 30.329 29.7109 29.1589 28.67 28.2411 27.869 27.5507 27.2838 27.0672 26.9003 26.7821 26.7118 26.6887 35.8358 35.847 35.8805 35.9363 36.0144 36.115 36.238 36.3833 36.5512 36.7416 36.9546 37.1902 37.4485 37.7296 38.0335 38.3605 38.7106 39.084 39.4808 39.9012 40.3453 40.8133 41.3055 41.822 42.363 42.9287 43.5194 44.1354 44.7771 45.4449 46.1391 46.8602 47.6085 48.3842 49.1874 50.0181 50.8765 51.7626 52.6767 53.6185 54.5873 55.5826 56.6029 57.6461 58.7096 59.7896 60.8784 61.9683 63.0502 64.1118 65.1402 66.1199 67.0254 67.8289 68.5043 69.0368 69.4156 69.6275 69.6378 69.4009 68.8743 68.0613 66.998 65.7211 64.2639 62.6561 60.9274 59.1064 57.2202 55.2958 53.359 51.4333 49.542 47.7049 45.9322 44.2323 42.613 41.0796 39.6363 38.2868 37.029 35.8593 34.774 33.7699 32.844 31.9936 31.2157 30.5074 29.8659 29.2883 28.7718 28.3138 27.9114 27.562 27.2627 27.0115 26.8075 26.6501 26.5386 26.4723 26.4506 35.094 35.1044 35.1357 35.1878 35.2607 35.3546 35.4693 35.605 35.7615 35.9391 36.1377 36.3573 36.598 36.8598 37.1428 37.4471 37.7727 38.1199 38.4886 38.8789 39.2911 39.7251 40.1811 40.6593 41.1597 41.6824 42.2277 42.7957 43.3866 44.0007 44.6382 45.2994 45.9844 46.6932 47.4256 48.1813 48.9601 49.7619 50.5864 51.433 52.3007 53.1881 54.0939 55.0157 55.9513 56.8966 57.8433 58.7831 59.707 60.604 61.4629 62.2708 63.0065 63.6468 64.1705 64.5663 64.8264 64.9413 64.8855 64.6254 64.1297 63.4015 62.4685 61.359 60.0986 58.7106 57.2181 55.6432 54.0076 52.3324 50.6386 48.9461 47.2744 45.6413 44.0579 42.5343 41.0796 39.6983 38.3938 37.1688 36.0224 34.9524 33.9564 33.0323 32.1779 31.391 30.6695 30.0112 29.4139 28.8753 28.393 27.9646 27.5878 27.2602 26.9793 26.7434 26.5517 26.4036 26.2987 26.2363 26.2159 34.3872 34.397 34.4261 34.4747 34.5428 34.6303 34.7372 34.8637 35.0096 35.175 35.3599 35.5644 35.7885 36.0321 36.2953 36.5782 36.8808 37.2031 37.5453 37.9074 38.2893 38.6913 39.1133 39.5554 40.0176 40.5 41.0026 41.5255 42.0689 42.6327 43.2172 43.8224 44.4483 45.0946 45.761 46.4471 47.1522 47.8762 48.6184 49.3779 50.1532 50.9428 51.7449 52.5575 53.3785 54.2037 55.025 55.8339 56.6215 57.3781 58.0941 58.7582 59.3539 59.8632 60.269 60.5593 60.7241 60.7531 60.6322 60.3454 59.8782 59.2329 58.4244 57.4676 56.3797 55.1794 53.8856 52.5171 51.0918 49.6279 48.1429 46.653 45.1742 43.7215 42.307 40.9419 39.6363 38.3938 37.2163 36.1055 35.0615 34.0834 33.1704 32.3212 31.5341 30.8076 30.1399 29.5294 28.9744 28.4732 28.0237 27.6237 27.2715 26.9648 26.7016 26.4805 26.3008 26.1619 26.0634 26.0048 25.9855 33.7154 33.7244 33.7516 33.7969 33.8603 33.9418 34.0414 34.1592 34.295 34.449 34.6211 34.8113 35.0196 35.2461 35.4907 35.7534 36.0343 36.3333 36.6505 36.986 37.3396 37.7114 38.1015 38.5097 38.9361 39.3806 39.8433 40.3241 40.823 41.34 41.875 42.4279 42.9988 43.5872 44.1924 44.814 45.4514 46.1039 46.7709 47.4513 48.1432 48.8447 49.5539 50.2688 50.9873 51.7054 52.4156 53.1096 53.7794 54.4165 55.0124 55.5578 56.0396 56.4438 56.7568 56.9667 57.0622 57.0324 56.8709 56.5734 56.1361 55.5607 54.8532 54.0199 53.0717 52.0243 50.8939 49.6962 48.447 47.1619 45.8559 44.5419 43.233 41.9417 40.6796 39.458 38.2868 37.1688 36.1055 35.0983 34.1476 33.2541 32.418 31.6387 30.9149 30.2453 29.6286 29.0636 28.5491 28.0835 27.6651 27.2924 26.9635 26.6769 26.4308 26.2239 26.0557 25.9257 25.8335 25.7785 25.7603 33.0781 33.0866 33.1119 33.154 33.2131 33.2889 33.3817 33.4912 33.6176 33.7608 33.9209 34.0977 34.2912 34.5016 34.7286 34.9724 35.2329 35.51 35.8038 36.1143 36.4414 36.785 37.1451 37.5216 37.9145 38.3237 38.7492 39.1907 39.6482 40.1215 40.6105 41.115 41.6348 42.1695 42.7183 43.2806 43.8557 44.4429 45.0416 45.6503 46.2669 46.8894 47.5156 48.1435 48.7708 49.3938 50.0057 50.5994 51.1675 51.7029 52.1984 52.646 53.0353 53.3554 53.5952 53.744 53.7914 53.7274 53.5489 53.2563 52.8499 52.3312 51.7021 50.9651 50.128 49.2043 48.2077 47.1519 46.0505 44.9172 43.7646 42.6034 41.444 40.2968 39.172 38.0798 37.029 36.0224 35.0615 34.1476 33.2822 32.4664 31.7015 30.9871 30.3223 29.7061 29.1375 28.6155 28.1392 27.7074 27.3187 26.9717 26.6652 26.3977 26.1679 25.9747 25.8176 25.6961 25.6099 25.5584 25.5413 32.4753 32.4832 32.5067 32.546 32.6009 32.6715 32.7577 32.8596 32.9771 33.1103 33.259 33.4232 33.6029 33.7982 34.0088 34.2349 34.4762 34.7329 35.0048 35.2919 35.5942 35.9114 36.2436 36.5906 36.9523 37.3286 37.7194 38.1244 38.5435 38.9764 39.4228 39.8825 40.3552 40.8404 41.3373 41.8452 42.3633 42.891 43.4275 43.9713 44.5201 45.0717 45.6239 46.1743 46.7209 47.26 47.7857 48.2921 48.7728 49.2218 49.6329 49.9996 50.3134 50.5653 50.7467 50.8484 50.8618 50.7787 50.5968 50.3173 49.9412 49.4695 48.9034 48.2441 47.4981 46.677 45.7926 44.8567 43.8812 42.8779 41.8576 40.829 39.8007 38.7811 37.7789 36.8025 35.8593 34.9524 34.0834 33.2541 32.4664 31.7221 31.0228 30.3685 29.7585 29.192 28.6684 28.1867 27.7463 27.3463 26.9856 26.6631 26.3777 26.1284 25.914 25.7338 25.5873 25.4739 25.3934 25.3453 25.3291 31.9067 31.914 31.9359 31.9724 32.0235 32.0891 32.1693 32.2641 32.3733 32.497 32.6351 32.7876 32.9544 33.1355 33.3309 33.5404 33.764 34.0016 34.2531 34.5184 34.7976 35.0903 35.3965 35.716 36.0488 36.3946 36.7532 37.1245 37.508 37.9035 38.3106 38.7291 39.1585 39.5984 40.0478 40.506 40.9723 41.4458 41.9258 42.4108 42.8984 43.3864 43.8724 44.3543 44.8296 45.2952 45.746 46.1769 46.5825 46.9578 47.2975 47.596 47.8465 48.0419 48.175 48.2387 48.2257 48.1296 47.9486 47.6835 47.3353 46.9048 46.393 45.8008 45.1337 44.4018 43.6152 42.784 41.9184 41.0284 40.1233 39.2104 38.2966 37.3891 36.495 35.6212 34.774 33.9564 33.1704 32.418 31.7015 31.0228 30.3838 29.7849 29.2255 28.705 28.223 27.7788 27.3719 27.0016 26.6671 26.3676 26.1022 25.87 25.6703 25.5024 25.3657 25.2601 25.1849 25.14 25.1248 31.3719 31.3787 31.3991 31.4331 31.4806 31.5416 31.6162 31.7042 31.8057 31.9206 32.0489 32.1904 32.3452 32.5132 32.6943 32.8884 33.0954 33.3153 33.5478 33.793 34.0507 34.3207 34.6029 34.897 35.2029 35.5205 35.8495 36.1895 36.5403 36.9014 37.2724 37.6531 38.043 38.4414 38.8475 39.2605 39.6797 40.1041 40.533 40.9648 41.3973 41.8283 42.2555 42.6766 43.0895 43.4911 43.8771 44.2431 44.5846 44.8972 45.1763 45.4173 45.6147 45.7628 45.8558 45.888 45.8537 45.7475 45.5683 45.3168 44.9938 44.6 44.1363 43.6036 43.0067 42.3538 41.6536 40.9147 40.1456 39.355 38.5505 37.7383 36.9244 36.1146 35.3151 34.5318 33.7699 33.0323 32.3212 31.6387 30.9871 30.3685 29.7849 29.2368 28.7239 28.2457 27.802 27.3924 27.0165 26.6739 26.364 26.086 25.8393 25.6233 25.4374 25.2809 25.1536 25.0551 24.985 24.9431 24.9289 30.8706 30.8769 30.8959 30.9275 30.9716 31.0284 31.0977 31.1795 31.2739 31.3806 31.4997 31.6311 31.7748 31.9306 32.0984 32.2783 32.47 32.6734 32.8884 33.1149 33.3527 33.6017 33.8617 34.1324 34.4136 34.7051 35.0068 35.3181 35.6388 35.9683 36.3064 36.6525 37.0062 37.3669 37.7337 38.1058 38.4823 38.8624 39.2451 39.6291 40.0123 40.3924 40.7674 41.135 41.4933 41.8395 42.1697 42.4803 42.7673 43.0269 43.2551 43.4481 43.6013 43.7102 43.7703 43.7769 43.7256 43.6122 43.4357 43.1968 42.8965 42.5354 42.1144 41.6343 41.0991 40.5158 39.8917 39.2337 38.5491 37.845 37.128 36.4032 35.6759 34.9513 34.2344 33.5304 32.844 32.1779 31.5341 30.9149 30.3223 29.7585 29.2255 28.7239 28.2534 27.814 27.4056 27.0278 26.6806 26.3637 26.0766 25.8187 25.5895 25.3887 25.2157 25.07 24.9514 24.8596 24.7942 24.7551 24.7419 30.4023 30.4082 30.4258 30.4552 30.4963 30.5491 30.6135 30.6896 30.7773 30.8765 30.9871 31.1092 31.2425 31.387 31.5427 31.7093 31.8868 32.0751 32.2739 32.4832 32.7028 32.9324 33.1719 33.421 33.6795 33.9472 34.2237 34.5088 34.8019 35.1026 35.4105 35.7251 36.0461 36.3726 36.7038 37.0388 37.3768 37.717 38.0583 38.3995 38.7386 39.0735 39.4024 39.7231 40.0339 40.3322 40.6147 40.8781 41.119 41.3341 41.5198 41.6729 41.7896 41.8665 41.8999 41.8862 41.8218 41.7034 41.5303 41.3034 41.0236 40.6915 40.3081 39.8743 39.3933 38.8711 38.3133 37.726 37.1149 36.486 35.8447 35.1956 34.5434 33.8925 33.2477 32.6133 31.9936 31.391 30.8076 30.2453 29.7061 29.192 28.705 28.2457 27.814 27.4101 27.0339 26.6854 26.3646 26.0714 25.8053 25.5661 25.3533 25.1666 25.0056 24.87 24.7595 24.6739 24.6129 24.5764 24.5641 29.9666 29.972 29.9885 30.0158 30.0541 30.1032 30.1632 30.234 30.3156 30.4078 30.5106 30.624 30.7478 30.8819 31.0264 31.1809 31.3453 31.5196 31.7036 31.8971 32.0999 32.3118 32.5325 32.7619 32.9996 33.2454 33.499 33.76 34.028 34.3024 34.5829 34.869 35.1602 35.4558 35.7549 36.0566 36.36 36.6644 36.9687 37.2717 37.5715 37.8665 38.1548 38.4346 38.7041 38.9611 39.2028 39.4261 39.6281 39.8057 39.9561 40.0762 40.1632 40.2141 40.2262 40.1966 40.1223 40.0009 39.832 39.6164 39.3551 39.0488 38.6986 38.3052 37.8716 37.4025 36.9025 36.3765 35.8292 35.2653 34.6896 34.106 33.5188 32.9321 32.35 31.7766 31.2157 30.6695 30.1399 29.6286 29.1375 28.6684 28.223 27.802 27.4056 27.0339 26.6871 26.3653 26.0687 25.7973 25.5508 25.3288 25.1311 24.9575 24.8077 24.6813 24.5783 24.4985 24.4416 24.4076 24.3962 29.563 29.5681 29.5834 29.6089 29.6446 29.6904 29.7462 29.8122 29.8881 29.974 30.0696 30.1751 30.2901 30.4148 30.5489 30.6923 30.8448 31.0063 31.1767 31.3557 31.5431 31.7388 31.9425 32.1538 32.3725 32.5984 32.8312 33.0703 33.3155 33.5661 33.8218 34.0821 34.3464 34.6141 34.8843 35.1561 35.4286 35.701 35.9723 36.2414 36.5066 36.7663 37.019 37.2629 37.4966 37.718 37.9246 38.1137 38.2827 38.429 38.5499 38.6428 38.7053 38.7353 38.7305 38.6886 38.6073 38.4846 38.3204 38.1156 37.8711 37.5879 37.2668 36.9088 36.5163 36.0931 35.6431 35.1701 34.6779 34.1704 33.6514 33.1247 32.5941 32.0634 31.5362 31.0164 30.5074 30.0112 29.5294 29.0636 28.6155 28.1867 27.7788 27.3924 27.0278 26.6854 26.3653 26.0679 25.7934 25.5419 25.3132 25.1071 24.9234 24.7618 24.6223 24.5045 24.4084 24.3339 24.2808 24.249 24.2384 29.1913 29.1961 29.2103 29.2341 29.2674 29.3101 29.3622 29.4237 29.4945 29.5745 29.6637 29.7619 29.869 29.9849 30.1096 30.2429 30.3845 30.5344 30.6923 30.8582 31.0317 31.2126 31.4007 31.5957 31.7972 32.005 32.2189 32.4383 32.6628 32.892 33.1253 33.3623 33.6025 33.8451 34.0894 34.3344 34.5793 34.8232 35.0653 35.3044 35.5391 35.7679 35.9893 36.202 36.4044 36.5948 36.7711 36.9307 37.0715 37.191 37.287 37.3572 37.3997 37.4127 37.3945 37.3432 37.2571 37.1345 36.9755 36.781 36.552 36.2893 35.9939 35.6667 35.3098 34.9263 34.5193 34.0919 33.6474 33.1888 32.7193 32.2425 31.7616 31.2801 30.8015 30.329 29.8659 29.4139 28.9744 28.5491 28.1392 27.7463 27.3719 27.0165 26.6806 26.3646 26.0687 25.7934 25.5391 25.3057 25.0932 24.9015 24.7305 24.58 24.4498 24.3399 24.2502 24.1806 24.131 24.1012 24.0913 28.851 28.8554 28.8688 28.891 28.9221 28.9621 29.0108 29.0682 29.1344 29.2091 29.2923 29.3839 29.4838 29.5919 29.708 29.8321 29.9639 30.1032 30.2499 30.4038 30.5647 30.7323 30.9063 31.0865 31.2725 31.4641 31.6609 31.8626 32.0685 32.2784 32.4916 32.7077 32.9263 33.1466 33.3677 33.5889 33.8093 34.0281 34.2444 34.4571 34.665 34.8667 35.0609 35.2463 35.4215 35.585 35.7349 35.869 35.9855 36.0821 36.157 36.2082 36.2342 36.2335 36.2047 36.1464 36.0572 35.9358 35.7823 35.5977 35.3828 35.1385 34.8657 34.5653 34.239 33.8895 33.5193 33.1312 32.7277 32.3114 31.8853 31.4522 31.0151 30.5772 30.1414 29.7109 29.2883 28.8753 28.4732 28.0835 27.7074 27.3463 27.0016 26.6739 26.3637 26.0714 25.7973 25.5419 25.3057 25.0887 24.8909 24.7123 24.5527 24.4122 24.2906 24.1879 24.104 24.0388 23.9923 23.9645 23.9552 28.5417 28.5459 28.5584 28.5792 28.6084 28.6458 28.6914 28.7453 28.8072 28.8771 28.955 29.0407 29.1341 29.2351 29.3435 29.4593 29.5822 29.7121 29.8487 29.9919 30.1414 30.2971 30.4585 30.6254 30.7975 30.9745 31.1561 31.3419 31.5313 31.7239 31.9193 32.1169 32.3162 32.5166 32.7173 32.9174 33.1162 33.3129 33.5066 33.6963 33.8809 34.0591 34.2297 34.3914 34.5432 34.6835 34.8106 34.9229 35.0186 35.0959 35.1531 35.1886 35.201 35.1893 35.1524 35.089 34.9982 34.8788 34.731 34.5557 34.3536 34.1257 33.8726 33.5952 33.2951 32.9745 32.6357 32.281 31.9127 31.5329 31.1443 30.7492 30.3505 29.9508 29.5527 29.1589 28.7718 28.393 28.0237 27.6651 27.3187 26.9856 26.6671 26.364 26.0766 25.8053 25.5508 25.3132 25.0932 24.8909 24.7063 24.5394 24.3902 24.2587 24.1448 24.0485 23.9699 23.9087 23.8651 23.839 23.8303 28.2631 28.267 28.2788 28.2984 28.3258 28.361 28.4039 28.4545 28.5126 28.5783 28.6514 28.7318 28.8193 28.914 29.0157 29.1241 29.239 29.3604 29.488 29.6217 29.7611 29.9061 30.0563 30.2115 30.3712 30.5353 30.7034 30.8751 31.0499 31.2273 31.4068 31.588 31.7705 31.9534 32.1361 32.3178 32.4977 32.675 32.8491 33.0189 33.1834 33.3413 33.4916 33.6331 33.7648 33.8852 33.993 34.0868 34.1649 34.226 34.2685 34.2911 34.2926 34.2723 34.2292 34.1624 34.0709 33.954 33.8118 33.6451 33.4546 33.241 33.0051 32.7475 32.4696 32.1735 31.8613 31.5349 31.1964 30.8479 30.4914 30.1293 29.7638 29.3972 29.0319 28.67 28.3138 27.9646 27.6237 27.2924 26.9717 26.6631 26.3676 26.086 25.8187 25.5661 25.3288 25.1071 24.9015 24.7123 24.5394 24.383 24.243 24.1195 24.0125 23.922 23.848 23.7905 23.7495 23.7249 23.7167 28.0149 28.0186 28.0297 28.0482 28.0741 28.1073 28.1477 28.1954 28.2503 28.3122 28.381 28.4567 28.5392 28.6283 28.7238 28.8257 28.9337 29.0477 29.1673 29.2925 29.4231 29.5587 29.699 29.8438 29.9927 30.1454 30.3017 30.461 30.623 30.787 30.9527 31.1197 31.2873 31.455 31.622 31.7877 31.9513 32.112 32.2692 32.4219 32.5691 32.7097 32.8427 32.967 33.0816 33.1852 33.2768 33.3549 33.4185 33.4661 33.4965 33.5086 33.5015 33.4745 33.4268 33.3576 33.2663 33.1521 33.0152 32.8563 32.676 32.4749 32.2536 32.0129 31.7539 31.4785 31.1886 30.8861 30.5729 30.2508 29.9218 29.5878 29.2507 28.9126 28.5754 28.2411 27.9114 27.5878 27.2715 26.9635 26.6652 26.3777 26.1022 25.8393 25.5895 25.3533 25.1311 24.9234 24.7305 24.5527 24.3902 24.243 24.1111 23.9947 23.8938 23.8085 23.7387 23.6844 23.6456 23.6224 23.6146 27.7967 27.8002 27.8108 27.8283 27.8528 27.8843 27.9226 27.9678 28.0197 28.0783 28.1435 28.2151 28.2931 28.3773 28.4676 28.5638 28.6657 28.7731 28.8859 29.0038 29.1266 29.254 29.3857 29.5215 29.661 29.8038 29.9498 30.0984 30.2492 30.4018 30.5556 30.7101 30.865 31.0196 31.1732 31.3251 31.4747 31.6211 31.7639 31.902 32.0346 32.1605 32.2789 32.3887 32.4889 32.5786 32.6565 32.7218 32.7732 32.8098 32.8304 32.834 32.82 32.7878 32.7366 32.6659 32.5751 32.4635 32.3314 32.1794 32.0079 31.8175 31.6089 31.3824 31.1394 30.8815 30.6105 30.3281 30.0362 29.7364 29.4305 29.1203 28.8073 28.4933 28.18 27.869 27.562 27.2602 26.9648 26.6769 26.3977 26.1284 25.87 25.6233 25.3887 25.1666 24.9575 24.7618 24.58 24.4122 24.2587 24.1195 23.9947 23.8845 23.7889 23.708 23.6419 23.5904 23.5536 23.5316 23.5242 27.6082 27.6116 27.6216 27.6383 27.6617 27.6916 27.7281 27.7711 27.8206 27.8764 27.9384 28.0065 28.0806 28.1606 28.2464 28.3377 28.4344 28.5362 28.643 28.7546 28.8708 28.9912 29.1156 29.2436 29.375 29.5095 29.6467 29.7862 29.9275 30.0702 30.2138 30.3578 30.5019 30.6453 30.7875 30.9278 31.0655 31.1999 31.3304 31.4562 31.5764 31.69 31.7962 31.8939 31.9822 32.0602 32.127 32.1816 32.2232 32.2508 32.2634 32.2602 32.2407 32.2042 32.1503 32.0785 31.9882 31.8789 31.7509 31.6046 31.4406 31.2593 31.0613 30.847 30.6175 30.3745 30.1195 29.8542 29.5803 29.2993 29.0128 28.7223 28.4294 28.1355 27.8421 27.5507 27.2627 26.9793 26.7016 26.4308 26.1679 25.914 25.6703 25.4374 25.2157 25.0056 24.8077 24.6223 24.4498 24.2906 24.1448 24.0125 23.8938 23.7889 23.6979 23.6209 23.5578 23.5088 23.4737 23.4527 23.4456 27.4491 27.4523 27.4619 27.4779 27.5003 27.529 27.564 27.6052 27.6525 27.7059 27.7653 27.8304 27.9013 27.9778 28.0598 28.147 28.2393 28.3364 28.4383 28.5446 28.6552 28.7697 28.8879 29.0095 29.1342 29.2616 29.3914 29.5232 29.6566 29.791 29.9262 30.0615 30.1965 30.3307 30.4634 30.5939 30.7217 30.8461 30.9665 31.0821 31.192 31.2954 31.3914 31.4791 31.5576 31.6262 31.684 31.7301 31.7637 31.784 31.7902 31.7815 31.7574 31.7175 31.6614 31.5885 31.4985 31.3911 31.2663 31.1247 30.9668 30.793 30.6038 30.3998 30.1819 29.9515 29.7101 29.4593 29.2004 28.9351 28.6646 28.3904 28.1138 27.8363 27.5591 27.2838 27.0115 26.7434 26.4805 26.2239 25.9747 25.7338 25.5024 25.2809 25.07 24.87 24.6813 24.5045 24.3399 24.1879 24.0485 23.922 23.8085 23.708 23.6209 23.5471 23.4866 23.4396 23.406 23.3858 23.379 27.3192 27.3223 27.3316 27.347 27.3686 27.3963 27.43 27.4697 27.5154 27.5669 27.624 27.6868 27.755 27.8287 27.9075 27.9914 28.0801 28.1735 28.2713 28.3733 28.4794 28.5892 28.7024 28.8188 28.9379 29.0596 29.1834 29.3091 29.436 29.5638 29.6921 29.8203 29.9481 30.0748 30.1999 30.3226 30.4425 30.5588 30.671 30.7783 30.88 30.9751 31.063 31.1427 31.2136 31.2747 31.3254 31.3648 31.3922 31.4069 31.4081 31.3951 31.3674 31.3247 31.2667 31.193 31.1033 30.9971 30.8749 30.7369 30.5838 30.4161 30.2341 30.0384 29.8299 29.6099 29.3798 29.1408 28.8942 28.6414 28.3837 28.1224 27.8588 27.5942 27.3299 27.0672 26.8075 26.5517 26.3008 26.0557 25.8176 25.5873 25.3657 25.1536 24.9514 24.7595 24.5783 24.4084 24.2502 24.104 23.9699 23.848 23.7387 23.6419 23.5578 23.4866 23.4283 23.3829 23.3505 23.331 23.3245 27.2184 27.2214 27.2304 27.2454 27.2664 27.2933 27.326 27.3646 27.409 27.4589 27.5144 27.5754 27.6416 27.713 27.7895 27.8708 27.9567 28.0472 28.1418 28.2406 28.3432 28.4493 28.5586 28.6709 28.7859 28.9031 29.0224 29.1433 29.2653 29.388 29.511 29.6338 29.756 29.877 29.9962 30.113 30.2268 30.3369 30.4428 30.5438 30.6391 30.728 30.8097 30.8834 30.9484 31.004 31.0494 31.0839 31.1067 31.1172 31.1147 31.0984 31.068 31.0233 30.9639 30.8895 30.7999 30.6947 30.5743 30.4391 30.2897 30.1265 29.95 29.7608 29.5597 29.3478 29.1263 28.8965 28.6594 28.4162 28.1682 27.9166 27.6627 27.4079 27.1533 26.9003 26.6501 26.4036 26.1619 25.9257 25.6961 25.4739 25.2601 25.0551 24.8596 24.6739 24.4985 24.3339 24.1806 24.0388 23.9087 23.7905 23.6844 23.5904 23.5088 23.4396 23.3829 23.3388 23.3073 23.2883 23.282 27.1465 27.1495 27.1583 27.173 27.1936 27.2199 27.252 27.2897 27.3331 27.382 27.4364 27.496 27.5607 27.6306 27.7053 27.7848 27.8688 27.9572 28.0496 28.1461 28.2462 28.3497 28.4563 28.5657 28.6777 28.7918 28.9079 29.0253 29.1439 29.263 29.3822 29.5012 29.6194 29.7364 29.8515 29.9641 30.0736 30.1794 30.2809 30.3775 30.4684 30.5529 30.6302 30.6998 30.7607 30.8124 30.8542 30.8852 30.9049 30.9126 30.9074 30.889 30.8568 30.8106 30.7503 30.6755 30.5859 30.4815 30.3624 30.2292 30.0823 29.9223 29.7498 29.5651 29.3691 29.1629 28.9476 28.7241 28.4937 28.2573 28.016 27.7713 27.5242 27.2762 27.0284 26.7821 26.5386 26.2987 26.0634 25.8335 25.6099 25.3934 25.1849 24.985 24.7942 24.6129 24.4416 24.2808 24.131 23.9923 23.8651 23.7495 23.6456 23.5536 23.4737 23.406 23.3505 23.3073 23.2764 23.2578 23.2516 27.1035 27.1064 27.1151 27.1296 27.1499 27.1759 27.2076 27.2449 27.2877 27.336 27.3896 27.4484 27.5123 27.5812 27.655 27.7334 27.8162 27.9033 27.9945 28.0895 28.1881 28.2901 28.3951 28.5028 28.6129 28.7252 28.8393 28.9548 29.0712 29.1882 29.3052 29.4219 29.5378 29.6524 29.765 29.8751 29.9821 30.0854 30.1843 30.2783 30.3665 30.4485 30.5233 30.5904 30.6489 30.6983 30.7379 30.7669 30.7847 30.7906 30.784 30.7643 30.731 30.6841 30.6233 30.5483 30.459 30.3551 30.2369 30.1049 29.9597 29.8016 29.6313 29.4493 29.2563 29.0533 28.8414 28.6216 28.3949 28.1625 27.9253 27.6846 27.4417 27.1978 26.9541 26.7118 26.4723 26.2363 26.0048 25.7785 25.5584 25.3453 25.14 24.9431 24.7551 24.5764 24.4076 24.249 24.1012 23.9645 23.839 23.7249 23.6224 23.5316 23.4527 23.3858 23.331 23.2883 23.2578 23.2395 23.2334 27.0891 27.092 27.1007 27.1151 27.1353 27.1612 27.1927 27.2299 27.2725 27.3206 27.3739 27.4325 27.4961 27.5647 27.6381 27.7162 27.7986 27.8853 27.976 28.0705 28.1687 28.2701 28.3745 28.4817 28.5913 28.7029 28.8164 28.9312 29.0469 29.1631 29.2794 29.3953 29.5104 29.6242 29.736 29.8452 29.9513 30.0537 30.1518 30.245 30.3324 30.4136 30.4876 30.5538 30.6115 30.66 30.6987 30.7269 30.7439 30.7492 30.742 30.7218 30.6883 30.6413 30.5805 30.5056 30.4166 30.3131 30.1955 30.0642 29.9197 29.7624 29.5928 29.4115 29.2191 29.0168 28.8056 28.5866 28.361 28.1297 27.8939 27.6548 27.4136 27.1713 26.9293 26.6887 26.4506 26.2159 25.9855 25.7603 25.5413 25.3291 25.1248 24.9289 24.7419 24.5641 24.3962 24.2384 24.0913 23.9552 23.8303 23.7167 23.6146 23.5242 23.4456 23.379 23.3245 23.282 23.2516 23.2334 23.2272 </DataArray> 
<DataArray type="Float32" Name="gradient" format="ascii" NumberOfComponents="3"> 
-0.275868 -0.275868 0 4.50245 -0.276828 0 8.9055 -0.277798 0 12.9333 -0.278893 0 16.5858 -0.280224 0 19.863 -0.281907 0 22.7649 -0.284053 0 25.1434 -0.286749 0 26.6361 -0.289837 0 27.2266 -0.293037 0 26.9149 -0.296067 0 25.7009 -0.298645 0 23.5847 -0.300489 0 20.5428 -0.301327 0 16.4339 -0.30111 0 11.2345 -0.300013 0 4.94462 -0.298218 0 -2.43575 -0.295911 0 -10.9066 -0.293274 0 -20.4593 -0.290491 0 -30.903 -0.287622 0 -42.1595 -0.284488 0 -54.2289 -0.280882 0 -67.1111 -0.276599 0 -80.8063 -0.271431 0 -95.3143 -0.265173 0 -110.342 -0.257675 0 -125.595 -0.249019 0 -141.075 -0.239343 0 -156.781 -0.228785 0 -172.713 -0.217484 0 -188.872 -0.205578 0 -205.076 -0.193193 0 -220.889 -0.180348 0 -236.289 -0.167007 0 -251.276 -0.153134 0 -265.851 -0.138693 0 -280.013 -0.123646 0 -293.707 -0.107968 0 -306.593 -0.091897 0 -318.616 -0.0759308 0 -329.774 -0.0605794 0 -340.069 -0.0463527 0 -349.5 -0.0337606 0 -358.063 -0.0233099 0 -365.65 -0.0151303 0 -372.219 -0.00861886 0 -377.769 -0.00308849 0 -382.3 0.00214783 0 -385.812 0.00777717 0 -388.305 0.0144866 0 -389.836 0.0226992 0 -390.461 0.0317824 0 -390.179 0.0408398 0 -388.991 0.0489748 0 -386.897 0.055291 0 -383.897 0.0588918 0 -380.066 0.059007 0 -375.59 0.0559648 0 -370.478 0.0506589 0 -364.728 0.0439876 0 -358.342 0.0368496 0 -351.319 0.0301431 0 -343.697 0.0247414 0 -335.703 0.0209354 0 -327.374 0.0184344 0 -318.71 0.0169219 0 -309.712 0.0160819 0 -300.379 0.0155981 0 -290.72 0.0151551 0 -280.903 0.0145394 0 -270.998 0.0137354 0 -261.006 0.0127504 0 -250.926 0.0115915 0 -240.758 0.0102659 0 -230.502 0.00878079 0 -220.234 0.00715216 0 -210.029 0.00543113 0 -199.888 0.00367761 0 -189.81 0.00195152 0 -179.795 0.000312776 0 -169.844 -0.0011787 0 -159.971 -0.00246842 0 -150.217 -0.0035492 0 -140.582 -0.00443818 0 -131.066 -0.0051527 0 -121.67 -0.00571013 0 -112.393 -0.00612782 0 -103.234 -0.00642327 0 -94.1769 -0.00661763 0 -85.2207 -0.0067357 0 -76.365 -0.00680244 0 -67.6097 -0.0068428 0 -58.955 -0.00688174 0 -50.3989 -0.0069441 0 -41.9008 -0.00704178 0 -33.444 -0.00716155 0 -25.0285 -0.00728729 0 -16.6544 -0.00740286 0 -8.32163 -0.00749215 0 -0.0301951 -0.00753902 0 -0.276828 4.50245 0 4.53379 4.53379 0 8.9686 4.62907 0 13.0276 4.78735 0 16.7108 5.00769 0 20.0182 5.28916 0 22.9498 5.63081 0 25.3572 6.03157 0 26.8775 6.48923 0 27.4944 7.00098 0 27.2077 7.564 0 26.0176 8.17548 0 23.9239 8.83261 0 20.903 9.53252 0 16.8127 10.2713 0 11.6293 11.0439 0 5.35272 11.8452 0 -2.01697 12.6702 0 -10.4798 13.5138 0 -20.0271 14.371 0 -30.4681 15.2364 0 -41.7249 16.104 0 -53.7974 16.9681 0 -66.6857 17.8225 0 -80.3897 18.6615 0 -94.9095 19.4789 0 -109.951 20.2692 0 -125.222 21.0271 0 -140.721 21.7479 0 -156.449 22.4266 0 -172.406 23.0584 0 -188.591 23.6384 0 -204.825 24.1618 0 -220.667 24.6261 0 -236.097 25.0293 0 -251.116 25.3698 0 -265.724 25.6458 0 -279.92 25.8554 0 -293.647 25.9971 0 -306.567 26.0706 0 -318.623 26.0774 0 -329.814 26.0188 0 -340.141 25.8963 0 -349.604 25.7113 0 -358.197 25.4654 0 -365.814 25.1606 0 -372.41 24.8009 0 -377.984 24.39 0 -382.538 23.9321 0 -386.07 23.4309 0 -388.581 22.8904 0 -390.128 22.3147 0 -390.767 21.7075 0 -390.499 21.0729 0 -389.322 20.4148 0 -387.238 19.737 0 -384.246 19.0436 0 -380.422 18.3385 0 -375.95 17.6251 0 -370.84 16.907 0 -365.091 16.1875 0 -358.703 15.4701 0 -351.676 14.7581 0 -344.048 14.0549 0 -336.047 13.363 0 -327.71 12.6842 0 -319.039 12.02 0 -310.032 11.3722 0 -300.689 10.7424 0 -291.02 10.1322 0 -281.192 9.5429 0 -271.277 8.97506 0 -261.274 8.42916 0 -251.182 7.90567 0 -241.003 7.40505 0 -230.735 6.92778 0 -220.456 6.47421 0 -210.239 6.04415 0 -200.086 5.6373 0 -189.997 5.25334 0 -179.971 4.89198 0 -170.008 4.55289 0 -160.125 4.23577 0 -150.36 3.9401 0 -140.714 3.66531 0 -131.188 3.41083 0 -121.783 3.17606 0 -112.496 2.96045 0 -103.328 2.76339 0 -94.262 2.58438 0 -85.2971 2.42292 0 -76.433 2.27855 0 -67.6696 2.15078 0 -59.0069 2.03915 0 -50.4431 1.94317 0 -41.9374 1.86246 0 -33.4731 1.79681 0 -25.0503 1.74604 0 -16.6688 1.70997 0 -8.32885 1.68841 0 -0.0302743 1.68117 0 -0.277798 8.9055 0 4.62907 8.9686 0 9.15879 9.15879 0 13.3114 9.47435 0 17.0868 9.91355 0 20.4851 10.4747 0 23.5063 11.156 0 26.0011 11.9554 0 27.6047 12.8687 0 28.3005 13.89 0 28.0886 15.0138 0 26.9688 16.2342 0 24.9413 17.5457 0 21.9819 18.9424 0 17.946 20.4166 0 12.8096 21.9586 0 6.57246 23.5583 0 -0.765232 25.206 0 -9.20353 26.8918 0 -18.7338 28.6058 0 -29.1664 30.3375 0 -40.4238 32.075 0 -52.5059 33.8062 0 -65.4127 35.5191 0 -79.1443 37.2016 0 -93.7007 38.8418 0 -108.787 40.4278 0 -124.11 41.9497 0 -139.669 43.3975 0 -155.463 44.7615 0 -171.494 46.0319 0 -187.76 47.199 0 -204.081 48.2534 0 -220.014 49.1893 0 -235.537 50.0032 0 -250.652 50.6912 0 -265.358 51.2496 0 -279.655 51.6748 0 -293.485 51.9631 0 -306.507 52.1142 0 -318.662 52.1313 0 -329.95 52.0175 0 -340.372 51.7759 0 -349.927 51.4098 0 -358.61 50.9224 0 -366.312 50.3181 0 -372.987 49.604 0 -378.635 48.7875 0 -383.257 47.8758 0 -386.852 46.8765 0 -389.42 45.7967 0 -391.018 44.6441 0 -391.702 43.4271 0 -391.472 42.1543 0 -390.327 40.8342 0 -388.269 39.4756 0 -385.296 38.0869 0 -381.486 36.6767 0 -377.023 35.2519 0 -371.917 33.8188 0 -366.167 32.3835 0 -359.774 30.9523 0 -352.736 29.5313 0 -345.094 28.1267 0 -337.075 26.7434 0 -328.718 25.3851 0 -320.024 24.0553 0 -310.991 22.7577 0 -301.621 21.4957 0 -291.92 20.273 0 -282.061 19.0924 0 -272.113 17.9549 0 -262.076 16.8616 0 -251.951 15.8132 0 -241.737 14.8109 0 -231.434 13.8556 0 -221.118 12.9478 0 -210.867 12.0873 0 -200.679 11.2733 0 -190.556 10.5053 0 -180.496 9.78248 0 -170.5 9.10425 0 -160.584 8.46992 0 -150.787 7.87847 0 -141.111 7.32875 0 -131.555 6.81962 0 -122.12 6.34991 0 -112.806 5.91846 0 -103.61 5.52413 0 -94.5173 5.16587 0 -85.5265 4.84274 0 -76.637 4.55378 0 -67.8491 4.29807 0 -59.1625 4.07466 0 -50.5755 3.88261 0 -42.0471 3.72116 0 -33.5603 3.58988 0 -25.1153 3.48839 0 -16.712 3.4163 0 -8.35038 3.37322 0 -0.0304774 3.35877 0 -0.278893 12.9333 0 4.78735 13.0276 0 9.47435 13.3114 0 13.7821 13.7821 0 17.7106 14.4373 0 21.2599 15.2746 0 24.43 16.2914 0 27.0702 17.4849 0 28.8123 18.8486 0 29.6396 20.3741 0 29.5521 22.0533 0 28.5498 23.8776 0 26.6327 25.8388 0 23.776 27.9284 0 19.8312 30.135 0 14.7737 32.4441 0 8.60326 34.8411 0 1.32002 37.3115 0 -7.07605 39.8406 0 -16.5764 42.414 0 -26.9934 45.0159 0 -38.2502 47.6284 0 -50.3468 50.2335 0 -63.2832 52.8131 0 -77.0595 55.349 0 -91.6756 57.8233 0 -106.836 60.2183 0 -122.244 62.5186 0 -137.901 64.7094 0 -153.806 66.7759 0 -169.959 68.7032 0 -186.36 70.4764 0 -202.827 72.0814 0 -218.909 73.5093 0 -234.587 74.7545 0 -249.862 75.8109 0 -264.732 76.6728 0 -279.198 77.3344 0 -293.202 77.7899 0 -306.393 78.0389 0 -318.714 78.0859 0 -330.164 77.9355 0 -340.744 77.5925 0 -350.453 77.0617 0 -359.287 76.3477 0 -367.131 75.4572 0 -373.939 74.4007 0 -379.711 73.1892 0 -384.448 71.8335 0 -388.149 70.3446 0 -390.814 68.7333 0 -392.499 67.0111 0 -393.258 65.1906 0 -393.093 63.2849 0 -392.003 61.3073 0 -389.987 59.2708 0 -387.047 57.1887 0 -383.259 55.0737 0 -378.811 52.9363 0 -373.711 50.786 0 -367.961 48.6319 0 -361.558 46.4834 0 -354.504 44.3498 0 -346.838 42.2403 0 -338.79 40.1622 0 -330.401 38.1212 0 -321.668 36.1228 0 -312.593 34.1724 0 -303.176 32.2755 0 -293.424 30.4377 0 -283.512 28.663 0 -273.509 26.9533 0 -263.417 25.3099 0 -253.234 23.7343 0 -242.962 22.2279 0 -232.599 20.7921 0 -222.224 19.428 0 -211.914 18.1348 0 -201.669 16.9118 0 -191.488 15.7578 0 -181.372 14.6718 0 -171.321 13.6529 0 -161.351 12.7 0 -151.501 11.8116 0 -141.773 10.9859 0 -132.167 10.2212 0 -122.684 9.51582 0 -113.322 8.86792 0 -104.08 8.2758 0 -94.9432 7.73787 0 -85.909 7.25271 0 -76.9774 6.8189 0 -68.1484 6.43503 0 -59.4221 6.09966 0 -50.7965 5.8114 0 -42.23 5.56908 0 -33.7058 5.37206 0 -25.2237 5.21975 0 -16.7839 5.11157 0 -8.38626 5.04693 0 -0.030813 5.02525 0 -0.280224 16.5858 0 5.00769 16.7108 0 9.91355 17.0868 0 14.4373 17.7106 0 18.5791 18.5791 0 22.3387 19.689 0 25.7163 21.0371 0 28.5594 22.6199 0 30.495 24.4288 0 31.5062 26.4533 0 31.593 28.6825 0 30.7555 31.1056 0 28.9936 33.7119 0 26.2817 36.4905 0 22.4657 39.4263 0 17.52 42.5004 0 11.4445 45.6936 0 4.23935 48.9866 0 -4.09554 52.3604 0 -13.5518 55.7955 0 -23.9445 59.2714 0 -35.1981 62.7642 0 -47.3127 66.25 0 -60.2882 69.7045 0 -74.1246 73.1037 0 -88.8219 76.4235 0 -104.082 79.6405 0 -119.609 82.734 0 -135.401 85.6838 0 -151.459 88.4698 0 -167.782 91.0721 0 -184.371 93.4705 0 -201.04 95.6459 0 -217.332 97.5861 0 -233.227 99.2832 0 -248.725 100.729 0 -263.825 101.915 0 -278.529 102.834 0 -292.775 103.478 0 -306.206 103.845 0 -318.76 103.941 0 -330.439 103.773 0 -341.241 103.346 0 -351.168 102.667 0 -360.213 101.741 0 -368.258 100.578 0 -375.255 99.191 0 -381.203 97.5952 0 -386.102 95.805 0 -389.953 93.8351 0 -392.755 91.7003 0 -394.563 89.4155 0 -395.43 86.9979 0 -395.358 84.4649 0 -394.345 81.834 0 -392.391 79.1229 0 -389.497 76.3489 0 -385.742 73.5293 0 -381.315 70.6783 0 -376.226 67.8085 0 -370.474 64.9327 0 -364.06 62.0635 0 -356.984 59.2136 0 -349.284 56.3955 0 -341.197 53.6194 0 -332.76 50.8925 0 -323.975 48.2224 0 -314.841 45.6164 0 -305.358 43.0819 0 -295.534 40.6261 0 -285.547 38.2548 0 -275.468 35.9702 0 -265.297 33.7743 0 -255.034 31.6689 0 -244.68 29.656 0 -234.234 27.7374 0 -223.776 25.9146 0 -213.383 24.1868 0 -203.057 22.5527 0 -192.796 21.0108 0 -182.601 19.56 0 -172.472 18.1988 0 -162.426 16.926 0 -152.501 15.7394 0 -142.701 14.6367 0 -133.025 13.6156 0 -123.473 12.6738 0 -114.045 11.8088 0 -104.739 11.0184 0 -95.5401 10.3004 0 -86.4451 9.65284 0 -77.4543 9.0739 0 -68.5679 8.56164 0 -59.7857 8.11415 0 -51.1059 7.72953 0 -42.4863 7.40621 0 -33.9095 7.14334 0 -25.3756 6.94013 0 -16.8846 6.7958 0 -8.43652 6.70956 0 -0.0312898 6.68062 0 -0.281907 19.863 0 5.28916 20.0182 0 10.4747 20.4851 0 15.2746 21.2599 0 19.689 22.3387 0 23.7178 23.7178 0 27.361 25.3931 0 30.4638 27.3604 0 32.6475 29.6095 0 33.895 32.1275 0 34.2062 34.9014 0 33.5812 37.9182 0 32.0199 41.165 0 29.4955 44.6286 0 25.8467 48.2907 0 21.0468 52.1276 0 15.0957 56.1158 0 7.99334 60.2315 0 -0.260167 64.4509 0 -9.65664 68.7504 0 -20.0151 73.1041 0 -31.2616 77.4825 0 -43.396 81.8556 0 -56.4185 86.1933 0 -70.3289 90.4656 0 -85.1273 94.6425 0 -100.514 98.6946 0 -116.189 102.596 0 -132.153 106.32 0 -148.405 109.843 0 -164.945 113.139 0 -181.774 116.181 0 -198.702 118.947 0 -215.262 121.42 0 -231.435 123.589 0 -247.22 125.446 0 -262.617 126.977 0 -277.626 128.174 0 -292.186 129.026 0 -305.925 129.532 0 -318.781 129.697 0 -330.755 129.53 0 -341.846 129.037 0 -352.055 128.226 0 -361.375 127.103 0 -369.682 125.68 0 -376.923 123.975 0 -383.099 122.005 0 -388.21 119.79 0 -392.256 117.348 0 -395.236 114.698 0 -397.205 111.857 0 -398.213 108.849 0 -398.261 105.694 0 -397.349 102.414 0 -395.478 99.0317 0 -392.646 95.5677 0 -388.934 92.0438 0 -384.537 88.4779 0 -379.462 84.8865 0 -373.711 81.286 0 -367.283 77.6926 0 -360.178 74.1227 0 -352.436 70.5926 0 -344.297 67.1149 0 -335.801 63.699 0 -326.948 60.3543 0 -317.737 57.0898 0 -308.17 53.9147 0 -298.253 50.8384 0 -288.169 47.8677 0 -277.991 45.0057 0 -267.719 42.2546 0 -257.354 39.617 0 -246.894 37.0951 0 -236.341 34.6915 0 -225.775 32.4079 0 -215.276 30.2432 0 -204.845 28.196 0 -194.481 26.2644 0 -184.184 24.447 0 -173.955 22.7421 0 -163.81 21.1479 0 -153.79 19.6619 0 -143.896 18.2813 0 -134.13 17.0029 0 -124.49 15.8238 0 -114.977 14.7412 0 -105.588 13.7519 0 -96.3083 12.8534 0 -87.1349 12.0431 0 -78.0681 11.3188 0 -69.1076 10.6779 0 -60.2536 10.1181 0 -51.5041 9.63699 0 -42.816 9.23255 0 -34.1716 8.90372 0 -25.5711 8.64953 0 -17.0142 8.46898 0 -8.50119 8.36108 0 -0.0319168 8.32487 0 -0.284053 22.7649 0 5.63081 22.9498 0 11.156 23.5063 0 16.2914 24.43 0 21.0371 25.7163 0 25.3931 27.361 0 29.3594 29.3594 0 32.7784 31.7065 0 35.2646 34.3906 0 36.8006 37.3967 0 37.3863 40.71 0 37.0219 44.3155 0 35.7071 48.1981 0 33.4138 52.3428 0 29.9717 56.728 0 25.3525 61.3257 0 19.5561 66.1077 0 12.5826 71.046 0 4.43187 76.1124 0 -4.88795 81.2786 0 -15.2008 86.514 0 -26.4346 91.7833 0 -38.5894 97.0505 0 -51.6651 102.28 0 -65.6619 107.435 0 -80.5796 112.48 0 -96.1161 117.38 0 -111.969 122.104 0 -128.139 126.619 0 -144.626 130.896 0 -161.429 134.903 0 -178.549 138.609 0 -195.791 141.984 0 -212.679 145.01 0 -229.191 147.673 0 -245.326 149.96 0 -261.086 151.859 0 -276.47 153.355 0 -291.413 154.436 0 -305.531 155.1 0 -318.758 155.354 0 -331.095 155.206 0 -342.542 154.664 0 -353.099 153.738 0 -362.759 152.433 0 -371.388 150.765 0 -378.932 148.753 0 -385.39 146.42 0 -390.763 143.79 0 -395.049 140.884 0 -398.25 137.725 0 -400.416 134.337 0 -401.599 130.744 0 -401.798 126.973 0 -401.013 123.048 0 -399.244 118.997 0 -396.492 114.845 0 -392.837 110.617 0 -388.478 106.335 0 -383.424 102.02 0 -377.674 97.6917 0 -371.23 93.3706 0 -364.09 89.0771 0 -356.296 84.8313 0 -348.094 80.6487 0 -339.525 76.5407 0 -330.589 72.5183 0 -321.285 68.5924 0 -311.614 64.7741 0 -301.584 61.0744 0 -291.381 57.5018 0 -281.082 54.0596 0 -270.687 50.7509 0 -260.195 47.5785 0 -249.607 44.5454 0 -238.923 41.6544 0 -228.224 38.9077 0 -217.595 36.3041 0 -207.036 33.8417 0 -196.545 31.5186 0 -186.123 29.3328 0 -175.771 27.2826 0 -165.505 25.3657 0 -155.367 23.5792 0 -145.359 21.9195 0 -135.482 20.3829 0 -125.734 18.966 0 -116.117 17.6649 0 -106.627 16.4763 0 -97.2482 15.3969 0 -87.9789 14.4236 0 -78.8188 13.5536 0 -69.7678 12.7839 0 -60.8259 12.1116 0 -51.9911 11.5338 0 -43.2193 11.0481 0 -34.4922 10.6532 0 -25.8101 10.3479 0 -17.1728 10.1311 0 -8.58031 10.0015 0 -0.0327025 9.95801 0 -0.286749 25.1434 0 6.03157 25.3572 0 11.9554 26.0011 0 17.4849 27.0702 0 22.6199 28.5594 0 27.3604 30.4638 0 31.7065 32.7784 0 35.4974 35.4974 0 38.3401 38.6078 0 40.2167 42.0931 0 41.1272 45.9366 0 41.0717 50.1216 0 40.0501 54.6315 0 38.0322 59.4493 0 34.8371 64.5505 0 30.4345 69.9031 0 24.8245 75.4746 0 18.0069 81.2327 0 9.98197 87.1451 0 0.757281 93.1793 0 -9.49689 99.3 0 -20.7109 105.466 0 -32.8847 111.636 0 -46.0184 117.767 0 -60.1119 123.819 0 -75.1652 129.748 0 -90.8737 135.515 0 -106.933 141.082 0 -123.342 146.412 0 -140.103 151.468 0 -157.214 156.213 0 -174.675 160.611 0 -192.287 164.625 0 -209.559 168.235 0 -226.471 171.422 0 -243.02 174.172 0 -259.209 176.469 0 -275.036 178.296 0 -290.434 179.637 0 -305.001 180.489 0 -318.669 180.861 0 -331.439 180.761 0 -343.309 180.198 0 -354.281 179.181 0 -364.348 177.718 0 -373.364 175.824 0 -381.27 173.524 0 -388.065 170.846 0 -393.75 167.815 0 -398.324 164.459 0 -401.788 160.804 0 -404.191 156.877 0 -405.583 152.708 0 -405.963 148.327 0 -405.332 143.764 0 -403.689 139.047 0 -401.034 134.209 0 -397.451 129.277 0 -393.141 124.278 0 -388.113 119.237 0 -382.368 114.178 0 -375.905 109.125 0 -368.725 104.104 0 -360.87 99.1379 0 -352.593 94.2458 0 -343.937 89.4408 0 -334.901 84.7357 0 -325.487 80.1435 0 -315.693 75.6771 0 -305.529 71.3492 0 -295.186 67.1699 0 -284.744 63.143 0 -274.203 59.2722 0 -263.561 55.5609 0 -252.821 52.0124 0 -241.98 48.6302 0 -231.126 45.4169 0 -220.343 42.371 0 -209.631 39.4905 0 -198.99 36.7731 0 -188.42 34.2165 0 -177.922 31.8187 0 -167.513 29.5772 0 -157.235 27.4884 0 -147.092 25.5481 0 -137.082 23.752 0 -127.207 22.096 0 -117.466 20.5757 0 -107.855 19.1869 0 -98.3602 17.9258 0 -88.9774 16.789 0 -79.7069 15.7728 0 -70.5487 14.8739 0 -61.5028 14.0889 0 -52.5671 13.4142 0 -43.6962 12.8471 0 -34.8714 12.386 0 -26.0928 12.0295 0 -17.3603 11.7763 0 -8.6739 11.625 0 -0.0336546 11.5742 0 -0.289837 26.6361 0 6.48923 26.8775 0 12.8687 27.6047 0 18.8486 28.8123 0 24.4288 30.495 0 29.6095 32.6475 0 34.3906 35.2646 0 38.6078 38.3401 0 41.86 41.86 0 44.1287 45.8064 0 45.414 50.1615 0 45.716 54.9073 0 45.0345 60.0259 0 43.3374 65.4989 0 40.4308 71.2995 0 36.2826 77.3919 0 30.8927 83.7403 0 24.2611 90.3087 0 16.3879 97.0611 0 7.28033 103.962 0 -2.89841 110.97 0 -14.0817 118.041 0 -26.2694 125.125 0 -39.4616 132.176 0 -53.6583 139.146 0 -68.8596 145.987 0 -84.7582 152.653 0 -101.047 159.1 0 -117.727 165.285 0 -134.797 171.165 0 -152.257 176.697 0 -170.108 181.837 0 -188.143 186.545 0 -205.857 190.794 0 -223.228 194.563 0 -240.255 197.834 0 -256.938 200.587 0 -273.278 202.801 0 -289.203 204.46 0 -304.291 205.556 0 -318.472 206.099 0 -331.744 206.098 0 -344.11 205.562 0 -355.567 204.5 0 -366.109 202.922 0 -375.578 200.842 0 -383.907 198.291 0 -391.098 195.3 0 -397.149 191.898 0 -402.062 188.116 0 -405.835 183.985 0 -408.517 179.537 0 -410.155 174.805 0 -410.75 169.823 0 -410.301 164.627 0 -408.808 159.25 0 -406.272 153.727 0 -402.776 148.092 0 -398.526 142.376 0 -393.533 136.606 0 -387.795 130.813 0 -381.314 125.025 0 -374.088 119.27 0 -366.162 113.576 0 -357.799 107.967 0 -349.043 102.456 0 -339.893 97.0586 0 -330.351 91.7902 0 -320.416 86.6655 0 -310.096 81.6994 0 -299.592 76.9036 0 -288.984 72.2827 0 -278.273 67.8407 0 -267.459 63.5818 0 -256.542 59.51 0 -245.521 55.6292 0 -234.485 51.9425 0 -223.523 48.4483 0 -212.634 45.1441 0 -201.82 42.0275 0 -191.078 39.0957 0 -180.411 36.3464 0 -169.835 33.7767 0 -159.396 31.3825 0 -149.095 29.1589 0 -138.933 27.101 0 -128.91 25.2038 0 -119.025 23.4624 0 -109.276 21.872 0 -99.6454 20.428 0 -90.1311 19.1265 0 -80.7329 17.9633 0 -71.4508 16.9346 0 -62.2847 16.0362 0 -53.2325 15.2642 0 -44.2471 14.6153 0 -35.3094 14.0877 0 -26.4193 13.6799 0 -17.5768 13.3902 0 -8.782 13.2171 0 -0.0347716 13.159 0 -0.293037 27.2266 0 7.00098 27.4944 0 13.89 28.3005 0 20.3741 29.6396 0 26.4533 31.5062 0 32.1275 33.895 0 37.3967 36.8006 0 42.0931 40.2167 0 45.8064 44.1287 0 48.5179 48.5179 0 50.2277 53.3656 0 50.9356 58.653 0 50.6418 64.3612 0 49.3115 70.4711 0 46.7366 76.9539 0 42.8826 83.7709 0 37.7494 90.8833 0 31.337 98.2521 0 23.6454 105.838 0 14.6816 113.603 0 4.59984 121.503 0 -6.53684 129.485 0 -18.7284 137.497 0 -31.9749 145.485 0 -46.2763 153.396 0 -61.6326 161.176 0 -77.7347 168.774 0 -94.2735 176.139 0 -111.249 183.22 0 -128.661 189.97 0 -146.51 196.337 0 -164.796 202.272 0 -183.305 207.729 0 -201.516 212.673 0 -219.404 217.083 0 -236.971 220.933 0 -254.215 224.202 0 -271.137 226.864 0 -287.663 228.897 0 -303.346 230.293 0 -318.112 231.062 0 -331.962 231.212 0 -344.894 230.753 0 -356.91 229.694 0 -368.001 228.043 0 -377.991 225.819 0 -386.811 223.054 0 -394.458 219.782 0 -400.934 216.038 0 -406.239 211.857 0 -410.372 207.272 0 -413.378 202.319 0 -415.305 197.036 0 -416.15 191.464 0 -415.915 185.641 0 -414.599 179.607 0 -412.203 173.403 0 -408.812 167.065 0 -404.636 160.631 0 -399.686 154.132 0 -393.96 147.601 0 -387.46 141.072 0 -380.185 134.578 0 -372.181 128.15 0 -363.721 121.814 0 -354.853 115.588 0 -345.575 109.489 0 -335.888 103.534 0 -325.792 97.7412 0 -315.296 92.1267 0 -304.608 86.7043 0 -293.812 81.4797 0 -282.908 76.4573 0 -271.896 71.6421 0 -260.777 67.0387 0 -249.551 62.6518 0 -238.308 58.4848 0 -227.142 54.536 0 -216.052 50.8027 0 -205.039 47.2817 0 -194.102 43.9703 0 -183.241 40.8654 0 -172.476 37.964 0 -161.852 35.2612 0 -151.373 32.7516 0 -141.037 30.4293 0 -130.844 28.2889 0 -120.796 26.3247 0 -110.889 24.5311 0 -101.105 22.9029 0 -91.4411 21.4356 0 -81.8977 20.1246 0 -72.4747 18.9652 0 -63.172 17.9529 0 -53.9875 17.0831 0 -44.8723 16.3521 0 -35.8064 15.7578 0 -26.7898 15.2985 0 -17.8225 14.9723 0 -8.90462 14.7773 0 -0.0360469 14.7119 0 -0.296067 26.9149 0 7.564 27.2077 0 15.0138 28.0886 0 22.0533 29.5521 0 28.6825 31.593 0 34.9014 34.2062 0 40.71 37.3863 0 45.9366 41.1272 0 50.1615 45.414 0 53.3656 50.2277 0 55.5489 55.5489 0 56.7114 61.3586 0 56.8531 67.6375 0 55.9367 74.366 0 53.7382 81.5138 0 50.2203 89.0401 0 45.383 96.9035 0 39.2264 105.063 0 31.7504 113.477 0 22.9615 122.104 0 13.0031 130.897 0 1.93363 139.799 0 -10.2468 148.751 0 -23.5382 157.693 0 -37.9406 166.568 0 -53.454 175.315 0 -69.7677 183.877 0 -86.5713 192.197 0 -103.865 200.218 0 -121.648 207.882 0 -139.921 215.134 0 -158.684 221.917 0 -177.716 228.176 0 -196.476 233.874 0 -214.94 238.981 0 -233.108 243.471 0 -250.98 247.314 0 -268.556 250.482 0 -285.757 252.948 0 -302.11 254.701 0 -317.538 255.75 0 -332.04 256.103 0 -345.615 255.771 0 -358.265 254.761 0 -369.979 253.083 0 -380.566 250.755 0 -389.944 247.812 0 -398.115 244.294 0 -405.077 240.237 0 -410.832 235.681 0 -415.379 230.663 0 -418.761 225.222 0 -421.02 219.402 0 -422.156 213.249 0 -422.169 206.807 0 -421.059 200.121 0 -418.826 193.236 0 -415.559 186.197 0 -411.471 179.043 0 -406.574 171.813 0 -400.867 164.541 0 -394.35 157.267 0 -387.023 150.027 0 -378.934 142.858 0 -370.369 135.788 0 -361.377 128.838 0 -351.956 122.028 0 -342.108 115.376 0 -331.832 108.904 0 -321.139 102.631 0 -310.244 96.5722 0 -299.236 90.7341 0 -288.115 85.1221 0 -276.882 79.7418 0 -265.536 74.5986 0 -254.077 69.698 0 -242.602 65.0438 0 -231.206 60.6343 0 -219.89 56.4661 0 -208.653 52.5359 0 -197.495 48.8402 0 -186.417 45.3758 0 -175.438 42.139 0 -164.607 39.1246 0 -153.926 36.3261 0 -143.395 33.7371 0 -133.013 31.3514 0 -122.781 29.1625 0 -112.696 27.1641 0 -102.74 25.3504 0 -92.9083 23.7163 0 -83.2021 22.2565 0 -73.6211 20.9658 0 -64.1654 19.839 0 -54.8326 18.871 0 -45.5719 18.0575 0 -36.3625 17.3963 0 -27.2043 16.8853 0 -18.0974 16.5224 0 -9.04181 16.3055 0 -0.0374741 16.2327 0 -0.298645 25.7009 0 8.17548 26.0176 0 16.2342 26.9688 0 23.8776 28.5498 0 31.1056 30.7555 0 37.9182 33.5812 0 44.3155 37.0219 0 50.1216 41.0717 0 54.9073 45.716 0 58.653 50.9356 0 61.3586 56.7114 0 63.0242 63.0242 0 63.6498 69.8548 0 63.1951 77.1835 0 61.419 84.9792 0 58.2814 93.1994 0 53.7821 101.801 0 47.9212 110.741 0 40.6987 119.976 0 32.1205 129.464 0 22.3165 139.153 0 11.3398 148.983 0 -0.809508 158.887 0 -14.1315 168.801 0 -28.6262 178.662 0 -44.2935 188.404 0 -60.8223 197.963 0 -77.9013 207.276 0 -95.5305 216.277 0 -113.71 224.902 0 -132.44 233.088 0 -151.719 240.771 0 -171.32 247.887 0 -190.681 254.395 0 -209.778 260.259 0 -228.609 265.447 0 -247.174 269.924 0 -265.475 273.657 0 -283.427 276.613 0 -300.529 278.779 0 -316.695 280.162 0 -331.927 280.772 0 -346.224 280.616 0 -359.586 279.702 0 -372.004 278.04 0 -383.262 275.648 0 -393.272 272.566 0 -402.035 268.834 0 -409.551 264.495 0 -415.818 259.589 0 -420.838 254.159 0 -424.649 248.247 0 -427.289 241.903 0 -428.758 235.178 0 -429.056 228.123 0 -428.184 220.789 0 -426.14 213.227 0 -423.017 205.487 0 -419.033 197.614 0 -414.201 189.649 0 -408.519 181.634 0 -401.989 173.61 0 -394.608 165.619 0 -386.429 157.701 0 -377.751 149.889 0 -368.623 142.206 0 -359.047 134.674 0 -349.022 127.316 0 -338.547 120.155 0 -327.634 113.212 0 -316.51 106.507 0 -305.267 100.046 0 -293.905 93.835 0 -282.425 87.8809 0 -270.826 82.1897 0 -259.108 76.7677 0 -247.373 71.6196 0 -235.721 66.7431 0 -224.151 62.1344 0 -212.665 57.7898 0 -201.262 53.7055 0 -189.942 49.8775 0 -178.726 46.3019 0 -167.664 42.9726 0 -156.759 39.8824 0 -146.01 37.0243 0 -135.418 34.3911 0 -124.982 31.9757 0 -114.7 29.7711 0 -104.551 27.7706 0 -94.5336 25.9686 0 -84.6468 24.3591 0 -74.8907 22.9363 0 -65.2653 21.6945 0 -55.7682 20.6278 0 -46.3464 19.7316 0 -36.978 19.0031 0 -27.6631 18.4402 0 -18.4016 18.0406 0 -9.19359 17.8018 0 -0.0390466 17.7216 0 -0.300489 23.5847 0 8.83261 23.9239 0 17.5457 24.9413 0 25.8388 26.6327 0 33.7119 28.9936 0 41.165 32.0199 0 48.1981 35.7071 0 54.6315 40.0501 0 60.0259 45.0345 0 64.3612 50.6418 0 67.6375 56.8531 0 69.8548 63.6498 0 71.013 71.013 0 71.069 78.9236 0 69.7629 87.3501 0 67.0516 96.2488 0 62.9351 105.576 0 57.4132 115.286 0 50.4861 125.337 0 42.1589 135.683 0 32.5453 146.272 0 21.6918 157.036 0 9.59846 167.905 0 -3.7348 178.809 0 -18.308 189.679 0 -34.121 200.443 0 -50.8631 211.032 0 -68.2236 221.374 0 -86.2023 231.398 0 -104.799 241.03 0 -124.015 250.199 0 -143.848 258.833 0 -164.062 266.862 0 -184.074 274.237 0 -203.857 280.916 0 -223.412 286.861 0 -242.739 292.032 0 -261.837 296.388 0 -280.618 299.892 0 -298.545 302.527 0 -315.53 304.3 0 -331.572 305.217 0 -346.671 305.287 0 -360.828 304.517 0 -374.031 302.916 0 -386.041 300.501 0 -396.76 297.315 0 -406.189 293.403 0 -414.327 288.81 0 -421.174 283.581 0 -426.73 277.76 0 -431.029 271.394 0 -434.102 264.539 0 -435.95 257.252 0 -436.573 249.591 0 -435.971 241.613 0 -434.144 233.375 0 -431.185 224.935 0 -427.323 216.342 0 -422.569 207.641 0 -416.921 198.879 0 -410.381 190.101 0 -402.948 181.353 0 -394.674 172.679 0 -385.875 164.117 0 -376.603 155.691 0 -366.857 147.428 0 -356.639 139.353 0 -345.947 131.492 0 -334.793 123.871 0 -323.416 116.509 0 -311.913 109.415 0 -300.285 102.596 0 -288.532 96.0594 0 -276.654 89.812 0 -264.65 83.8611 0 -252.627 78.2121 0 -240.692 72.8623 0 -228.843 67.8077 0 -217.082 63.0437 0 -205.408 58.5661 0 -193.821 54.3706 0 -182.342 50.4525 0 -171.025 46.8052 0 -159.873 43.4206 0 -148.884 40.2909 0 -138.06 37.4082 0 -127.4 34.7645 0 -116.9 32.352 0 -106.541 30.1635 0 -96.3182 28.1924 0 -86.2326 26.4324 0 -76.2839 24.8769 0 -66.4721 23.5194 0 -56.7947 22.3536 0 -47.196 21.3742 0 -37.6531 20.5783 0 -28.1662 19.9634 0 -18.7351 19.5268 0 -9.35998 19.2661 0 -0.0407579 19.1785 0 -0.301327 20.5428 0 9.53252 20.903 0 18.9424 21.9819 0 27.9284 23.776 0 36.4905 26.2817 0 44.6286 29.4955 0 52.3428 33.4138 0 59.4493 38.0322 0 65.4989 43.3374 0 70.4711 49.3115 0 74.366 55.9367 0 77.1835 63.1951 0 78.9236 71.069 0 79.5399 79.5399 0 78.7529 88.5765 0 76.5163 98.1349 0 72.8299 108.17 0 67.6937 118.638 0 61.1079 129.494 0 53.0766 140.693 0 43.6942 152.18 0 32.9992 163.884 0 20.9916 175.727 0 7.67148 187.635 0 -6.96122 199.533 0 -22.9065 211.346 0 -39.8553 222.996 0 -57.4985 234.405 0 -75.8362 245.493 0 -94.8684 256.179 0 -114.595 266.382 0 -135.016 276.022 0 -155.884 285.022 0 -176.594 293.324 0 -197.119 300.881 0 -217.459 307.648 0 -237.613 313.577 0 -257.582 318.622 0 -277.27 322.738 0 -296.104 325.905 0 -313.989 328.128 0 -330.923 329.412 0 -346.908 329.765 0 -361.944 329.192 0 -376.018 327.7 0 -388.863 325.308 0 -400.372 322.061 0 -410.543 318.007 0 -419.378 313.194 0 -426.875 307.67 0 -433.035 301.483 0 -437.884 294.683 0 -441.446 287.333 0 -443.723 279.496 0 -444.713 271.237 0 -444.417 262.62 0 -442.836 253.71 0 -440.065 244.571 0 -436.343 235.256 0 -431.68 225.817 0 -426.077 216.302 0 -419.532 206.764 0 -412.047 197.25 0 -403.677 187.812 0 -394.751 178.489 0 -385.324 169.31 0 -375.397 160.305 0 -364.97 151.501 0 -354.042 142.929 0 -342.625 134.617 0 -330.971 126.587 0 -319.185 118.85 0 -307.266 111.412 0 -295.214 104.283 0 -283.029 97.4703 0 -270.711 90.9821 0 -258.373 84.8243 0 -246.126 78.9943 0 -233.971 73.4871 0 -221.907 68.298 0 -209.936 63.422 0 -198.056 58.8543 0 -186.29 54.5897 0 -174.694 50.6207 0 -163.271 46.9386 0 -152.02 43.5347 0 -140.942 40.4001 0 -130.036 37.5261 0 -119.299 34.9041 0 -108.709 32.5261 0 -98.2629 30.3849 0 -87.9605 28.4733 0 -77.8017 26.7843 0 -67.7865 25.3106 0 -57.9125 24.0452 0 -48.1209 22.9823 0 -38.388 22.1187 0 -28.7137 21.4516 0 -19.0981 20.978 0 -9.54102 20.6952 0 -0.0426032 20.6003 0 -0.30111 16.4339 0 10.2713 16.8127 0 20.4166 17.946 0 30.135 19.8312 0 39.4263 22.4657 0 48.2907 25.8467 0 56.728 29.9717 0 64.5505 34.8371 0 71.2995 40.4308 0 76.9539 46.7366 0 81.5138 53.7382 0 84.9792 61.419 0 87.3501 69.7629 0 88.5765 78.7529 0 88.3587 88.3587 0 86.6466 98.5366 0 83.4403 109.242 0 78.7397 120.432 0 72.5449 132.06 0 64.8592 144.084 0 55.7539 156.447 0 45.2584 169.073 0 33.3726 181.88 0 20.0967 194.79 0 5.43044 207.722 0 -10.626 220.597 0 -27.7671 233.333 0 -45.6873 245.843 0 -64.3865 258.038 0 -83.8648 269.828 0 -104.122 281.126 0 -125.159 291.841 0 -146.717 301.889 0 -168.169 311.203 0 -189.486 319.728 0 -210.668 327.412 0 -231.715 334.198 0 -252.626 340.034 0 -273.3 344.865 0 -293.123 348.667 0 -311.99 351.442 0 -329.903 353.193 0 -346.861 353.925 0 -362.864 353.64 0 -377.9 352.343 0 -391.67 350.051 0 -404.054 346.814 0 -415.051 342.682 0 -424.661 337.707 0 -432.885 331.939 0 -439.721 325.43 0 -445.188 318.235 0 -449.301 310.421 0 -452.06 302.06 0 -453.465 293.223 0 -453.516 283.981 0 -452.213 274.406 0 -449.657 264.568 0 -446.097 254.527 0 -441.543 244.338 0 -435.996 234.058 0 -429.456 223.742 0 -421.922 213.445 0 -413.452 203.222 0 -404.394 193.118 0 -394.804 183.164 0 -384.683 173.394 0 -374.031 163.841 0 -362.848 154.537 0 -351.145 145.514 0 -339.192 136.797 0 -327.097 128.398 0 -314.86 120.325 0 -302.482 112.587 0 -289.963 105.194 0 -277.302 98.1544 0 -264.618 91.4746 0 -252.031 85.1519 0 -239.542 79.1809 0 -227.149 73.5562 0 -214.853 68.2725 0 -202.654 63.3244 0 -190.575 58.7061 0 -178.676 54.4094 0 -166.958 50.4246 0 -155.421 46.742 0 -144.067 43.3519 0 -132.894 40.2447 0 -121.898 37.4107 0 -111.058 34.8411 0 -100.369 32.5281 0 -89.8312 30.4638 0 -79.4445 28.6402 0 -69.209 27.0496 0 -59.1219 25.6841 0 -49.1216 24.5373 0 -39.183 23.6057 0 -29.3059 22.8861 0 -19.4905 22.3755 0 -9.73676 22.0706 0 -0.0446162 21.9682 0 -0.300013 11.2345 0 11.0439 11.6293 0 21.9586 12.8096 0 32.4441 14.7737 0 42.5004 17.52 0 52.1276 21.0468 0 61.3257 25.3525 0 69.9031 30.4345 0 77.3919 36.2826 0 83.7709 42.8826 0 89.0401 50.2203 0 93.1994 58.2814 0 96.2488 67.0516 0 98.1349 76.5163 0 98.5366 86.6466 0 97.4003 97.4003 0 94.7261 108.734 0 90.514 120.606 0 84.764 132.972 0 77.478 145.789 0 68.7015 159.001 0 58.453 172.528 0 46.7324 186.287 0 33.5397 200.192 0 18.8751 214.162 0 2.73833 228.112 0 -14.5706 241.956 0 -32.7519 255.599 0 -51.8055 268.944 0 -71.7315 281.892 0 -92.5298 294.346 0 -114.2 306.208 0 -136.477 317.384 0 -158.706 327.798 0 -180.86 337.387 0 -202.937 346.087 0 -224.937 353.836 0 -246.862 360.57 0 -268.6 366.226 0 -289.492 370.773 0 -309.428 374.209 0 -328.407 376.533 0 -346.43 377.746 0 -363.496 377.846 0 -379.591 376.834 0 -394.382 374.727 0 -407.734 371.576 0 -419.646 367.434 0 -430.119 362.358 0 -439.151 356.401 0 -446.745 349.619 0 -452.904 342.07 0 -457.635 333.827 0 -460.937 324.97 0 -462.81 315.577 0 -463.255 305.724 0 -462.271 295.491 0 -459.964 284.955 0 -456.594 274.182 0 -452.171 263.234 0 -446.697 252.173 0 -440.171 241.061 0 -432.593 229.959 0 -424.023 218.929 0 -414.827 208.02 0 -405.066 197.269 0 -394.739 186.712 0 -383.846 176.386 0 -372.387 166.327 0 -360.376 156.572 0 -348.097 147.149 0 -335.667 138.068 0 -323.086 129.342 0 -310.354 120.978 0 -297.47 112.989 0 -284.436 105.382 0 -271.378 98.1659 0 -258.422 91.3373 0 -245.568 84.8903 0 -232.817 78.819 0 -220.169 73.1175 0 -207.623 67.7801 0 -195.204 62.8004 0 -182.975 58.1694 0 -170.937 53.8764 0 -159.091 49.9105 0 -147.437 46.2611 0 -135.975 42.9175 0 -124.701 39.8689 0 -113.59 37.1057 0 -102.638 34.6192 0 -91.8461 32.4007 0 -81.2135 30.4417 0 -70.7403 28.7333 0 -60.4236 27.2671 0 -50.1984 26.036 0 -40.0382 25.0361 0 -29.9429 24.2639 0 -19.9126 23.716 0 -9.94727 23.3889 0 -0.0468694 23.279 0 -0.298218 4.94462 0 11.8452 5.35272 0 23.5583 6.57246 0 34.8411 8.60326 0 45.6936 11.4445 0 56.1158 15.0957 0 66.1077 19.5561 0 75.4746 24.8245 0 83.7403 30.8927 0 90.8833 37.7494 0 96.9035 45.383 0 101.801 53.7821 0 105.576 62.9351 0 108.17 72.8299 0 109.242 83.4403 0 108.734 94.7261 0 106.647 106.647 0 102.979 119.161 0 97.731 132.228 0 90.904 145.806 0 82.5136 159.842 0 72.5659 174.25 0 61.0612 188.946 0 47.9993 203.842 0 33.3803 218.852 0 17.2042 233.889 0 -0.237771 248.865 0 -18.6543 263.674 0 -38.0453 278.212 0 -58.4108 292.37 0 -79.7509 306.043 0 -102.066 319.123 0 -125.078 331.507 0 -148.114 343.109 0 -171.142 353.857 0 -194.163 363.675 0 -217.176 372.491 0 -240.18 380.23 0 -263.06 386.821 0 -285.103 392.222 0 -306.194 396.428 0 -326.331 399.431 0 -345.514 401.228 0 -363.744 401.811 0 -381.004 401.175 0 -396.92 399.335 0 -411.341 396.345 0 -424.265 392.263 0 -435.693 387.148 0 -445.625 381.057 0 -454.06 374.049 0 -460.993 366.187 0 -466.416 357.551 0 -470.328 348.226 0 -472.731 338.298 0 -473.623 327.849 0 -473.005 316.966 0 -470.988 305.733 0 -467.841 294.222 0 -463.577 282.504 0 -458.196 270.647 0 -451.697 258.72 0 -444.081 246.793 0 -435.412 234.934 0 -426.074 223.198 0 -416.132 211.626 0 -405.586 200.258 0 -394.436 189.136 0 -382.681 178.301 0 -370.336 167.792 0 -357.706 157.641 0 -344.913 147.861 0 -331.96 138.462 0 -318.844 129.456 0 -305.568 120.853 0 -292.13 112.665 0 -278.665 104.898 0 -265.309 97.5506 0 -252.062 90.6153 0 -238.923 84.0862 0 -225.893 77.957 0 -212.971 72.2214 0 -200.185 66.8727 0 -187.598 61.9009 0 -175.215 57.294 0 -163.034 53.0403 0 -151.057 49.1277 0 -139.283 45.5445 0 -127.708 42.2787 0 -116.306 39.3198 0 -105.072 36.6581 0 -94.0063 34.2842 0 -83.1093 32.1886 0 -72.3809 30.3617 0 -61.8179 28.7942 0 -51.3516 27.4784 0 -40.9539 26.4099 0 -30.6249 25.5849 0 -20.3644 24.9996 0 -10.1726 24.6502 0 -0.0494368 24.5327 0 -0.295911 -2.43575 0 12.6702 -2.01697 0 25.206 -0.765232 0 37.3115 1.32002 0 48.9866 4.23935 0 60.2315 7.99334 0 71.046 12.5826 0 81.2327 18.0069 0 90.3087 24.2611 0 98.2521 31.337 0 105.063 39.2264 0 110.741 47.9212 0 115.286 57.4132 0 118.638 67.6937 0 120.432 78.7397 0 120.606 90.514 0 119.161 102.979 0 116.096 116.096 0 111.412 129.828 0 105.108 144.137 0 97.1665 158.969 0 87.5803 174.239 0 76.3495 189.858 0 63.474 205.739 0 48.9539 221.792 0 32.7892 237.93 0 15.2593 254.059 0 -3.3565 270.068 0 -23.0581 285.841 0 -43.8456 301.263 0 -65.7189 316.216 0 -88.678 330.586 0 -112.438 344.258 0 -136.301 357.137 0 -160.236 369.138 0 -184.243 380.175 0 -208.322 390.162 0 -232.473 399.015 0 -256.569 406.649 0 -279.847 413.015 0 -302.18 418.099 0 -323.57 421.888 0 -344.015 424.371 0 -363.515 425.534 0 -382.052 425.365 0 -399.205 423.876 0 -414.802 421.123 0 -428.842 417.169 0 -441.325 412.076 0 -452.253 405.905 0 -461.624 398.72 0 -469.417 390.587 0 -475.613 381.593 0 -480.21 371.828 0 -483.209 361.386 0 -484.61 350.356 0 -484.413 338.831 0 -482.732 326.901 0 -479.848 314.647 0 -475.774 302.147 0 -470.509 289.479 0 -464.054 276.719 0 -456.408 263.946 0 -447.64 251.235 0 -438.157 238.649 0 -428.026 226.233 0 -417.249 214.032 0 -405.824 202.092 0 -393.752 190.457 0 -381.048 179.173 0 -368.038 168.274 0 -354.855 157.775 0 -341.5 147.686 0 -327.971 138.02 0 -314.271 128.789 0 -300.397 120.003 0 -286.494 111.672 0 -272.707 103.792 0 -259.035 96.356 0 -245.477 89.3579 0 -232.035 82.7909 0 -218.707 76.6483 0 -205.523 70.923 0 -192.552 65.6038 0 -179.796 60.6776 0 -167.255 56.1313 0 -154.93 51.9517 0 -142.821 48.1257 0 -130.923 44.6402 0 -119.208 41.4834 0 -107.671 38.6448 0 -96.3129 36.1142 0 -85.133 33.881 0 -74.1317 31.9349 0 -63.3054 30.2655 0 -52.5816 28.8645 0 -41.9305 27.7271 0 -31.3519 26.8491 0 -20.8461 26.2264 0 -10.4129 25.8545 0 -0.0523925 25.7294 0 -0.293274 -10.9066 0 13.5138 -10.4798 0 26.8918 -9.20353 0 39.8406 -7.07605 0 52.3604 -4.09554 0 64.4509 -0.260167 0 76.1124 4.43187 0 87.1451 9.98197 0 97.0611 16.3879 0 105.838 23.6454 0 113.477 31.7504 0 119.976 40.6987 0 125.337 50.4861 0 129.494 61.1079 0 132.06 72.5449 0 132.972 84.764 0 132.228 97.731 0 129.828 111.412 0 125.773 125.773 0 120.061 140.781 0 112.637 156.382 0 103.479 172.493 0 92.5875 189.023 0 79.9624 205.883 0 65.6035 222.983 0 49.5111 240.233 0 31.9485 257.539 0 13.1794 274.781 0 -6.79618 291.832 0 -27.9783 308.569 0 -50.3669 324.866 0 -73.962 340.596 0 -98.4704 355.637 0 -123.175 369.881 0 -148.043 383.23 0 -173.075 395.586 0 -198.271 406.85 0 -223.631 416.924 0 -249.017 425.711 0 -273.613 433.151 0 -297.28 439.222 0 -320.019 443.904 0 -341.831 447.175 0 -362.715 449.016 0 -382.648 449.405 0 -401.157 448.35 0 -418.044 445.91 0 -433.311 442.152 0 -446.958 437.142 0 -458.984 430.947 0 -469.389 423.632 0 -478.138 415.27 0 -485.194 405.952 0 -490.557 395.776 0 -494.227 384.842 0 -496.205 373.245 0 -496.489 361.085 0 -495.199 348.459 0 -492.624 335.456 0 -488.775 322.164 0 -483.655 308.669 0 -477.262 295.058 0 -469.597 281.418 0 -460.731 267.834 0 -451.099 254.375 0 -440.772 241.092 0 -429.75 228.034 0 -418.034 215.252 0 -405.622 202.796 0 -392.533 190.716 0 -379.114 179.049 0 -365.512 167.811 0 -351.724 157.014 0 -337.751 146.671 0 -323.594 136.794 0 -309.252 127.396 0 -294.879 118.486 0 -280.627 110.061 0 -266.497 102.112 0 -252.49 94.6342 0 -238.603 87.6194 0 -224.839 81.0609 0 -211.227 74.9511 0 -197.841 69.278 0 -184.684 64.027 0 -171.757 59.1836 0 -159.06 54.7332 0 -146.591 50.6613 0 -134.348 46.9534 0 -122.298 43.5965 0 -110.438 40.5794 0 -98.7671 37.8906 0 -87.2855 35.5188 0 -75.9931 33.4527 0 -64.8866 31.681 0 -53.8887 30.1944 0 -42.968 28.9878 0 -32.1243 28.0566 0 -21.3577 27.3962 0 -10.6682 27.0019 0 -0.0558106 26.869 0 -0.290491 -20.4593 0 14.371 -20.0271 0 28.6058 -18.7338 0 42.414 -16.5764 0 55.7955 -13.5518 0 68.7504 -9.65664 0 81.2786 -4.88795 0 93.1793 0.757281 0 103.962 7.28033 0 113.603 14.6816 0 122.104 22.9615 0 129.464 32.1205 0 135.683 42.1589 0 140.693 53.0766 0 144.084 64.8592 0 145.789 77.478 0 145.806 90.904 0 144.137 105.108 0 140.781 120.061 0 135.733 135.733 0 128.901 152.077 0 120.245 169.006 0 109.765 186.431 0 97.4628 204.262 0 83.3367 222.409 0 67.3873 240.784 0 49.8577 259.288 0 30.9914 277.794 0 10.7882 296.166 0 -10.7517 314.27 0 -33.6283 331.97 0 -57.8417 349.132 0 -83.0916 365.622 0 -108.644 381.321 0 -134.466 396.114 0 -160.556 409.891 0 -186.916 422.537 0 -213.545 433.94 0 -240.296 443.991 0 -266.292 452.618 0 -291.385 459.787 0 -315.575 465.469 0 -338.863 469.633 0 -361.248 472.25 0 -382.705 473.289 0 -402.696 472.753 0 -420.997 470.704 0 -437.609 467.214 0 -452.533 462.351 0 -465.768 456.187 0 -477.313 448.792 0 -487.118 440.241 0 -495.128 430.634 0 -501.344 420.076 0 -505.767 408.672 0 -508.395 396.525 0 -509.23 383.739 0 -508.391 370.415 0 -506.175 356.655 0 -502.595 342.558 0 -497.65 328.221 0 -491.341 313.742 0 -483.668 299.216 0 -474.708 284.738 0 -464.923 270.384 0 -454.392 256.21 0 -443.113 242.271 0 -431.087 228.624 0 -418.313 215.324 0 -404.81 202.424 0 -390.954 189.968 0 -376.901 177.972 0 -362.65 166.448 0 -348.201 155.41 0 -333.555 144.872 0 -318.711 134.846 0 -303.832 125.342 0 -289.083 116.358 0 -274.463 107.884 0 -259.971 99.9147 0 -245.609 92.4419 0 -231.375 85.4586 0 -217.304 78.9567 0 -203.473 72.923 0 -189.887 67.3416 0 -176.546 62.1963 0 -163.449 57.4711 0 -150.597 53.1501 0 -137.985 49.2171 0 -125.579 45.6582 0 -113.374 42.4608 0 -101.37 39.6125 0 -89.5675 37.1011 0 -77.966 34.9143 0 -66.5619 33.0395 0 -55.2734 31.4669 0 -44.0667 30.1909 0 -32.9421 29.2063 0 -21.8993 28.5081 0 -10.9386 28.0912 0 -0.0597643 27.9506 0 -0.287622 -30.903 0 15.2364 -30.4681 0 30.3375 -29.1664 0 45.0159 -26.9934 0 59.2714 -23.9445 0 73.1041 -20.0151 0 86.514 -15.2008 0 99.3 -9.49689 0 110.97 -2.89841 0 121.503 4.59984 0 130.897 13.0031 0 139.153 22.3165 0 146.272 32.5453 0 152.18 43.6942 0 156.447 55.7539 0 159.001 68.7015 0 159.842 82.5136 0 158.969 97.1665 0 156.382 112.637 0 152.077 128.901 0 145.914 145.914 0 137.84 163.595 0 127.853 181.854 0 115.954 200.605 0 102.144 219.761 0 86.421 239.236 0 69.0031 258.931 0 50.1065 278.709 0 29.7311 298.42 0 7.87935 317.915 0 -15.4452 337.056 0 -40.2426 355.708 0 -66.2095 373.736 0 -92.6047 390.999 0 -119.394 407.358 0 -146.577 422.673 0 -174.144 436.818 0 -202.094 449.679 0 -230.274 461.142 0 -257.748 471.12 0 -284.362 479.555 0 -310.115 486.39 0 -334.998 491.579 0 -359.008 495.094 0 -382.118 496.907 0 -403.719 497.02 0 -423.563 495.492 0 -441.648 492.39 0 -457.975 487.779 0 -472.541 481.733 0 -485.347 474.321 0 -496.318 465.626 0 -505.382 455.765 0 -512.539 444.862 0 -517.794 433.039 0 -521.16 420.388 0 -522.637 406.99 0 -522.338 392.932 0 -520.541 378.344 0 -517.259 363.378 0 -512.499 348.182 0 -506.285 332.861 0 -498.62 317.486 0 -489.584 302.128 0 -479.656 286.859 0 -468.918 271.757 0 -457.368 256.894 0 -445.013 242.342 0 -431.854 228.158 0 -417.908 214.403 0 -403.584 201.122 0 -389.048 188.331 0 -374.301 176.047 0 -359.343 164.282 0 -344.173 153.053 0 -328.791 142.372 0 -313.372 132.252 0 -298.09 122.687 0 -282.944 113.671 0 -267.934 105.195 0 -253.061 97.2504 0 -238.325 89.8305 0 -223.761 82.9263 0 -209.454 76.5233 0 -195.408 70.6038 0 -181.624 65.1503 0 -168.102 60.1452 0 -154.841 55.5707 0 -141.836 51.4095 0 -129.051 47.6459 0 -116.48 44.2664 0 -104.123 41.2575 0 -91.9798 38.6056 0 -80.0508 36.2975 0 -68.3318 34.3195 0 -56.7357 32.6607 0 -45.2269 31.3151 0 -33.8054 30.277 0 -22.4711 29.5411 0 -11.224 29.1017 0 -0.0642454 28.9534 0 -0.284488 -42.1595 0 16.104 -41.7249 0 32.075 -40.4238 0 47.6284 -38.2502 0 62.7642 -35.1981 0 77.4825 -31.2616 0 91.7833 -26.4346 0 105.466 -20.7109 0 118.041 -14.0817 0 129.485 -6.53684 0 139.799 1.93363 0 148.983 11.3398 0 157.036 21.6918 0 163.884 32.9992 0 169.073 45.2584 0 172.528 58.453 0 174.25 72.5659 0 174.239 87.5803 0 172.493 103.479 0 169.006 120.245 0 163.595 137.84 0 156.186 156.186 0 146.78 175.201 0 135.378 194.803 0 121.98 214.911 0 106.587 235.447 0 89.3781 256.317 0 70.5309 277.364 0 50.0458 298.421 0 27.9361 319.321 0 4.22302 339.931 0 -21.0932 360.128 0 -47.7181 379.782 0 -74.932 398.73 0 -102.702 416.784 0 -131.017 433.763 0 -159.829 449.531 0 -189.135 463.985 0 -218.776 477.022 0 -247.795 488.538 0 -276.035 498.428 0 -303.488 506.586 0 -330.104 512.945 0 -355.867 517.491 0 -380.747 520.215 0 -404.082 521.126 0 -425.6 520.269 0 -445.302 517.695 0 -463.177 513.459 0 -479.221 507.627 0 -493.433 500.272 0 -505.704 491.478 0 -515.923 481.395 0 -524.09 470.189 0 -530.246 458.009 0 -534.457 444.912 0 -536.722 430.922 0 -537.115 416.077 0 -535.813 400.565 0 -532.823 384.647 0 -528.184 368.574 0 -522.042 352.454 0 -514.408 336.287 0 -505.358 320.076 0 -495.331 303.877 0 -484.398 287.803 0 -472.565 271.966 0 -459.858 256.46 0 -446.286 241.349 0 -431.869 226.695 0 -417.045 212.545 0 -401.994 198.92 0 -386.717 185.834 0 -371.212 173.305 0 -355.481 161.35 0 -339.522 149.984 0 -323.523 139.219 0 -307.668 129.052 0 -291.959 119.472 0 -276.394 110.472 0 -260.975 102.041 0 -245.7 94.1722 0 -230.608 86.8546 0 -215.792 80.0725 0 -201.256 73.8068 0 -187 68.0381 0 -173.024 62.7471 0 -159.328 57.9146 0 -145.906 53.5214 0 -132.718 49.5505 0 -119.758 45.987 0 -107.027 42.8162 0 -94.5231 40.0232 0 -82.2478 37.5934 0 -70.1964 35.5119 0 -58.276 33.7668 0 -46.4486 32.3515 0 -34.7142 31.2601 0 -23.0728 30.4865 0 -11.5244 30.0247 0 -0.0690861 29.8688 0 -0.280882 -54.2289 0 16.9681 -53.7974 0 33.8062 -52.5059 0 50.2335 -50.3468 0 66.25 -47.3127 0 81.8556 -43.396 0 97.0505 -38.5894 0 111.636 -32.8847 0 125.125 -26.2694 0 137.497 -18.7284 0 148.751 -10.2468 0 158.887 -0.809508 0 167.905 9.59846 0 175.727 20.9916 0 181.88 33.3726 0 186.287 46.7324 0 188.946 61.0612 0 189.858 76.3495 0 189.023 92.5875 0 186.431 109.765 0 181.854 127.853 0 175.201 146.78 0 166.472 166.472 0 155.67 186.854 0 142.799 207.859 0 127.859 229.419 0 110.974 251.443 0 92.2683 273.758 0 71.7428 296.167 0 49.4372 318.487 0 25.4152 340.593 0 -0.322227 362.388 0 -27.5097 383.76 0 -55.4985 404.51 0 -84.259 424.39 0 -113.754 443.159 0 -143.846 460.672 0 -174.521 476.854 0 -205.625 491.629 0 -236.243 504.87 0 -266.219 516.403 0 -295.539 526.055 0 -324.044 533.728 0 -351.691 539.44 0 -378.448 543.212 0 -403.632 545.07 0 -426.961 545.034 0 -448.436 543.13 0 -468.029 539.388 0 -485.723 533.871 0 -501.517 526.643 0 -515.238 517.796 0 -526.715 507.527 0 -535.947 496.059 0 -543.056 483.583 0 -548.24 470.098 0 -551.501 455.532 0 -552.809 439.851 0 -552.092 423.323 0 -549.345 406.373 0 -544.687 389.406 0 -538.552 372.527 0 -530.983 355.623 0 -522.029 338.584 0 -511.979 321.437 0 -500.884 304.347 0 -488.75 287.485 0 -475.666 270.979 0 -461.654 254.896 0 -446.735 239.3 0 -431.379 224.239 0 -415.779 209.736 0 -399.934 195.81 0 -383.845 182.48 0 -367.511 169.763 0 -350.933 157.68 0 -334.31 146.245 0 -317.841 135.45 0 -301.527 125.288 0 -285.367 115.746 0 -269.362 106.815 0 -253.512 98.4836 0 -237.857 90.7415 0 -222.498 83.5707 0 -207.439 76.9504 0 -192.68 70.8594 0 -178.221 65.2768 0 -164.062 60.1816 0 -150.196 55.5529 0 -136.581 51.372 0 -123.21 47.6226 0 -110.082 44.2886 0 -97.1979 41.3538 0 -84.5573 38.8019 0 -72.1558 36.6167 0 -59.8941 34.7853 0 -47.7317 33.3003 0 -35.6684 32.1554 0 -23.7044 31.3442 0 -11.8397 30.8602 0 -0.0741008 30.6969 0 -0.276599 -67.1111 0 17.8225 -66.6857 0 35.5191 -65.4127 0 52.8131 -63.2832 0 69.7045 -60.2882 0 86.1933 -56.4185 0 102.28 -51.6651 0 117.767 -46.0184 0 132.176 -39.4616 0 145.485 -31.9749 0 157.693 -23.5382 0 168.801 -14.1315 0 178.809 -3.7348 0 187.635 7.67148 0 194.79 20.0967 0 200.192 33.5397 0 203.842 47.9993 0 205.739 63.474 0 205.883 79.9624 0 204.262 97.4628 0 200.605 115.954 0 194.803 135.378 0 186.854 155.67 0 176.768 176.768 0 164.547 198.609 0 150.194 221.132 0 133.762 244.251 0 115.306 267.783 0 94.8262 291.521 0 72.4052 315.271 0 48.1748 338.916 0 22.1366 362.365 0 -5.49499 385.513 0 -34.1957 408.132 0 -63.9417 429.93 0 -94.656 450.621 0 -126.048 470.047 0 -158.091 488.138 0 -190.65 504.821 0 -222.91 519.946 0 -254.739 533.283 0 -286.102 544.6 0 -316.66 553.778 0 -346.324 560.849 0 -375.063 565.859 0 -402.212 568.837 0 -427.5 569.778 0 -450.926 568.672 0 -472.424 565.534 0 -491.951 560.434 0 -509.508 553.457 0 -524.842 544.706 0 -537.698 534.384 0 -548.077 522.711 0 -556.22 509.882 0 -562.513 495.912 0 -566.959 480.752 0 -569.381 464.389 0 -569.34 447.101 0 -566.817 429.318 0 -562.041 411.451 0 -555.878 393.614 0 -548.409 375.711 0 -539.645 357.647 0 -529.642 339.462 0 -518.41 321.329 0 -505.965 303.427 0 -492.479 285.892 0 -478 268.798 0 -462.549 252.217 0 -446.628 236.203 0 -430.443 220.781 0 -413.993 205.975 0 -397.277 191.805 0 -380.297 178.293 0 -363.052 165.462 0 -345.758 153.328 0 -328.629 141.884 0 -311.666 131.118 0 -294.869 121.018 0 -278.238 111.571 0 -261.773 102.765 0 -245.518 94.587 0 -229.579 87.0179 0 -213.963 80.0347 0 -198.669 73.6144 0 -183.697 67.7344 0 -169.047 62.3718 0 -154.711 57.5039 0 -140.644 53.1103 0 -126.837 49.1733 0 -113.29 45.6749 0 -100.005 42.5975 0 -86.9796 39.9231 0 -74.2102 37.6341 0 -61.5903 35.716 0 -49.0762 34.1614 0 -36.6681 32.9631 0 -24.3659 32.1143 0 -12.1695 31.6082 0 -0.0791038 31.4377 0 -0.271431 -80.8063 0 18.6615 -80.3897 0 37.2016 -79.1443 0 55.349 -77.0595 0 73.1037 -74.1246 0 90.4656 -70.3289 0 107.435 -65.6619 0 123.819 -60.1119 0 139.146 -53.6583 0 153.396 -46.2763 0 166.568 -37.9406 0 178.662 -28.6262 0 189.679 -18.308 0 199.533 -6.96122 0 207.722 5.43044 0 214.162 18.8751 0 218.852 33.3803 0 221.792 48.9539 0 222.983 65.6035 0 222.409 83.3367 0 219.761 102.144 0 214.911 121.98 0 207.859 142.799 0 198.609 164.547 0 187.162 187.162 0 173.518 210.576 0 157.664 234.703 0 139.585 259.373 0 119.281 284.395 0 96.8741 309.588 0 72.5582 334.82 0 46.336 359.98 0 18.3651 384.942 0 -10.969 409.466 0 -41.6487 433.25 0 -73.5546 456.001 0 -106.237 477.534 0 -139.654 497.74 0 -173.691 516.509 0 -207.657 533.662 0 -241.439 548.943 0 -274.982 562.1 0 -307.734 572.997 0 -339.547 581.661 0 -370.392 588.13 0 -399.652 592.419 0 -427.076 594.492 0 -452.662 594.31 0 -476.262 591.873 0 -497.786 587.299 0 -517.232 580.726 0 -534.312 572.288 0 -548.736 562.106 0 -560.503 550.295 0 -569.905 536.981 0 -577.405 522.333 0 -583.007 506.537 0 -586.46 489.775 0 -587.148 472.203 0 -585.043 453.962 0 -580.434 435.194 0 -574.407 416.05 0 -567.067 396.688 0 -558.406 377.264 0 -548.378 357.905 0 -536.974 338.711 0 -524.217 319.776 0 -510.327 301.195 0 -495.365 283.056 0 -479.355 265.447 0 -462.836 248.437 0 -446.028 232.055 0 -428.931 216.328 0 -411.546 201.281 0 -393.872 186.939 0 -375.909 173.329 0 -357.892 160.469 0 -340.054 148.352 0 -322.395 136.963 0 -304.916 126.286 0 -287.616 116.309 0 -270.495 107.016 0 -253.6 98.3912 0 -237.046 90.4141 0 -220.837 83.0596 0 -204.975 76.3031 0 -189.458 70.1199 0 -174.287 64.4852 0 -159.453 59.3745 0 -144.907 54.7656 0 -130.64 50.6389 0 -116.652 46.975 0 -102.944 43.7542 0 -89.5149 40.9569 0 -76.3598 38.5638 0 -63.3645 36.5592 0 -50.4823 34.9347 0 -37.7131 33.6831 0 -25.057 32.7968 0 -12.5139 32.2687 0 -0.0839092 32.0911 0 -0.265173 -95.3143 0 19.4789 -94.9095 0 38.8418 -93.7007 0 57.8233 -91.6756 0 76.4235 -88.8219 0 94.6425 -85.1273 0 112.48 -80.5796 0 129.748 -75.1652 0 145.987 -68.8596 0 161.176 -61.6326 0 175.315 -53.454 0 188.404 -44.2935 0 200.443 -34.121 0 211.346 -22.9065 0 220.597 -10.626 0 228.112 2.73833 0 233.889 17.2042 0 237.93 32.7892 0 240.233 49.5111 0 240.784 67.3873 0 239.236 86.421 0 235.447 106.587 0 229.419 127.859 0 221.132 150.194 0 210.576 173.518 0 197.751 197.751 0 182.593 222.799 0 165.039 248.528 0 145.09 274.79 0 122.879 301.436 0 98.624 328.306 0 72.3263 355.234 0 44.1008 382.048 0 14.2274 408.511 0 -17.2814 434.351 0 -50.2775 459.298 0 -84.205 483.132 0 -119.011 505.66 0 -154.594 526.694 0 -190.346 546.016 0 -226.166 563.383 0 -261.982 578.555 0 -297.036 591.388 0 -331.127 601.877 0 -364.228 610.026 0 -395.779 615.816 0 -425.549 619.179 0 -453.536 620.042 0 -479.448 618.405 0 -503.102 614.464 0 -524.498 608.451 0 -543.427 600.541 0 -559.68 590.693 0 -573.258 578.811 0 -584.31 564.881 0 -593.07 549.363 0 -599.541 532.887 0 -603.619 516.01 0 -605.042 498.63 0 -603.798 480.305 0 -600.077 460.637 0 -594.585 439.836 0 -587.392 418.554 0 -578.535 397.434 0 -568.248 376.768 0 -556.568 356.493 0 -543.512 336.533 0 -529.238 316.889 0 -513.791 297.669 0 -497.196 278.99 0 -480.043 260.941 0 -462.574 243.557 0 -444.788 226.87 0 -426.687 210.908 0 -408.268 195.702 0 -389.534 181.281 0 -370.738 167.669 0 -352.138 154.855 0 -333.733 142.822 0 -315.523 131.553 0 -297.509 121.03 0 -279.689 111.236 0 -262.115 102.154 0 -244.906 93.7592 0 -228.069 86.0252 0 -211.603 78.9254 0 -195.508 72.4331 0 -179.785 66.5217 0 -164.425 61.1646 0 -149.373 56.3377 0 -134.621 52.0196 0 -120.169 48.1888 0 -106.016 44.8239 0 -92.1635 41.9035 0 -78.6047 39.4061 0 -65.217 37.3147 0 -51.9499 35.6204 0 -38.8035 34.3153 0 -25.7778 33.3917 0 -12.8727 32.8417 0 -0.0883312 32.6573 0 -0.257675 -110.342 0 20.2692 -109.951 0 40.4278 -108.787 0 60.2183 -106.836 0 79.6405 -104.082 0 98.6946 -100.514 0 117.38 -96.1161 0 135.515 -90.8737 0 152.653 -84.7582 0 168.774 -77.7347 0 183.877 -69.7677 0 197.963 -60.8223 0 211.032 -50.8631 0 222.996 -39.8553 0 233.333 -27.7671 0 241.956 -14.5706 0 248.865 -0.237771 0 254.059 15.2593 0 257.539 31.9485 0 259.288 49.8577 0 258.931 69.0031 0 256.317 89.3781 0 251.443 110.974 0 244.251 133.762 0 234.703 157.664 0 222.799 182.593 0 208.458 208.458 0 191.599 235.16 0 172.221 262.595 0 150.433 290.648 0 126.407 319.129 0 100.145 347.824 0 71.7452 376.515 0 41.4466 404.97 0 9.25991 432.951 0 -24.6641 460.215 0 -59.7589 486.498 0 -95.97 511.518 0 -133.196 534.992 0 -170.823 556.667 0 -208.751 576.319 0 -246.891 593.727 0 -284.333 608.736 0 -320.833 621.288 0 -356.369 631.33 0 -390.417 638.804 0 -422.764 643.635 0 -453.403 645.748 0 -481.837 645.149 0 -507.751 642.066 0 -531.145 636.765 0 -552.031 629.434 0 -570.418 619.945 0 -586.306 608.093 0 -599.468 593.793 0 -609.54 577.668 0 -616.517 560.6 0 -620.707 543.356 0 -622.865 525.702 0 -623.025 506.892 0 -621.077 486.244 0 -616.609 464.009 0 -609.581 441.116 0 -600.157 418.482 0 -589.318 396.499 0 -577.229 375.031 0 -563.887 353.921 0 -549.254 333.127 0 -533.321 312.765 0 -516.118 292.961 0 -498.298 273.815 0 -480.128 255.371 0 -461.608 237.667 0 -442.739 220.741 0 -423.522 204.626 0 -403.957 189.355 0 -384.325 174.953 0 -364.906 161.408 0 -345.701 148.702 0 -326.71 136.812 0 -307.933 125.721 0 -289.37 115.407 0 -271.073 105.851 0 -253.17 97.0254 0 -235.665 88.9019 0 -218.56 81.4514 0 -201.854 74.6447 0 -185.547 68.4527 0 -169.63 62.8466 0 -154.045 57.7999 0 -138.782 53.2893 0 -123.841 49.2912 0 -109.222 45.7823 0 -94.9254 42.739 0 -80.9448 40.138 0 -67.1473 37.9607 0 -53.4787 36.1975 0 -39.9389 34.8399 0 -26.5279 33.8795 0 -13.2457 33.3079 0 -0.0923459 33.1166 0 -0.249019 -125.595 0 21.0271 -125.222 0 41.9497 -124.11 0 62.5186 -122.244 0 82.734 -119.609 0 102.596 -116.189 0 122.104 -111.969 0 141.082 -106.933 0 159.1 -101.047 0 176.139 -94.2735 0 192.197 -86.5713 0 207.276 -77.9013 0 221.374 -68.2236 0 234.405 -57.4985 0 245.843 -45.6873 0 255.599 -32.7519 0 263.674 -18.6543 0 270.068 -3.3565 0 274.781 13.1794 0 277.794 30.9914 0 278.709 50.1065 0 277.364 70.5309 0 273.758 92.2683 0 267.783 115.306 0 259.373 139.585 0 248.528 165.039 0 235.16 191.599 0 219.181 219.181 0 200.592 247.701 0 179.449 277.055 0 155.844 307.048 0 129.776 337.449 0 101.342 368.027 0 70.7731 398.546 0 38.0801 428.769 0 3.39738 458.452 0 -32.7702 487.29 0 -70.3744 514.93 0 -109.301 541.02 0 -148.862 565.275 0 -188.945 587.469 0 -229.452 607.382 0 -269.373 624.83 0 -308.44 639.687 0 -346.628 651.827 0 -383.39 661.159 0 -418.503 667.658 0 -451.958 671.306 0 -483.091 672.122 0 -511.484 670.238 0 -537.138 665.802 0 -560.238 658.937 0 -580.971 649.663 0 -599.338 637.975 0 -614.771 623.925 0 -626.366 607.916 0 -634.111 590.474 0 -638.683 572.074 0 -641.732 552.743 0 -643.335 532.271 0 -643.118 510.481 0 -639.677 487.607 0 -632.88 464.182 0 -622.999 440.733 0 -611.677 417.549 0 -599.187 394.68 0 -585.514 372.166 0 -570.475 350.066 0 -554.022 328.472 0 -536.188 307.476 0 -517.672 287.159 0 -498.76 267.577 0 -479.452 248.786 0 -459.758 230.834 0 -439.682 213.756 0 -419.224 197.586 0 -398.693 182.348 0 -378.397 168.03 0 -358.335 154.608 0 -338.509 142.062 0 -318.917 130.37 0 -299.56 119.509 0 -280.493 109.457 0 -261.85 100.184 0 -243.636 91.6601 0 -225.852 83.851 0 -208.499 76.725 0 -191.575 70.2496 0 -175.07 64.3927 0 -158.923 59.1254 0 -143.122 54.422 0 -127.668 50.2569 0 -112.56 46.6048 0 -97.7995 43.4399 0 -83.3786 40.737 0 -69.1541 38.4755 0 -55.0673 36.6452 0 -41.1181 35.2367 0 -27.3066 34.2408 0 -13.6328 33.6482 0 -0.0965759 33.4497 0 -0.239343 -141.075 0 21.7479 -140.721 0 43.3975 -139.669 0 64.7094 -137.901 0 85.6838 -135.401 0 106.32 -132.153 0 126.619 -128.139 0 146.412 -123.342 0 165.285 -117.727 0 183.22 -111.249 0 200.218 -103.865 0 216.277 -95.5305 0 231.398 -86.2023 0 245.493 -75.8362 0 258.038 -64.3865 0 268.944 -51.8055 0 278.212 -38.0453 0 285.841 -23.0581 0 291.832 -6.79618 0 296.166 10.7882 0 298.42 29.7311 0 298.421 50.0458 0 296.167 71.7428 0 291.521 94.8262 0 284.395 119.281 0 274.79 145.09 0 262.595 172.221 0 247.701 200.592 0 230.107 230.107 0 209.82 260.658 0 186.848 292.061 0 161.192 324.107 0 132.937 356.583 0 102.299 389.238 0 69.2856 421.805 0 34.007 454.011 0 -3.12622 485.507 0 -42.0747 515.896 0 -82.7053 544.78 0 -124.219 571.84 0 -166.482 596.832 0 -209.395 619.519 0 -251.901 639.671 0 -293.721 657.074 0 -334.822 671.515 0 -374.52 682.882 0 -412.534 691.249 0 -448.856 696.715 0 -482.826 699.324 0 -514.03 698.98 0 -542.468 695.561 0 -568.228 689.05 0 -591.397 679.846 0 -611.976 668.455 0 -629.445 655.279 0 -642.977 640.106 0 -652.56 622.508 0 -658.782 602.166 0 -663.076 579.751 0 -665.507 556.441 0 -665.773 533.349 0 -662.738 510.63 0 -656.294 487.752 0 -646.689 464.187 0 -635.414 439.919 0 -622.719 415.442 0 -608.598 391.267 0 -593.017 367.705 0 -575.965 344.79 0 -557.475 322.534 0 -538.24 300.973 0 -518.544 280.178 0 -498.388 260.227 0 -477.799 241.187 0 -456.798 223.093 0 -435.382 205.976 0 -413.889 189.856 0 -392.653 174.719 0 -371.675 160.542 0 -350.953 147.302 0 -330.49 134.976 0 -310.283 123.54 0 -290.393 112.971 0 -270.96 103.237 0 -251.991 94.2997 0 -233.486 86.1244 0 -215.446 78.6741 0 -197.87 71.9124 0 -180.746 65.8031 0 -164.008 60.3142 0 -147.642 55.4177 0 -131.649 51.086 0 -116.03 47.2914 0 -100.784 44.0062 0 -85.9044 41.2029 0 -71.2354 38.8592 0 -56.7139 36.9635 0 -42.3397 35.5058 0 -28.113 34.4755 0 -14.0337 33.8625 0 -0.101806 33.6565 0 -0.228785 -156.781 0 22.4266 -156.449 0 44.7615 -155.463 0 66.7759 -153.806 0 88.4698 -151.459 0 109.843 -148.405 0 130.896 -144.626 0 151.468 -140.103 0 171.165 -134.797 0 189.97 -128.661 0 207.882 -121.648 0 224.902 -113.71 0 241.03 -104.799 0 256.179 -94.8684 0 269.828 -83.8648 0 281.892 -71.7315 0 292.37 -58.4108 0 301.263 -43.8456 0 308.569 -27.9783 0 314.27 -10.7517 0 317.915 7.87935 0 319.321 27.9361 0 318.487 49.4372 0 315.271 72.4052 0 309.588 96.8741 0 301.436 122.879 0 290.648 150.433 0 277.055 179.449 0 260.658 209.82 0 241.43 241.43 0 219.328 274.121 0 194.352 307.723 0 166.56 342.057 0 136.096 376.853 0 102.965 411.8 0 67.2536 446.58 0 29.2804 480.812 0 -10.9238 514.066 0 -53.2061 545.916 0 -96.6495 576.005 0 -141.101 604.046 0 -186.459 629.757 0 -231.664 652.856 0 -276.435 673.065 0 -320.727 690.109 0 -363.578 703.853 0 -404.594 714.438 0 -443.769 722.038 0 -480.698 726.701 0 -515.127 728.132 0 -547.054 725.977 0 -576.048 720.097 0 -601.676 711.211 0 -623.938 700.255 0 -642.97 687.921 0 -658.992 673.49 0 -672.004 655.73 0 -681.789 633.662 0 -687.813 608.507 0 -690.051 582.617 0 -688.796 558.2 0 -685.151 535.355 0 -679.222 512.66 0 -671.02 488.709 0 -660.619 463.233 0 -648.029 437.099 0 -633.304 411.217 0 -616.989 386.11 0 -599.231 361.771 0 -580.058 338.153 0 -560.083 315.255 0 -539.556 293.166 0 -518.48 271.987 0 -496.921 251.8 0 -474.92 232.637 0 -452.479 214.523 0 -429.957 197.474 0 -407.717 181.475 0 -385.757 166.502 0 -364.079 152.532 0 -342.681 139.54 0 -321.564 127.503 0 -300.791 116.395 0 -280.514 106.182 0 -260.739 96.8209 0 -241.468 88.2714 0 -222.7 80.4919 0 -204.434 73.4411 0 -186.66 67.0777 0 -169.299 61.3662 0 -152.341 56.2764 0 -135.785 51.7783 0 -119.631 47.8422 0 -103.878 44.4379 0 -88.5204 41.5358 0 -73.3894 39.1116 0 -58.4167 37.1525 0 -43.6022 35.6471 0 -28.9461 34.5837 0 -14.4483 33.9509 0 -0.10882 33.7371 0 -0.217484 -172.713 0 23.0584 -172.406 0 46.0319 -171.494 0 68.7032 -169.959 0 91.0721 -167.782 0 113.139 -164.945 0 134.903 -161.429 0 156.213 -157.214 0 176.697 -152.257 0 196.337 -146.51 0 215.134 -139.921 0 233.088 -132.44 0 250.199 -124.015 0 266.382 -114.595 0 281.126 -104.122 0 294.346 -92.5298 0 306.043 -79.7509 0 316.216 -65.7189 0 324.866 -50.3669 0 331.97 -33.6283 0 337.056 -15.4452 0 339.931 4.22302 0 340.593 25.4152 0 338.916 48.1748 0 334.82 72.5582 0 328.306 98.624 0 319.129 126.407 0 307.048 155.844 0 292.061 186.848 0 274.121 219.328 0 253.152 253.152 0 229.152 288.177 0 202.132 324.247 0 172.116 361.081 0 139.105 398.337 0 103.162 435.668 0 64.5234 472.666 0 23.2128 508.881 0 -20.6023 543.863 0 -65.9149 577.203 0 -112.557 608.534 0 -160.424 637.489 0 -208.421 663.748 0 -256.257 687.053 0 -303.875 707.151 0 -350.036 723.883 0 -394.235 737.276 0 -436.469 747.378 0 -476.611 754.168 0 -514.578 757.438 0 -550.372 756.944 0 -582.968 752.595 0 -611.341 744.9 0 -635.492 734.518 0 -656.291 721.961 0 -675.13 706.875 0 -692.024 688.594 0 -705.847 666.613 0 -713.848 641.842 0 -715.901 615.915 0 -712.967 590.373 0 -708.664 565.409 0 -703.337 540.238 0 -696.735 514.087 0 -687.345 486.895 0 -674.915 459.309 0 -659.558 432.004 0 -642.468 405.387 0 -623.962 379.5 0 -604.062 354.358 0 -583.294 330.003 0 -561.869 306.536 0 -539.791 284.063 0 -517.176 262.671 0 -494.1 242.387 0 -470.561 223.228 0 -446.944 205.204 0 -423.631 188.299 0 -400.623 172.49 0 -377.92 157.752 0 -355.521 144.061 0 -333.427 131.395 0 -311.706 119.728 0 -290.525 109.02 0 -269.891 99.2235 0 -249.804 90.2921 0 -230.264 82.1785 0 -211.271 74.8356 0 -192.811 68.2165 0 -174.799 62.2815 0 -157.22 56.9981 0 -140.074 52.334 0 -123.36 48.2571 0 -107.08 44.735 0 -91.225 41.7356 0 -75.6142 39.2328 0 -60.1739 37.2121 0 -44.9042 35.6606 0 -29.805 34.5654 0 -14.8764 33.9133 0 -0.118402 33.6914 0 -0.205578 -188.872 0 23.6384 -188.591 0 47.199 -187.76 0 70.4764 -186.36 0 93.4705 -184.371 0 116.181 -181.774 0 138.609 -178.549 0 160.611 -174.675 0 181.837 -170.108 0 202.272 -164.796 0 221.917 -158.684 0 240.771 -151.719 0 258.833 -143.848 0 276.022 -135.016 0 291.841 -125.159 0 306.208 -114.2 0 319.123 -102.066 0 330.586 -88.678 0 340.596 -73.962 0 349.132 -57.8417 0 355.708 -40.2426 0 360.128 -21.0932 0 362.388 -0.322227 0 362.365 22.1366 0 359.98 46.336 0 355.234 72.3263 0 347.824 100.145 0 337.449 129.776 0 324.107 161.192 0 307.723 194.352 0 288.177 229.152 0 265.466 265.466 0 239.539 303.15 0 210.27 341.918 0 177.654 381.412 0 141.733 421.269 0 102.665 461.064 0 60.4652 500.336 0 15.3063 538.616 0 -31.7782 575.429 0 -80.616 610.287 0 -131.087 642.707 0 -181.936 672.339 0 -232.829 699.03 0 -283.707 722.635 0 -333.257 742.969 0 -380.943 759.762 0 -426.764 772.734 0 -470.554 781.724 0 -512.213 786.893 0 -551.738 788.46 0 -587.975 786.551 0 -619.764 780.927 0 -647.105 771.259 0 -670.884 757.398 0 -692.509 740.244 0 -711.998 721.077 0 -728.144 701.02 0 -737.996 679.793 0 -741.421 656.4 0 -739.44 629.936 0 -735.89 600.836 0 -731.139 570.501 0 -724.921 540.318 0 -715.638 510.897 0 -703.023 482.067 0 -687.205 453.627 0 -669.519 425.537 0 -650.32 397.979 0 -629.632 371.15 0 -607.974 345.217 0 -585.556 320.286 0 -562.38 296.455 0 -538.621 273.801 0 -514.386 252.343 0 -489.676 232.09 0 -464.893 213.045 0 -440.437 195.191 0 -416.31 178.504 0 -392.511 162.962 0 -369.039 148.541 0 -345.896 135.219 0 -323.157 122.97 0 -301.007 111.751 0 -279.454 101.508 0 -258.499 92.1865 0 -238.142 83.7339 0 -218.382 76.096 0 -199.203 69.2194 0 -180.507 63.06 0 -162.278 57.5828 0 -144.515 52.753 0 -127.219 48.5361 0 -110.389 44.8975 0 -94.0164 41.8024 0 -77.9079 39.2227 0 -61.9838 37.1423 0 -46.2441 35.5465 0 -30.6888 34.4205 0 -15.3179 33.7497 0 -0.131338 33.5195 0 -0.193193 -205.076 0 24.1618 -204.825 0 48.2534 -204.081 0 72.0814 -202.827 0 95.6459 -201.04 0 118.947 -198.702 0 141.984 -195.791 0 164.625 -192.287 0 186.545 -188.143 0 207.729 -183.305 0 228.176 -177.716 0 247.887 -171.32 0 266.862 -164.062 0 285.022 -155.884 0 301.889 -146.717 0 317.384 -136.477 0 331.507 -125.078 0 344.258 -112.438 0 355.637 -98.4704 0 365.622 -83.0916 0 373.736 -66.2095 0 379.782 -47.7181 0 383.76 -27.5097 0 385.513 -5.49499 0 384.942 18.3651 0 382.048 44.1008 0 376.515 71.7452 0 368.027 101.342 0 356.583 132.937 0 342.057 166.56 0 324.247 202.132 0 303.15 239.539 0 278.648 278.648 0 250.452 319.181 0 218.549 360.783 0 182.958 403.093 0 143.757 445.679 0 100.951 488.06 0 54.7038 529.748 0 5.98607 570.197 0 -45.0401 608.799 0 -98.2204 644.949 0 -151.944 678.276 0 -205.783 708.727 0 -259.689 736.276 0 -312.638 760.697 0 -364.21 781.39 0 -414.395 797.709 0 -462.42 809.33 0 -507.8 816.803 0 -550.537 820.833 0 -590.21 821.771 0 -626.401 818.562 0 -659.109 809.796 0 -687.883 794.606 0 -711.999 775.259 0 -731.449 755.163 0 -746.496 737.212 0 -757.789 719.851 0 -765.355 699.23 0 -769.132 671.794 0 -768.887 638.246 0 -764.596 602.353 0 -756.446 567.848 0 -745.552 536.063 0 -732.102 505.932 0 -716.145 476.299 0 -698.217 446.634 0 -678.461 417.279 0 -656.906 388.637 0 -634.226 361.013 0 -610.695 334.516 0 -586.316 309.234 0 -561.316 285.233 0 -535.836 262.522 0 -509.877 241.104 0 -483.854 220.974 0 -458.181 202.113 0 -432.859 184.502 0 -407.887 168.116 0 -383.266 152.934 0 -358.995 138.932 0 -335.162 126.083 0 -311.973 114.339 0 -289.44 103.638 0 -267.561 93.9199 0 -246.337 85.1239 0 -225.769 77.1889 0 -205.835 70.0548 0 -186.424 63.6724 0 -167.514 58.0037 0 -149.108 53.0116 0 -131.203 48.6584 0 -113.801 44.907 0 -96.8925 41.7199 0 -80.2685 39.0665 0 -63.8446 36.9288 0 -47.6206 35.2906 0 -31.5965 34.1354 0 -15.7724 33.447 0 -0.148177 33.2088 0 -0.180348 -220.889 0 24.6261 -220.667 0 49.1893 -220.014 0 73.5093 -218.909 0 97.5861 -217.332 0 121.42 -215.262 0 145.01 -212.679 0 168.235 -209.559 0 190.794 -205.857 0 212.673 -201.516 0 233.874 -196.476 0 254.395 -190.681 0 274.237 -184.074 0 293.324 -176.594 0 311.203 -168.169 0 327.798 -158.706 0 343.109 -148.114 0 357.137 -136.301 0 369.881 -123.175 0 381.321 -108.644 0 390.999 -92.6047 0 398.73 -74.932 0 404.51 -55.4985 0 408.132 -34.1957 0 409.466 -10.969 0 408.511 14.2274 0 404.97 41.4466 0 398.546 70.7731 0 389.238 102.299 0 376.853 136.096 0 361.081 172.116 0 341.918 210.27 0 319.181 250.452 0 292.419 292.419 0 261.61 335.854 0 226.744 380.435 0 187.77 425.714 0 144.685 471.156 0 97.635 516.222 0 47.4978 560.323 0 -5.58026 602.824 0 -61.4044 643.089 0 -117.939 680.691 0 -174.643 715.493 0 -231.488 747.377 0 -287.878 776.056 0 -343.568 800.922 0 -398.537 821.332 0 -451.216 836.892 0 -500.62 847.91 0 -546.747 854.814 0 -590.172 857.785 0 -631.469 856.018 0 -670.639 848.463 0 -705.435 834.495 0 -732.28 815.982 0 -751.13 795.69 0 -764.217 775.997 0 -777.003 755.879 0 -789.736 732.562 0 -800.909 703.494 0 -804.858 669.346 0 -801.04 633.115 0 -790.247 597.767 0 -777.223 564.404 0 -762.761 532.27 0 -746.802 500.534 0 -728.756 468.858 0 -708.465 437.58 0 -685.97 407.086 0 -662.165 377.676 0 -637.417 349.472 0 -611.728 322.578 0 -585.384 297.073 0 -558.562 272.965 0 -531.262 250.252 0 -503.909 228.928 0 -476.927 208.977 0 -450.317 190.376 0 -424.081 173.106 0 -398.222 157.137 0 -372.741 142.438 0 -347.734 128.977 0 -323.435 116.696 0 -299.855 105.529 0 -276.995 95.4076 0 -254.853 86.2648 0 -233.43 78.0329 0 -212.705 70.6448 0 -192.543 64.0463 0 -172.923 58.1955 0 -153.844 53.0515 0 -135.307 48.573 0 -117.312 44.7189 0 -99.8475 41.4482 0 -82.6918 38.7272 0 -65.753 36.5367 0 -49.0312 34.8591 0 -32.5263 33.677 0 -16.2384 32.9727 0 -0.167431 32.7288 0 -0.167007 -236.289 0 25.0293 -236.097 0 50.0032 -235.537 0 74.7545 -234.587 0 99.2832 -233.227 0 123.589 -231.435 0 147.673 -229.191 0 171.422 -226.471 0 194.563 -223.228 0 217.083 -219.404 0 238.981 -214.94 0 260.259 -209.778 0 280.916 -203.857 0 300.881 -197.119 0 319.728 -189.486 0 337.387 -180.86 0 353.857 -171.142 0 369.138 -160.236 0 383.23 -148.043 0 396.114 -134.466 0 407.358 -119.394 0 416.784 -102.702 0 424.39 -84.259 0 429.93 -63.9417 0 433.25 -41.6487 0 434.351 -17.2814 0 432.951 9.25991 0 428.769 38.0801 0 421.805 69.2856 0 411.8 102.965 0 398.337 139.105 0 381.412 177.654 0 360.783 218.549 0 335.854 261.61 0 306.6 306.6 0 272.948 353.263 0 234.633 401.131 0 191.627 449.581 0 144.073 497.989 0 92.8232 545.755 0 38.0191 592.306 0 -20.1189 637.074 0 -79.2895 679.547 0 -138.881 719.298 0 -198.873 755.906 0 -258.829 788.998 0 -318.571 818.303 0 -378.075 843.556 0 -435.501 864.406 0 -489.694 880.249 0 -540.655 890.438 0 -589.057 894.57 0 -635.576 893.214 0 -680.213 887.182 0 -720.151 877.108 0 -750.909 862.597 0 -772.431 842.88 0 -787.447 817.412 0 -802.634 787.6 0 -818.297 755.859 0 -832.579 724.468 0 -838.509 693.759 0 -835.419 662.665 0 -824.27 630.124 0 -810.829 596.013 0 -796.056 561.143 0 -779.867 526.357 0 -761.385 492.217 0 -740.375 458.889 0 -716.884 426.509 0 -691.915 395.218 0 -665.879 365.164 0 -638.781 336.496 0 -610.98 309.326 0 -582.703 283.672 0 -553.95 259.533 0 -525.155 236.907 0 -496.751 215.777 0 -468.739 196.123 0 -441.127 177.925 0 -413.929 161.143 0 -387.147 145.733 0 -360.886 131.646 0 -335.402 118.818 0 -310.708 107.176 0 -286.804 96.6458 0 -263.69 87.153 0 -241.366 78.6242 0 -219.806 70.986 0 -198.856 64.1785 0 -178.492 58.1552 0 -158.713 52.8702 0 -139.519 48.2775 0 -120.909 44.3312 0 -102.874 40.9855 0 -85.1725 38.2032 0 -67.7056 35.9643 0 -50.4735 34.2505 0 -33.4764 33.0436 0 -16.714 32.3256 0 -0.186563 32.0781 0 -0.153134 -251.276 0 25.3698 -251.116 0 50.6912 -250.652 0 75.8109 -249.862 0 100.729 -248.725 0 125.446 -247.22 0 149.96 -245.326 0 174.172 -243.02 0 197.834 -240.255 0 220.933 -236.971 0 243.471 -233.108 0 265.447 -228.609 0 286.861 -223.412 0 307.648 -217.459 0 327.412 -210.668 0 346.087 -202.937 0 363.675 -194.163 0 380.175 -184.243 0 395.586 -173.075 0 409.891 -160.556 0 422.673 -146.577 0 433.763 -131.017 0 443.159 -113.754 0 450.621 -94.656 0 456.001 -73.5546 0 459.298 -50.2775 0 460.215 -24.6641 0 458.452 3.39738 0 454.011 34.007 0 446.58 67.2536 0 435.668 103.162 0 421.269 141.733 0 403.093 182.958 0 380.435 226.744 0 353.263 272.948 0 321.41 321.41 0 284.25 371.649 0 241.722 422.958 0 193.989 474.629 0 142.03 526.076 0 86.0091 576.832 0 26.1368 626.432 0 -35.3809 674.269 0 -97.9572 719.541 0 -161.551 761.43 0 -225.264 799.457 0 -288.727 833.791 0 -351.928 864.679 0 -413.915 891.82 0 -474.087 913.416 0 -532.446 927.412 0 -587.865 932.64 0 -639.217 931.497 0 -686.503 927.267 0 -729.036 922.261 0 -765.727 913.095 0 -796.56 894.325 0 -821.566 861.538 0 -840.815 819.321 0 -854.311 776.897 0 -862.227 742.882 0 -865.21 717.145 0 -863.321 693.254 0 -856.743 664.837 0 -846.557 630.158 0 -832.944 592.113 0 -815.971 553.769 0 -796.344 516.874 0 -774.248 481.348 0 -749.722 446.971 0 -723.606 413.663 0 -696.242 381.6 0 -667.637 350.992 0 -638.259 321.998 0 -608.402 294.649 0 -578.064 268.952 0 -547.692 244.912 0 -517.73 222.515 0 -488.177 201.744 0 -459.057 182.575 0 -430.407 164.954 0 -402.226 148.815 0 -374.628 134.091 0 -347.883 120.706 0 -322.006 108.58 0 -296.995 97.6343 0 -272.851 87.7885 0 -249.573 78.9629 0 -227.133 71.0783 0 -205.356 64.069 0 -184.212 57.8827 0 -163.703 52.4676 0 -143.827 47.7719 0 -124.585 43.7438 0 -105.965 40.3318 0 -87.7052 37.4946 0 -69.6985 35.2117 0 -51.9449 33.4647 0 -34.4445 32.2354 0 -17.1972 31.5055 0 -0.203026 31.2567 0 -0.138693 -265.851 0 25.6458 -265.724 0 51.2496 -265.358 0 76.6728 -264.732 0 101.915 -263.825 0 126.977 -262.617 0 151.859 -261.086 0 176.469 -259.209 0 200.587 -256.938 0 224.202 -254.215 0 247.314 -250.98 0 269.924 -247.174 0 292.032 -242.739 0 313.577 -237.613 0 334.198 -231.715 0 353.836 -224.937 0 372.491 -217.176 0 390.162 -208.322 0 406.85 -198.271 0 422.537 -186.916 0 436.818 -174.144 0 449.531 -159.829 0 460.672 -143.846 0 470.047 -126.048 0 477.534 -106.237 0 483.132 -84.205 0 486.498 -59.7589 0 487.29 -32.7702 0 485.507 -3.12622 0 480.812 29.2804 0 472.666 64.5234 0 461.064 102.665 0 445.679 143.757 0 425.714 187.77 0 401.131 234.633 0 371.649 284.25 0 336.207 336.207 0 294.702 389.859 0 247.325 444.56 0 195.222 499.727 0 138.582 554.84 0 77.59 609.381 0 14.1627 662.698 0 -51.1899 713.958 0 -118.395 762.319 0 -185.852 807.171 0 -252.907 848.366 0 -319.565 885.808 0 -386.303 918.934 0 -453.418 945.898 0 -520.912 964.634 0 -584.859 973.921 0 -641.336 975.923 0 -690.342 973.651 0 -734.622 969.263 0 -778.547 959.918 0 -822.172 940.97 0 -861.29 908.681 0 -885.616 867.239 0 -894.682 824.912 0 -891.835 789.432 0 -889.649 760.78 0 -889.33 733.351 0 -889.815 701.595 0 -884.718 664.089 0 -872.978 623.531 0 -854.904 582.771 0 -833.736 543.443 0 -810.337 505.487 0 -784.731 468.723 0 -757.442 433.098 0 -728.683 398.81 0 -698.464 366.087 0 -667.378 335.106 0 -635.799 305.911 0 -603.727 278.523 0 -571.621 252.955 0 -539.941 229.199 0 -508.687 207.24 0 -477.906 187.055 0 -447.674 168.569 0 -417.992 151.685 0 -388.972 136.311 0 -360.889 122.358 0 -333.755 109.741 0 -307.571 98.3733 0 -282.336 88.1711 0 -258.049 79.0488 0 -234.68 70.9217 0 -212.032 63.7179 0 -190.073 57.3781 0 -168.803 51.8437 0 -148.221 47.0562 0 -128.329 42.9568 0 -109.113 39.4871 0 -90.2847 36.6013 0 -71.7282 34.2788 0 -53.4429 32.5017 0 -35.4288 31.2522 0 -17.6859 30.5124 0 -0.214275 30.2646 0 -0.123646 -280.013 0 25.8554 -279.92 0 51.6748 -279.655 0 77.3344 -279.198 0 102.834 -278.529 0 128.174 -277.626 0 153.355 -276.47 0 178.296 -275.036 0 202.801 -273.278 0 226.864 -271.137 0 250.482 -268.556 0 273.657 -265.475 0 296.388 -261.837 0 318.622 -257.582 0 340.034 -252.626 0 360.57 -246.862 0 380.23 -240.18 0 399.015 -232.473 0 416.924 -223.631 0 433.94 -213.545 0 449.679 -202.094 0 463.985 -189.135 0 476.854 -174.521 0 488.138 -158.091 0 497.74 -139.654 0 505.66 -119.011 0 511.518 -95.97 0 514.93 -70.3744 0 515.896 -42.0747 0 514.066 -10.9238 0 508.881 23.2128 0 500.336 60.4652 0 488.06 100.951 0 471.156 144.685 0 449.581 191.627 0 422.958 241.722 0 389.859 294.702 0 350.148 350.148 0 304.006 407.63 0 252.525 466.558 0 195.888 526.183 0 134.272 585.751 0 69.5455 644.626 0 2.20635 702.335 0 -67.6723 758.416 0 -138.47 812.116 0 -209.525 862.12 0 -280.848 907.049 0 -353.379 945.729 0 -427.708 977.55 0 -503.836 1002 0 -576.329 1018.6 0 -639.757 1026.98 0 -694.119 1026.81 0 -743.423 1018.05 0 -794.05 1002.34 0 -846.083 981.949 0 -893.652 958.872 0 -922.414 932.904 0 -931.717 902.703 0 -926.19 867.058 0 -923.233 826.701 0 -924.512 783.766 0 -928.464 740.369 0 -925.715 697.543 0 -914.701 655.24 0 -895.846 613.365 0 -873.568 571.98 0 -849.041 531.359 0 -822.284 491.789 0 -793.682 453.533 0 -763.393 416.797 0 -731.427 381.783 0 -698.494 348.652 0 -665.039 317.461 0 -631.064 288.246 0 -597.046 261.035 0 -563.467 235.828 0 -530.326 212.613 0 -497.708 191.367 0 -465.751 171.988 0 -434.457 154.344 0 -403.93 138.308 0 -374.429 123.776 0 -345.965 110.657 0 -318.537 98.8626 0 -292.147 88.301 0 -266.794 78.8821 0 -242.442 70.5163 0 -218.877 63.125 0 -196.063 56.6413 0 -174.001 50.9987 0 -152.691 46.1304 0 -132.131 41.9701 0 -112.309 38.4513 0 -92.9058 35.5233 0 -73.791 33.1656 0 -54.9647 31.3615 0 -36.4271 30.0941 0 -18.1781 29.3465 0 -0.217762 29.1018 0 -0.107968 -293.707 0 25.9971 -293.647 0 51.9631 -293.485 0 77.7899 -293.202 0 103.478 -292.775 0 129.026 -292.186 0 154.436 -291.413 0 179.637 -290.434 0 204.46 -289.203 0 228.897 -287.663 0 252.948 -285.757 0 276.613 -283.427 0 299.892 -280.618 0 322.738 -277.27 0 344.865 -273.3 0 366.226 -268.6 0 386.821 -263.06 0 406.649 -256.569 0 425.711 -249.017 0 443.991 -240.296 0 461.142 -230.274 0 477.022 -218.776 0 491.629 -205.625 0 504.821 -190.65 0 516.509 -173.691 0 526.694 -154.594 0 534.992 -133.196 0 541.02 -109.301 0 544.78 -82.7053 0 545.916 -53.2061 0 543.863 -20.6023 0 538.616 15.3063 0 529.748 54.7038 0 516.222 97.635 0 497.989 144.073 0 474.629 193.989 0 444.56 247.325 0 407.63 304.006 0 363.934 363.934 0 314.047 426.525 0 258.065 490.712 0 196.225 555.418 0 130.991 620.064 0 63.0195 684.766 0 -7.68528 749.683 0 -81.0393 813.888 0 -157.008 874.35 0 -235.579 927.797 0 -315.759 972.198 0 -396.925 1008.95 0 -479.076 1040.03 0 -558.73 1066.17 0 -632.402 1083.07 0 -700.093 1085.17 0 -761.617 1069 0 -816.682 1043.1 0 -865.284 1020.43 0 -906.366 1011.87 0 -937.352 1010.37 0 -958.125 999.663 0 -969.828 964.66 0 -976.764 907.233 0 -979.344 841.487 0 -977.401 781.394 0 -969.921 731.751 0 -956.733 688.172 0 -938.035 645.927 0 -915.862 602.606 0 -890.757 559.031 0 -862.754 516.255 0 -832.591 475.045 0 -800.569 435.613 0 -766.699 398.102 0 -731.767 362.639 0 -696.268 329.287 0 -660.2 298.101 0 -624.072 269.127 0 -588.389 242.369 0 -553.151 217.822 0 -518.5 195.463 0 -484.661 175.159 0 -451.636 156.736 0 -419.514 140.025 0 -388.512 124.906 0 -358.64 111.284 0 -329.898 99.062 0 -302.285 88.1446 0 -275.803 78.4359 0 -250.412 69.8405 0 -225.881 62.2728 0 -202.173 55.6573 0 -179.287 49.9189 0 -157.224 44.9824 0 -135.983 40.7726 0 -115.548 37.2146 0 -95.5628 34.2521 0 -75.8829 31.8654 0 -56.5077 30.0388 0 -37.4374 28.7568 0 -18.6719 28.0037 0 -0.211126 27.7639 0 -0.091897 -306.593 0 26.0706 -306.567 0 52.1142 -306.507 0 78.0389 -306.393 0 103.845 -306.206 0 129.532 -305.925 0 155.1 -305.531 0 180.489 -305.001 0 205.556 -304.291 0 230.293 -303.346 0 254.701 -302.11 0 278.779 -300.529 0 302.527 -298.545 0 325.905 -296.104 0 348.667 -293.123 0 370.773 -289.492 0 392.222 -285.103 0 413.015 -279.847 0 433.151 -273.613 0 452.618 -266.292 0 471.12 -257.748 0 488.538 -247.795 0 504.87 -236.243 0 519.946 -222.91 0 533.662 -207.657 0 546.016 -190.346 0 556.667 -170.823 0 565.275 -148.862 0 571.84 -124.219 0 576.005 -96.6495 0 577.203 -65.9149 0 575.429 -31.7782 0 570.197 5.98607 0 560.323 47.4978 0 545.755 92.8232 0 526.076 142.03 0 499.727 195.222 0 466.558 252.525 0 426.525 314.047 0 379.369 379.369 0 325.047 447.552 0 263.881 517.642 0 199.249 589.074 0 132.048 661.819 0 62.163 735.88 0 -12.9653 810.061 0 -94.3834 880.836 0 -182.033 944.416 0 -271.395 998.3 0 -359.629 1043.55 0 -446.735 1081.84 0 -533.321 1113.65 0 -619.995 1134.66 0 -706.759 1139.36 0 -785.66 1124.37 0 -844.042 1098.6 0 -881.743 1075.45 0 -906.751 1066.23 0 -938.594 1063.93 0 -978.158 1052.14 0 -1020.02 1015.64 0 -1043.8 956.318 0 -1047.55 888.43 0 -1033.72 826.091 0 -1017.04 774.098 0 -999.98 727.928 0 -982.269 682.708 0 -961.14 636.033 0 -935.857 588.921 0 -906.488 542.641 0 -874.509 498.112 0 -840.526 455.572 0 -804.55 415.181 0 -767.421 377.075 0 -729.669 341.32 0 -691.293 307.968 0 -652.829 277.065 0 -614.813 248.619 0 -577.245 222.628 0 -540.34 199.067 0 -504.44 177.772 0 -469.548 158.529 0 -435.727 141.131 0 -403.131 125.437 0 -371.764 111.338 0 -341.629 98.7291 0 -312.724 87.5018 0 -285.051 77.5494 0 -258.566 68.7654 0 -233.024 61.055 0 -208.384 54.3353 0 -184.644 48.524 0 -161.806 43.5387 0 -139.868 39.2971 0 -118.814 35.7169 0 -98.244 32.7371 0 -77.9938 30.3372 0 -58.064 28.5016 0 -38.4544 27.2147 0 -19.1652 26.4609 0 -0.196252 26.2244 0 -0.0759308 -318.616 0 26.0774 -318.623 0 52.1313 -318.662 0 78.0859 -318.714 0 103.941 -318.76 0 129.697 -318.781 0 155.354 -318.758 0 180.861 -318.669 0 206.099 -318.472 0 231.062 -318.112 0 255.75 -317.538 0 280.162 -316.695 0 304.3 -315.53 0 328.128 -313.989 0 351.442 -311.99 0 374.209 -309.428 0 396.428 -306.194 0 418.099 -302.18 0 439.222 -297.28 0 459.787 -291.385 0 479.555 -284.362 0 498.428 -276.035 0 516.403 -266.219 0 533.283 -254.739 0 548.943 -241.439 0 563.383 -226.166 0 576.319 -208.751 0 587.469 -188.945 0 596.832 -166.482 0 604.046 -141.101 0 608.534 -112.557 0 610.287 -80.616 0 608.799 -45.0401 0 602.824 -5.58026 0 592.306 38.0191 0 576.832 86.0091 0 554.84 138.582 0 526.183 195.888 0 490.712 258.065 0 447.552 325.047 0 396.556 396.556 0 338.061 472.301 0 275.597 551.666 0 210.102 633.589 0 141.369 716.968 0 64.8625 800.229 0 -21.2741 880.874 0 -116.956 956.298 0 -215.572 1024.03 0 -312.971 1081.93 0 -409.152 1127.95 0 -506.166 1160.53 0 -606.065 1180.16 0 -708.847 1187.82 0 -802.278 1184.54 0 -866.881 1171.57 0 -902.406 1150.18 0 -921.728 1121.72 0 -956.32 1087.65 0 -1007.61 1049.54 0 -1066.79 1008.9 0 -1100.67 966.279 0 -1106.08 921.581 0 -1086.88 874.694 0 -1066.11 825.814 0 -1047.63 775.439 0 -1030.91 724.085 0 -1010.42 672.377 0 -984.684 621.097 0 -953.799 571.034 0 -919.853 522.811 0 -883.699 476.727 0 -845.35 433.043 0 -805.743 391.964 0 -765.468 353.548 0 -724.526 317.826 0 -683.473 284.823 0 -642.869 254.544 0 -602.714 226.99 0 -563.312 202.131 0 -525.146 179.776 0 -488.222 159.671 0 -452.57 141.572 0 -418.261 125.315 0 -385.298 110.774 0 -353.682 97.8233 0 -323.411 86.339 0 -294.487 76.1958 0 -266.864 67.2695 0 -240.273 59.4539 0 -214.668 52.6601 0 -190.049 46.8005 0 -166.417 41.7872 0 -143.771 37.5324 0 -122.091 33.9483 0 -100.931 30.9697 0 -80.1076 28.5742 0 -59.6206 26.7446 0 -39.4702 25.4637 0 -19.6564 24.7142 0 -0.179274 24.4788 0 -0.0605794 -329.774 0 26.0188 -329.814 0 52.0175 -329.95 0 77.9355 -330.164 0 103.773 -330.439 0 129.53 -330.755 0 155.206 -331.095 0 180.761 -331.439 0 206.098 -331.744 0 231.212 -331.962 0 256.103 -332.04 0 280.772 -331.927 0 305.217 -331.572 0 329.412 -330.923 0 353.193 -329.903 0 376.533 -328.407 0 399.431 -326.331 0 421.888 -323.57 0 443.904 -320.019 0 465.469 -315.575 0 486.39 -310.115 0 506.586 -303.488 0 526.055 -295.539 0 544.6 -286.102 0 562.1 -274.982 0 578.555 -261.982 0 593.727 -246.891 0 607.382 -229.452 0 619.519 -209.395 0 629.757 -186.459 0 637.489 -160.424 0 642.707 -131.087 0 644.949 -98.2204 0 643.089 -61.4044 0 637.074 -20.1189 0 626.432 26.1368 0 609.381 77.59 0 585.751 134.272 0 555.418 196.225 0 517.642 263.881 0 472.301 338.061 0 419.57 419.57 0 361.296 507.707 0 297.97 599.686 0 229.407 692.574 0 151.536 784.337 0 62.6884 874.693 0 -37.08 963.555 0 -143.555 1048.84 0 -254.089 1122.94 0 -368.682 1177.32 0 -483.361 1206.95 0 -594.155 1220.93 0 -701.064 1231.87 0 -798.134 1248.69 0 -875.888 1258.59 0 -934.206 1240.96 0 -978.277 1178.98 0 -1020.79 1089.18 0 -1062.33 1005.24 0 -1100.09 958.563 0 -1123.59 947.276 0 -1131.84 945.572 0 -1126.33 927.874 0 -1116.19 886.194 0 -1102.92 830.139 0 -1086.35 769.983 0 -1064.73 711.775 0 -1037.58 655.699 0 -1005.01 601.508 0 -969.047 549.171 0 -930.531 499.079 0 -889.476 451.669 0 -847.024 407.274 0 -803.894 365.932 0 -760.085 327.632 0 -716.162 292.364 0 -672.688 260.121 0 -629.664 230.897 0 -587.497 204.652 0 -546.835 181.169 0 -507.686 160.159 0 -470.041 141.347 0 -433.879 124.541 0 -399.201 109.59 0 -366.005 96.3448 0 -334.292 84.6563 0 -304.062 74.3751 0 -275.264 65.3529 0 -247.593 57.4695 0 -220.999 50.6318 0 -195.48 44.7485 0 -171.038 39.7279 0 -147.672 35.4784 0 -125.36 31.9087 0 -103.606 28.9499 0 -82.2076 26.5763 0 -61.1643 24.7678 0 -40.4764 23.5037 0 -20.1438 22.7636 0 -0.166509 22.5272 0 -0.0463527 -340.069 0 25.8963 -340.141 0 51.7759 -340.372 0 77.5925 -340.744 0 103.346 -341.241 0 129.037 -341.846 0 154.664 -342.542 0 180.198 -343.309 0 205.562 -344.11 0 230.753 -344.894 0 255.771 -345.615 0 280.616 -346.224 0 305.287 -346.671 0 329.765 -346.908 0 353.925 -346.861 0 377.746 -346.43 0 401.228 -345.514 0 424.371 -344.015 0 447.175 -341.831 0 469.633 -338.863 0 491.579 -334.998 0 512.945 -330.104 0 533.728 -324.044 0 553.778 -316.66 0 572.997 -307.734 0 591.388 -297.036 0 608.736 -284.333 0 624.83 -269.373 0 639.671 -251.901 0 652.856 -231.664 0 663.748 -208.421 0 672.339 -181.936 0 678.276 -151.944 0 680.691 -117.939 0 679.547 -79.2895 0 674.269 -35.3809 0 662.698 14.1627 0 644.626 69.5455 0 620.064 130.991 0 589.074 199.249 0 551.666 275.597 0 507.707 361.296 0 455.797 455.797 0 395.564 556.042 0 326.932 658.795 0 248.207 761.799 0 158.696 864.695 0 58.3736 967.338 0 -54.8261 1067.11 0 -182.2 1154.55 0 -323.748 1219.02 0 -462.909 1254.22 0 -583.119 1271.25 0 -684.378 1285.51 0 -775.89 1308.03 0 -872.301 1324.05 0 -973.8 1309.54 0 -1067.6 1244.83 0 -1122.43 1148.57 0 -1136.87 1059.13 0 -1121.89 1012.23 0 -1118.73 1005.43 0 -1131.34 1008.78 0 -1155.81 992.611 0 -1168.73 947.87 0 -1166.2 886.097 0 -1148.96 819.617 0 -1124.61 755.623 0 -1095.2 694.182 0 -1060.78 634.843 0 -1022.72 577.483 0 -981.583 522.627 0 -937.392 470.874 0 -891.624 422.669 0 -845.206 378.04 0 -798.139 336.94 0 -750.99 299.32 0 -704.324 265.109 0 -658.143 234.233 0 -612.952 206.592 0 -569.556 181.944 0 -527.966 159.995 0 -488.138 140.457 0 -449.961 123.115 0 -413.431 107.787 0 -378.549 94.2934 0 -345.313 82.4536 0 -313.725 72.0872 0 -283.724 63.0156 0 -254.952 55.1018 0 -227.349 48.2504 0 -200.915 42.3679 0 -175.65 37.3607 0 -151.554 33.1353 0 -128.602 29.5982 0 -106.251 26.6777 0 -84.2774 24.3437 0 -62.6821 22.5711 0 -41.4648 21.3346 0 -20.6255 20.6091 0 -0.164273 20.3695 0 -0.0337606 -349.5 0 25.7113 -349.604 0 51.4098 -349.927 0 77.0617 -350.453 0 102.667 -351.168 0 128.226 -352.055 0 153.738 -353.099 0 179.181 -354.281 0 204.5 -355.567 0 229.694 -356.91 0 254.761 -358.265 0 279.702 -359.586 0 304.517 -360.828 0 329.192 -361.944 0 353.64 -362.864 0 377.846 -363.496 0 401.811 -363.744 0 425.534 -363.515 0 449.016 -362.715 0 472.25 -361.248 0 495.094 -359.008 0 517.491 -355.867 0 539.44 -351.691 0 560.849 -346.324 0 581.661 -339.547 0 601.877 -331.127 0 621.288 -320.833 0 639.687 -308.44 0 657.074 -293.721 0 673.065 -276.435 0 687.053 -256.257 0 699.03 -232.829 0 708.727 -205.783 0 715.493 -174.643 0 719.298 -138.881 0 719.541 -97.9572 0 713.958 -51.1899 0 702.335 2.20635 0 684.766 63.0195 0 661.819 132.048 0 633.589 210.102 0 599.686 297.97 0 556.042 395.564 0 501.575 501.575 0 436.233 614.595 0 358.89 732.457 0 269.085 851.516 0 166.733 967.954 0 45.2744 1077.34 0 -99.4123 1173.54 0 -267.327 1250.13 0 -431.583 1302.69 0 -565.291 1334.91 0 -668.453 1352.46 0 -760.421 1360.23 0 -872.001 1358.48 0 -1003.59 1345.77 0 -1131.23 1321.09 0 -1196.37 1287.11 0 -1196.34 1248.39 0 -1150.83 1209.14 0 -1133.77 1168.96 0 -1152.26 1124.06 0 -1198.81 1070.76 0 -1228.52 1008.88 0 -1233.91 941.736 0 -1216.32 872.78 0 -1189.95 804.292 0 -1158.57 736.934 0 -1122.22 671.245 0 -1081.77 607.823 0 -1037.59 547.372 0 -989.69 490.608 0 -939.997 438.063 0 -889.711 389.759 0 -838.833 345.632 0 -787.97 305.592 0 -737.732 269.443 0 -688.119 236.968 0 -639.693 207.94 0 -593.346 182.101 0 -549.092 159.178 0 -506.86 138.901 0 -466.481 121.036 0 -427.948 105.365 0 -391.262 91.6693 0 -356.42 79.7311 0 -323.425 69.3322 0 -292.203 60.2575 0 -262.316 52.3508 0 -233.692 45.5158 0 -206.331 39.6587 0 -180.233 34.6857 0 -155.398 30.503 0 -131.798 27.0168 0 -108.846 24.1532 0 -86.3003 21.8762 0 -64.1606 20.1545 0 -42.4272 18.9565 0 -21.0999 18.2508 0 -0.178884 18.0058 0 -0.0233099 -358.063 0 25.4654 -358.197 0 50.9224 -358.61 0 76.3477 -359.287 0 101.741 -360.213 0 127.103 -361.375 0 152.433 -362.759 0 177.718 -364.348 0 202.922 -366.109 0 228.043 -368.001 0 253.083 -369.979 0 278.04 -372.004 0 302.916 -374.031 0 327.7 -376.018 0 352.343 -377.9 0 376.834 -379.591 0 401.175 -381.004 0 425.365 -382.052 0 449.405 -382.648 0 473.289 -382.705 0 496.907 -382.118 0 520.215 -380.747 0 543.212 -378.448 0 565.859 -375.063 0 588.13 -370.392 0 610.026 -364.228 0 631.33 -356.369 0 651.827 -346.628 0 671.515 -334.822 0 690.109 -320.727 0 707.151 -303.875 0 722.635 -283.707 0 736.276 -259.689 0 747.377 -231.488 0 755.906 -198.873 0 761.43 -161.551 0 762.319 -118.395 0 758.416 -67.6723 0 749.683 -7.68528 0 735.88 62.163 0 716.968 141.369 0 692.574 229.407 0 658.795 326.932 0 614.595 436.233 0 559.686 559.686 0 487.765 695.528 0 396.252 833.956 0 285.105 964.246 0 151.039 1079.01 0 -8.01031 1180.05 0 -192.043 1270.76 0 -375.443 1351.4 0 -532.596 1409.8 0 -663.502 1430.64 0 -778.007 1405.34 0 -891.788 1364.41 0 -1005.04 1352.55 0 -1107.53 1406.8 0 -1174.21 1497.45 0 -1203.95 1560.44 0 -1206.57 1536.12 0 -1219.03 1428.45 0 -1244.89 1287.23 0 -1280.12 1161.92 0 -1300.55 1070.18 0 -1302.18 997.943 0 -1285.86 929.887 0 -1260.6 857.925 0 -1228.79 783.978 0 -1190.5 710.703 0 -1147.14 640.165 0 -1099.28 573.281 0 -1046.97 510.839 0 -992.605 453.421 0 -937.719 401.053 0 -882.308 353.667 0 -827.109 311.13 0 -772.857 273.067 0 -719.554 239.042 0 -667.732 208.642 0 -618.239 181.594 0 -571.088 157.673 0 -526.205 136.653 0 -483.416 118.286 0 -442.712 102.308 0 -404.093 88.4597 0 -367.56 76.4777 0 -333.112 66.1008 0 -300.658 57.0706 0 -269.651 49.2101 0 -240.001 42.4233 0 -211.706 36.6178 0 -184.768 31.7011 0 -159.186 27.5807 0 -134.931 24.1644 0 -111.375 21.3766 0 -88.26 19.1744 0 -65.5869 17.5185 0 -43.3553 16.3697 0 -21.5652 15.6888 0 -0.216617 15.4366 0 -0.0151303 -365.65 0 25.1606 -365.814 0 50.3181 -366.312 0 75.4572 -367.131 0 100.578 -368.258 0 125.68 -369.682 0 150.765 -371.388 0 175.824 -373.364 0 200.842 -375.578 0 225.819 -377.991 0 250.755 -380.566 0 275.648 -383.262 0 300.501 -386.041 0 325.308 -388.863 0 350.051 -391.67 0 374.727 -394.382 0 399.335 -396.92 0 423.876 -399.205 0 448.35 -401.157 0 472.753 -402.696 0 497.02 -403.719 0 521.126 -404.082 0 545.07 -403.632 0 568.837 -402.212 0 592.419 -399.652 0 615.816 -395.779 0 638.804 -390.417 0 661.159 -383.39 0 682.882 -374.52 0 703.853 -363.578 0 723.883 -350.036 0 742.969 -333.257 0 760.697 -312.638 0 776.056 -287.878 0 788.998 -258.829 0 799.457 -225.264 0 807.171 -185.852 0 812.116 -138.47 0 813.888 -81.0393 0 810.061 -12.9653 0 800.229 64.8625 0 784.337 151.536 0 761.799 248.207 0 732.457 358.89 0 695.528 487.765 0 633.754 633.754 0 540.076 785.569 0 414.584 930.753 0 264.41 1060.62 0 94.0347 1176.91 0 -96.543 1283.14 0 -293.923 1379.06 0 -484.704 1449.21 0 -668.887 1474.39 0 -827.334 1444 0 -929.576 1397.91 0 -975.226 1394.25 0 -992.882 1481 0 -1052.46 1617.72 0 -1157.14 1718.45 0 -1288.08 1703.13 0 -1374.48 1576.87 0 -1409.55 1406.18 0 -1399.88 1257.08 0 -1385.04 1152.88 0 -1371.63 1074.22 0 -1358.84 1000.11 0 -1338.23 919.62 0 -1307.57 835.861 0 -1267 752.949 0 -1219.84 673.913 0 -1167.43 599.663 0 -1109.83 530.864 0 -1049.93 468.011 0 -989.582 411.118 0 -928.776 360.118 0 -868.491 314.844 0 -809.7 274.743 0 -752.405 239.161 0 -697.011 207.493 0 -644.166 179.415 0 -593.879 154.704 0 -546.096 133.131 0 -500.686 114.421 0 -457.643 98.272 0 -416.968 84.384 0 -378.661 72.4559 0 -342.72 62.1867 0 -309.033 53.2799 0 -276.908 45.5391 0 -246.231 38.8679 0 -217.003 33.1746 0 -189.222 28.3672 0 -162.89 24.3539 0 -137.975 21.0429 0 -113.816 18.357 0 -90.1404 16.248 0 -66.949 14.6704 0 -44.2415 13.5791 0 -22.0181 12.929 0 -0.278626 12.6747 0 -0.00861886 -372.219 0 24.8009 -372.41 0 49.604 -372.987 0 74.4007 -373.939 0 99.191 -375.255 0 123.975 -376.923 0 148.753 -378.932 0 173.524 -381.27 0 198.291 -383.907 0 223.054 -386.811 0 247.812 -389.944 0 272.566 -393.272 0 297.315 -396.76 0 322.061 -400.372 0 346.814 -404.054 0 371.576 -407.734 0 396.345 -411.341 0 421.123 -414.802 0 445.91 -418.044 0 470.704 -420.997 0 495.492 -423.563 0 520.269 -425.6 0 545.034 -426.961 0 569.778 -427.5 0 594.492 -427.076 0 619.179 -425.549 0 643.635 -422.764 0 667.658 -418.503 0 691.249 -412.534 0 714.438 -404.594 0 737.276 -394.235 0 759.762 -380.943 0 781.39 -364.21 0 800.922 -343.568 0 818.303 -318.571 0 833.791 -288.727 0 848.366 -252.907 0 862.12 -209.525 0 874.35 -157.008 0 880.836 -94.3834 0 880.874 -21.2741 0 874.693 62.6884 0 864.695 158.696 0 851.516 269.085 0 833.956 396.252 0 785.569 540.076 0 695.539 695.539 0 564.009 857.059 0 402.191 1017.48 0 217.129 1165.28 0 8.82309 1288.21 0 -212.431 1376.96 0 -436.339 1434.06 0 -662.9 1465.02 0 -853.484 1476.49 0 -946.596 1481.91 0 -941.449 1497.18 0 -896.317 1535.11 0 -953.644 1581.71 0 -1119.91 1609.16 0 -1354.13 1591.51 0 -1502.24 1529.52 0 -1549.49 1443.23 0 -1510.5 1352.57 0 -1472.97 1265.61 0 -1451.52 1178.56 0 -1444.02 1087.19 0 -1428.11 990.644 0 -1397.86 892.805 0 -1353.54 797.874 0 -1301.05 708.824 0 -1242.82 626.232 0 -1178.88 550.397 0 -1112.51 481.535 0 -1045.74 419.626 0 -978.581 364.608 0 -912.35 316.29 0 -848.361 273.965 0 -786.616 236.794 0 -727.332 204 0 -670.856 175.153 0 -617.193 149.954 0 -566.307 128.097 0 -518.11 109.261 0 -472.596 93.1146 0 -429.767 79.3276 0 -389.621 67.5684 0 -352.16 57.5058 0 -317.241 48.8138 0 -284.004 41.28 0 -252.308 34.8066 0 -222.153 29.3003 0 -193.538 24.6679 0 -166.463 20.8164 0 -140.897 17.6527 0 -116.147 15.098 0 -91.9267 13.1009 0 -68.2377 11.6132 0 -45.0796 10.5868 0 -22.4524 9.97357 0 -0.356116 9.72524 0 -0.00308849 -377.769 0 24.39 -377.984 0 48.7875 -378.635 0 73.1892 -379.711 0 97.5952 -381.203 0 122.005 -383.099 0 146.42 -385.39 0 170.846 -388.065 0 195.3 -391.098 0 219.782 -394.458 0 244.294 -398.115 0 268.834 -402.035 0 293.403 -406.189 0 318.007 -410.543 0 342.682 -415.051 0 367.434 -419.646 0 392.263 -424.265 0 417.169 -428.842 0 442.152 -433.311 0 467.214 -437.609 0 492.39 -441.648 0 517.695 -445.302 0 543.13 -448.436 0 568.672 -450.926 0 594.31 -452.662 0 620.042 -453.536 0 645.748 -453.403 0 671.306 -451.958 0 696.715 -448.856 0 722.038 -443.769 0 747.378 -436.469 0 772.734 -426.764 0 797.709 -414.395 0 821.332 -398.537 0 843.556 -378.075 0 864.679 -351.928 0 885.808 -319.565 0 907.049 -280.848 0 927.797 -235.579 0 944.416 -182.033 0 956.298 -116.956 0 963.555 -37.08 0 967.338 58.3736 0 967.954 166.733 0 964.246 285.105 0 930.753 414.584 0 857.059 564.009 0 743.09 743.09 0 582.864 948.965 0 372.626 1144.04 0 112.376 1284.77 0 -159.328 1344.55 0 -403.927 1364.59 0 -621.42 1403.01 0 -795.432 1502.46 0 -899.891 1615.03 0 -934.464 1660.05 0 -939.683 1570.12 0 -1014.63 1393.94 0 -1163.8 1239.95 0 -1358.87 1209.01 0 -1493.32 1292.16 0 -1556.96 1401.3 0 -1558.94 1449.18 0 -1554.27 1408.27 0 -1552.11 1310.72 0 -1551.01 1191.01 0 -1535.9 1070.96 0 -1502.76 954.793 0 -1451.98 845.461 0 -1391.98 744.872 0 -1326.22 652.952 0 -1254.75 569.394 0 -1180.86 493.953 0 -1106.64 426.546 0 -1032.08 367.117 0 -958.938 315.456 0 -888.955 270.727 0 -822.132 231.94 0 -758.479 198.162 0 -698.014 168.809 0 -640.735 143.422 0 -586.598 121.55 0 -535.493 102.805 0 -487.414 86.8364 0 -442.362 73.2905 0 -400.337 61.8151 0 -361.338 52.058 0 -325.192 43.6721 0 -290.856 36.4331 0 -258.154 30.2394 0 -227.087 24.9948 0 -197.655 20.6032 0 -169.858 16.9683 0 -143.663 13.994 0 -118.344 11.5995 0 -93.6042 9.73317 0 -69.444 8.347 0 -45.863 7.39288 0 -22.8614 6.82267 0 -0.439151 6.5883 0 0.00214783 -382.3 0 23.9321 -382.538 0 47.8758 -383.257 0 71.8335 -384.448 0 95.805 -386.102 0 119.79 -388.21 0 143.79 -390.763 0 167.815 -393.75 0 191.898 -397.149 0 216.038 -400.934 0 240.237 -405.077 0 264.495 -409.551 0 288.81 -414.327 0 313.194 -419.378 0 337.707 -424.661 0 362.358 -430.119 0 387.148 -435.693 0 412.076 -441.325 0 437.142 -446.958 0 462.351 -452.533 0 487.779 -457.975 0 513.459 -463.177 0 539.388 -468.029 0 565.534 -472.424 0 591.873 -476.262 0 618.405 -479.448 0 645.149 -481.837 0 672.122 -483.091 0 699.324 -482.826 0 726.701 -480.698 0 754.168 -476.611 0 781.724 -470.554 0 809.33 -462.42 0 836.892 -451.216 0 864.406 -435.501 0 891.82 -413.915 0 918.934 -386.303 0 945.729 -353.379 0 972.198 -315.759 0 998.3 -271.395 0 1024.03 -215.572 0 1048.84 -143.555 0 1067.11 -54.8261 0 1077.34 45.2744 0 1079.01 151.039 0 1060.62 264.41 0 1017.48 402.191 0 948.965 582.864 0 806.968 806.968 0 561.263 1025.46 0 211.85 1180.82 0 -137.984 1238.91 0 -384.948 1259.22 0 -529.043 1324.65 0 -626.636 1494.44 0 -767.454 1689.68 0 -952.646 1781.44 0 -1147.21 1661.86 0 -1265.57 1406.78 0 -1303.84 1186.68 0 -1288.56 1160.11 0 -1319.49 1313.38 0 -1406.18 1508.66 0 -1535.87 1609.46 0 -1631.88 1573.51 0 -1681.44 1452.72 0 -1686.39 1302.62 0 -1665.9 1157.19 0 -1625.08 1020.5 0 -1564.38 894.427 0 -1494.18 780.05 0 -1418.73 676.943 0 -1338.08 584.501 0 -1255.31 502.166 0 -1172.4 429.505 0 -1089.34 366.103 0 -1008.3 311.439 0 -931.462 264.556 0 -858.821 224.386 0 -790.204 189.909 0 -725.334 160.37 0 -664.208 135.11 0 -606.726 113.491 0 -552.641 95.0552 0 -501.942 79.4373 0 -454.628 66.2725 0 -410.701 55.1961 0 -370.16 45.8433 0 -332.798 37.855 0 -297.377 30.9981 0 -263.688 25.1662 0 -231.733 20.2582 0 -201.512 16.173 0 -173.024 12.8094 0 -146.235 10.0667 0 -120.384 7.86148 0 -95.1582 6.14483 0 -70.5589 4.87174 0 -46.5858 3.99722 0 -23.2387 3.47625 0 -0.517795 3.26384 0 0.00777717 -385.812 0 23.4309 -386.07 0 46.8765 -386.852 0 70.3446 -388.149 0 93.8351 -389.953 0 117.348 -392.256 0 140.884 -395.049 0 164.459 -398.324 0 188.116 -402.062 0 211.857 -406.239 0 235.681 -410.832 0 259.589 -415.818 0 283.581 -421.174 0 307.67 -426.875 0 331.939 -432.885 0 356.401 -439.151 0 381.057 -445.625 0 405.905 -452.253 0 430.947 -458.984 0 456.187 -465.768 0 481.733 -472.541 0 507.627 -479.221 0 533.871 -485.723 0 560.434 -491.951 0 587.299 -497.786 0 614.464 -503.102 0 642.066 -507.751 0 670.238 -511.484 0 698.98 -514.03 0 728.132 -515.127 0 757.438 -514.578 0 786.893 -512.213 0 816.803 -507.8 0 847.91 -500.62 0 880.249 -489.694 0 913.416 -474.087 0 945.898 -453.418 0 977.55 -427.708 0 1008.95 -396.925 0 1043.55 -359.629 0 1081.93 -312.971 0 1122.94 -254.089 0 1154.55 -182.2 0 1173.54 -99.4123 0 1180.05 -8.01031 0 1176.91 94.0347 0 1165.28 217.129 0 1144.04 372.626 0 1025.46 561.263 0 754.447 754.447 0 330.99 918.561 0 -82.7311 1033.04 0 -324.54 1129.53 0 -394.436 1252.74 0 -415.827 1435.17 0 -585.156 1638.26 0 -904.942 1797.66 0 -1273.42 1857.96 0 -1441.84 1841.6 0 -1398.9 1811.11 0 -1218.07 1824.56 0 -1175.61 1875.02 0 -1297.98 1908.72 0 -1552.68 1872.7 0 -1744.69 1756.73 0 -1841.51 1593.28 0 -1848.27 1416.39 0 -1818.59 1247.24 0 -1766.75 1089.1 0 -1693.28 943.965 0 -1610.15 813.096 0 -1522.25 696.396 0 -1429.62 593.613 0 -1335.6 504.231 0 -1242.25 427.012 0 -1149.6 360.595 0 -1059.92 303.672 0 -975.505 255.153 0 -896.343 214.002 0 -822.154 179.198 0 -752.48 149.828 0 -687.316 125.016 0 -626.45 103.92 0 -569.36 86.0098 0 -516.023 70.9173 0 -466.44 58.2738 0 -420.609 47.7113 0 -378.532 38.8617 0 -339.969 31.3623 0 -303.482 24.9752 0 -268.834 19.5872 0 -236.023 15.0905 0 -205.05 11.3773 0 -175.914 8.33997 0 -148.58 5.87084 0 -122.243 3.88404 0 -96.574 2.33586 0 -71.5736 1.18743 0 -47.2415 0.399873 0 -23.5776 -0.0656906 0 -0.582112 -0.248134 0 0.0144866 -388.305 0 22.8904 -388.581 0 45.7967 -389.42 0 68.7333 -390.814 0 91.7003 -392.755 0 114.698 -395.236 0 137.725 -398.25 0 160.804 -401.788 0 183.985 -405.835 0 207.272 -410.372 0 230.663 -415.379 0 254.159 -420.838 0 277.76 -426.73 0 301.483 -433.035 0 325.43 -439.721 0 349.619 -446.745 0 374.049 -454.06 0 398.72 -461.624 0 423.632 -469.389 0 448.792 -477.313 0 474.321 -485.347 0 500.272 -493.433 0 526.643 -501.517 0 553.457 -509.508 0 580.726 -517.232 0 608.451 -524.498 0 636.765 -531.145 0 665.802 -537.138 0 695.561 -542.468 0 725.977 -547.054 0 756.944 -550.372 0 788.46 -551.738 0 820.833 -550.537 0 854.814 -546.747 0 890.438 -540.655 0 927.412 -532.446 0 964.634 -520.912 0 1002 -503.836 0 1040.03 -479.076 0 1081.84 -446.735 0 1127.95 -409.152 0 1177.32 -368.682 0 1219.02 -323.748 0 1250.13 -267.327 0 1270.76 -192.043 0 1283.14 -96.543 0 1288.21 8.82309 0 1284.77 112.376 0 1180.82 211.85 0 918.561 330.99 0 497.996 497.996 0 83.9187 726.959 0 -158.876 975.536 0 -230.388 1187.28 0 -248.047 1324.66 0 -398.778 1460.77 0 -684.98 1708.69 0 -1026.67 2158.42 0 -1228.33 2698.39 0 -1281.09 3113.23 0 -1237.43 3202.35 0 -1294.75 2977.06 0 -1471.96 2601.47 0 -1741.46 2238.89 0 -1937.75 1957.91 0 -2033.25 1732.39 0 -2033.3 1532.32 0 -1993.8 1341.09 0 -1929.6 1160.59 0 -1841.33 994.077 0 -1742.55 844.009 0 -1638.81 711.312 0 -1530.17 596.729 0 -1421.34 500.146 0 -1315.27 419.068 0 -1211.98 350.593 0 -1113.19 292.156 0 -1020.64 242.52 0 -934.323 200.786 0 -853.962 166.028 0 -779.11 137.185 0 -709.762 113.141 0 -645.527 92.836 0 -585.456 75.6694 0 -529.503 61.2764 0 -477.67 49.2944 0 -429.956 39.3608 0 -386.361 31.1133 0 -346.614 24.1942 0 -309.087 18.3644 0 -273.511 13.5022 0 -239.884 9.49162 0 -208.206 6.21623 0 -178.479 3.55984 0 -150.661 1.40639 0 -123.898 -0.332865 0 -97.8369 -1.69373 0 -72.479 -2.70593 0 -47.8238 -3.39916 0 -23.8716 -3.80316 0 -0.622165 -3.94762 0 0.0226992 -389.836 0 22.3147 -390.128 0 44.6441 -391.018 0 67.0111 -392.499 0 89.4155 -394.563 0 111.857 -397.205 0 134.337 -400.416 0 156.877 -404.191 0 179.537 -408.517 0 202.319 -413.378 0 225.222 -418.761 0 248.247 -424.649 0 271.394 -431.029 0 294.683 -437.884 0 318.235 -445.188 0 342.07 -452.904 0 366.187 -460.993 0 390.587 -469.417 0 415.27 -478.138 0 440.241 -487.118 0 465.626 -496.318 0 491.478 -505.704 0 517.796 -515.238 0 544.706 -524.842 0 572.288 -534.312 0 600.541 -543.427 0 629.434 -552.031 0 658.937 -560.238 0 689.05 -568.228 0 720.097 -576.048 0 752.595 -582.968 0 786.551 -587.975 0 821.771 -590.21 0 857.785 -590.172 0 894.57 -589.057 0 932.64 -587.865 0 973.921 -584.859 0 1018.6 -576.329 0 1066.17 -558.73 0 1113.65 -533.321 0 1160.53 -506.166 0 1206.95 -483.361 0 1254.22 -462.909 0 1302.69 -431.583 0 1351.4 -375.443 0 1379.06 -293.923 0 1376.96 -212.431 0 1344.55 -159.328 0 1238.91 -137.984 0 1033.04 -82.7311 0 726.959 83.9187 0 404.839 404.839 0 150.859 784.435 0 -34.9799 1092.5 0 -157.379 1239.11 0 -223.819 1369.7 0 -234.398 1714.85 0 -258.649 2460.49 0 -466.547 3402.78 0 -865.819 4137.15 0 -1390.54 4286.87 0 -1792.81 3875.27 0 -2048.92 3214 0 -2171.74 2612.98 0 -2238.64 2196.38 0 -2262.5 1902.57 0 -2244.35 1662.5 0 -2194.86 1436.47 0 -2116.85 1225.47 0 -2011.05 1033.49 0 -1893.06 863.355 0 -1769.28 715.679 0 -1639.8 590.808 0 -1512.03 488.036 0 -1390.65 403.749 0 -1275.64 333.835 0 -1167.39 274.712 0 -1066.25 224.925 0 -972.221 183.546 0 -885.157 149.607 0 -804.82 121.89 0 -731.206 99.0875 0 -663.682 79.9587 0 -600.704 63.8509 0 -542.201 50.4141 0 -488.173 39.3006 0 -438.62 30.1627 0 -393.542 22.6529 0 -352.638 16.4282 0 -314.106 11.2532 0 -277.642 6.99956 0 -243.249 3.54401 0 -210.926 0.763086 0 -180.672 -1.46664 0 -152.446 -3.26834 0 -125.325 -4.73237 0 -98.9314 -5.88539 0 -73.2651 -6.74675 0 -48.3261 -7.33578 0 -24.1145 -7.67184 0 -0.63022 -7.77426 0 0.0317824 -390.461 0 21.7075 -390.767 0 43.4271 -391.702 0 65.1906 -393.258 0 86.9979 -395.43 0 108.849 -398.213 0 130.744 -401.599 0 152.708 -405.583 0 174.805 -410.155 0 197.036 -415.305 0 219.402 -421.02 0 241.903 -427.289 0 264.539 -434.102 0 287.333 -441.446 0 310.421 -449.301 0 333.827 -457.635 0 357.551 -466.416 0 381.593 -475.613 0 405.952 -485.194 0 430.634 -495.128 0 455.765 -505.382 0 481.395 -515.923 0 507.527 -526.715 0 534.384 -537.698 0 562.106 -548.736 0 590.693 -559.68 0 619.945 -570.418 0 649.663 -580.971 0 679.846 -591.397 0 711.211 -601.676 0 744.9 -611.341 0 780.927 -619.764 0 818.562 -626.401 0 856.018 -631.469 0 893.214 -635.576 0 931.497 -639.217 0 975.923 -641.336 0 1026.98 -639.757 0 1083.07 -632.402 0 1134.66 -619.995 0 1180.16 -606.065 0 1220.93 -594.155 0 1271.25 -583.119 0 1334.91 -565.291 0 1409.8 -532.596 0 1449.21 -484.704 0 1434.06 -436.339 0 1364.59 -403.927 0 1259.22 -384.948 0 1129.53 -324.54 0 975.536 -158.876 0 784.435 150.859 0 543.442 543.442 0 252.555 932.637 0 25.9482 1254.73 0 45.3645 1577.53 0 313.134 2016.43 0 605.502 2661.4 0 375.516 3380.37 0 -401.688 3926.95 0 -1536.64 4071.54 0 -2316.96 3825.4 0 -2674.44 3373.39 0 -2662.86 2899.92 0 -2604.99 2491.43 0 -2554.62 2136.36 0 -2508.98 1819.04 0 -2439.11 1531.1 0 -2337.32 1274.25 0 -2204.46 1050.93 0 -2059.39 861.696 0 -1909.8 703.487 0 -1755.81 572.807 0 -1606.63 466.025 0 -1468.03 379.132 0 -1340 308.054 0 -1221.38 249.166 0 -1110.99 200.637 0 -1008.83 161.09 0 -914.851 129.141 0 -828.954 103.397 0 -751.142 82.4598 0 -680.494 65.0061 0 -614.759 50.3714 0 -553.836 38.23 0 -497.724 28.2588 0 -446.423 20.135 0 -399.933 13.5357 0 -357.927 8.14192 0 -318.443 3.72921 0 -281.155 0.1673 0 -246.061 -2.66997 0 -213.162 -4.90874 0 -182.458 -6.67516 0 -153.904 -8.09509 0 -126.5 -9.25763 0 -99.8382 -10.1806 0 -73.9179 -10.8735 0 -48.7393 -11.3459 0 -24.3025 -11.6074 0 -0.607358 -11.6677 0 0.0408398 -390.179 0 21.0729 -390.499 0 42.1543 -391.472 0 63.2849 -393.093 0 84.4649 -395.358 0 105.694 -398.261 0 126.973 -401.798 0 148.327 -405.963 0 169.823 -410.75 0 191.464 -416.15 0 213.249 -422.156 0 235.178 -428.758 0 257.252 -435.95 0 279.496 -443.723 0 302.06 -452.06 0 324.97 -460.937 0 348.226 -470.328 0 371.828 -480.21 0 395.776 -490.557 0 420.076 -501.344 0 444.862 -512.539 0 470.189 -524.09 0 496.059 -535.947 0 522.711 -548.077 0 550.295 -560.503 0 578.811 -573.258 0 608.093 -586.306 0 637.975 -599.338 0 668.455 -611.976 0 700.255 -623.938 0 734.518 -635.492 0 771.259 -647.105 0 809.796 -659.109 0 848.463 -670.639 0 887.182 -680.213 0 927.267 -686.503 0 973.651 -690.342 0 1026.81 -694.119 0 1085.17 -700.093 0 1139.36 -706.759 0 1187.82 -708.847 0 1231.87 -701.064 0 1285.51 -684.378 0 1352.46 -668.453 0 1430.64 -663.502 0 1474.39 -668.887 0 1465.02 -662.9 0 1403.01 -621.42 0 1324.65 -529.043 0 1252.74 -394.436 0 1187.28 -230.388 0 1092.5 -34.9799 0 932.637 252.555 0 707.693 707.693 0 522.666 1371.52 0 544.7 2084.25 0 775.937 2613.43 0 997.295 2761.15 0 673.236 2631.18 0 -220.583 2482.63 0 -1488.85 2556.34 0 -2397.19 2827.44 0 -2875.29 3079.63 0 -2971.62 3099.71 0 -2976.99 2843.07 0 -2939.86 2433.75 0 -2860.93 2001.93 0 -2747.42 1624.97 0 -2601.24 1306.92 0 -2423.5 1046.39 0 -2238.24 839.034 0 -2055.33 674.737 0 -1874.84 542.727 0 -1703.95 434.114 0 -1547.18 345.218 0 -1404.53 273.252 0 -1273.93 215.515 0 -1153.36 169.657 0 -1042.8 133.416 0 -942.053 104.63 0 -850.796 81.7054 0 -769.024 63.2575 0 -695.508 47.9782 0 -627.247 35.2309 0 -564.104 24.724 0 -506.078 16.1691 0 -453.171 9.27784 0 -405.38 3.76157 0 -362.358 -0.664709 0 -322.007 -4.20746 0 -283.975 -6.99453 0 -248.265 -9.15031 0 -214.875 -10.7992 0 -183.806 -12.0657 0 -155.008 -13.0738 0 -127.399 -13.9086 0 -100.537 -14.5792 0 -74.4222 -15.086 0 -49.0537 -15.4295 0 -24.4319 -15.6099 0 -0.556858 -15.6278 0 0.0489748 -388.991 0 20.4148 -389.322 0 40.8342 -390.327 0 61.3073 -392.003 0 81.834 -394.345 0 102.414 -397.349 0 123.048 -401.013 0 143.764 -405.332 0 164.627 -410.301 0 185.641 -415.915 0 206.807 -422.169 0 228.123 -429.056 0 249.591 -436.573 0 271.237 -444.713 0 293.223 -453.465 0 315.577 -462.81 0 338.298 -472.731 0 361.386 -483.209 0 384.842 -494.227 0 408.672 -505.767 0 433.039 -517.794 0 458.009 -530.246 0 483.583 -543.056 0 509.882 -556.22 0 536.981 -569.905 0 564.881 -584.31 0 593.793 -599.468 0 623.925 -614.771 0 655.279 -629.445 0 687.921 -642.97 0 721.961 -656.291 0 757.398 -670.884 0 794.606 -687.883 0 834.495 -705.435 0 877.108 -720.151 0 922.261 -729.036 0 969.263 -734.622 0 1018.05 -743.423 0 1069 -761.617 0 1124.37 -785.66 0 1184.54 -802.278 0 1248.69 -798.134 0 1308.03 -775.89 0 1360.23 -760.421 0 1405.34 -778.007 0 1444 -827.334 0 1476.49 -853.484 0 1502.46 -795.432 0 1494.44 -626.636 0 1435.17 -415.827 0 1324.66 -248.047 0 1239.11 -157.379 0 1254.73 25.9482 0 1371.52 522.666 0 1471.84 1471.84 0 1368.45 2535.59 0 1058.95 3203.41 0 587.182 3045.24 0 60.2819 2333.14 0 -516.877 1700.7 0 -1134.58 1737.07 0 -1756.29 2387.52 0 -2378.52 3133.29 0 -2969.4 3461.84 0 -3337.84 3239.7 0 -3451.96 2712.51 0 -3327.84 2139.9 0 -3133.15 1670.81 0 -2912.51 1300.57 0 -2667.23 1013.18 0 -2426.39 792.923 0 -2201.9 624.565 0 -1993.75 492.942 0 -1802.01 385.821 0 -1626.74 299.064 0 -1467.94 229.92 0 -1323.68 175.667 0 -1192.03 133.693 0 -1072.99 101.412 0 -965.884 76.3682 0 -869.661 56.8656 0 -784.304 41.481 0 -708.27 28.8751 0 -637.792 18.4293 0 -572.7 9.89618 0 -512.992 3.03155 0 -458.669 -2.4089 0 -409.732 -6.66942 0 -365.811 -9.99166 0 -324.7 -12.5569 0 -286.032 -14.4859 0 -249.806 -15.897 0 -216.022 -16.9084 0 -184.681 -17.6383 0 -155.729 -18.2046 0 -127.997 -18.6854 0 -101.009 -19.0814 0 -74.7629 -19.3845 0 -49.2599 -19.5865 0 -24.4995 -19.6793 0 -0.482003 -19.6548 0 0.055291 -386.897 0 19.737 -387.238 0 39.4756 -388.269 0 59.2708 -389.987 0 79.1229 -392.391 0 99.0317 -395.478 0 118.997 -399.244 0 139.047 -403.689 0 159.25 -408.808 0 179.607 -414.599 0 200.121 -421.059 0 220.789 -428.184 0 241.613 -435.971 0 262.62 -444.417 0 283.981 -453.516 0 305.724 -463.255 0 327.849 -473.623 0 350.356 -484.61 0 373.245 -496.205 0 396.525 -508.395 0 420.388 -521.16 0 444.912 -534.457 0 470.098 -548.24 0 495.912 -562.513 0 522.333 -577.405 0 549.363 -593.07 0 577.668 -609.54 0 607.916 -626.366 0 640.106 -642.977 0 673.49 -658.992 0 706.875 -675.13 0 740.244 -692.509 0 775.259 -711.999 0 815.982 -732.28 0 862.597 -750.909 0 913.095 -765.727 0 959.918 -778.547 0 1002.34 -794.05 0 1043.1 -816.682 0 1098.6 -844.042 0 1171.57 -866.881 0 1258.59 -875.888 0 1324.05 -872.301 0 1358.48 -872.001 0 1364.41 -891.788 0 1397.91 -929.576 0 1481.91 -946.596 0 1615.03 -899.891 0 1689.68 -767.454 0 1638.26 -585.156 0 1460.77 -398.778 0 1369.7 -223.819 0 1577.53 45.3645 0 2084.25 544.7 0 2535.59 1368.45 0 2367.56 2367.56 0 1572.95 3304.91 0 440.976 3968.14 0 -321.354 4361.33 0 -681.905 4600.05 0 -795.315 4790.72 0 -1243.02 4903.15 0 -2080.69 4808.69 0 -3196.79 4383.45 0 -3922.11 3662.87 0 -4145.11 2841.73 0 -3901.63 2119.48 0 -3566.1 1593.34 0 -3238.08 1218.7 0 -2918.22 940.628 0 -2620.83 719.47 0 -2351.75 545.228 0 -2110.92 411.317 0 -1894.12 310.83 0 -1698.69 235.983 0 -1524.64 178.84 0 -1368.5 132.658 0 -1226.84 95.4662 0 -1099.64 66.4841 0 -986.135 44.8232 0 -885.075 28.9576 0 -796.444 17.131 0 -718.324 7.69671 0 -646.02 -0.033345 0 -579.319 -6.25348 0 -518.221 -11.154 0 -462.725 -14.9252 0 -412.833 -17.7573 0 -368.163 -19.8389 0 -326.43 -21.319 0 -287.252 -22.3069 0 -250.63 -22.9101 0 -216.563 -23.2363 0 -185.052 -23.3929 0 -156.039 -23.4874 0 -128.271 -23.5879 0 -101.232 -23.6871 0 -74.925 -23.7688 0 -49.3481 -23.8171 0 -24.5018 -23.8157 0 -0.386074 -23.7485 0 0.0588918 -383.897 0 19.0436 -384.246 0 38.0869 -385.296 0 57.1887 -387.047 0 76.3489 -389.497 0 95.5677 -392.646 0 114.845 -396.492 0 134.209 -401.034 0 153.727 -406.272 0 173.403 -412.203 0 193.236 -418.826 0 213.227 -426.14 0 233.375 -434.144 0 253.71 -442.836 0 274.406 -452.213 0 295.491 -462.271 0 316.966 -473.005 0 338.831 -484.413 0 361.085 -496.489 0 383.739 -509.23 0 406.99 -522.637 0 430.922 -536.722 0 455.532 -551.501 0 480.752 -566.959 0 506.537 -583.007 0 532.887 -599.541 0 560.6 -616.517 0 590.474 -634.111 0 622.508 -652.56 0 655.73 -672.004 0 688.594 -692.024 0 721.077 -711.998 0 755.163 -731.449 0 795.69 -751.13 0 842.88 -772.431 0 894.325 -796.56 0 940.97 -822.172 0 981.949 -846.083 0 1020.43 -865.284 0 1075.45 -881.743 0 1150.18 -902.406 0 1240.96 -934.206 0 1309.54 -973.8 0 1345.77 -1003.59 0 1352.55 -1005.04 0 1394.25 -975.226 0 1497.18 -941.449 0 1660.05 -934.464 0 1781.44 -952.646 0 1797.66 -904.942 0 1708.69 -684.98 0 1714.85 -234.398 0 2016.43 313.134 0 2613.43 775.937 0 3203.41 1058.95 0 3304.91 1572.95 0 2911.77 2911.77 0 2129.55 5535.67 0 1216.27 8739.8 0 183.664 11219.4 0 -949.648 11758 0 -2113.67 10405.1 0 -3301.7 8122.18 0 -4436.57 5869.65 0 -5055.35 4112.34 0 -5080.86 2819.74 0 -4561.32 1939.22 0 -4000.24 1391.6 0 -3531.51 1060.85 0 -3153.04 828.595 0 -2818.62 618.625 0 -2509.35 436.628 0 -2225.29 297.695 0 -1971.91 209.008 0 -1752.61 155.915 0 -1567.42 120.021 0 -1406 86.5263 0 -1258.03 55.0115 0 -1123.51 28.6518 0 -1002.84 10.0009 0 -896.634 -2.01728 0 -804.911 -9.79246 0 -725.215 -15.557 0 -651.554 -20.157 0 -583.655 -23.725 0 -521.519 -26.3875 0 -465.145 -28.271 0 -414.533 -29.502 0 -369.295 -30.2065 0 -327.101 -30.4939 0 -287.563 -30.4574 0 -250.681 -30.1896 0 -216.455 -29.7828 0 -184.886 -29.3296 0 -155.911 -28.9221 0 -128.194 -28.6161 0 -101.188 -28.3963 0 -74.8932 -28.2391 0 -49.3088 -28.1211 0 -24.4352 -28.0189 0 -0.272353 -27.909 0 0.059007 -380.066 0 18.3385 -380.422 0 36.6767 -381.486 0 55.0737 -383.259 0 73.5293 -385.742 0 92.0438 -388.934 0 110.617 -392.837 0 129.277 -397.451 0 148.092 -402.776 0 167.065 -408.812 0 186.197 -415.559 0 205.487 -423.017 0 224.935 -431.185 0 244.571 -440.065 0 264.568 -449.657 0 284.955 -459.964 0 305.733 -470.988 0 326.901 -482.732 0 348.459 -495.199 0 370.415 -508.391 0 392.932 -522.338 0 416.077 -537.115 0 439.851 -552.809 0 464.389 -569.381 0 489.775 -586.46 0 516.01 -603.619 0 543.356 -620.707 0 572.074 -638.683 0 602.166 -658.782 0 633.662 -681.789 0 666.613 -705.847 0 701.02 -728.144 0 737.212 -746.496 0 775.997 -764.217 0 817.412 -787.447 0 861.538 -821.566 0 908.681 -861.29 0 958.872 -893.652 0 1011.87 -906.366 0 1066.23 -906.751 0 1121.72 -921.728 0 1178.98 -978.277 0 1244.83 -1067.6 0 1321.09 -1131.23 0 1406.8 -1107.53 0 1481 -992.882 0 1535.11 -896.317 0 1570.12 -939.683 0 1661.86 -1147.21 0 1857.96 -1273.42 0 2158.42 -1026.67 0 2460.49 -258.649 0 2661.4 605.502 0 2761.15 997.295 0 3045.24 587.182 0 3968.14 440.976 0 5535.67 2129.55 0 6906.91 6906.91 0 6026.22 13263.1 0 2800.16 18265.2 0 -1985.94 19180.2 0 -5379.32 16152.3 0 -7097.27 11399.3 0 -7303.42 7129.58 0 -6979.7 4290.36 0 -6289.76 2567.11 0 -5276.66 1592.2 0 -4390.34 1073.31 0 -3750.46 822.717 0 -3349.19 660.957 0 -3014.55 477.843 0 -2676.16 297.731 0 -2334.53 160.415 0 -2027.68 89.3984 0 -1779.53 63.1784 0 -1590.06 52.5463 0 -1433.85 34.4169 0 -1285.48 10.2011 0 -1144.96 -12.5662 0 -1015.86 -27.5243 0 -903.922 -35.1694 0 -809.208 -38.4797 0 -728.523 -40.2309 0 -654.048 -41.4101 0 -585.426 -42.0829 0 -522.659 -42.3075 0 -465.746 -42.1419 0 -414.687 -41.6443 0 -369.092 -40.873 0 -326.626 -39.8937 0 -286.899 -38.7789 0 -249.912 -37.6018 0 -215.663 -36.4352 0 -184.153 -35.3522 0 -155.319 -34.4255 0 -127.746 -33.6955 0 -100.858 -33.1402 0 -74.6534 -32.7303 0 -49.1331 -32.4363 0 -24.297 -32.229 0 -0.144948 -32.079 0 0.0559648 -375.59 0 17.6251 -375.95 0 35.2519 -377.023 0 52.9363 -378.811 0 70.6783 -381.315 0 88.4779 -384.537 0 106.335 -388.478 0 124.278 -393.141 0 142.376 -398.526 0 160.631 -404.636 0 179.043 -411.471 0 197.614 -419.033 0 216.342 -427.323 0 235.256 -436.343 0 254.527 -446.097 0 274.182 -456.594 0 294.222 -467.841 0 314.647 -479.848 0 335.456 -492.624 0 356.655 -506.175 0 378.344 -520.541 0 400.565 -535.813 0 423.323 -552.092 0 447.101 -569.34 0 472.203 -587.148 0 498.63 -605.042 0 525.702 -622.865 0 552.743 -641.732 0 579.751 -663.076 0 608.507 -687.813 0 641.842 -713.848 0 679.793 -737.996 0 719.851 -757.789 0 755.879 -777.003 0 787.6 -802.634 0 819.321 -840.815 0 867.239 -885.616 0 932.904 -922.414 0 1010.37 -937.352 0 1063.93 -938.594 0 1087.65 -956.32 0 1089.18 -1020.79 0 1148.57 -1122.43 0 1287.11 -1196.37 0 1497.45 -1174.21 0 1617.72 -1052.46 0 1581.71 -953.644 0 1393.94 -1014.63 0 1406.78 -1265.57 0 1841.6 -1441.84 0 2698.39 -1228.33 0 3402.78 -466.547 0 3380.37 375.516 0 2631.18 673.236 0 2333.14 60.2819 0 4361.33 -321.354 0 8739.8 1216.27 0 13263.1 6026.22 0 12540.4 12540.4 0 6326.45 17686.5 0 -3505.43 18602.4 0 -9912.03 15444.8 0 -12219 10546.7 0 -10946 6230.12 0 -9210.43 3469.14 0 -7532.04 1889.71 0 -5936.92 1061.46 0 -4698.1 657.348 0 -3888.19 493.783 0 -3492.32 398.292 0 -3183.3 266.451 0 -2827.27 126.007 0 -2425.29 19.8633 0 -2059.94 -25.8981 0 -1783.07 -31.6759 0 -1594.7 -25.8285 0 -1450.42 -30.6486 0 -1305.87 -44.1662 0 -1161.03 -58.3458 0 -1023.72 -66.3484 0 -906.391 -68.3238 0 -809.197 -66.9511 0 -728.13 -64.7241 0 -653.39 -62.4933 0 -584.531 -60.2631 0 -521.553 -58.0309 0 -464.456 -55.7941 0 -413.241 -53.5501 0 -367.521 -51.2973 0 -324.988 -49.0591 0 -285.255 -46.8837 0 -248.322 -44.8202 0 -214.19 -42.9178 0 -182.858 -41.2258 0 -154.26 -39.7933 0 -126.919 -38.6437 0 -100.232 -37.7511 0 -74.1976 -37.0839 0 -48.8168 -36.6105 0 -24.0893 -36.2992 0 -0.0151518 -36.1185 0 0.0506589 -370.478 0 16.907 -370.84 0 33.8188 -371.917 0 50.786 -373.711 0 67.8085 -376.226 0 84.8865 -379.462 0 102.02 -383.424 0 119.237 -388.113 0 136.606 -393.533 0 154.132 -399.686 0 171.813 -406.574 0 189.649 -414.201 0 207.641 -422.569 0 225.817 -431.68 0 244.338 -441.543 0 263.234 -452.171 0 282.504 -463.577 0 302.147 -475.774 0 322.164 -488.775 0 342.558 -502.595 0 363.378 -517.259 0 384.647 -532.823 0 406.373 -549.345 0 429.318 -566.817 0 453.962 -585.043 0 480.305 -603.798 0 506.892 -623.025 0 532.271 -643.335 0 556.441 -665.507 0 582.617 -690.051 0 615.915 -715.901 0 656.4 -741.421 0 699.23 -765.355 0 732.562 -789.736 0 755.859 -818.297 0 776.897 -854.311 0 824.912 -894.682 0 902.703 -931.717 0 999.663 -958.125 0 1052.14 -978.158 0 1049.54 -1007.61 0 1005.24 -1062.33 0 1059.13 -1136.87 0 1248.39 -1196.34 0 1560.44 -1203.95 0 1718.45 -1157.14 0 1609.16 -1119.91 0 1239.95 -1163.8 0 1186.68 -1303.84 0 1811.11 -1398.9 0 3113.23 -1281.09 0 4137.15 -865.819 0 3926.95 -401.688 0 2482.63 -220.583 0 1700.7 -516.877 0 4600.05 -681.905 0 11219.4 183.664 0 18265.2 2800.16 0 17686.5 6326.45 0 9117.4 9117.4 0 -4704.02 9640.26 0 -13482.4 7978.1 0 -16232.1 5378.47 0 -13757.9 3083.37 0 -10888.5 1615.59 0 -8428.81 778.72 0 -6389.95 346.242 0 -4888.77 144.573 0 -3956.32 73.5698 0 -3572.28 38.807 0 -3289.23 -16.942 0 -2924.17 -78.6582 0 -2478.59 -123.034 0 -2070.33 -135.876 0 -1773.4 -128.168 0 -1587.81 -115.206 0 -1454.44 -108.987 0 -1314.19 -108.327 0 -1167.06 -108.74 0 -1024.22 -106.408 0 -903.425 -101.382 0 -804.918 -95.1167 0 -724.072 -88.9636 0 -649.592 -83.3474 0 -580.963 -78.217 0 -518.186 -73.5174 0 -461.261 -69.1936 0 -410.187 -65.1905 0 -364.588 -61.4548 0 -322.202 -57.9694 0 -282.652 -54.754 0 -245.938 -51.8299 0 -212.061 -49.2181 0 -181.019 -46.9399 0 -152.745 -45.0163 0 -125.715 -43.4523 0 -99.3074 -42.2212 0 -73.5219 -41.2927 0 -48.3585 -40.6367 0 -23.8172 -40.2229 0 0.102042 -40.0211 0 0.0439876 -364.728 0 16.1875 -365.091 0 32.3835 -366.167 0 48.6319 -367.961 0 64.9327 -370.474 0 81.286 -373.711 0 97.6917 -377.674 0 114.178 -382.368 0 130.813 -387.795 0 147.601 -393.96 0 164.541 -400.867 0 181.634 -408.519 0 198.879 -416.921 0 216.302 -426.077 0 234.058 -435.996 0 252.173 -446.697 0 270.647 -458.196 0 289.479 -470.509 0 308.669 -483.655 0 328.221 -497.65 0 348.182 -512.499 0 368.574 -528.184 0 389.406 -544.687 0 411.451 -562.041 0 435.194 -580.434 0 460.637 -600.077 0 486.244 -621.077 0 510.481 -643.118 0 533.349 -665.773 0 558.2 -688.796 0 590.373 -712.967 0 629.936 -739.44 0 671.794 -769.132 0 703.494 -800.909 0 724.468 -832.579 0 742.882 -862.227 0 789.432 -891.835 0 867.058 -926.19 0 964.66 -969.828 0 1015.64 -1020.02 0 1008.9 -1066.79 0 958.563 -1100.09 0 1012.23 -1121.89 0 1209.14 -1150.83 0 1536.12 -1206.57 0 1703.13 -1288.08 0 1591.51 -1354.13 0 1209.01 -1358.87 0 1160.11 -1288.56 0 1824.56 -1218.07 0 3202.35 -1237.43 0 4286.87 -1390.54 0 4071.54 -1536.64 0 2556.34 -1488.85 0 1737.07 -1134.58 0 4790.72 -795.315 0 11758 -949.648 0 19180.2 -1985.94 0 18602.4 -3505.43 0 9640.26 -4704.02 0 -4832.91 -4832.91 0 -14013.8 -3939.04 0 -16868.1 -2642.81 0 -14241.9 -1560.98 0 -11212.5 -934.886 0 -8625.93 -630.454 0 -6493.28 -498.337 0 -4929.59 -436.703 0 -3965.48 -409.65 0 -3579.47 -386.239 0 -3299.05 -348.837 0 -2930.92 -305.638 0 -2476.68 -267.801 0 -2060.38 -242.475 0 -1759.96 -225.728 0 -1575.4 -211.732 0 -1444.7 -195.92 0 -1305.8 -178.763 0 -1158.71 -161.998 0 -1015.31 -147.12 0 -894.459 -134.243 0 -796.416 -122.976 0 -716.388 -112.95 0 -642.666 -103.972 0 -574.718 -95.9447 0 -512.543 -88.7671 0 -456.143 -82.3405 0 -405.516 -76.5657 0 -360.297 -71.3454 0 -318.286 -66.6245 0 -279.116 -62.39 0 -242.788 -58.6309 0 -209.301 -55.336 0 -178.656 -52.4943 0 -150.782 -50.0946 0 -124.135 -48.1214 0 -98.0812 -46.5505 0 -72.6218 -45.3567 0 -47.7566 -44.5149 0 -23.4854 -44 0 0.191607 -43.7868 0 0.0368496 -358.342 0 15.4701 -358.703 0 30.9523 -359.774 0 46.4834 -361.558 0 62.0635 -364.06 0 77.6926 -367.283 0 93.3706 -371.23 0 109.125 -375.905 0 125.025 -381.314 0 141.072 -387.46 0 157.267 -394.35 0 173.61 -401.989 0 190.101 -410.381 0 206.764 -419.532 0 223.742 -429.456 0 241.061 -440.171 0 258.72 -451.697 0 276.719 -464.054 0 295.058 -477.262 0 313.742 -491.341 0 332.861 -506.285 0 352.454 -522.042 0 372.527 -538.552 0 393.614 -555.878 0 416.05 -574.407 0 439.836 -594.585 0 464.009 -616.609 0 487.607 -639.677 0 510.63 -662.738 0 535.355 -685.151 0 565.409 -708.664 0 600.836 -735.89 0 638.246 -768.887 0 669.346 -804.858 0 693.759 -838.509 0 717.145 -865.21 0 760.78 -889.649 0 826.701 -923.233 0 907.233 -976.764 0 956.318 -1043.8 0 966.279 -1100.67 0 947.276 -1123.59 0 1005.43 -1118.73 0 1168.96 -1133.77 0 1428.45 -1219.03 0 1576.87 -1374.48 0 1529.52 -1502.24 0 1292.16 -1493.32 0 1313.38 -1319.49 0 1875.02 -1175.61 0 2977.06 -1294.75 0 3875.27 -1792.81 0 3825.4 -2316.96 0 2827.44 -2397.19 0 2387.52 -1756.29 0 4903.15 -1243.02 0 10405.1 -2113.67 0 16152.3 -5379.32 0 15444.8 -9912.03 0 7978.1 -13482.4 0 -3939.04 -14013.8 0 -11625.1 -11625.1 0 -14248.9 -8017.6 0 -12465.5 -4884.16 0 -10204.7 -2921.21 0 -8121.66 -1828.64 0 -6240.55 -1265.03 0 -4814.56 -980.017 0 -3911.04 -849.563 0 -3511.62 -759.321 0 -3212.31 -640.868 0 -2847.85 -514.975 0 -2419.53 -412.647 0 -2029.53 -352.985 0 -1742.04 -322.213 0 -1557.05 -300.925 0 -1421.13 -273.848 0 -1280.84 -242.249 0 -1136.18 -211.53 0 -997.144 -186.3 0 -879.603 -166.533 0 -783.764 -150.525 0 -705.115 -136.682 0 -632.624 -124.369 0 -565.789 -113.446 0 -504.61 -103.78 0 -449.087 -95.2348 0 -399.22 -87.6756 0 -354.654 -80.9692 0 -313.256 -75.0244 0 -274.67 -69.7917 0 -238.897 -65.2233 0 -205.936 -61.2717 0 -175.788 -57.8891 0 -148.382 -55.0281 0 -122.18 -52.651 0 -96.55 -50.739 0 -71.4933 -49.2759 0 -47.0097 -48.2452 0 -23.0991 -47.6306 0 0.238522 -47.4156 0 0.0301431 -351.319 0 14.7581 -351.676 0 29.5313 -352.736 0 44.3498 -354.504 0 59.2136 -356.984 0 74.1227 -360.178 0 89.0771 -364.09 0 104.104 -368.725 0 119.27 -374.088 0 134.578 -380.185 0 150.027 -387.023 0 165.619 -394.608 0 181.353 -402.948 0 197.25 -412.047 0 213.445 -421.922 0 229.959 -432.593 0 246.793 -444.081 0 263.946 -456.408 0 281.418 -469.597 0 299.216 -483.668 0 317.486 -498.62 0 336.287 -514.408 0 355.623 -530.983 0 375.711 -548.409 0 396.688 -567.067 0 418.554 -587.392 0 441.116 -609.581 0 464.182 -632.88 0 487.752 -656.294 0 512.66 -679.222 0 540.238 -703.337 0 570.501 -731.139 0 602.353 -764.596 0 633.115 -801.04 0 662.665 -835.419 0 693.254 -863.321 0 733.351 -889.33 0 783.766 -924.512 0 841.487 -979.344 0 888.43 -1047.55 0 921.581 -1106.08 0 945.572 -1131.84 0 1008.78 -1131.34 0 1124.06 -1152.26 0 1287.23 -1244.89 0 1406.18 -1409.55 0 1443.23 -1549.49 0 1401.3 -1556.96 0 1508.66 -1406.18 0 1908.72 -1297.98 0 2601.47 -1471.96 0 3214 -2048.92 0 3373.39 -2674.44 0 3079.63 -2875.29 0 3133.29 -2378.52 0 4808.69 -2080.69 0 8122.18 -3301.7 0 11399.3 -7097.27 0 10546.7 -12219 0 5378.47 -16232.1 0 -2642.81 -16868.1 0 -8017.6 -14248.9 0 -10219.3 -10219.3 0 -9623.3 -6616.3 0 -8481.15 -4222.65 0 -7168.14 -2767.09 0 -5723.51 -1934 0 -4556.93 -1475.18 0 -3777.36 -1235.99 0 -3371.71 -1069.19 0 -3052.29 -884.575 0 -2701.38 -702.845 0 -2319.87 -557.4 0 -1975.72 -468.104 0 -1711.64 -417.418 0 -1527.64 -381.396 0 -1384.47 -341.087 0 -1242.91 -297.517 0 -1102.94 -256.706 0 -971.464 -223.737 0 -859.456 -198.216 0 -767.054 -177.765 0 -690.293 -160.161 0 -619.479 -144.536 0 -554.172 -130.722 0 -494.372 -118.556 0 -440.078 -107.876 0 -391.291 -98.5201 0 -347.665 -90.3262 0 -307.13 -83.1692 0 -269.339 -76.9589 0 -234.293 -71.607 0 -201.991 -67.025 0 -172.435 -63.1243 0 -145.555 -59.8169 0 -119.851 -57.041 0 -94.7105 -54.7868 0 -70.1321 -53.0502 0 -46.1162 -51.8275 0 -22.663 -51.1146 0 0.227759 -50.9076 0 0.0247414 -343.697 0 14.0549 -344.048 0 28.1267 -345.094 0 42.2403 -346.838 0 56.3955 -349.284 0 70.5926 -352.436 0 84.8313 -356.296 0 99.1379 -360.87 0 113.576 -366.162 0 128.15 -372.181 0 142.858 -378.934 0 157.701 -386.429 0 172.679 -394.674 0 187.812 -403.677 0 203.222 -413.452 0 218.929 -424.023 0 234.934 -435.412 0 251.235 -447.64 0 267.834 -460.731 0 284.738 -474.708 0 302.128 -489.584 0 320.076 -505.358 0 338.584 -522.029 0 357.647 -539.645 0 377.264 -558.406 0 397.434 -578.535 0 418.482 -600.157 0 440.733 -622.999 0 464.187 -646.689 0 488.709 -671.02 0 514.087 -696.735 0 540.318 -724.921 0 567.848 -756.446 0 597.767 -790.247 0 630.124 -824.27 0 664.837 -856.743 0 701.595 -889.815 0 740.369 -928.464 0 781.394 -977.401 0 826.091 -1033.72 0 874.694 -1086.88 0 927.874 -1126.33 0 992.611 -1155.81 0 1070.76 -1198.81 0 1161.92 -1280.12 0 1257.08 -1399.88 0 1352.57 -1510.5 0 1449.18 -1558.94 0 1609.46 -1535.87 0 1872.7 -1552.68 0 2238.89 -1741.46 0 2612.98 -2171.74 0 2899.92 -2662.86 0 3099.71 -2971.62 0 3461.84 -2969.4 0 4383.45 -3196.79 0 5869.65 -4436.57 0 7129.58 -7303.42 0 6230.12 -10946 0 3083.37 -13757.9 0 -1560.98 -14241.9 0 -4884.16 -12465.5 0 -6616.3 -9623.3 0 -6907.53 -6907.53 0 -6658.73 -4872.92 0 -6020.06 -3436.97 0 -5036 -2489.24 0 -4171.33 -1909.28 0 -3549.66 -1562.77 0 -3163.29 -1314.77 0 -2842.6 -1079.57 0 -2518.21 -867.137 0 -2190.6 -698.405 0 -1897.02 -584.505 0 -1660.87 -509.492 0 -1482.16 -452.784 0 -1335.53 -397.899 0 -1195.63 -344.758 0 -1062.46 -297.383 0 -940.013 -259.069 0 -834.627 -228.871 0 -746.386 -204.305 0 -671.968 -183.05 0 -603.252 -164.191 0 -539.87 -147.54 0 -481.822 -132.912 0 -429.107 -120.124 0 -381.725 -108.993 0 -339.339 -99.3358 0 -299.926 -90.9951 0 -263.147 -83.8384 0 -229.002 -77.734 0 -197.492 -72.5504 0 -168.616 -68.1561 0 -142.31 -64.4199 0 -117.152 -61.2554 0 -92.5605 -58.6636 0 -68.5348 -56.6553 0 -45.0753 -55.2415 0 -22.182 -54.4329 0 0.14521 -54.2405 0 0.0209354 -335.703 0 13.363 -336.047 0 26.7434 -337.075 0 40.1622 -338.79 0 53.6194 -341.197 0 67.1149 -344.297 0 80.6487 -348.094 0 94.2458 -352.593 0 107.967 -357.799 0 121.814 -363.721 0 135.788 -370.369 0 149.889 -377.751 0 164.117 -385.875 0 178.489 -394.751 0 193.118 -404.394 0 208.02 -414.827 0 223.198 -426.074 0 238.649 -438.157 0 254.375 -451.099 0 270.384 -464.923 0 286.859 -479.656 0 303.877 -495.331 0 321.437 -511.979 0 339.462 -529.642 0 357.905 -548.378 0 376.768 -568.248 0 396.499 -589.318 0 417.549 -611.677 0 439.919 -635.414 0 463.233 -660.619 0 486.895 -687.345 0 510.897 -715.638 0 536.063 -745.552 0 564.404 -777.223 0 596.013 -810.829 0 630.158 -846.557 0 664.089 -884.718 0 697.543 -925.715 0 731.751 -969.921 0 774.098 -1017.04 0 825.814 -1066.11 0 886.194 -1116.19 0 947.87 -1168.73 0 1008.88 -1228.52 0 1070.18 -1300.55 0 1152.88 -1385.04 0 1265.61 -1472.97 0 1408.27 -1554.27 0 1573.51 -1631.88 0 1756.73 -1744.69 0 1957.91 -1937.75 0 2196.38 -2238.64 0 2491.43 -2604.99 0 2843.07 -2976.99 0 3239.7 -3337.84 0 3662.87 -3922.11 0 4112.34 -5055.35 0 4290.36 -6979.7 0 3469.14 -9210.43 0 1615.59 -10888.5 0 -934.886 -11212.5 0 -2921.21 -10204.7 0 -4222.65 -8481.15 0 -4872.92 -6658.73 0 -5074.44 -5074.44 0 -4860.94 -3785.28 0 -4270.04 -2834.75 0 -3694.64 -2204.96 0 -3239.22 -1792.92 0 -2900.39 -1489.67 0 -2603.23 -1223.52 0 -2317.1 -995.196 0 -2042.23 -813.734 0 -1795.69 -682.223 0 -1588.24 -587.331 0 -1419.86 -512.915 0 -1275.87 -445.854 0 -1141.59 -385.121 0 -1017.01 -332.712 0 -904.047 -290.128 0 -805.716 -255.973 0 -722.059 -227.804 0 -650.395 -203.333 0 -584.167 -181.642 0 -523.077 -162.517 0 -467.125 -145.749 0 -416.312 -131.132 0 -370.636 -118.456 0 -329.767 -107.514 0 -291.715 -98.1209 0 -256.148 -90.1099 0 -223.066 -83.3164 0 -192.47 -77.5753 0 -164.359 -72.7217 0 -138.674 -68.5913 0 -114.106 -65.0779 0 -90.1207 -62.1888 0 -66.7176 -59.9443 0 -43.8968 -58.3648 0 -21.6584 -57.4705 0 -0.00221946 -57.2816 0 0.0184344 -327.374 0 12.6842 -327.71 0 25.3851 -328.718 0 38.1212 -330.401 0 50.8925 -332.76 0 63.699 -335.801 0 76.5407 -339.525 0 89.4408 -343.937 0 102.456 -349.043 0 115.588 -354.853 0 128.838 -361.377 0 142.206 -368.623 0 155.691 -376.603 0 169.31 -385.324 0 183.164 -394.804 0 197.269 -405.066 0 211.626 -416.132 0 226.233 -428.026 0 241.092 -440.772 0 256.21 -454.392 0 271.757 -468.918 0 287.803 -484.398 0 304.347 -500.884 0 321.329 -518.41 0 338.711 -536.974 0 356.493 -556.568 0 375.031 -577.229 0 394.68 -599.187 0 415.442 -622.719 0 437.099 -648.029 0 459.309 -674.915 0 482.067 -703.023 0 505.932 -732.102 0 532.27 -762.761 0 561.143 -796.056 0 592.113 -832.944 0 623.531 -872.978 0 655.24 -914.701 0 688.172 -956.733 0 727.928 -999.98 0 775.439 -1047.63 0 830.139 -1102.92 0 886.097 -1166.2 0 941.736 -1233.91 0 997.943 -1302.18 0 1074.22 -1371.63 0 1178.56 -1451.52 0 1310.72 -1552.11 0 1452.72 -1681.44 0 1593.28 -1841.51 0 1732.39 -2033.25 0 1902.57 -2262.5 0 2136.36 -2554.62 0 2433.75 -2939.86 0 2712.51 -3451.96 0 2841.73 -4145.11 0 2819.74 -5080.86 0 2567.11 -6289.76 0 1889.71 -7532.04 0 778.72 -8428.81 0 -630.454 -8625.93 0 -1828.64 -8121.66 0 -2767.09 -7168.14 0 -3436.97 -6020.06 0 -3785.28 -4860.94 0 -3803.2 -3803.2 0 -3515.87 -2954.52 0 -3185.95 -2349.31 0 -2883.29 -1920.27 0 -2607.52 -1592.82 0 -2350.51 -1316.03 0 -2108.93 -1084.91 0 -1882.86 -899.732 0 -1678.21 -757.929 0 -1498.68 -649.083 0 -1344.28 -561.425 0 -1207.87 -485.212 0 -1082.32 -418.795 0 -967.626 -362.55 0 -864.336 -316.551 0 -773.315 -279.102 0 -694.572 -247.873 0 -626.038 -220.675 0 -562.65 -196.606 0 -504.178 -175.422 0 -450.621 -156.885 0 -401.98 -140.757 0 -358.255 -126.801 0 -319.119 -114.781 0 -282.618 -104.483 0 -248.425 -95.7201 0 -216.541 -88.306 0 -186.965 -82.0539 0 -159.698 -76.7772 0 -134.686 -72.29 0 -110.759 -68.4722 0 -87.4351 -65.3321 0 -64.7162 -62.8928 0 -42.6018 -61.1771 0 -21.0919 -60.2081 0 -0.186605 -60.0089 0 0.0169219 -318.71 0 12.02 -319.039 0 24.0553 -320.024 0 36.1228 -321.668 0 48.2224 -323.975 0 60.3543 -326.948 0 72.5183 -330.589 0 84.7357 -334.901 0 97.0586 -339.893 0 109.489 -345.575 0 122.028 -351.956 0 134.674 -359.047 0 147.428 -366.857 0 160.305 -375.397 0 173.394 -384.683 0 186.712 -394.739 0 200.258 -405.586 0 214.032 -417.249 0 228.034 -429.75 0 242.271 -443.113 0 256.894 -457.368 0 271.966 -472.565 0 287.485 -488.75 0 303.427 -505.965 0 319.776 -524.217 0 336.533 -543.512 0 353.921 -563.887 0 372.166 -585.514 0 391.267 -608.598 0 411.217 -633.304 0 432.004 -659.558 0 453.627 -687.205 0 476.299 -716.145 0 500.534 -746.802 0 526.357 -779.867 0 553.769 -815.971 0 582.771 -854.904 0 613.365 -895.846 0 645.927 -938.035 0 682.708 -982.269 0 724.085 -1030.91 0 769.983 -1086.35 0 819.617 -1148.96 0 872.78 -1216.32 0 929.887 -1285.86 0 1000.11 -1358.84 0 1087.19 -1444.02 0 1191.01 -1551.01 0 1302.62 -1686.39 0 1416.39 -1848.27 0 1532.32 -2033.3 0 1662.5 -2244.35 0 1819.04 -2508.98 0 2001.93 -2860.93 0 2139.9 -3327.84 0 2119.48 -3901.63 0 1939.22 -4561.32 0 1592.2 -5276.66 0 1061.46 -5936.92 0 346.242 -6389.95 0 -498.337 -6493.28 0 -1265.03 -6240.55 0 -1934 -5723.51 0 -2489.24 -5036 0 -2834.75 -4270.04 0 -2954.52 -3515.87 0 -2862.54 -2862.54 0 -2704.77 -2349.85 0 -2520.01 -1949.22 0 -2309.5 -1627.11 0 -2100.5 -1358.89 0 -1904.14 -1137.24 0 -1720.44 -956.831 0 -1551.16 -811.791 0 -1397.39 -694.824 0 -1259.12 -598.378 0 -1133.91 -516.026 0 -1019.3 -445.816 0 -915.271 -386.915 0 -821.625 -338.343 0 -738.013 -298.26 0 -664.431 -264.511 0 -599.37 -235.075 0 -539.138 -209.082 0 -483.566 -186.254 0 -432.656 -166.318 0 -386.406 -149.001 0 -344.816 -134.031 0 -307.57 -121.136 0 -272.757 -110.081 0 -240.061 -100.669 0 -209.481 -92.7029 0 -181.017 -85.9864 0 -154.668 -80.3227 0 -130.39 -75.5161 0 -107.156 -71.4385 0 -84.5485 -68.0937 0 -62.5671 -65.5007 0 -41.2117 -63.6784 0 -20.4824 -62.6459 0 -0.379108 -62.4222 0 0.0160819 -309.712 0 11.3722 -310.032 0 22.7577 -310.991 0 34.1724 -312.593 0 45.6164 -314.841 0 57.0898 -317.737 0 68.5924 -321.285 0 80.1435 -325.487 0 91.7902 -330.351 0 103.534 -335.888 0 115.376 -342.108 0 127.316 -349.022 0 139.353 -356.639 0 151.501 -364.97 0 163.841 -374.031 0 176.386 -383.846 0 189.136 -394.436 0 202.092 -405.824 0 215.252 -418.034 0 228.624 -431.087 0 242.342 -445.013 0 256.46 -459.858 0 270.979 -475.666 0 285.892 -492.479 0 301.195 -510.327 0 316.889 -529.238 0 333.127 -549.254 0 350.066 -570.475 0 367.705 -593.017 0 386.11 -616.989 0 405.387 -642.468 0 425.537 -669.519 0 446.634 -698.217 0 468.858 -728.756 0 492.217 -761.385 0 516.874 -796.344 0 543.443 -833.736 0 571.98 -873.568 0 602.606 -915.862 0 636.033 -961.14 0 672.377 -1010.42 0 711.775 -1064.73 0 755.623 -1124.61 0 804.292 -1189.95 0 857.925 -1260.6 0 919.62 -1338.23 0 990.644 -1428.11 0 1070.96 -1535.9 0 1157.19 -1665.9 0 1247.24 -1818.59 0 1341.09 -1993.8 0 1436.47 -2194.86 0 1531.1 -2439.11 0 1624.97 -2747.42 0 1670.81 -3133.15 0 1593.34 -3566.1 0 1391.6 -4000.24 0 1073.31 -4390.34 0 657.348 -4698.1 0 144.573 -4888.77 0 -436.703 -4929.59 0 -980.017 -4814.56 0 -1475.18 -4556.93 0 -1909.28 -4171.33 0 -2204.96 -3694.64 0 -2349.31 -3185.95 0 -2349.85 -2704.77 0 -2285.12 -2285.12 0 -2176.01 -1925.71 0 -2024.08 -1622.6 0 -1863.83 -1370.63 0 -1709.37 -1162.23 0 -1560.73 -989.553 0 -1420.25 -845.544 0 -1289.37 -725.337 0 -1168.1 -624.441 0 -1056.32 -538.856 0 -953.897 -466.551 0 -860.839 -405.982 0 -776.617 -355.564 0 -700.388 -313.455 0 -632.142 -277.719 0 -570.863 -246.534 0 -514.065 -219.072 0 -461.636 -195.014 0 -413.574 -174.049 0 -369.882 -155.863 0 -330.557 -140.143 0 -295.295 -126.579 0 -262.258 -114.915 0 -231.14 -104.957 0 -201.942 -96.5072 0 -174.664 -89.3727 0 -149.305 -83.3582 0 -125.825 -78.2696 0 -103.345 -73.9767 0 -81.5059 -70.4734 0 -60.3068 -67.768 0 -39.7479 -65.8687 0 -19.8293 -64.7838 0 -0.55089 -64.5216 0 0.0155981 -300.379 0 10.7424 -300.689 0 21.4957 -301.621 0 32.2755 -303.176 0 43.0819 -305.358 0 53.9147 -308.17 0 64.7741 -311.614 0 75.6771 -315.693 0 86.6655 -320.416 0 97.7412 -325.792 0 108.904 -331.832 0 120.155 -338.547 0 131.492 -345.947 0 142.929 -354.042 0 154.537 -362.848 0 166.327 -372.387 0 178.301 -382.681 0 190.457 -393.752 0 202.796 -405.622 0 215.324 -418.313 0 228.158 -431.854 0 241.349 -446.286 0 254.896 -461.654 0 268.798 -478 0 283.056 -495.365 0 297.669 -513.791 0 312.765 -533.321 0 328.472 -554.022 0 344.79 -575.965 0 361.771 -599.231 0 379.5 -623.962 0 397.979 -650.32 0 417.279 -678.461 0 437.58 -708.465 0 458.889 -740.375 0 481.348 -774.248 0 505.487 -810.337 0 531.359 -849.041 0 559.031 -890.757 0 588.921 -935.857 0 621.097 -984.684 0 655.699 -1037.58 0 694.182 -1095.2 0 736.934 -1158.57 0 783.978 -1228.79 0 835.861 -1307.57 0 892.805 -1397.86 0 954.793 -1502.76 0 1020.5 -1625.08 0 1089.1 -1766.75 0 1160.59 -1929.6 0 1225.47 -2116.85 0 1274.25 -2337.32 0 1306.92 -2601.24 0 1300.57 -2912.51 0 1218.7 -3238.08 0 1060.85 -3531.51 0 822.717 -3750.46 0 493.783 -3888.19 0 73.5698 -3956.32 0 -409.65 -3965.48 0 -849.563 -3911.04 0 -1235.99 -3777.36 0 -1562.77 -3549.66 0 -1792.92 -3239.22 0 -1920.27 -2883.29 0 -1949.22 -2520.01 0 -1925.71 -2176.01 0 -1861.96 -1861.96 0 -1759.16 -1587.29 0 -1643.59 -1356.18 0 -1526.01 -1162.54 0 -1406.46 -999.102 0 -1289.88 -859.65 0 -1179.35 -740.832 0 -1074.87 -639.789 0 -977.262 -553.85 0 -887.337 -481.097 0 -805.095 -419.798 0 -729.957 -368.229 0 -660.999 -324.691 0 -598.21 -287.496 0 -540.989 -255.051 0 -487.868 -226.574 0 -438.78 -201.703 0 -393.724 -180.079 0 -352.702 -161.344 0 -315.712 -145.139 0 -282.468 -131.11 0 -251.241 -118.986 0 -221.746 -108.583 0 -193.98 -99.7188 0 -167.946 -92.2128 0 -143.641 -85.8837 0 -121.034 -80.5505 0 -99.3726 -76.0869 0 -78.352 -72.4713 0 -57.9718 -69.6948 0 -38.2319 -67.748 0 -19.1323 -66.6218 0 -0.673114 -66.307 0 0.0151551 -290.72 0 10.1322 -291.02 0 20.273 -291.92 0 30.4377 -293.424 0 40.6261 -295.534 0 50.8384 -298.253 0 61.0744 -301.584 0 71.3492 -305.529 0 81.6994 -310.096 0 92.1267 -315.296 0 102.631 -321.139 0 113.212 -327.634 0 123.871 -334.793 0 134.617 -342.625 0 145.514 -351.145 0 156.572 -360.376 0 167.792 -370.336 0 179.173 -381.048 0 190.716 -392.533 0 202.424 -404.81 0 214.403 -417.908 0 226.695 -431.869 0 239.3 -446.735 0 252.217 -462.549 0 265.447 -479.355 0 278.99 -497.196 0 292.961 -516.118 0 307.476 -536.188 0 322.534 -557.475 0 338.153 -580.058 0 354.358 -604.062 0 371.15 -629.632 0 388.637 -656.906 0 407.086 -685.97 0 426.509 -716.884 0 446.971 -749.722 0 468.723 -784.731 0 491.789 -822.284 0 516.255 -862.754 0 542.641 -906.488 0 571.034 -953.799 0 601.508 -1005.01 0 634.843 -1060.78 0 671.245 -1122.22 0 710.703 -1190.5 0 752.949 -1267 0 797.874 -1353.54 0 845.461 -1451.98 0 894.427 -1564.38 0 943.965 -1693.28 0 994.077 -1841.33 0 1033.49 -2011.05 0 1050.93 -2204.46 0 1046.39 -2423.5 0 1013.18 -2667.23 0 940.628 -2918.22 0 828.595 -3153.04 0 660.957 -3349.19 0 398.292 -3492.32 0 38.807 -3572.28 0 -386.239 -3579.47 0 -759.321 -3511.62 0 -1069.19 -3371.71 0 -1314.77 -3163.29 0 -1489.67 -2900.39 0 -1592.82 -2607.52 0 -1627.11 -2309.5 0 -1622.6 -2024.08 0 -1587.29 -1759.16 0 -1521.92 -1521.92 0 -1442.33 -1316.07 0 -1355.04 -1138.65 0 -1260.12 -985.94 0 -1164.36 -854.477 0 -1072.02 -741.537 0 -983.097 -644.525 0 -898.923 -561.042 0 -820.823 -489.468 0 -748.796 -428.382 0 -682.286 -376.363 0 -620.404 -331.996 0 -563.14 -293.873 0 -510.221 -260.654 0 -460.981 -231.612 0 -415.391 -206.337 0 -373.45 -184.418 0 -335.159 -165.448 0 -300.517 -149.019 0 -269.264 -134.727 0 -239.832 -122.289 0 -211.961 -111.544 0 -185.651 -102.335 0 -160.902 -94.506 0 -137.714 -87.8997 0 -116.057 -82.3601 0 -95.2846 -77.7699 0 -75.1318 -74.0875 0 -55.5986 -71.28 0 -36.6851 -69.3145 0 -18.3913 -68.158 0 -0.717085 -67.7777 0 0.0145394 -280.903 0 9.5429 -281.192 0 19.0924 -282.061 0 28.663 -283.512 0 38.2548 -285.547 0 47.8677 -288.169 0 57.5018 -291.381 0 67.1699 -295.186 0 76.9036 -299.592 0 86.7043 -304.608 0 96.5722 -310.244 0 106.507 -316.51 0 116.509 -323.416 0 126.587 -330.971 0 136.797 -339.192 0 147.149 -348.097 0 157.641 -357.706 0 168.274 -368.038 0 179.049 -379.114 0 189.968 -390.954 0 201.122 -403.584 0 212.545 -417.045 0 224.239 -431.379 0 236.203 -446.628 0 248.437 -462.836 0 260.941 -480.043 0 273.815 -498.298 0 287.159 -517.672 0 300.973 -538.24 0 315.255 -560.083 0 330.003 -583.294 0 345.217 -607.974 0 361.013 -634.226 0 377.676 -662.165 0 395.218 -691.915 0 413.663 -723.606 0 433.098 -757.442 0 453.533 -793.682 0 475.045 -832.591 0 498.112 -874.509 0 522.811 -919.853 0 549.171 -969.047 0 577.483 -1022.72 0 607.823 -1081.77 0 640.165 -1147.14 0 673.913 -1219.84 0 708.824 -1301.05 0 744.872 -1391.98 0 780.05 -1494.18 0 813.096 -1610.15 0 844.009 -1742.55 0 863.355 -1893.06 0 861.696 -2059.39 0 839.034 -2238.24 0 792.923 -2426.39 0 719.47 -2620.83 0 618.625 -2818.62 0 477.843 -3014.55 0 266.451 -3183.3 0 -16.942 -3289.23 0 -348.837 -3299.05 0 -640.868 -3212.31 0 -884.575 -3052.29 0 -1079.57 -2842.6 0 -1223.52 -2603.23 0 -1316.03 -2350.51 0 -1358.89 -2100.5 0 -1370.63 -1863.83 0 -1356.18 -1643.59 0 -1316.07 -1442.33 0 -1261.61 -1261.61 0 -1197.45 -1101.1 0 -1123.66 -960.264 0 -1046.71 -838.124 0 -970.628 -732.472 0 -895.427 -640.893 0 -823.07 -561.182 0 -755.522 -491.98 0 -692.783 -432.141 0 -634.299 -380.522 0 -579.185 -336.011 0 -527.431 -297.508 0 -478.997 -263.958 0 -433.789 -234.709 0 -391.801 -209.313 0 -353.035 -187.326 0 -317.489 -168.303 0 -285.165 -151.799 0 -255.836 -137.376 0 -228.149 -124.745 0 -201.879 -113.766 0 -177.025 -104.308 0 -153.588 -96.2366 0 -131.568 -89.4202 0 -110.938 -83.7262 0 -91.1208 -79.0468 0 -71.8793 -75.3232 0 -53.2135 -72.5016 0 -35.1237 -70.5287 0 -17.6097 -69.3508 0 -0.671532 -68.9144 0 0.0137354 -270.998 0 8.97506 -271.277 0 17.9549 -272.113 0 26.9533 -273.509 0 35.9702 -275.468 0 45.0057 -277.991 0 54.0596 -281.082 0 63.143 -284.744 0 72.2827 -288.984 0 81.4797 -293.812 0 90.7341 -299.236 0 100.046 -305.267 0 109.415 -311.913 0 118.85 -319.185 0 128.398 -327.097 0 138.068 -335.667 0 147.861 -344.913 0 157.775 -354.855 0 167.811 -365.512 0 177.972 -376.901 0 188.331 -389.048 0 198.92 -401.994 0 209.736 -415.779 0 220.781 -430.443 0 232.055 -446.028 0 243.557 -462.574 0 255.371 -480.128 0 267.577 -498.76 0 280.178 -518.544 0 293.166 -539.556 0 306.536 -561.869 0 320.286 -585.556 0 334.516 -610.695 0 349.472 -637.417 0 365.164 -665.879 0 381.6 -696.242 0 398.81 -728.683 0 416.797 -763.393 0 435.613 -800.569 0 455.572 -840.526 0 476.727 -883.699 0 499.079 -930.531 0 522.627 -981.583 0 547.372 -1037.59 0 573.281 -1099.28 0 599.663 -1167.43 0 626.232 -1242.82 0 652.952 -1326.22 0 676.943 -1418.73 0 696.396 -1522.25 0 711.312 -1638.81 0 715.679 -1769.28 0 703.487 -1909.8 0 674.737 -2055.33 0 624.565 -2201.9 0 545.228 -2351.75 0 436.628 -2509.35 0 297.731 -2676.16 0 126.007 -2827.27 0 -78.6582 -2924.17 0 -305.638 -2930.92 0 -514.975 -2847.85 0 -702.845 -2701.38 0 -867.137 -2518.21 0 -995.196 -2317.1 0 -1084.91 -2108.93 0 -1137.24 -1904.14 0 -1162.23 -1709.37 0 -1162.54 -1526.01 0 -1138.65 -1355.04 0 -1101.1 -1197.45 0 -1054.19 -1054.19 0 -998.003 -926.244 0 -937.452 -813.905 0 -875.637 -715.692 0 -812.557 -629.81 0 -750.693 -554.578 0 -692.526 -488.762 0 -638.054 -431.241 0 -586.793 -380.934 0 -537.968 -336.996 0 -491.57 -298.669 0 -447.695 -265.214 0 -406.575 -236.077 0 -368.223 -210.795 0 -332.637 -188.91 0 -299.818 -169.96 0 -269.765 -153.487 0 -242.295 -139.036 0 -216.303 -126.32 0 -191.605 -115.218 0 -168.2 -105.615 0 -146.088 -97.3979 0 -125.271 -90.4509 0 -105.722 -84.6602 0 -86.9077 -79.9264 0 -68.6081 -76.1789 0 -50.8235 -73.3506 0 -33.5537 -71.3744 0 -16.7989 -70.183 0 -0.559027 -69.7094 0 0.0127504 -261.006 0 8.42916 -261.274 0 16.8616 -262.076 0 25.3099 -263.417 0 33.7743 -265.297 0 42.2546 -267.719 0 50.7509 -270.687 0 59.2722 -274.203 0 67.8407 -278.273 0 76.4573 -282.908 0 85.1221 -288.115 0 93.835 -293.905 0 102.596 -300.285 0 111.412 -307.266 0 120.325 -314.86 0 129.342 -323.086 0 138.462 -331.96 0 147.686 -341.5 0 157.014 -351.724 0 166.448 -362.65 0 176.047 -374.301 0 185.834 -386.717 0 195.81 -399.934 0 205.975 -413.993 0 216.328 -428.931 0 226.87 -444.788 0 237.667 -461.608 0 248.786 -479.452 0 260.227 -498.388 0 271.987 -518.48 0 284.063 -539.791 0 296.455 -562.38 0 309.234 -586.316 0 322.578 -611.728 0 336.496 -638.781 0 350.992 -667.637 0 366.087 -698.464 0 381.783 -731.427 0 398.102 -766.699 0 415.181 -804.55 0 433.043 -845.35 0 451.669 -889.476 0 470.874 -937.392 0 490.608 -989.69 0 510.839 -1046.97 0 530.864 -1109.83 0 550.397 -1178.88 0 569.394 -1254.75 0 584.501 -1338.08 0 593.613 -1429.62 0 596.729 -1530.17 0 590.808 -1639.8 0 572.807 -1755.81 0 542.727 -1874.84 0 492.942 -1993.75 0 411.317 -2110.92 0 297.695 -2225.29 0 160.415 -2334.53 0 19.8633 -2425.29 0 -123.034 -2478.59 0 -267.801 -2476.68 0 -412.647 -2419.53 0 -557.4 -2319.87 0 -698.405 -2190.6 0 -813.734 -2042.23 0 -899.732 -1882.86 0 -956.831 -1720.44 0 -989.553 -1560.73 0 -999.102 -1406.46 0 -985.94 -1260.12 0 -960.264 -1123.66 0 -926.244 -998.003 0 -883.927 -883.927 0 -836.833 -781.861 0 -787.176 -691.238 0 -734.955 -611.318 0 -682.695 -541.264 0 -632.919 -479.835 0 -585.627 -425.692 0 -540.577 -377.602 0 -497.384 -334.953 0 -456.043 -297.357 0 -416.682 -264.422 0 -379.614 -235.715 0 -344.854 -210.782 0 -312.402 -189.169 0 -282.257 -170.42 0 -254.42 -154.081 0 -228.75 -139.705 0 -204.406 -127.014 0 -181.249 -115.9 0 -159.277 -106.259 0 -138.491 -97.9901 0 -118.892 -90.9918 0 -100.455 -85.1623 0 -82.6702 -80.4084 0 -65.3296 -76.6546 0 -48.4329 -73.8269 0 -31.9801 -71.8516 0 -15.9711 -70.6547 0 -0.406026 -70.1625 0 0.0115915 -250.926 0 7.90567 -251.182 0 15.8132 -251.951 0 23.7343 -253.234 0 31.6689 -255.034 0 39.617 -257.354 0 47.5785 -260.195 0 55.5609 -263.561 0 63.5818 -267.459 0 71.6421 -271.896 0 79.7418 -276.882 0 87.8809 -282.425 0 96.0594 -288.532 0 104.283 -295.214 0 112.587 -302.482 0 120.978 -310.354 0 129.456 -318.844 0 138.02 -327.971 0 146.671 -337.751 0 155.41 -348.201 0 164.282 -359.343 0 173.305 -371.212 0 182.48 -383.845 0 191.805 -397.277 0 201.281 -411.546 0 210.908 -426.687 0 220.741 -442.739 0 230.834 -459.758 0 241.187 -477.799 0 251.8 -496.921 0 262.671 -517.176 0 273.801 -538.621 0 285.233 -561.316 0 297.073 -585.384 0 309.326 -610.98 0 321.998 -638.259 0 335.106 -667.378 0 348.652 -698.494 0 362.639 -731.767 0 377.075 -767.421 0 391.964 -805.743 0 407.274 -847.024 0 422.669 -891.624 0 438.063 -939.997 0 453.421 -992.605 0 468.011 -1049.93 0 481.535 -1112.51 0 493.953 -1180.86 0 502.166 -1255.31 0 504.231 -1335.6 0 500.146 -1421.34 0 488.036 -1512.03 0 466.025 -1606.63 0 434.114 -1703.95 0 385.821 -1802.01 0 310.83 -1894.12 0 209.008 -1971.91 0 89.3984 -2027.68 0 -25.8981 -2059.94 0 -135.876 -2070.33 0 -242.475 -2060.38 0 -352.985 -2029.53 0 -468.104 -1975.72 0 -584.505 -1897.02 0 -682.223 -1795.69 0 -757.929 -1678.21 0 -811.791 -1551.16 0 -845.544 -1420.25 0 -859.65 -1289.88 0 -854.477 -1164.36 0 -838.124 -1046.71 0 -813.905 -937.452 0 -781.861 -836.833 0 -745.062 -745.062 0 -705.439 -662.271 0 -662.992 -588.577 0 -619.668 -523.842 0 -577.413 -466.895 0 -536.229 -416.307 0 -496.322 -370.796 0 -458.022 -329.927 0 -421.333 -293.572 0 -386.327 -261.582 0 -353.178 -233.625 0 -321.894 -209.274 0 -292.474 -188.102 0 -264.919 -169.681 0 -239.229 -153.582 0 -215.306 -139.385 0 -192.569 -126.829 0 -170.919 -115.811 0 -150.358 -106.237 0 -130.885 -98.013 0 -112.5 -91.0429 0 -95.1806 -85.2323 0 -78.433 -80.4931 0 -62.055 -76.7504 0 -46.0466 -73.9306 0 -30.4078 -71.9603 0 -15.1386 -70.7659 0 -0.238988 -70.2739 0 0.0102659 -240.758 0 7.40505 -241.003 0 14.8109 -241.737 0 22.2279 -242.962 0 29.656 -244.68 0 37.0951 -246.894 0 44.5454 -249.607 0 52.0124 -252.821 0 59.51 -256.542 0 67.0387 -260.777 0 74.5986 -265.536 0 82.1897 -270.826 0 89.812 -276.654 0 97.4703 -283.029 0 105.194 -289.963 0 112.989 -297.47 0 120.853 -305.568 0 128.789 -314.271 0 136.794 -323.594 0 144.872 -333.555 0 153.053 -344.173 0 161.35 -355.481 0 169.763 -367.511 0 178.293 -380.297 0 186.939 -393.872 0 195.702 -408.268 0 204.626 -423.522 0 213.756 -439.682 0 223.093 -456.798 0 232.637 -474.92 0 242.387 -494.1 0 252.343 -514.386 0 262.522 -535.836 0 272.965 -558.562 0 283.672 -582.703 0 294.649 -608.402 0 305.911 -635.799 0 317.461 -665.039 0 329.287 -696.268 0 341.32 -729.669 0 353.548 -765.468 0 365.932 -803.894 0 378.04 -845.206 0 389.759 -889.711 0 401.053 -937.719 0 411.118 -989.582 0 419.626 -1045.74 0 426.546 -1106.64 0 429.505 -1172.4 0 427.012 -1242.25 0 419.068 -1315.27 0 403.749 -1390.65 0 379.132 -1468.03 0 345.218 -1547.18 0 299.064 -1626.74 0 235.983 -1698.69 0 155.915 -1752.61 0 63.1784 -1779.53 0 -31.6759 -1783.07 0 -128.168 -1773.4 0 -225.728 -1759.96 0 -322.213 -1742.04 0 -417.418 -1711.64 0 -509.492 -1660.87 0 -587.331 -1588.24 0 -649.083 -1498.68 0 -694.824 -1397.39 0 -725.337 -1289.37 0 -740.832 -1179.35 0 -741.537 -1072.02 0 -732.472 -970.628 0 -715.692 -875.637 0 -691.238 -787.176 0 -662.271 -705.439 0 -630.778 -630.778 0 -596.761 -563.574 0 -561.354 -503.95 0 -525.697 -451.009 0 -489.79 -403.599 0 -454.312 -360.686 0 -420.352 -321.948 0 -387.921 -287.314 0 -357 -256.693 0 -327.54 -229.806 0 -299.54 -206.272 0 -272.999 -185.711 0 -247.916 -167.744 0 -224.293 -151.99 0 -202.071 -138.075 0 -180.901 -125.762 0 -160.725 -114.952 0 -141.544 -105.552 0 -123.358 -97.4668 0 -106.165 -90.6041 0 -89.9459 -84.8702 0 -74.2211 -80.1803 0 -58.7954 -76.4662 0 -43.6689 -73.6617 0 -28.8415 -71.7005 0 -14.3134 -70.5166 0 -0.0843697 -70.0436 0 0.00878079 -230.502 0 6.92778 -230.735 0 13.8556 -231.434 0 20.7921 -232.599 0 27.7374 -234.234 0 34.6915 -236.341 0 41.6544 -238.923 0 48.6302 -241.98 0 55.6292 -245.521 0 62.6518 -249.551 0 69.698 -254.077 0 76.7677 -259.108 0 83.8611 -264.65 0 90.9821 -270.711 0 98.1544 -277.302 0 105.382 -284.436 0 112.665 -292.13 0 120.003 -300.397 0 127.396 -309.252 0 134.846 -318.711 0 142.372 -328.791 0 149.984 -339.522 0 157.68 -350.933 0 165.462 -363.052 0 173.329 -375.909 0 181.281 -389.534 0 189.355 -403.957 0 197.586 -419.224 0 205.976 -435.382 0 214.523 -452.479 0 223.228 -470.561 0 232.09 -489.676 0 241.104 -509.877 0 250.252 -531.262 0 259.533 -553.95 0 268.952 -578.064 0 278.523 -603.727 0 288.246 -631.064 0 298.101 -660.2 0 307.968 -691.293 0 317.826 -724.526 0 327.632 -760.085 0 336.94 -798.139 0 345.632 -838.833 0 353.667 -882.308 0 360.118 -928.776 0 364.608 -978.581 0 367.117 -1032.08 0 366.103 -1089.34 0 360.595 -1149.6 0 350.593 -1211.98 0 333.835 -1275.64 0 308.054 -1340 0 273.252 -1404.53 0 229.92 -1467.94 0 178.84 -1524.64 0 120.021 -1567.42 0 52.5463 -1590.06 0 -25.8285 -1594.7 0 -115.206 -1587.81 0 -211.732 -1575.4 0 -300.925 -1557.05 0 -381.396 -1527.64 0 -452.784 -1482.16 0 -512.915 -1419.86 0 -561.425 -1344.28 0 -598.378 -1259.12 0 -624.441 -1168.1 0 -639.789 -1074.87 0 -644.525 -983.097 0 -640.893 -895.427 0 -629.81 -812.557 0 -611.318 -734.955 0 -588.577 -662.992 0 -563.574 -596.761 0 -536.308 -536.308 0 -507.353 -481.587 0 -477.284 -432.177 0 -446.1 -387.565 0 -414.767 -347.272 0 -384.822 -311.015 0 -356.283 -278.583 0 -329.068 -249.757 0 -302.974 -224.258 0 -277.992 -201.774 0 -254.121 -181.995 0 -231.362 -164.609 0 -209.714 -149.305 0 -189.151 -135.775 0 -169.514 -123.815 0 -150.776 -113.323 0 -132.937 -104.201 0 -115.998 -96.3513 0 -99.9577 -89.6755 0 -84.796 -84.0762 0 -70.0593 -79.4701 0 -55.5621 -75.802 0 -41.3045 -73.0201 0 -27.2864 -71.0723 0 -13.5077 -69.9067 0 0.0313707 -69.4714 0 0.00715216 -220.234 0 6.47421 -220.456 0 12.9478 -221.118 0 19.428 -222.224 0 25.9146 -223.776 0 32.4079 -225.775 0 38.9077 -228.224 0 45.4169 -231.126 0 51.9425 -234.485 0 58.4848 -238.308 0 65.0438 -242.602 0 71.6196 -247.373 0 78.2121 -252.627 0 84.8243 -258.373 0 91.4746 -264.618 0 98.1659 -271.378 0 104.898 -278.665 0 111.672 -286.494 0 118.486 -294.879 0 125.342 -303.832 0 132.252 -313.372 0 139.219 -323.523 0 146.245 -334.31 0 153.328 -345.758 0 160.469 -357.892 0 167.669 -370.738 0 174.953 -384.325 0 182.348 -398.693 0 189.856 -413.889 0 197.474 -429.957 0 205.204 -446.944 0 213.045 -464.893 0 220.974 -483.854 0 228.928 -503.909 0 236.907 -525.155 0 244.912 -547.692 0 252.955 -571.621 0 261.035 -597.046 0 269.127 -624.072 0 277.065 -652.829 0 284.823 -683.473 0 292.364 -716.162 0 299.32 -750.99 0 305.592 -787.97 0 311.13 -827.109 0 314.844 -868.491 0 316.29 -912.35 0 315.456 -958.938 0 311.439 -1008.3 0 303.672 -1059.92 0 292.156 -1113.19 0 274.712 -1167.39 0 249.166 -1221.38 0 215.515 -1273.93 0 175.667 -1323.68 0 132.658 -1368.5 0 86.5263 -1406 0 34.4169 -1433.85 0 -30.6486 -1450.42 0 -108.987 -1454.44 0 -195.92 -1444.7 0 -273.848 -1421.13 0 -341.087 -1384.47 0 -397.899 -1335.53 0 -445.854 -1275.87 0 -485.212 -1207.87 0 -516.026 -1133.91 0 -538.856 -1056.32 0 -553.85 -977.262 0 -561.042 -898.923 0 -561.182 -823.07 0 -554.578 -750.693 0 -541.264 -682.695 0 -523.842 -619.668 0 -503.95 -561.354 0 -481.587 -507.353 0 -457.349 -457.349 0 -431.834 -411.381 0 -405.042 -369.578 0 -377.88 -332.007 0 -351.794 -298.398 0 -326.801 -268.355 0 -302.831 -241.495 0 -279.706 -217.529 0 -257.419 -196.219 0 -235.97 -177.325 0 -215.358 -160.611 0 -195.584 -145.837 0 -176.643 -132.767 0 -158.505 -121.231 0 -141.165 -111.123 0 -124.624 -102.34 0 -108.881 -94.7773 0 -93.9364 -88.3333 0 -79.7714 -82.9044 0 -65.9717 -78.4087 0 -52.3679 -74.8057 0 -38.96 -72.0593 0 -25.7479 -70.1337 0 -12.7317 -68.9928 0 0.0886501 -68.6008 0 0.00543113 -210.029 0 6.04415 -210.239 0 12.0873 -210.867 0 18.1348 -211.914 0 24.1868 -213.383 0 30.2432 -215.276 0 36.3041 -217.595 0 42.371 -220.343 0 48.4483 -223.523 0 54.536 -227.142 0 60.6343 -231.206 0 66.7431 -235.721 0 72.8623 -240.692 0 78.9943 -246.126 0 85.1519 -252.031 0 91.3373 -258.422 0 97.5506 -265.309 0 103.792 -272.707 0 110.061 -280.627 0 116.358 -289.083 0 122.687 -298.09 0 129.052 -307.668 0 135.45 -317.841 0 141.884 -328.629 0 148.352 -340.054 0 154.855 -352.138 0 161.408 -364.906 0 168.03 -378.397 0 174.719 -392.653 0 181.475 -407.717 0 188.299 -423.631 0 195.191 -440.437 0 202.113 -458.181 0 208.977 -476.927 0 215.777 -496.751 0 222.515 -517.73 0 229.199 -539.941 0 235.828 -563.467 0 242.369 -588.389 0 248.619 -614.813 0 254.544 -642.869 0 260.121 -672.688 0 265.109 -704.324 0 269.443 -737.732 0 273.067 -772.857 0 274.743 -809.7 0 273.965 -848.361 0 270.727 -888.955 0 264.556 -931.462 0 255.153 -975.505 0 242.52 -1020.64 0 224.925 -1066.25 0 200.637 -1110.99 0 169.657 -1153.36 0 133.693 -1192.03 0 95.4662 -1226.84 0 55.0115 -1258.03 0 10.2011 -1285.48 0 -44.1662 -1305.87 0 -108.327 -1314.19 0 -178.763 -1305.8 0 -242.249 -1280.84 0 -297.517 -1242.91 0 -344.758 -1195.63 0 -385.121 -1141.59 0 -418.795 -1082.32 0 -445.816 -1019.3 0 -466.551 -953.897 0 -481.097 -887.337 0 -489.468 -820.823 0 -491.98 -755.522 0 -488.762 -692.526 0 -479.835 -632.919 0 -466.895 -577.413 0 -451.009 -525.697 0 -432.177 -477.284 0 -411.381 -431.834 0 -389.606 -389.606 0 -366.85 -351.005 0 -343.74 -316.343 0 -321.274 -285.363 0 -299.465 -257.605 0 -278.304 -232.629 0 -257.775 -210.167 0 -237.877 -190.041 0 -218.609 -172.072 0 -199.971 -156.083 0 -181.964 -141.895 0 -164.596 -129.332 0 -147.913 -118.252 0 -131.925 -108.55 0 -116.63 -100.119 0 -102.029 -92.8554 0 -88.1228 -86.6536 0 -74.8936 -81.409 0 -61.9793 -77.0425 0 -49.2314 -73.5249 0 -36.65 -70.8327 0 -24.2351 -68.9427 0 -11.9866 -67.8313 0 0.0953844 -67.4751 0 0.00367761 -199.888 0 5.6373 -200.086 0 11.2733 -200.679 0 16.9118 -201.669 0 22.5527 -203.057 0 28.196 -204.845 0 33.8417 -207.036 0 39.4905 -209.631 0 45.1441 -212.634 0 50.8027 -216.052 0 56.4661 -219.89 0 62.1344 -224.151 0 67.8077 -228.843 0 73.4871 -233.971 0 79.1809 -239.542 0 84.8903 -245.568 0 90.6153 -252.062 0 96.356 -259.035 0 102.112 -266.497 0 107.884 -274.463 0 113.671 -282.944 0 119.472 -291.959 0 125.288 -301.527 0 131.118 -311.666 0 136.963 -322.395 0 142.822 -333.733 0 148.702 -345.701 0 154.608 -358.335 0 160.542 -371.675 0 166.502 -385.757 0 172.49 -400.623 0 178.504 -416.31 0 184.502 -432.859 0 190.376 -450.317 0 196.123 -468.739 0 201.744 -488.177 0 207.24 -508.687 0 212.613 -530.326 0 217.822 -553.151 0 222.628 -577.245 0 226.99 -602.714 0 230.897 -629.664 0 234.233 -658.143 0 236.968 -688.119 0 239.042 -719.554 0 239.161 -752.405 0 236.794 -786.616 0 231.94 -822.132 0 224.386 -858.821 0 214.002 -896.343 0 200.786 -934.323 0 183.546 -972.221 0 161.09 -1008.83 0 133.416 -1042.8 0 101.412 -1072.99 0 66.4841 -1099.64 0 28.6518 -1123.51 0 -12.5662 -1144.96 0 -58.3458 -1161.03 0 -108.74 -1167.06 0 -161.998 -1158.71 0 -211.53 -1136.18 0 -256.706 -1102.94 0 -297.383 -1062.46 0 -332.712 -1017.01 0 -362.55 -967.626 0 -386.915 -915.271 0 -405.982 -860.839 0 -419.798 -805.095 0 -428.382 -748.796 0 -432.141 -692.783 0 -431.241 -638.054 0 -425.692 -585.627 0 -416.307 -536.229 0 -403.599 -489.79 0 -387.565 -446.1 0 -369.578 -405.042 0 -351.005 -366.85 0 -331.848 -331.848 0 -312.412 -300.28 0 -293.182 -271.911 0 -274.165 -246.333 0 -255.436 -223.16 0 -237.175 -202.173 0 -219.392 -183.242 0 -202.087 -166.236 0 -185.259 -151.025 0 -168.908 -137.479 0 -153.05 -125.47 0 -137.766 -114.879 0 -123.073 -105.603 0 -108.968 -97.5401 0 -95.4538 -90.5855 0 -82.5287 -84.6366 0 -70.1793 -79.5902 0 -58.1021 -75.3715 0 -46.1727 -71.9597 0 -34.3912 -69.3404 0 -22.7575 -67.4994 0 -11.2716 -66.4221 0 0.066364 -66.0941 0 0.00195152 -189.81 0 5.25334 -189.997 0 10.5053 -190.556 0 15.7578 -191.488 0 21.0108 -192.796 0 26.2644 -194.481 0 31.5186 -196.545 0 36.7731 -198.99 0 42.0275 -201.82 0 47.2817 -205.039 0 52.5359 -208.653 0 57.7898 -212.665 0 63.0437 -217.082 0 68.298 -221.907 0 73.5562 -227.149 0 78.819 -232.817 0 84.0862 -238.923 0 89.3579 -245.477 0 94.6342 -252.49 0 99.9147 -259.971 0 105.195 -267.934 0 110.472 -276.394 0 115.746 -285.367 0 121.018 -294.869 0 126.286 -304.916 0 131.553 -315.523 0 136.812 -326.71 0 142.062 -338.509 0 147.302 -350.953 0 152.532 -364.079 0 157.752 -377.92 0 162.962 -392.511 0 168.116 -407.887 0 173.106 -424.081 0 177.925 -441.127 0 182.575 -459.057 0 187.055 -477.906 0 191.367 -497.708 0 195.463 -518.5 0 199.067 -540.34 0 202.131 -563.312 0 204.652 -587.497 0 206.592 -612.952 0 207.94 -639.693 0 208.642 -667.732 0 207.493 -697.011 0 204 -727.332 0 198.162 -758.479 0 189.909 -790.204 0 179.198 -822.154 0 166.028 -853.962 0 149.607 -885.157 0 129.141 -914.851 0 104.63 -942.053 0 76.3682 -965.884 0 44.8232 -986.135 0 10.0009 -1002.84 0 -27.5243 -1015.86 0 -66.3484 -1023.72 0 -106.408 -1024.22 0 -147.12 -1015.31 0 -186.3 -997.144 0 -223.737 -971.464 0 -259.069 -940.013 0 -290.128 -904.047 0 -316.551 -864.336 0 -338.343 -821.625 0 -355.564 -776.617 0 -368.229 -729.957 0 -376.363 -682.286 0 -380.522 -634.299 0 -380.934 -586.793 0 -377.602 -540.577 0 -370.796 -496.322 0 -360.686 -454.312 0 -347.272 -414.767 0 -332.007 -377.88 0 -316.343 -343.74 0 -300.28 -312.412 0 -283.92 -283.92 0 -267.424 -258.059 0 -250.794 -234.54 0 -234.171 -213.088 0 -217.898 -193.547 0 -201.992 -175.821 0 -186.451 -159.816 0 -171.277 -145.438 0 -156.47 -132.591 0 -142.043 -121.181 0 -128.09 -111.111 0 -114.626 -102.284 0 -101.651 -94.6025 0 -89.1637 -87.9677 0 -77.1656 -82.2821 0 -65.6451 -77.4479 0 -54.3603 -73.3956 0 -43.2119 -70.11 0 -32.2001 -67.5824 0 -21.3247 -65.8037 0 -10.5859 -64.7652 0 0.0163794 -64.4581 0 0.000312776 -179.795 0 4.89198 -179.971 0 9.78248 -180.496 0 14.6718 -181.372 0 19.56 -182.601 0 24.447 -184.184 0 29.3328 -186.123 0 34.2165 -188.42 0 39.0957 -191.078 0 43.9703 -194.102 0 48.8402 -197.495 0 53.7055 -201.262 0 58.5661 -205.408 0 63.422 -209.936 0 68.2725 -214.853 0 73.1175 -220.169 0 77.957 -225.893 0 82.7909 -232.035 0 87.6194 -238.603 0 92.4419 -245.609 0 97.2504 -253.061 0 102.041 -260.975 0 106.815 -269.362 0 111.571 -278.238 0 116.309 -287.616 0 121.03 -297.509 0 125.721 -307.933 0 130.37 -318.917 0 134.976 -330.49 0 139.54 -342.681 0 144.061 -355.521 0 148.541 -369.039 0 152.934 -383.266 0 157.137 -398.222 0 161.143 -413.929 0 164.954 -430.407 0 168.569 -447.674 0 171.988 -465.751 0 175.159 -484.661 0 177.772 -504.44 0 179.776 -525.146 0 181.169 -546.835 0 181.944 -569.556 0 182.101 -593.346 0 181.594 -618.239 0 179.415 -644.166 0 175.153 -670.856 0 168.809 -698.014 0 160.37 -725.334 0 149.828 -752.48 0 137.185 -779.11 0 121.89 -804.82 0 103.397 -828.954 0 81.7054 -850.796 0 56.8656 -869.661 0 28.9576 -885.075 0 -2.01728 -896.634 0 -35.1694 -903.922 0 -68.3238 -906.391 0 -101.382 -903.425 0 -134.243 -894.459 0 -166.533 -879.603 0 -198.216 -859.456 0 -228.871 -834.627 0 -255.973 -805.716 0 -279.102 -773.315 0 -298.26 -738.013 0 -313.455 -700.388 0 -324.691 -660.999 0 -331.996 -620.404 0 -336.011 -579.185 0 -336.996 -537.968 0 -334.953 -497.384 0 -329.927 -458.022 0 -321.948 -420.352 0 -311.015 -384.822 0 -298.398 -351.794 0 -285.363 -321.274 0 -271.911 -293.182 0 -258.059 -267.424 0 -243.835 -243.835 0 -229.24 -222.225 0 -214.457 -202.413 0 -199.937 -184.288 0 -185.702 -167.779 0 -171.751 -152.813 0 -158.084 -139.321 0 -144.701 -127.228 0 -131.616 -116.464 0 -118.912 -106.949 0 -106.602 -98.5922 0 -94.6884 -91.3063 0 -83.1693 -85.002 0 -72.0451 -79.5901 0 -61.3076 -74.9821 0 -50.7739 -71.1149 0 -40.3691 -67.976 0 -30.0933 -65.5585 0 -19.9465 -63.8557 0 -9.92866 -62.8608 0 -0.0397787 -62.5669 0 -0.0011787 -169.844 0 4.55289 -170.008 0 9.10425 -170.5 0 13.6529 -171.321 0 18.1988 -172.472 0 22.7421 -173.955 0 27.2826 -175.771 0 31.8187 -177.922 0 36.3464 -180.411 0 40.8654 -183.241 0 45.3758 -186.417 0 49.8775 -189.942 0 54.3706 -193.821 0 58.8543 -198.056 0 63.3244 -202.654 0 67.7801 -207.623 0 72.2214 -212.971 0 76.6483 -218.707 0 81.0609 -224.839 0 85.4586 -231.375 0 89.8305 -238.325 0 94.1722 -245.7 0 98.4836 -253.512 0 102.765 -261.773 0 107.016 -270.495 0 111.236 -279.689 0 115.407 -289.37 0 119.509 -299.56 0 123.54 -310.283 0 127.503 -321.564 0 131.395 -333.427 0 135.219 -345.896 0 138.932 -358.995 0 142.438 -372.741 0 145.733 -387.147 0 148.815 -402.226 0 151.685 -417.992 0 154.344 -434.457 0 156.736 -451.636 0 158.529 -469.548 0 159.671 -488.222 0 160.159 -507.686 0 159.995 -527.966 0 159.178 -549.092 0 157.673 -571.088 0 154.704 -593.879 0 149.954 -617.193 0 143.422 -640.735 0 135.11 -664.208 0 125.016 -687.316 0 113.141 -709.762 0 99.0875 -731.206 0 82.4598 -751.142 0 63.2575 -769.024 0 41.481 -784.304 0 17.131 -796.444 0 -9.79246 -804.911 0 -38.4797 -809.208 0 -66.9511 -809.197 0 -95.1167 -804.918 0 -122.976 -796.416 0 -150.525 -783.764 0 -177.765 -767.054 0 -204.305 -746.386 0 -227.804 -722.059 0 -247.873 -694.572 0 -264.511 -664.431 0 -277.719 -632.142 0 -287.496 -598.21 0 -293.873 -563.14 0 -297.508 -527.431 0 -298.669 -491.57 0 -297.357 -456.043 0 -293.572 -421.333 0 -287.314 -387.921 0 -278.583 -356.283 0 -268.355 -326.801 0 -257.605 -299.465 0 -246.333 -274.165 0 -234.54 -250.794 0 -222.225 -229.24 0 -209.389 -209.389 0 -196.24 -191.134 0 -183.286 -174.396 0 -170.55 -159.114 0 -158.033 -145.228 0 -145.735 -132.674 0 -133.655 -121.392 0 -121.806 -111.321 0 -110.257 -102.392 0 -99.0193 -94.5272 0 -88.0939 -87.6516 0 -77.4805 -81.6883 0 -67.179 -76.5608 0 -57.1834 -72.1927 0 -47.3631 -68.5293 0 -37.6645 -65.5575 0 -28.0876 -63.2689 0 -18.6325 -61.6554 0 -9.29904 -60.7087 0 -0.0873199 -60.4205 0 -0.00246842 -159.971 0 4.23577 -160.125 0 8.46992 -160.584 0 12.7 -161.351 0 16.926 -162.426 0 21.1479 -163.81 0 25.3657 -165.505 0 29.5772 -167.513 0 33.7767 -169.835 0 37.964 -172.476 0 42.139 -175.438 0 46.3019 -178.726 0 50.4525 -182.342 0 54.5897 -186.29 0 58.7061 -190.575 0 62.8004 -195.204 0 66.8727 -200.185 0 70.923 -205.523 0 74.9511 -211.227 0 78.9567 -217.304 0 82.9263 -223.761 0 86.8546 -230.608 0 90.7415 -237.857 0 94.587 -245.518 0 98.3912 -253.6 0 102.154 -262.115 0 105.851 -271.073 0 109.457 -280.493 0 112.971 -290.393 0 116.395 -300.791 0 119.728 -311.706 0 122.97 -323.157 0 126.083 -335.162 0 128.977 -347.734 0 131.646 -360.886 0 134.091 -374.628 0 136.311 -388.972 0 138.308 -403.93 0 140.025 -419.514 0 141.131 -435.727 0 141.572 -452.57 0 141.347 -470.041 0 140.457 -488.138 0 138.901 -506.86 0 136.653 -526.205 0 133.131 -546.096 0 128.097 -566.307 0 121.55 -586.598 0 113.491 -606.726 0 103.92 -626.45 0 92.836 -645.527 0 79.9587 -663.682 0 65.0061 -680.494 0 47.9782 -695.508 0 28.8751 -708.27 0 7.69671 -718.324 0 -15.557 -725.215 0 -40.2309 -728.523 0 -64.7241 -728.13 0 -88.9636 -724.072 0 -112.95 -716.388 0 -136.682 -705.115 0 -160.161 -690.293 0 -183.05 -671.968 0 -203.333 -650.395 0 -220.675 -626.038 0 -235.075 -599.37 0 -246.534 -570.863 0 -255.051 -540.989 0 -260.654 -510.221 0 -263.958 -478.997 0 -265.214 -447.695 0 -264.422 -416.682 0 -261.582 -386.327 0 -256.693 -357 0 -249.757 -329.068 0 -241.495 -302.831 0 -232.629 -278.304 0 -223.16 -255.436 0 -213.088 -234.171 0 -202.413 -214.457 0 -191.134 -196.24 0 -179.466 -179.466 0 -167.932 -164.078 0 -156.557 -150.016 0 -145.34 -137.221 0 -134.281 -125.634 0 -123.381 -115.194 0 -112.649 -105.842 0 -102.149 -97.5173 0 -91.8923 -90.1583 0 -81.8781 -83.7026 0 -72.1067 -78.0882 0 -62.578 -73.2531 0 -53.288 -69.1352 0 -44.1465 -65.6885 0 -35.1166 -62.8975 0 -26.1982 -60.7505 0 -17.3915 -59.2354 0 -8.69643 -58.3404 0 -0.112926 -58.0537 0 -0.0035492 -150.217 0 3.9401 -150.36 0 7.87847 -150.787 0 11.8116 -151.501 0 15.7394 -152.501 0 19.6619 -153.79 0 23.5792 -155.367 0 27.4884 -157.235 0 31.3825 -159.396 0 35.2612 -161.852 0 39.1246 -164.607 0 42.9726 -167.664 0 46.8052 -171.025 0 50.6207 -174.694 0 54.4094 -178.676 0 58.1694 -182.975 0 61.9009 -187.598 0 65.6038 -192.552 0 69.278 -197.841 0 72.923 -203.473 0 76.5233 -209.454 0 80.0725 -215.792 0 83.5707 -222.498 0 87.0179 -229.579 0 90.4141 -237.046 0 93.7592 -244.906 0 97.0254 -253.17 0 100.184 -261.85 0 103.237 -270.96 0 106.182 -280.514 0 109.02 -290.525 0 111.751 -301.007 0 114.339 -311.973 0 116.696 -323.435 0 118.818 -335.402 0 120.706 -347.883 0 122.358 -360.889 0 123.776 -374.429 0 124.906 -388.512 0 125.437 -403.131 0 125.315 -418.261 0 124.541 -433.879 0 123.115 -449.961 0 121.036 -466.481 0 118.286 -483.416 0 114.421 -500.686 0 109.261 -518.11 0 102.805 -535.493 0 95.0552 -552.641 0 86.0098 -569.36 0 75.6694 -585.456 0 63.8509 -600.704 0 50.3714 -614.759 0 35.2309 -627.247 0 18.4293 -637.792 0 -0.033345 -646.02 0 -20.157 -651.554 0 -41.4101 -654.048 0 -62.4933 -653.39 0 -83.3474 -649.592 0 -103.972 -642.666 0 -124.369 -632.624 0 -144.536 -619.479 0 -164.191 -603.252 0 -181.642 -584.167 0 -196.606 -562.65 0 -209.082 -539.138 0 -219.072 -514.065 0 -226.574 -487.868 0 -231.612 -460.981 0 -234.709 -433.789 0 -236.077 -406.575 0 -235.715 -379.614 0 -233.625 -353.178 0 -229.806 -327.54 0 -224.258 -302.974 0 -217.529 -279.706 0 -210.167 -257.775 0 -202.173 -237.175 0 -193.547 -217.898 0 -184.288 -199.937 0 -174.396 -183.286 0 -164.078 -167.932 0 -153.837 -153.837 0 -143.696 -140.943 0 -133.655 -129.193 0 -123.714 -118.532 0 -113.874 -108.902 0 -104.144 -100.247 0 -94.5903 -92.5145 0 -85.2238 -85.6541 0 -76.0444 -79.6164 0 -67.0522 -74.352 0 -58.247 -69.8111 0 -49.6262 -65.9444 0 -41.1287 -62.7135 0 -32.7295 -60.1013 0 -24.4287 -58.0934 0 -16.2261 -56.6754 0 -8.12195 -55.8328 0 -0.116091 -55.5512 0 -0.00443818 -140.582 0 3.66531 -140.714 0 7.32875 -141.111 0 10.9859 -141.773 0 14.6367 -142.701 0 18.2813 -143.896 0 21.9195 -145.359 0 25.5481 -147.092 0 29.1589 -149.095 0 32.7516 -151.373 0 36.3261 -153.926 0 39.8824 -156.759 0 43.4206 -159.873 0 46.9386 -163.271 0 50.4246 -166.958 0 53.8764 -170.937 0 57.294 -175.215 0 60.6776 -179.796 0 64.027 -184.684 0 67.3416 -189.887 0 70.6038 -195.408 0 73.8068 -201.256 0 76.9504 -207.439 0 80.0347 -213.963 0 83.0596 -220.837 0 86.0252 -228.069 0 88.9019 -235.665 0 91.6601 -243.636 0 94.2997 -251.991 0 96.8209 -260.739 0 99.2235 -269.891 0 101.508 -279.454 0 103.638 -289.44 0 105.529 -299.855 0 107.176 -310.708 0 108.58 -322.006 0 109.741 -333.755 0 110.657 -345.965 0 111.284 -358.64 0 111.338 -371.764 0 110.774 -385.298 0 109.59 -399.201 0 107.787 -413.431 0 105.365 -427.948 0 102.308 -442.712 0 98.272 -457.643 0 93.1146 -472.596 0 86.8364 -487.414 0 79.4373 -501.942 0 70.9173 -516.023 0 61.2764 -529.503 0 50.4141 -542.201 0 38.23 -553.836 0 24.724 -564.104 0 9.89618 -572.7 0 -6.25348 -579.319 0 -23.725 -583.655 0 -42.0829 -585.426 0 -60.2631 -584.531 0 -78.217 -580.963 0 -95.9447 -574.718 0 -113.446 -565.789 0 -130.722 -554.172 0 -147.54 -539.87 0 -162.517 -523.077 0 -175.422 -504.178 0 -186.254 -483.566 0 -195.014 -461.636 0 -201.703 -438.78 0 -206.337 -415.391 0 -209.313 -391.801 0 -210.795 -368.223 0 -210.782 -344.854 0 -209.274 -321.894 0 -206.272 -299.54 0 -201.774 -277.992 0 -196.219 -257.419 0 -190.041 -237.877 0 -183.242 -219.392 0 -175.821 -201.992 0 -167.779 -185.702 0 -159.114 -170.55 0 -150.016 -156.557 0 -140.943 -143.696 0 -131.915 -131.915 0 -122.933 -121.162 0 -113.996 -111.384 0 -105.105 -102.53 0 -96.2715 -94.5479 0 -87.5689 -87.3918 0 -79.0092 -81.0223 0 -70.5924 -75.4003 0 -62.3184 -70.4864 0 -54.1874 -66.2416 0 -46.1974 -62.6266 0 -38.3073 -59.6098 0 -30.5003 -57.1734 0 -22.7764 -55.3018 0 -15.1355 -53.9791 0 -7.57766 -53.1894 0 -0.102907 -52.9168 0 -0.0051527 -131.066 0 3.41083 -131.188 0 6.81962 -131.555 0 10.2212 -132.167 0 13.6156 -133.025 0 17.0029 -134.13 0 20.3829 -135.482 0 23.752 -137.082 0 27.101 -138.933 0 30.4293 -141.037 0 33.7371 -143.395 0 37.0243 -146.01 0 40.2909 -148.884 0 43.5347 -152.02 0 46.742 -155.421 0 49.9105 -159.091 0 53.0403 -163.034 0 56.1313 -167.255 0 59.1836 -171.757 0 62.1963 -176.546 0 65.1503 -181.624 0 68.0381 -187 0 70.8594 -192.68 0 73.6144 -198.669 0 76.3031 -204.975 0 78.9254 -211.603 0 81.4514 -218.56 0 83.851 -225.852 0 86.1244 -233.486 0 88.2714 -241.468 0 90.2921 -249.804 0 92.1865 -258.499 0 93.9199 -267.561 0 95.4076 -276.995 0 96.6458 -286.804 0 97.6343 -296.995 0 98.3733 -307.571 0 98.8626 -318.537 0 99.062 -329.898 0 98.7291 -341.629 0 97.8233 -353.682 0 96.3448 -366.005 0 94.2934 -378.549 0 91.6693 -391.262 0 88.4597 -404.093 0 84.384 -416.968 0 79.3276 -429.767 0 73.2905 -442.362 0 66.2725 -454.628 0 58.2738 -466.44 0 49.2944 -477.67 0 39.3006 -488.173 0 28.2588 -497.724 0 16.1691 -506.078 0 3.03155 -512.992 0 -11.154 -518.221 0 -26.3875 -521.519 0 -42.3075 -522.659 0 -58.0309 -521.553 0 -73.5174 -518.186 0 -88.7671 -512.543 0 -103.78 -504.61 0 -118.556 -494.372 0 -132.912 -481.822 0 -145.749 -467.125 0 -156.885 -450.621 0 -166.318 -432.656 0 -174.049 -413.574 0 -180.079 -393.724 0 -184.418 -373.45 0 -187.326 -353.035 0 -188.91 -332.637 0 -189.169 -312.402 0 -188.102 -292.474 0 -185.711 -272.999 0 -181.995 -254.121 0 -177.325 -235.97 0 -172.072 -218.609 0 -166.236 -202.087 0 -159.816 -186.451 0 -152.813 -171.751 0 -145.228 -158.033 0 -137.221 -145.34 0 -129.193 -133.655 0 -121.162 -122.933 0 -113.126 -113.126 0 -105.087 -104.19 0 -97.0448 -96.0778 0 -89.0124 -88.7437 0 -81.0741 -82.1492 0 -73.2438 -76.263 0 -65.5214 -71.0541 0 -57.9071 -66.4916 0 -50.4007 -62.5445 0 -43.0011 -59.1818 0 -35.68 -56.3774 0 -28.4259 -54.114 0 -21.2388 -52.3758 0 -14.1187 -51.1465 0 -7.06559 -50.4101 0 -0.079521 -50.1506 0 -0.00571013 -121.67 0 3.17606 -121.783 0 6.34991 -122.12 0 9.51582 -122.684 0 12.6738 -123.473 0 15.8238 -124.49 0 18.966 -125.734 0 22.096 -127.207 0 25.2038 -128.91 0 28.2889 -130.844 0 31.3514 -133.013 0 34.3911 -135.418 0 37.4082 -138.06 0 40.4001 -140.942 0 43.3519 -144.067 0 46.2611 -147.437 0 49.1277 -151.057 0 51.9517 -154.93 0 54.7332 -159.06 0 57.4711 -163.449 0 60.1452 -168.102 0 62.7471 -173.024 0 65.2768 -178.221 0 67.7344 -183.697 0 70.1199 -189.458 0 72.4331 -195.508 0 74.6447 -201.854 0 76.725 -208.499 0 78.6741 -215.446 0 80.4919 -222.7 0 82.1785 -230.264 0 83.7339 -238.142 0 85.1239 -246.337 0 86.2648 -254.853 0 87.153 -263.69 0 87.7885 -272.851 0 88.1711 -282.336 0 88.301 -292.147 0 88.1446 -302.285 0 87.5018 -312.724 0 86.339 -323.411 0 84.6563 -334.292 0 82.4536 -345.313 0 79.7311 -356.42 0 76.4777 -367.56 0 72.4559 -378.661 0 67.5684 -389.621 0 61.8151 -400.337 0 55.1961 -410.701 0 47.7113 -420.609 0 39.3608 -429.956 0 30.1627 -438.62 0 20.135 -446.423 0 9.27784 -453.171 0 -2.4089 -458.669 0 -14.9252 -462.725 0 -28.271 -465.145 0 -42.1419 -465.746 0 -55.7941 -464.456 0 -69.1936 -461.261 0 -82.3405 -456.143 0 -95.2348 -449.087 0 -107.876 -440.078 0 -120.124 -429.107 0 -131.132 -416.312 0 -140.757 -401.98 0 -149.001 -386.406 0 -155.863 -369.882 0 -161.344 -352.702 0 -165.448 -335.159 0 -168.303 -317.489 0 -169.96 -299.818 0 -170.42 -282.257 0 -169.681 -264.919 0 -167.744 -247.916 0 -164.609 -231.362 0 -160.611 -215.358 0 -156.083 -199.971 0 -151.025 -185.259 0 -145.438 -171.277 0 -139.321 -158.084 0 -132.674 -145.735 0 -125.634 -134.281 0 -118.532 -123.714 0 -111.384 -113.996 0 -104.19 -105.087 0 -96.95 -96.95 0 -89.6637 -89.5452 0 -82.347 -82.8347 0 -75.0948 -76.7867 0 -67.9229 -71.376 0 -60.8311 -66.5779 0 -53.8197 -62.3675 0 -46.8884 -58.7197 0 -40.0365 -55.6099 0 -33.2441 -53.0163 0 -26.503 -50.9231 0 -19.8133 -49.3151 0 -13.1749 -48.1775 0 -6.5878 -47.4949 0 -0.0520786 -47.2525 0 -0.00612782 -112.393 0 2.96045 -112.496 0 5.91846 -112.806 0 8.86792 -113.322 0 11.8088 -114.045 0 14.7412 -114.977 0 17.6649 -116.117 0 20.5757 -117.466 0 23.4624 -119.025 0 26.3247 -120.796 0 29.1625 -122.781 0 31.9757 -124.982 0 34.7645 -127.4 0 37.5261 -130.036 0 40.2447 -132.894 0 42.9175 -135.975 0 45.5445 -139.283 0 48.1257 -142.821 0 50.6613 -146.591 0 53.1501 -150.597 0 55.5707 -154.841 0 57.9146 -159.328 0 60.1816 -164.062 0 62.3718 -169.047 0 64.4852 -174.287 0 66.5217 -179.785 0 68.4527 -185.547 0 70.2496 -191.575 0 71.9124 -197.87 0 73.4411 -204.434 0 74.8356 -211.271 0 76.096 -218.382 0 77.1889 -225.769 0 78.0329 -233.43 0 78.6242 -241.366 0 78.9629 -249.573 0 79.0488 -258.049 0 78.8821 -266.794 0 78.4359 -275.803 0 77.5494 -285.051 0 76.1958 -294.487 0 74.3751 -304.062 0 72.0872 -313.725 0 69.3322 -323.425 0 66.1008 -333.112 0 62.1867 -342.72 0 57.5058 -352.16 0 52.058 -361.338 0 45.8433 -370.16 0 38.8617 -378.532 0 31.1133 -386.361 0 22.6529 -393.542 0 13.5357 -399.933 0 3.76157 -405.38 0 -6.66942 -409.732 0 -17.7573 -412.833 0 -29.502 -414.533 0 -41.6443 -414.687 0 -53.5501 -413.241 0 -65.1905 -410.187 0 -76.5657 -405.516 0 -87.6756 -399.22 0 -98.5201 -391.291 0 -108.993 -381.725 0 -118.456 -370.636 0 -126.801 -358.255 0 -134.031 -344.816 0 -140.143 -330.557 0 -145.139 -315.712 0 -149.019 -300.517 0 -151.799 -285.165 0 -153.487 -269.765 0 -154.081 -254.42 0 -153.582 -239.229 0 -151.99 -224.293 0 -149.305 -209.714 0 -145.837 -195.584 0 -141.895 -181.964 0 -137.479 -168.908 0 -132.591 -156.47 0 -127.228 -144.701 0 -121.392 -133.655 0 -115.194 -123.381 0 -108.902 -113.874 0 -102.53 -105.105 0 -96.0778 -97.0448 0 -89.5452 -89.6637 0 -82.9322 -82.9322 0 -76.256 -76.8207 0 -69.6201 -71.3042 0 -63.0418 -66.3615 0 -56.521 -61.9718 0 -50.0577 -58.114 0 -43.652 -54.7674 0 -37.3032 -51.911 0 -30.9973 -49.5266 0 -24.7287 -47.6005 0 -18.4973 -46.12 0 -12.3032 -45.0721 0 -6.14634 -44.444 0 -0.0267264 -44.2226 0 -0.00642327 -103.234 0 2.76339 -103.328 0 5.52413 -103.61 0 8.2758 -104.08 0 11.0184 -104.739 0 13.7519 -105.588 0 16.4763 -106.627 0 19.1869 -107.855 0 21.872 -109.276 0 24.5311 -110.889 0 27.1641 -112.696 0 29.7711 -114.7 0 32.352 -116.9 0 34.9041 -119.299 0 37.4107 -121.898 0 39.8689 -124.701 0 42.2787 -127.708 0 44.6402 -130.923 0 46.9534 -134.348 0 49.2171 -137.985 0 51.4095 -141.836 0 53.5214 -145.906 0 55.5529 -150.196 0 57.5039 -154.711 0 59.3745 -159.453 0 61.1646 -164.425 0 62.8466 -169.63 0 64.3927 -175.07 0 65.8031 -180.746 0 67.0777 -186.66 0 68.2165 -192.811 0 69.2194 -199.203 0 70.0548 -205.835 0 70.6448 -212.705 0 70.986 -219.806 0 71.0783 -227.133 0 70.9217 -234.68 0 70.5163 -242.442 0 69.8405 -250.412 0 68.7654 -258.566 0 67.2695 -266.864 0 65.3529 -275.264 0 63.0156 -283.724 0 60.2575 -292.203 0 57.0706 -300.658 0 53.2799 -309.033 0 48.8138 -317.241 0 43.6721 -325.192 0 37.855 -332.798 0 31.3623 -339.969 0 24.1942 -346.614 0 16.4282 -352.638 0 8.14192 -357.927 0 -0.664709 -362.358 0 -9.99166 -365.811 0 -19.8389 -368.163 0 -30.2065 -369.295 0 -40.873 -369.092 0 -51.2973 -367.521 0 -61.4548 -364.588 0 -71.3454 -360.297 0 -80.9692 -354.654 0 -90.3262 -347.665 0 -99.3358 -339.339 0 -107.514 -329.767 0 -114.781 -319.119 0 -121.136 -307.57 0 -126.579 -295.295 0 -131.11 -282.468 0 -134.727 -269.264 0 -137.376 -255.836 0 -139.036 -242.295 0 -139.705 -228.75 0 -139.385 -215.306 0 -138.075 -202.071 0 -135.775 -189.151 0 -132.767 -176.643 0 -129.332 -164.596 0 -125.47 -153.05 0 -121.181 -142.043 0 -116.464 -131.616 0 -111.321 -121.806 0 -105.842 -112.649 0 -100.247 -104.144 0 -94.5479 -96.2715 0 -88.7437 -89.0124 0 -82.8347 -82.347 0 -76.8207 -76.256 0 -70.7198 -70.7198 0 -64.6388 -65.7194 0 -58.5956 -61.2359 0 -52.5902 -57.2506 0 -46.6225 -53.7448 0 -40.6927 -50.6996 0 -34.8003 -48.0964 0 -28.9371 -45.9191 0 -23.0998 -44.1574 0 -17.2883 -42.8015 0 -11.5028 -41.8417 0 -5.74317 -41.2681 0 -0.00942382 -41.0711 0 -0.00661763 -94.1769 0 2.58438 -94.262 0 5.16587 -94.5173 0 7.73787 -94.9432 0 10.3004 -95.5401 0 12.8534 -96.3083 0 15.3969 -97.2482 0 17.9258 -98.3602 0 20.428 -99.6454 0 22.9029 -101.105 0 25.3504 -102.74 0 27.7706 -104.551 0 30.1635 -106.541 0 32.5261 -108.709 0 34.8411 -111.058 0 37.1057 -113.59 0 39.3198 -116.306 0 41.4834 -119.208 0 43.5965 -122.298 0 45.6582 -125.579 0 47.6459 -129.051 0 49.5505 -132.718 0 51.372 -136.581 0 53.1103 -140.644 0 54.7656 -144.907 0 56.3377 -149.373 0 57.7999 -154.045 0 59.1254 -158.923 0 60.3142 -164.008 0 61.3662 -169.299 0 62.2815 -174.799 0 63.06 -180.507 0 63.6724 -186.424 0 64.0463 -192.543 0 64.1785 -198.856 0 64.069 -205.356 0 63.7179 -212.032 0 63.125 -218.877 0 62.2728 -225.881 0 61.055 -233.024 0 59.4539 -240.273 0 57.4695 -247.593 0 55.1018 -254.952 0 52.3508 -262.316 0 49.2101 -269.651 0 45.5391 -276.908 0 41.28 -284.004 0 36.4331 -290.856 0 30.9981 -297.377 0 24.9752 -303.482 0 18.3644 -309.087 0 11.2532 -314.106 0 3.72921 -318.443 0 -4.20746 -322.007 0 -12.5569 -324.7 0 -21.319 -326.43 0 -30.4939 -327.101 0 -39.8937 -326.626 0 -49.0591 -324.988 0 -57.9694 -322.202 0 -66.6245 -318.286 0 -75.0244 -313.256 0 -83.1692 -307.13 0 -90.9951 -299.926 0 -98.1209 -291.715 0 -104.483 -282.618 0 -110.081 -272.757 0 -114.915 -262.258 0 -118.986 -251.241 0 -122.289 -239.832 0 -124.745 -228.149 0 -126.32 -216.303 0 -127.014 -204.406 0 -126.829 -192.569 0 -125.762 -180.901 0 -123.815 -169.514 0 -121.231 -158.505 0 -118.252 -147.913 0 -114.879 -137.766 0 -111.111 -128.09 0 -106.949 -118.912 0 -102.392 -110.257 0 -97.5173 -102.149 0 -92.5145 -94.5903 0 -87.3918 -87.5689 0 -82.1492 -81.0741 0 -76.7867 -75.0948 0 -71.3042 -69.6201 0 -65.7194 -64.6388 0 -60.137 -60.137 0 -54.5746 -56.098 0 -49.0322 -52.505 0 -43.5098 -49.3411 0 -38.0073 -46.5896 0 -32.5248 -44.2336 0 -27.0604 -42.2594 0 -21.6137 -40.6594 0 -16.1844 -39.4263 0 -10.7727 -38.5533 0 -5.37849 -38.0332 0 -0.00182987 -37.859 0 -0.0067357 -85.2207 0 2.42292 -85.2971 0 4.84274 -85.5265 0 7.25271 -85.909 0 9.65284 -86.4451 0 12.0431 -87.1349 0 14.4236 -87.9789 0 16.789 -88.9774 0 19.1265 -90.1311 0 21.4356 -91.4411 0 23.7163 -92.9083 0 25.9686 -94.5336 0 28.1924 -96.3182 0 30.3849 -98.2629 0 32.5281 -100.369 0 34.6192 -102.638 0 36.6581 -105.072 0 38.6448 -107.671 0 40.5794 -110.438 0 42.4608 -113.374 0 44.2664 -116.48 0 45.987 -119.758 0 47.6226 -123.21 0 49.1733 -126.837 0 50.6389 -130.64 0 52.0196 -134.621 0 53.2893 -138.782 0 54.422 -143.122 0 55.4177 -147.642 0 56.2764 -152.341 0 56.9981 -157.22 0 57.5828 -162.278 0 58.0037 -167.514 0 58.1955 -172.923 0 58.1552 -178.492 0 57.8827 -184.212 0 57.3781 -190.073 0 56.6413 -196.063 0 55.6573 -202.173 0 54.3353 -208.384 0 52.6601 -214.668 0 50.6318 -220.999 0 48.2504 -227.349 0 45.5158 -233.692 0 42.4233 -240.001 0 38.8679 -246.231 0 34.8066 -252.308 0 30.2394 -258.154 0 25.1662 -263.688 0 19.5872 -268.834 0 13.5022 -273.511 0 6.99956 -277.642 0 0.1673 -281.155 0 -6.99453 -283.975 0 -14.4859 -286.032 0 -22.3069 -287.252 0 -30.4574 -287.563 0 -38.7789 -286.899 0 -46.8837 -285.255 0 -54.754 -282.652 0 -62.39 -279.116 0 -69.7917 -274.67 0 -76.9589 -269.339 0 -83.8384 -263.147 0 -90.1099 -256.148 0 -95.7201 -248.425 0 -100.669 -240.061 0 -104.957 -231.14 0 -108.583 -221.746 0 -111.544 -211.961 0 -113.766 -201.879 0 -115.218 -191.605 0 -115.9 -181.249 0 -115.811 -170.919 0 -114.952 -160.725 0 -113.323 -150.776 0 -111.123 -141.165 0 -108.55 -131.925 0 -105.603 -123.073 0 -102.284 -114.626 0 -98.5922 -106.602 0 -94.5272 -99.0193 0 -90.1583 -91.8923 0 -85.6541 -85.2238 0 -81.0223 -79.0092 0 -76.263 -73.2438 0 -71.376 -67.9229 0 -66.3615 -63.0418 0 -61.2359 -58.5956 0 -56.098 -54.5746 0 -50.9642 -50.9642 0 -45.8347 -47.7498 0 -40.7093 -44.9164 0 -35.5881 -42.4494 0 -30.4713 -40.334 0 -25.364 -38.5585 0 -20.2683 -37.1174 0 -15.1842 -36.0056 0 -10.1117 -35.2182 0 -5.05069 -34.7503 0 -0.00130309 -34.5967 0 -0.00680244 -76.365 0 2.27855 -76.433 0 4.55378 -76.637 0 6.8189 -76.9774 0 9.0739 -77.4543 0 11.3188 -78.0681 0 13.5536 -78.8188 0 15.7728 -79.7069 0 17.9633 -80.7329 0 20.1246 -81.8977 0 22.2565 -83.2021 0 24.3591 -84.6468 0 26.4324 -86.2326 0 28.4733 -87.9605 0 30.4638 -89.8312 0 32.4007 -91.8461 0 34.2842 -94.0063 0 36.1142 -96.3129 0 37.8906 -98.7671 0 39.6125 -101.37 0 41.2575 -104.123 0 42.8162 -107.027 0 44.2886 -110.082 0 45.6749 -113.29 0 46.975 -116.652 0 48.1888 -120.169 0 49.2912 -123.841 0 50.2569 -127.668 0 51.086 -131.649 0 51.7783 -135.785 0 52.334 -140.074 0 52.753 -144.515 0 53.0116 -149.108 0 53.0515 -153.844 0 52.8702 -158.713 0 52.4676 -163.703 0 51.8437 -168.803 0 50.9987 -174.001 0 49.9189 -179.287 0 48.524 -184.644 0 46.8005 -190.049 0 44.7485 -195.48 0 42.3679 -200.915 0 39.6587 -206.331 0 36.6178 -211.706 0 33.1746 -217.003 0 29.3003 -222.153 0 24.9948 -227.087 0 20.2582 -231.733 0 15.0905 -236.023 0 9.49162 -239.884 0 3.54401 -243.249 0 -2.66997 -246.061 0 -9.15031 -248.265 0 -15.897 -249.806 0 -22.9101 -250.63 0 -30.1896 -250.681 0 -37.6018 -249.912 0 -44.8202 -248.322 0 -51.8299 -245.938 0 -58.6309 -242.788 0 -65.2233 -238.897 0 -71.607 -234.293 0 -77.734 -229.002 0 -83.3164 -223.066 0 -88.306 -216.541 0 -92.7029 -209.481 0 -96.5072 -201.942 0 -99.7188 -193.98 0 -102.335 -185.651 0 -104.308 -177.025 0 -105.615 -168.2 0 -106.259 -159.277 0 -106.237 -150.358 0 -105.552 -141.544 0 -104.201 -132.937 0 -102.34 -124.624 0 -100.119 -116.63 0 -97.5401 -108.968 0 -94.6025 -101.651 0 -91.3063 -94.6884 0 -87.6516 -88.0939 0 -83.7026 -81.8781 0 -79.6164 -76.0444 0 -75.4003 -70.5924 0 -71.0541 -65.5214 0 -66.5779 -60.8311 0 -61.9718 -56.521 0 -57.2506 -52.5902 0 -52.505 -49.0322 0 -47.7498 -45.8347 0 -42.9851 -42.9851 0 -38.2108 -40.4707 0 -33.4271 -38.2791 0 -28.6344 -36.3975 0 -23.8444 -34.8164 0 -19.0617 -33.5315 0 -14.2865 -32.5394 0 -9.51858 -31.8364 0 -4.7581 -31.4192 0 -0.00501508 -31.2842 0 -0.0068428 -67.6097 0 2.15078 -67.6696 0 4.29807 -67.8491 0 6.43503 -68.1484 0 8.56164 -68.5679 0 10.6779 -69.1076 0 12.7839 -69.7678 0 14.8739 -70.5487 0 16.9346 -71.4508 0 18.9652 -72.4747 0 20.9658 -73.6211 0 22.9363 -74.8907 0 24.8769 -76.2839 0 26.7843 -77.8017 0 28.6402 -79.4445 0 30.4417 -81.2135 0 32.1886 -83.1093 0 33.881 -85.133 0 35.5188 -87.2855 0 37.1011 -89.5675 0 38.6056 -91.9798 0 40.0232 -94.5231 0 41.3538 -97.1979 0 42.5975 -100.005 0 43.7542 -102.944 0 44.8239 -106.016 0 45.7823 -109.222 0 46.6048 -112.56 0 47.2914 -116.03 0 47.8422 -119.631 0 48.2571 -123.36 0 48.5361 -127.219 0 48.6584 -131.203 0 48.573 -135.307 0 48.2775 -139.519 0 47.7719 -143.827 0 47.0562 -148.221 0 46.1304 -152.691 0 44.9824 -157.224 0 43.5387 -161.806 0 41.7872 -166.417 0 39.7279 -171.038 0 37.3607 -175.65 0 34.6857 -180.233 0 31.7011 -184.768 0 28.3672 -189.222 0 24.6679 -193.538 0 20.6032 -197.655 0 16.173 -201.512 0 11.3773 -205.05 0 6.21623 -208.206 0 0.763086 -210.926 0 -4.90874 -213.162 0 -10.7992 -214.875 0 -16.9084 -216.022 0 -23.2363 -216.563 0 -29.7828 -216.455 0 -36.4352 -215.663 0 -42.9178 -214.19 0 -49.2181 -212.061 0 -55.336 -209.301 0 -61.2717 -205.936 0 -67.025 -201.991 0 -72.5504 -197.492 0 -77.5753 -192.47 0 -82.0539 -186.965 0 -85.9864 -181.017 0 -89.3727 -174.664 0 -92.2128 -167.946 0 -94.506 -160.902 0 -96.2366 -153.588 0 -97.3979 -146.088 0 -97.9901 -138.491 0 -98.013 -130.885 0 -97.4668 -123.358 0 -96.3513 -115.998 0 -94.7773 -108.881 0 -92.8554 -102.029 0 -90.5855 -95.4538 0 -87.9677 -89.1637 0 -85.002 -83.1693 0 -81.6883 -77.4805 0 -78.0882 -72.1067 0 -74.352 -67.0522 0 -70.4864 -62.3184 0 -66.4916 -57.9071 0 -62.3675 -53.8197 0 -58.114 -50.0577 0 -53.7448 -46.6225 0 -49.3411 -43.5098 0 -44.9164 -40.7093 0 -40.4707 -38.2108 0 -36.0041 -36.0041 0 -31.5164 -34.0786 0 -27.0086 -32.4243 0 -22.498 -31.033 0 -17.9918 -29.9017 0 -13.4899 -29.0276 0 -8.99229 -28.408 0 -4.49905 -28.0401 0 -0.0101374 -27.9214 0 -0.00688174 -58.955 0 2.03915 -59.0069 0 4.07466 -59.1625 0 6.09966 -59.4221 0 8.11415 -59.7857 0 10.1181 -60.2536 0 12.1116 -60.8259 0 14.0889 -61.5028 0 16.0362 -62.2847 0 17.9529 -63.172 0 19.839 -64.1654 0 21.6945 -65.2653 0 23.5194 -66.4721 0 25.3106 -67.7865 0 27.0496 -69.209 0 28.7333 -70.7403 0 30.3617 -72.3809 0 31.9349 -74.1317 0 33.4527 -75.9931 0 34.9143 -77.966 0 36.2975 -80.0508 0 37.5934 -82.2478 0 38.8019 -84.5573 0 39.9231 -86.9796 0 40.9569 -89.5149 0 41.9035 -92.1635 0 42.739 -94.9254 0 43.4399 -97.7995 0 44.0062 -100.784 0 44.4379 -103.878 0 44.735 -107.08 0 44.8975 -110.389 0 44.907 -113.801 0 44.7189 -117.312 0 44.3312 -120.909 0 43.7438 -124.585 0 42.9568 -128.329 0 41.9701 -132.131 0 40.7726 -135.983 0 39.2971 -139.868 0 37.5324 -143.771 0 35.4784 -147.672 0 33.1353 -151.554 0 30.503 -155.398 0 27.5807 -159.186 0 24.3539 -162.89 0 20.8164 -166.463 0 16.9683 -169.858 0 12.8094 -173.024 0 8.33997 -175.914 0 3.55984 -178.479 0 -1.46664 -180.672 0 -6.67516 -182.458 0 -12.0657 -183.806 0 -17.6383 -184.681 0 -23.3929 -185.052 0 -29.3296 -184.886 0 -35.3522 -184.153 0 -41.2258 -182.858 0 -46.9399 -181.019 0 -52.4943 -178.656 0 -57.8891 -175.788 0 -63.1243 -172.435 0 -68.1561 -168.616 0 -72.7217 -164.359 0 -76.7772 -159.698 0 -80.3227 -154.668 0 -83.3582 -149.305 0 -85.8837 -143.641 0 -87.8997 -137.714 0 -89.4202 -131.568 0 -90.4509 -125.271 0 -90.9918 -118.892 0 -91.0429 -112.5 0 -90.6041 -106.165 0 -89.6755 -99.9577 0 -88.3333 -93.9364 0 -86.6536 -88.1228 0 -84.6366 -82.5287 0 -82.2821 -77.1656 0 -79.5901 -72.0451 0 -76.5608 -67.179 0 -73.2531 -62.578 0 -69.8111 -58.247 0 -66.2416 -54.1874 0 -62.5445 -50.4007 0 -58.7197 -46.8884 0 -54.7674 -43.652 0 -50.6996 -40.6927 0 -46.5896 -38.0073 0 -42.4494 -35.5881 0 -38.2791 -33.4271 0 -34.0786 -31.5164 0 -29.8481 -29.8481 0 -25.5884 -28.4142 0 -21.3216 -27.2084 0 -17.0565 -26.228 0 -12.7932 -25.4703 0 -8.53163 -24.9328 0 -4.27185 -24.6129 0 -0.0138417 -24.5083 0 -0.0069441 -50.3989 0 1.94317 -50.4431 0 3.88261 -50.5755 0 5.8114 -50.7965 0 7.72953 -51.1059 0 9.63699 -51.5041 0 11.5338 -51.9911 0 13.4142 -52.5671 0 15.2642 -53.2325 0 17.0831 -53.9875 0 18.871 -54.8326 0 20.6278 -55.7682 0 22.3536 -56.7947 0 24.0452 -57.9125 0 25.6841 -59.1219 0 27.2671 -60.4236 0 28.7942 -61.8179 0 30.2655 -63.3054 0 31.681 -64.8866 0 33.0395 -66.5619 0 34.3195 -68.3318 0 35.5119 -70.1964 0 36.6167 -72.1558 0 37.6341 -74.2102 0 38.5638 -76.3598 0 39.4061 -78.6047 0 40.138 -80.9448 0 40.737 -83.3786 0 41.2029 -85.9044 0 41.5358 -88.5204 0 41.7356 -91.225 0 41.8024 -94.0164 0 41.7199 -96.8925 0 41.4482 -99.8475 0 40.9855 -102.874 0 40.3318 -105.965 0 39.4871 -109.113 0 38.4513 -112.309 0 37.2146 -115.548 0 35.7169 -118.814 0 33.9483 -122.091 0 31.9087 -125.36 0 29.5982 -128.602 0 27.0168 -131.798 0 24.1644 -134.931 0 21.0429 -137.975 0 17.6527 -140.897 0 13.994 -143.663 0 10.0667 -146.235 0 5.87084 -148.58 0 1.40639 -150.661 0 -3.26834 -152.446 0 -8.09509 -153.904 0 -13.0738 -155.008 0 -18.2046 -155.729 0 -23.4874 -156.039 0 -28.9221 -155.911 0 -34.4255 -155.319 0 -39.7933 -154.26 0 -45.0163 -152.745 0 -50.0946 -150.782 0 -55.0281 -148.382 0 -59.8169 -145.555 0 -64.4199 -142.31 0 -68.5913 -138.674 0 -72.29 -134.686 0 -75.5161 -130.39 0 -78.2696 -125.825 0 -80.5505 -121.034 0 -82.3601 -116.057 0 -83.7262 -110.938 0 -84.6602 -105.722 0 -85.1623 -100.455 0 -85.2323 -95.1806 0 -84.8702 -89.9459 0 -84.0762 -84.796 0 -82.9044 -79.7714 0 -81.409 -74.8936 0 -79.5902 -70.1793 0 -77.4479 -65.6451 0 -74.9821 -61.3076 0 -72.1927 -57.1834 0 -69.1352 -53.288 0 -65.9444 -49.6262 0 -62.6266 -46.1974 0 -59.1818 -43.0011 0 -55.6099 -40.0365 0 -51.911 -37.3032 0 -48.0964 -34.8003 0 -44.2336 -32.5248 0 -40.334 -30.4713 0 -36.3975 -28.6344 0 -32.4243 -27.0086 0 -28.4142 -25.5884 0 -24.3684 -24.3684 0 -20.3115 -23.3438 0 -16.2538 -22.5115 0 -12.1951 -21.8685 0 -8.13542 -21.412 0 -4.07484 -21.1388 0 -0.013315 -21.0462 0 -0.00704178 -41.9008 0 1.86246 -41.9374 0 3.72116 -42.0471 0 5.56908 -42.23 0 7.40621 -42.4863 0 9.23255 -42.816 0 11.0481 -43.2193 0 12.8471 -43.6962 0 14.6153 -44.2471 0 16.3521 -44.8723 0 18.0575 -45.5719 0 19.7316 -46.3464 0 21.3742 -47.196 0 22.9823 -48.1209 0 24.5373 -49.1216 0 26.036 -50.1984 0 27.4784 -51.3516 0 28.8645 -52.5816 0 30.1944 -53.8887 0 31.4669 -55.2734 0 32.6607 -56.7357 0 33.7668 -58.276 0 34.7853 -59.8941 0 35.716 -61.5903 0 36.5592 -63.3645 0 37.3147 -65.217 0 37.9607 -67.1473 0 38.4755 -69.1541 0 38.8592 -71.2354 0 39.1116 -73.3894 0 39.2328 -75.6142 0 39.2227 -77.9079 0 39.0665 -80.2685 0 38.7272 -82.6918 0 38.2032 -85.1725 0 37.4946 -87.7052 0 36.6013 -90.2847 0 35.5233 -92.9058 0 34.2521 -95.5628 0 32.7371 -98.244 0 30.9697 -100.931 0 28.9499 -103.606 0 26.6777 -106.251 0 24.1532 -108.846 0 21.3766 -111.375 0 18.357 -113.816 0 15.098 -116.147 0 11.5995 -118.344 0 7.86148 -120.384 0 3.88404 -122.243 0 -0.332865 -123.898 0 -4.73237 -125.325 0 -9.25763 -126.5 0 -13.9086 -127.399 0 -18.6854 -127.997 0 -23.5879 -128.271 0 -28.6161 -128.194 0 -33.6955 -127.746 0 -38.6437 -126.919 0 -43.4523 -125.715 0 -48.1214 -124.135 0 -52.651 -122.18 0 -57.041 -119.851 0 -61.2554 -117.152 0 -65.0779 -114.106 0 -68.4722 -110.759 0 -71.4385 -107.156 0 -73.9767 -103.345 0 -76.0869 -99.3726 0 -77.7699 -95.2846 0 -79.0468 -91.1208 0 -79.9264 -86.9077 0 -80.4084 -82.6702 0 -80.4931 -78.433 0 -80.1803 -74.2211 0 -79.4701 -70.0593 0 -78.4087 -65.9717 0 -77.0425 -61.9793 0 -75.3715 -58.1021 0 -73.3956 -54.3603 0 -71.1149 -50.7739 0 -68.5293 -47.3631 0 -65.6885 -44.1465 0 -62.7135 -41.1287 0 -59.6098 -38.3073 0 -56.3774 -35.68 0 -53.0163 -33.2441 0 -49.5266 -30.9973 0 -45.9191 -28.9371 0 -42.2594 -27.0604 0 -38.5585 -25.364 0 -34.8164 -23.8444 0 -31.033 -22.498 0 -27.2084 -21.3216 0 -23.3438 -20.3115 0 -19.4646 -19.4646 0 -15.5813 -18.7774 0 -11.694 -18.2469 0 -7.8026 -17.8698 0 -3.90715 -17.643 0 -0.00762594 -17.5631 0 -0.00716155 -33.444 0 1.79681 -33.4731 0 3.58988 -33.5603 0 5.37206 -33.7058 0 7.14334 -33.9095 0 8.90372 -34.1716 0 10.6532 -34.4922 0 12.386 -34.8714 0 14.0877 -35.3094 0 15.7578 -35.8064 0 17.3963 -36.3625 0 19.0031 -36.978 0 20.5783 -37.6531 0 22.1187 -38.388 0 23.6057 -39.183 0 25.0361 -40.0382 0 26.4099 -40.9539 0 27.7271 -41.9305 0 28.9878 -42.968 0 30.1909 -44.0667 0 31.3151 -45.2269 0 32.3515 -46.4486 0 33.3003 -47.7317 0 34.1614 -49.0762 0 34.9347 -50.4823 0 35.6204 -51.9499 0 36.1975 -53.4787 0 36.6452 -55.0673 0 36.9635 -56.7139 0 37.1525 -58.4167 0 37.2121 -60.1739 0 37.1423 -61.9838 0 36.9288 -63.8446 0 36.5367 -65.753 0 35.9643 -67.7056 0 35.2117 -69.6985 0 34.2788 -71.7282 0 33.1656 -73.791 0 31.8654 -75.8829 0 30.3372 -77.9938 0 28.5742 -80.1076 0 26.5763 -82.2076 0 24.3437 -84.2774 0 21.8762 -86.3003 0 19.1744 -88.26 0 16.248 -90.1404 0 13.1009 -91.9267 0 9.73317 -93.6042 0 6.14483 -95.1582 0 2.33586 -96.574 0 -1.69373 -97.8369 0 -5.88539 -98.9314 0 -10.1806 -99.8382 0 -14.5792 -100.537 0 -19.0814 -101.009 0 -23.6871 -101.232 0 -28.3963 -101.188 0 -33.1402 -100.858 0 -37.7511 -100.232 0 -42.2212 -99.3074 0 -46.5505 -98.0812 0 -50.739 -96.55 0 -54.7868 -94.7105 0 -58.6636 -92.5605 0 -62.1888 -90.1207 0 -65.3321 -87.4351 0 -68.0937 -84.5485 0 -70.4734 -81.5059 0 -72.4713 -78.352 0 -74.0875 -75.1318 0 -75.3232 -71.8793 0 -76.1789 -68.6081 0 -76.6546 -65.3296 0 -76.7504 -62.055 0 -76.4662 -58.7954 0 -75.802 -55.5621 0 -74.8057 -52.3679 0 -73.5249 -49.2314 0 -71.9597 -46.1727 0 -70.11 -43.2119 0 -67.976 -40.3691 0 -65.5575 -37.6645 0 -62.8975 -35.1166 0 -60.1013 -32.7295 0 -57.1734 -30.5003 0 -54.114 -28.4259 0 -50.9231 -26.503 0 -47.6005 -24.7287 0 -44.1574 -23.0998 0 -40.6594 -21.6137 0 -37.1174 -20.2683 0 -33.5315 -19.0617 0 -29.9017 -17.9918 0 -26.228 -17.0565 0 -22.5115 -16.2538 0 -18.7774 -15.5813 0 -15.0362 -15.0362 0 -11.2878 -14.6155 0 -7.53223 -14.3163 0 -3.76946 -14.1357 0 0.000502926 -14.0706 0 -0.00728729 -25.0285 0 1.74604 -25.0503 0 3.48839 -25.1153 0 5.21975 -25.2237 0 6.94013 -25.3756 0 8.64953 -25.5711 0 10.3479 -25.8101 0 12.0295 -26.0928 0 13.6799 -26.4193 0 15.2985 -26.7898 0 16.8853 -27.2043 0 18.4402 -27.6631 0 19.9634 -28.1662 0 21.4516 -28.7137 0 22.8861 -29.3059 0 24.2639 -29.9429 0 25.5849 -30.6249 0 26.8491 -31.3519 0 28.0566 -32.1243 0 29.2063 -32.9421 0 30.277 -33.8054 0 31.2601 -34.7142 0 32.1554 -35.6684 0 32.9631 -36.6681 0 33.6831 -37.7131 0 34.3153 -38.8035 0 34.8399 -39.9389 0 35.2367 -41.1181 0 35.5058 -42.3397 0 35.6471 -43.6022 0 35.6606 -44.9042 0 35.5465 -46.2441 0 35.2906 -47.6206 0 34.8591 -49.0312 0 34.2505 -50.4735 0 33.4647 -51.9449 0 32.5017 -53.4429 0 31.3615 -54.9647 0 30.0388 -56.5077 0 28.5016 -58.064 0 26.7446 -59.6206 0 24.7678 -61.1643 0 22.5711 -62.6821 0 20.1545 -64.1606 0 17.5185 -65.5869 0 14.6704 -66.949 0 11.6132 -68.2377 0 8.347 -69.444 0 4.87174 -70.5589 0 1.18743 -71.5736 0 -2.70593 -72.479 0 -6.74675 -73.2651 0 -10.8735 -73.9179 0 -15.086 -74.4222 0 -19.3845 -74.7629 0 -23.7688 -74.925 0 -28.2391 -74.8932 0 -32.7303 -74.6534 0 -37.0839 -74.1976 0 -41.2927 -73.5219 0 -45.3567 -72.6218 0 -49.2759 -71.4933 0 -53.0502 -70.1321 0 -56.6553 -68.5348 0 -59.9443 -66.7176 0 -62.8928 -64.7162 0 -65.5007 -62.5671 0 -67.768 -60.3068 0 -69.6948 -57.9718 0 -71.28 -55.5986 0 -72.5016 -53.2135 0 -73.3506 -50.8235 0 -73.8269 -48.4329 0 -73.9306 -46.0466 0 -73.6617 -43.6689 0 -73.0201 -41.3045 0 -72.0593 -38.96 0 -70.8327 -36.65 0 -69.3404 -34.3912 0 -67.5824 -32.2001 0 -65.5585 -30.0933 0 -63.2689 -28.0876 0 -60.7505 -26.1982 0 -58.0934 -24.4287 0 -55.3018 -22.7764 0 -52.3758 -21.2388 0 -49.3151 -19.8133 0 -46.12 -18.4973 0 -42.8015 -17.2883 0 -39.4263 -16.1844 0 -36.0056 -15.1842 0 -32.5394 -14.2865 0 -29.0276 -13.4899 0 -25.4703 -12.7932 0 -21.8685 -12.1951 0 -18.2469 -11.694 0 -14.6155 -11.2878 0 -10.9744 -10.9744 0 -7.3234 -10.7515 0 -3.66263 -10.6169 0 0.0079292 -10.5685 0 -0.00740286 -16.6544 0 1.70997 -16.6688 0 3.4163 -16.712 0 5.11157 -16.7839 0 6.7958 -16.8846 0 8.46898 -17.0142 0 10.1311 -17.1728 0 11.7763 -17.3603 0 13.3902 -17.5768 0 14.9723 -17.8225 0 16.5224 -18.0974 0 18.0406 -18.4016 0 19.5268 -18.7351 0 20.978 -19.0981 0 22.3755 -19.4905 0 23.716 -19.9126 0 24.9996 -20.3644 0 26.2264 -20.8461 0 27.3962 -21.3577 0 28.5081 -21.8993 0 29.5411 -22.4711 0 30.4865 -23.0728 0 31.3442 -23.7044 0 32.1143 -24.3659 0 32.7968 -25.057 0 33.3917 -25.7778 0 33.8795 -26.5279 0 34.2408 -27.3066 0 34.4755 -28.113 0 34.5837 -28.9461 0 34.5654 -29.805 0 34.4205 -30.6888 0 34.1354 -31.5965 0 33.677 -32.5263 0 33.0436 -33.4764 0 32.2354 -34.4445 0 31.2522 -35.4288 0 30.0941 -36.4271 0 28.7568 -37.4374 0 27.2147 -38.4544 0 25.4637 -39.4702 0 23.5037 -40.4764 0 21.3346 -41.4648 0 18.9565 -42.4272 0 16.3697 -43.3553 0 13.5791 -44.2415 0 10.5868 -45.0796 0 7.39288 -45.863 0 3.99722 -46.5858 0 0.399873 -47.2415 0 -3.39916 -47.8238 0 -7.33578 -48.3261 0 -11.3459 -48.7393 0 -15.4295 -49.0537 0 -19.5865 -49.2599 0 -23.8171 -49.3481 0 -28.1211 -49.3088 0 -32.4363 -49.1331 0 -36.6105 -48.8168 0 -40.6367 -48.3585 0 -44.5149 -47.7566 0 -48.2452 -47.0097 0 -51.8275 -46.1162 0 -55.2415 -45.0753 0 -58.3648 -43.8968 0 -61.1771 -42.6018 0 -63.6784 -41.2117 0 -65.8687 -39.7479 0 -67.748 -38.2319 0 -69.3145 -36.6851 0 -70.5287 -35.1237 0 -71.3744 -33.5537 0 -71.8516 -31.9801 0 -71.9603 -30.4078 0 -71.7005 -28.8415 0 -71.0723 -27.2864 0 -70.1337 -25.7479 0 -68.9427 -24.2351 0 -67.4994 -22.7575 0 -65.8037 -21.3247 0 -63.8557 -19.9465 0 -61.6554 -18.6325 0 -59.2354 -17.3915 0 -56.6754 -16.2261 0 -53.9791 -15.1355 0 -51.1465 -14.1187 0 -48.1775 -13.1749 0 -45.0721 -12.3032 0 -41.8417 -11.5028 0 -38.5533 -10.7727 0 -35.2182 -10.1117 0 -31.8364 -9.51858 0 -28.408 -8.99229 0 -24.9328 -8.53163 0 -21.412 -8.13542 0 -17.8698 -7.8026 0 -14.3163 -7.53223 0 -10.7515 -7.3234 0 -7.17519 -7.17519 0 -3.58753 -7.08669 0 0.0115105 -7.05698 0 -0.00749215 -8.32163 0 1.68841 -8.32885 0 3.37322 -8.35038 0 5.04693 -8.38626 0 6.70956 -8.43652 0 8.36108 -8.50119 0 10.0015 -8.58031 0 11.625 -8.6739 0 13.2171 -8.782 0 14.7773 -8.90462 0 16.3055 -9.04181 0 17.8018 -9.19359 0 19.2661 -9.35998 0 20.6952 -9.54102 0 22.0706 -9.73676 0 23.3889 -9.94727 0 24.6502 -10.1726 0 25.8545 -10.4129 0 27.0019 -10.6682 0 28.0912 -10.9386 0 29.1017 -11.224 0 30.0247 -11.5244 0 30.8602 -11.8397 0 31.6082 -12.1695 0 32.2687 -12.5139 0 32.8417 -12.8727 0 33.3079 -13.2457 0 33.6482 -13.6328 0 33.8625 -14.0337 0 33.9509 -14.4483 0 33.9133 -14.8764 0 33.7497 -15.3179 0 33.447 -15.7724 0 32.9727 -16.2384 0 32.3256 -16.714 0 31.5055 -17.1972 0 30.5124 -17.6859 0 29.3465 -18.1781 0 28.0037 -18.6719 0 26.4609 -19.1652 0 24.7142 -19.6564 0 22.7636 -20.1438 0 20.6091 -20.6255 0 18.2508 -21.0999 0 15.6888 -21.5652 0 12.929 -22.0181 0 9.97357 -22.4524 0 6.82267 -22.8614 0 3.47625 -23.2387 0 -0.0656906 -23.5776 0 -3.80316 -23.8716 0 -7.67184 -24.1145 0 -11.6074 -24.3025 0 -15.6099 -24.4319 0 -19.6793 -24.4995 0 -23.8157 -24.5018 0 -28.0189 -24.4352 0 -32.229 -24.297 0 -36.2992 -24.0893 0 -40.2229 -23.8172 0 -44 -23.4854 0 -47.6306 -23.0991 0 -51.1146 -22.663 0 -54.4329 -22.182 0 -57.4705 -21.6584 0 -60.2081 -21.0919 0 -62.6459 -20.4824 0 -64.7838 -19.8293 0 -66.6218 -19.1323 0 -68.158 -18.3913 0 -69.3508 -17.6097 0 -70.183 -16.7989 0 -70.6547 -15.9711 0 -70.7659 -15.1386 0 -70.5166 -14.3134 0 -69.9067 -13.5077 0 -68.9928 -12.7317 0 -67.8313 -11.9866 0 -66.4221 -11.2716 0 -64.7652 -10.5859 0 -62.8608 -9.92866 0 -60.7087 -9.29904 0 -58.3404 -8.69643 0 -55.8328 -8.12195 0 -53.1894 -7.57766 0 -50.4101 -7.06559 0 -47.4949 -6.5878 0 -44.444 -6.14634 0 -41.2681 -5.74317 0 -38.0332 -5.37849 0 -34.7503 -5.05069 0 -31.4192 -4.7581 0 -28.0401 -4.49905 0 -24.6129 -4.27185 0 -21.1388 -4.07484 0 -17.643 -3.90715 0 -14.1357 -3.76946 0 -10.6169 -3.66263 0 -7.08669 -3.58753 0 -3.54502 -3.54502 0 0.00810445 -3.53595 0 -0.00753902 -0.0301951 0 1.68117 -0.0302743 0 3.35877 -0.0304774 0 5.02525 -0.030813 0 6.68062 -0.0312898 0 8.32487 -0.0319168 0 9.95801 -0.0327025 0 11.5742 -0.0336546 0 13.159 -0.0347716 0 14.7119 -0.0360469 0 16.2327 -0.0374741 0 17.7216 -0.0390466 0 19.1785 -0.0407579 0 20.6003 -0.0426032 0 21.9682 -0.0446162 0 23.279 -0.0468694 0 24.5327 -0.0494368 0 25.7294 -0.0523925 0 26.869 -0.0558106 0 27.9506 -0.0597643 0 28.9534 -0.0642454 0 29.8688 -0.0690861 0 30.6969 -0.0741008 0 31.4377 -0.0791038 0 32.0911 -0.0839092 0 32.6573 -0.0883312 0 33.1166 -0.0923459 0 33.4497 -0.0965759 0 33.6565 -0.101806 0 33.7371 -0.10882 0 33.6914 -0.118402 0 33.5195 -0.131338 0 33.2088 -0.148177 0 32.7288 -0.167431 0 32.0781 -0.186563 0 31.2567 -0.203026 0 30.2646 -0.214275 0 29.1018 -0.217762 0 27.7639 -0.211126 0 26.2244 -0.196252 0 24.4788 -0.179274 0 22.5272 -0.166509 0 20.3695 -0.164273 0 18.0058 -0.178884 0 15.4366 -0.216617 0 12.6747 -0.278626 0 9.72524 -0.356116 0 6.5883 -0.439151 0 3.26384 -0.517795 0 -0.248134 -0.582112 0 -3.94762 -0.622165 0 -7.77426 -0.63022 0 -11.6677 -0.607358 0 -15.6278 -0.556858 0 -19.6548 -0.482003 0 -23.7485 -0.386074 0 -27.909 -0.272353 0 -32.079 -0.144948 0 -36.1185 -0.0151518 0 -40.0211 0.102042 0 -43.7868 0.191607 0 -47.4156 0.238522 0 -50.9076 0.227759 0 -54.2405 0.14521 0 -57.2816 -0.00221946 0 -60.0089 -0.186605 0 -62.4222 -0.379108 0 -64.5216 -0.55089 0 -66.307 -0.673114 0 -67.7777 -0.717085 0 -68.9144 -0.671532 0 -69.7094 -0.559027 0 -70.1625 -0.406026 0 -70.2739 -0.238988 0 -70.0436 -0.0843697 0 -69.4714 0.0313707 0 -68.6008 0.0886501 0 -67.4751 0.0953844 0 -66.0941 0.066364 0 -64.4581 0.0163794 0 -62.5669 -0.0397787 0 -60.4205 -0.0873199 0 -58.0537 -0.112926 0 -55.5512 -0.116091 0 -52.9168 -0.102907 0 -50.1506 -0.079521 0 -47.2525 -0.0520786 0 -44.2226 -0.0267264 0 -41.0711 -0.00942382 0 -37.859 -0.00182987 0 -34.5967 -0.00130309 0 -31.2842 -0.00501508 0 -27.9214 -0.0101374 0 -24.5083 -0.0138417 0 -21.0462 -0.013315 0 -17.5631 -0.00762594 0 -14.0706 0.000502926 0 -10.5685 0.0079292 0 -7.05698 0.0115105 0 -3.53595 0.00810445 0 -0.00543136 -0.00543136 0 </DataArray> 
</PointData> 
<Points> 
<DataArray type="Float32" NumberOfComponents="3"> 
0 0 0 0.1 0 0 0.2 0 0 0.3 0 0 0.4 0 0 0.5 0 0 0.6 0 0 0.7 0 0 0.8 0 0 0.9 0 0 1 0 0 1.1 0 0 1.2 0 0 1.3 0 0 1.4 0 0 1.5 0 0 1.6 0 0 1.7 0 0 1.8 0 0 1.9 0 0 2 0 0 2.1 0 0 2.2 0 0 2.3 0 0 2.4 0 0 2.5 0 0 2.6 0 0 2.7 0 0 2.8 0 0 2.9 0 0 3 0 0 3.1 0 0 3.2 0 0 3.3 0 0 3.4 0 0 3.5 0 0 3.6 0 0 3.7 0 0 3.8 0 0 3.9 0 0 4 0 0 4.1 0 0 4.2 0 0 4.3 0 0 4.4 0 0 4.5 0 0 4.6 0 0 4.7 0 0 4.8 0 0 4.9 0 0 5 0 0 5.1 0 0 5.2 0 0 5.3 0 0 5.4 0 0 5.5 0 0 5.6 0 0 5.7 0 0 5.8 0 0 5.9 0 0 6 0 0 6.1 0 0 6.2 0 0 6.3 0 0 6.4 0 0 6.5 0 0 6.6 0 0 6.7 0 0 6.8 0 0 6.9 0 0 7 0 0 7.1 0 0 7.2 0 0 7.3 0 0 7.4 0 0 7.5 0 0 7.6 0 0 7.7 0 0 7.8 0 0 7.9 0 0 8 0 0 8.1 0 0 8.2 0 0 8.3 0 0 8.4 0 0 8.5 0 0 8.6 0 0 8.7 0 0 8.8 0 0 8.9 0 0 9 0 0 9.1 0 0 9.2 0 0 9.3 0 0 9.4 0 0 9.5 0 0 9.6 0 0 9.7 0 0 9.8 0 0 9.9 0 0 10 0 0 0 0.1 0 0.1 0.1 0 0.2 0.1 0 0.3 0.1 0 0.4 0.1 0 0.5 0.1 0 0.6 0.1 0 0.7 0.1 0 0.8 0.1 0 0.9 0.1 0 1 0.1 0 1.1 0.1 0 1.2 0.1 0 1.3 0.1 0 1.4 0.1 0 1.5 0.1 0 1.6 0.1 0 1.7 0.1 0 1.8 0.1 0 1.9 0.1 0 2 0.1 0 2.1 0.1 0 2.2 0.1 0 2.3 0.1 0 2.4 0.1 0 2.5 0.1 0 2.6 0.1 0 2.7 0.1 0 2.8 0.1 0 2.9 0.1 0 3 0.1 0 3.1 0.1 0 3.2 0.1 0 3.3 0.1 0 3.4 0.1 0 3.5 0.1 0 3.6 0.1 0 3.7 0.1 0 3.8 0.1 0 3.9 0.1 0 4 0.1 0 4.1 0.1 0 4.2 0.1 0 4.3 0.1 0 4.4 0.1 0 4.5 0.1 0 4.6 0.1 0 4.7 0.1 0 4.8 0.1 0 4.9 0.1 0 5 0.1 0 5.1 0.1 0 5.2 0.1 0 5.3 0.1 0 5.4 0.1 0 5.5 0.1 0 5.6 0.1 0 5.7 0.1 0 5.8 0.1 0 5.9 0.1 0 6 0.1 0 6.1 0.1 0 6.2 0.1 0 6.3 0.1 0 6.4 0.1 0 6.5 0.1 0 6.6 0.1 0 6.7 0.1 0 6.8 0.1 0 6.9 0.1 0 7 0.1 0 7.1 0.1 0 7.2 0.1 0 7.3 0.1 0 7.4 0.1 0 7.5 0.1 0 7.6 0.1 0 7.7 0.1 0 7.8 0.1 0 7.9 0.1 0 8 0.1 0 8.1 0.1 0 8.2 0.1 0 8.3 0.1 0 8.4 0.1 0 8.5 0.1 0 8.6 0.1 0 8.7 0.1 0 8.8 0.1 0 8.9 0.1 0 9 0.1 0 9.1 0.1 0 9.2 0.1 0 9.3 0.1 0 9.4 0.1 0 9.5 0.1 0 9.6 0.1 0 9.7 0.1 0 9.8 0.1 0 9.9 0.1 0 10 0.1 0 0 0.2 0 0.1 0.2 0 0.2 0.2 0 0.3 0.2 0 0.4 0.2 0 0.5 0.2 0 0.6 0.2 0 0.7 0.2 0 0.8 0.2 0 0.9 0.2 0 1 0.2 0 1.1 0.2 0 1.2 0.2 0 1.3 0.2 0 1.4 0.2 0 1.5 0.2 0 1.6 0.2 0 1.7 0.2 0 1.8 0.2 0 1.9 0.2 0 2 0.2 0 2.1 0.2 0 2.2 0.2 0 2.3 0.2 0 2.4 0.2 0 2.5 0.2 0 2.6 0.2 0 2.7 0.2 0 2.8 0.2 0 2.9 0.2 0 3 0.2 0 3.1 0.2 0 3.2 0.2 0 3.3 0.2 0 3.4 0.2 0 3.5 0.2 0 3.6 0.2 0 3.7 0.2 0 3.8 0.2 0 3.9 0.2 0 4 0.2 0 4.1 0.2 0 4.2 0.2 0 4.3 0.2 0 4.4 0.2 0 4.5 0.2 0 4.6 0.2 0 4.7 0.2 0 4.8 0.2 0 4.9 0.2 0 5 0.2 0 5.1 0.2 0 5.2 0.2 0 5.3 0.2 0 5.4 0.2 0 5.5 0.2 0 5.6 0.2 0 5.7 0.2 0 5.8 0.2 0 5.9 0.2 0 6 0.2 0 6.1 0.2 0 6.2 0.2 0 6.3 0.2 0 6.4 0.2 0 6.5 0.2 0 6.6 0.2 0 6.7 0.2 0 6.8 0.2 0 6.9 0.2 0 7 0.2 0 7.1 0.2 0 7.2 0.2 0 7.3 0.2 0 7.4 0.2 0 7.5 0.2 0 7.6 0.2 0 7.7 0.2 0 7.8 0.2 0 7.9 0.2 0 8 0.2 0 8.1 0.2 0 8.2 0.2 0 8.3 0.2 0 8.4 0.2 0 8.5 0.2 0 8.6 0.2 0 8.7 0.2 0 8.8 0.2 0 8.9 0.2 0 9 0.2 0 9.1 0.2 0 9.2 0.2 0 9.3 0.2 0 9.4 0.2 0 9.5 0.2 0 9.6 0.2 0 9.7 0.2 0 9.8 0.2 0 9.9 0.2 0 10 0.2 0 0 0.3 0 0.1 0.3 0 0.2 0.3 0 0.3 0.3 0 0.4 0.3 0 0.5 0.3 0 0.6 0.3 0 0.7 0.3 0 0.8 0.3 0 0.9 0.3 0 1 0.3 0 1.1 0.3 0 1.2 0.3 0 1.3 0.3 0 1.4 0.3 0 1.5 0.3 0 1.6 0.3 0 1.7 0.3 0 1.8 0.3 0 1.9 0.3 0 2 0.3 0 2.1 0.3 0 2.2 0.3 0 2.3 0.3 0 2.4 0.3 0 2.5 0.3 0 2.6 0.3 0 2.7 0.3 0 2.8 0.3 0 2.9 0.3 0 3 0.3 0 3.1 0.3 0 3.2 0.3 0 3.3 0.3 0 3.4 0.3 0 3.5 0.3 0 3.6 0.3 0 3.7 0.3 0 3.8 0.3 0 3.9 0.3 0 4 0.3 0 4.1 0.3 0 4.2 0.3 0 4.3 0.3 0 4.4 0.3 0 4.5 0.3 0 4.6 0.3 0 4.7 0.3 0 4.8 0.3 0 4.9 0.3 0 5 0.3 0 5.1 0.3 0 5.2 0.3 0 5.3 0.3 0 5.4 0.3 0 5.5 0.3 0 5.6 0.3 0 5.7 0.3 0 5.8 0.3 0 5.9 0.3 0 6 0.3 0 6.1 0.3 0 6.2 0.3 0 6.3 0.3 0 6.4 0.3 0 6.5 0.3 0 6.6 0.3 0 6.7 0.3 0 6.8 0.3 0 6.9 0.3 0 7 0.3 0 7.1 0.3 0 7.2 0.3 0 7.3 0.3 0 7.4 0.3 0 7.5 0.3 0 7.6 0.3 0 7.7 0.3 0 7.8 0.3 0 7.9 0.3 0 8 0.3 0 8.1 0.3 0 8.2 0.3 0 8.3 0.3 0 8.4 0.3 0 8.5 0.3 0 8.6 0.3 0 8.7 0.3 0 8.8 0.3 0 8.9 0.3 0 9 0.3 0 9.1 0.3 0 9.2 0.3 0 9.3 0.3 0 9.4 0.3 0 9.5 0.3 0 9.6 0.3 0 9.7 0.3 0 9.8 0.3 0 9.9 0.3 0 10 0.3 0 0 0.4 0 0.1 0.4 0 0.2 0.4 0 0.3 0.4 0 0.4 0.4 0 0.5 0.4 0 0.6 0.4 0 0.7 0.4 0 0.8 0.4 0 0.9 0.4 0 1 0.4 0 1.1 0.4 0 1.2 0.4 0 1.3 0.4 0 1.4 0.4 0 1.5 0.4 0 1.6 0.4 0 1.7 0.4 0 1.8 0.4 0 1.9 0.4 0 2 0.4 0 2.1 0.4 0 2.2 0.4 0 2.3 0.4 0 2.4 0.4 0 2.5 0.4 0 2.6 0.4 0 2.7 0.4 0 2.8 0.4 0 2.9 0.4 0 3 0.4 0 3.1 0.4 0 3.2 0.4 0 3.3 0.4 0 3.4 0.4 0 3.5 0.4 0 3.6 0.4 0 3.7 0.4 0 3.8 0.4 0 3.9 0.4 0 4 0.4 0 4.1 0.4 0 4.2 0.4 0 4.3 0.4 0 4.4 0.4 0 4.5 0.4 0 4.6 0.4 0 4.7 0.4 0 4.8 0.4 0 4.9 0.4 0 5 0.4 0 5.1 0.4 0 5.2 0.4 0 5.3 0.4 0 5.4 0.4 0 5.5 0.4 0 5.6 0.4 0 5.7 0.4 0 5.8 0.4 0 5.9 0.4 0 6 0.4 0 6.1 0.4 0 6.2 0.4 0 6.3 0.4 0 6.4 0.4 0 6.5 0.4 0 6.6 0.4 0 6.7 0.4 0 6.8 0.4 0 6.9 0.4 0 7 0.4 0 7.1 0.4 0 7.2 0.4 0 7.3 0.4 0 7.4 0.4 0 7.5 0.4 0 7.6 0.4 0 7.7 0.4 0 7.8 0.4 0 7.9 0.4 0 8 0.4 0 8.1 0.4 0 8.2 0.4 0 8.3 0.4 0 8.4 0.4 0 8.5 0.4 0 8.6 0.4 0 8.7 0.4 0 8.8 0.4 0 8.9 0.4 0 9 0.4 0 9.1 0.4 0 9.2 0.4 0 9.3 0.4 0 9.4 0.4 0 9.5 0.4 0 9.6 0.4 0 9.7 0.4 0 9.8 0.4 0 9.9 0.4 0 10 0.4 0 0 0.5 0 0.1 0.5 0 0.2 0.5 0 0.3 0.5 0 0.4 0.5 0 0.5 0.5 0 0.6 0.5 0 0.7 0.5 0 0.8 0.5 0 0.9 0.5 0 1 0.5 0 1.1 0.5 0 1.2 0.5 0 1.3 0.5 0 1.4 0.5 0 1.5 0.5 0 1.6 0.5 0 1.7 0.5 0 1.8 0.5 0 1.9 0.5 0 2 0.5 0 2.1 0.5 0 2.2 0.5 0 2.3 0.5 0 2.4 0.5 0 2.5 0.5 0 2.6 0.5 0 2.7 0.5 0 2.8 0.5 0 2.9 0.5 0 3 0.5 0 3.1 0.5 0 3.2 0.5 0 3.3 0.5 0 3.4 0.5 0 3.5 0.5 0 3.6 0.5 0 3.7 0.5 0 3.8 0.5 0 3.9 0.5 0 4 0.5 0 4.1 0.5 0 4.2 0.5 0 4.3 0.5 0 4.4 0.5 0 4.5 0.5 0 4.6 0.5 0 4.7 0.5 0 4.8 0.5 0 4.9 0.5 0 5 0.5 0 5.1 0.5 0 5.2 0.5 0 5.3 0.5 0 5.4 0.5 0 5.5 0.5 0 5.6 0.5 0 5.7 0.5 0 5.8 0.5 0 5.9 0.5 0 6 0.5 0 6.1 0.5 0 6.2 0.5 0 6.3 0.5 0 6.4 0.5 0 6.5 0.5 0 6.6 0.5 0 6.7 0.5 0 6.8 0.5 0 6.9 0.5 0 7 0.5 0 7.1 0.5 0 7.2 0.5 0 7.3 0.5 0 7.4 0.5 0 7.5 0.5 0 7.6 0.5 0 7.7 0.5 0 7.8 0.5 0 7.9 0.5 0 8 0.5 0 8.1 0.5 0 8.2 0.5 0 8.3 0.5 0 8.4 0.5 0 8.5 0.5 0 8.6 0.5 0 8.7 0.5 0 8.8 0.5 0 8.9 0.5 0 9 0.5 0 9.1 0.5 0 9.2 0.5 0 9.3 0.5 0 9.4 0.5 0 9.5 0.5 0 9.6 0.5 0 9.7 0.5 0 9.8 0.5 0 9.9 0.5 0 10 0.5 0 0 0.6 0 0.1 0.6 0 0.2 0.6 0 0.3 0.6 0 0.4 0.6 0 0.5 0.6 0 0.6 0.6 0 0.7 0.6 0 0.8 0.6 0 0.9 0.6 0 1 0.6 0 1.1 0.6 0 1.2 0.6 0 1.3 0.6 0 1.4 0.6 0 1.5 0.6 0 1.6 0.6 0 1.7 0.6 0 1.8 0.6 0 1.9 0.6 0 2 0.6 0 2.1 0.6 0 2.2 0.6 0 2.3 0.6 0 2.4 0.6 0 2.5 0.6 0 2.6 0.6 0 2.7 0.6 0 2.8 0.6 0 2.9 0.6 0 3 0.6 0 3.1 0.6 0 3.2 0.6 0 3.3 0.6 0 3.4 0.6 0 3.5 0.6 0 3.6 0.6 0 3.7 0.6 0 3.8 0.6 0 3.9 0.6 0 4 0.6 0 4.1 0.6 0 4.2 0.6 0 4.3 0.6 0 4.4 0.6 0 4.5 0.6 0 4.6 0.6 0 4.7 0.6 0 4.8 0.6 0 4.9 0.6 0 5 0.6 0 5.1 0.6 0 5.2 0.6 0 5.3 0.6 0 5.4 0.6 0 5.5 0.6 0 5.6 0.6 0 5.7 0.6 0 5.8 0.6 0 5.9 0.6 0 6 0.6 0 6.1 0.6 0 6.2 0.6 0 6.3 0.6 0 6.4 0.6 0 6.5 0.6 0 6.6 0.6 0 6.7 0.6 0 6.8 0.6 0 6.9 0.6 0 7 0.6 0 7.1 0.6 0 7.2 0.6 0 7.3 0.6 0 7.4 0.6 0 7.5 0.6 0 7.6 0.6 0 7.7 0.6 0 7.8 0.6 0 7.9 0.6 0 8 0.6 0 8.1 0.6 0 8.2 0.6 0 8.3 0.6 0 8.4 0.6 0 8.5 0.6 0 8.6 0.6 0 8.7 0.6 0 8.8 0.6 0 8.9 0.6 0 9 0.6 0 9.1 0.6 0 9.2 0.6 0 9.3 0.6 0 9.4 0.6 0 9.5 0.6 0 9.6 0.6 0 9.7 0.6 0 9.8 0.6 0 9.9 0.6 0 10 0.6 0 0 0.7 0 0.1 0.7 0 0.2 0.7 0 0.3 0.7 0 0.4 0.7 0 0.5 0.7 0 0.6 0.7 0 0.7 0.7 0 0.8 0.7 0 0.9 0.7 0 1 0.7 0 1.1 0.7 0 1.2 0.7 0 1.3 0.7 0 1.4 0.7 0 1.5 0.7 0 1.6 0.7 0 1.7 0.7 0 1.8 0.7 0 1.9 0.7 0 2 0.7 0 2.1 0.7 0 2.2 0.7 0 2.3 0.7 0 2.4 0.7 0 2.5 0.7 0 2.6 0.7 0 2.7 0.7 0 2.8 0.7 0 2.9 0.7 0 3 0.7 0 3.1 0.7 0 3.2 0.7 0 3.3 0.7 0 3.4 0.7 0 3.5 0.7 0 3.6 0.7 0 3.7 0.7 0 3.8 0.7 0 3.9 0.7 0 4 0.7 0 4.1 0.7 0 4.2 0.7 0 4.3 0.7 0 4.4 0.7 0 4.5 0.7 0 4.6 0.7 0 4.7 0.7 0 4.8 0.7 0 4.9 0.7 0 5 0.7 0 5.1 0.7 0 5.2 0.7 0 5.3 0.7 0 5.4 0.7 0 5.5 0.7 0 5.6 0.7 0 5.7 0.7 0 5.8 0.7 0 5.9 0.7 0 6 0.7 0 6.1 0.7 0 6.2 0.7 0 6.3 0.7 0 6.4 0.7 0 6.5 0.7 0 6.6 0.7 0 6.7 0.7 0 6.8 0.7 0 6.9 0.7 0 7 0.7 0 7.1 0.7 0 7.2 0.7 0 7.3 0.7 0 7.4 0.7 0 7.5 0.7 0 7.6 0.7 0 7.7 0.7 0 7.8 0.7 0 7.9 0.7 0 8 0.7 0 8.1 0.7 0 8.2 0.7 0 8.3 0.7 0 8.4 0.7 0 8.5 0.7 0 8.6 0.7 0 8.7 0.7 0 8.8 0.7 0 8.9 0.7 0 9 0.7 0 9.1 0.7 0 9.2 0.7 0 9.3 0.7 0 9.4 0.7 0 9.5 0.7 0 9.6 0.7 0 9.7 0.7 0 9.8 0.7 0 9.9 0.7 0 10 0.7 0 0 0.8 0 0.1 0.8 0 0.2 0.8 0 0.3 0.8 0 0.4 0.8 0 0.5 0.8 0 0.6 0.8 0 0.7 0.8 0 0.8 0.8 0 0.9 0.8 0 1 0.8 0 1.1 0.8 0 1.2 0.8 0 1.3 0.8 0 1.4 0.8 0 1.5 0.8 0 1.6 0.8 0 1.7 0.8 0 1.8 0.8 0 1.9 0.8 0 2 0.8 0 2.1 0.8 0 2.2 0.8 0 2.3 0.8 0 2.4 0.8 0 2.5 0.8 0 2.6 0.8 0 2.7 0.8 0 2.8 0.8 0 2.9 0.8 0 3 0.8 0 3.1 0.8 0 3.2 0.8 0 3.3 0.8 0 3.4 0.8 0 3.5 0.8 0 3.6 0.8 0 3.7 0.8 0 3.8 0.8 0 3.9 0.8 0 4 0.8 0 4.1 0.8 0 4.2 0.8 0 4.3 0.8 0 4.4 0.8 0 4.5 0.8 0 4.6 0.8 0 4.7 0.8 0 4.8 0.8 0 4.9 0.8 0 5 0.8 0 5.1 0.8 0 5.2 0.8 0 5.3 0.8 0 5.4 0.8 0 5.5 0.8 0 5.6 0.8 0 5.7 0.8 0 5.8 0.8 0 5.9 0.8 0 6 0.8 0 6.1 0.8 0 6.2 0.8 0 6.3 0.8 0 6.4 0.8 0 6.5 0.8 0 6.6 0.8 0 6.7 0.8 0 6.8 0.8 0 6.9 0.8 0 7 0.8 0 7.1 0.8 0 7.2 0.8 0 7.3 0.8 0 7.4 0.8 0 7.5 0.8 0 7.6 0.8 0 7.7 0.8 0 7.8 0.8 0 7.9 0.8 0 8 0.8 0 8.1 0.8 0 8.2 0.8 0 8.3 0.8 0 8.4 0.8 0 8.5 0.8 0 8.6 0.8 0 8.7 0.8 0 8.8 0.8 0 8.9 0.8 0 9 0.8 0 9.1 0.8 0 9.2 0.8 0 9.3 0.8 0 9.4 0.8 0 9.5 0.8 0 9.6 0.8 0 9.7 0.8 0 9.8 0.8 0 9.9 0.8 0 10 0.8 0 0 0.9 0 0.1 0.9 0 0.2 0.9 0 0.3 0.9 0 0.4 0.9 0 0.5 0.9 0 0.6 0.9 0 0.7 0.9 0 0.8 0.9 0 0.9 0.9 0 1 0.9 0 1.1 0.9 0 1.2 0.9 0 1.3 0.9 0 1.4 0.9 0 1.5 0.9 0 1.6 0.9 0 1.7 0.9 0 1.8 0.9 0 1.9 0.9 0 2 0.9 0 2.1 0.9 0 2.2 0.9 0 2.3 0.9 0 2.4 0.9 0 2.5 0.9 0 2.6 0.9 0 2.7 0.9 0 2.8 0.9 0 2.9 0.9 0 3 0.9 0 3.1 0.9 0 3.2 0.9 0 3.3 0.9 0 3.4 0.9 0 3.5 0.9 0 3.6 0.9 0 3.7 0.9 0 3.8 0.9 0 3.9 0.9 0 4 0.9 0 4.1 0.9 0 4.2 0.9 0 4.3 0.9 0 4.4 0.9 0 4.5 0.9 0 4.6 0.9 0 4.7 0.9 0 4.8 0.9 0 4.9 0.9 0 5 0.9 0 5.1 0.9 0 5.2 0.9 0 5.3 0.9 0 5.4 0.9 0 5.5 0.9 0 5.6 0.9 0 5.7 0.9 0 5.8 0.9 0 5.9 0.9 0 6 0.9 0 6.1 0.9 0 6.2 0.9 0 6.3 0.9 0 6.4 0.9 0 6.5 0.9 0 6.6 0.9 0 6.7 0.9 0 6.8 0.9 0 6.9 0.9 0 7 0.9 0 7.1 0.9 0 7.2 0.9 0 7.3 0.9 0 7.4 0.9 0 7.5 0.9 0 7.6 0.9 0 7.7 0.9 0 7.8 0.9 0 7.9 0.9 0 8 0.9 0 8.1 0.9 0 8.2 0.9 0 8.3 0.9 0 8.4 0.9 0 8.5 0.9 0 8.6 0.9 0 8.7 0.9 0 8.8 0.9 0 8.9 0.9 0 9 0.9 0 9.1 0.9 0 9.2 0.9 0 9.3 0.9 0 9.4 0.9 0 9.5 0.9 0 9.6 0.9 0 9.7 0.9 0 9.8 0.9 0 9.9 0.9 0 10 0.9 0 0 1 0 0.1 1 0 0.2 1 0 0.3 1 0 0.4 1 0 0.5 1 0 0.6 1 0 0.7 1 0 0.8 1 0 0.9 1 0 1 1 0 1.1 1 0 1.2 1 0 1.3 1 0 1.4 1 0 1.5 1 0 1.6 1 0 1.7 1 0 1.8 1 0 1.9 1 0 2 1 0 2.1 1 0 2.2 1 0 2.3 1 0 2.4 1 0 2.5 1 0 2.6 1 0 2.7 1 0 2.8 1 0 2.9 1 0 3 1 0 3.1 1 0 3.2 1 0 3.3 1 0 3.4 1 0 3.5 1 0 3.6 1 0 3.7 1 0 3.8 1 0 3.9 1 0 4 1 0 4.1 1 0 4.2 1 0 4.3 1 0 4.4 1 0 4.5 1 0 4.6 1 0 4.7 1 0 4.8 1 0 4.9 1 0 5 1 0 5.1 1 0 5.2 1 0 5.3 1 0 5.4 1 0 5.5 1 0 5.6 1 0 5.7 1 0 5.8 1 0 5.9 1 0 6 1 0 6.1 1 0 6.2 1 0 6.3 1 0 6.4 1 0 6.5 1 0 6.6 1 0 6.7 1 0 6.8 1 0 6.9 1 0 7 1 0 7.1 1 0 7.2 1 0 7.3 1 0 7.4 1 0 7.5 1 0 7.6 1 0 7.7 1 0 7.8 1 0 7.9 1 0 8 1 0 8.1 1 0 8.2 1 0 8.3 1 0 8.4 1 0 8.5 1 0 8.6 1 0 8.7 1 0 8.8 1 0 8.9 1 0 9 1 0 9.1 1 0 9.2 1 0 9.3 1 0 9.4 1 0 9.5 1 0 9.6 1 0 9.7 1 0 9.8 1 0 9.9 1 0 10 1 0 0 1.1 0 0.1 1.1 0 0.2 1.1 0 0.3 1.1 0 0.4 1.1 0 0.5 1.1 0 0.6 1.1 0 0.7 1.1 0 0.8 1.1 0 0.9 1.1 0 1 1.1 0 1.1 1.1 0 1.2 1.1 0 1.3 1.1 0 1.4 1.1 0 1.5 1.1 0 1.6 1.1 0 1.7 1.1 0 1.8 1.1 0 1.9 1.1 0 2 1.1 0 2.1 1.1 0 2.2 1.1 0 2.3 1.1 0 2.4 1.1 0 2.5 1.1 0 2.6 1.1 0 2.7 1.1 0 2.8 1.1 0 2.9 1.1 0 3 1.1 0 3.1 1.1 0 3.2 1.1 0 3.3 1.1 0 3.4 1.1 0 3.5 1.1 0 3.6 1.1 0 3.7 1.1 0 3.8 1.1 0 3.9 1.1 0 4 1.1 0 4.1 1.1 0 4.2 1.1 0 4.3 1.1 0 4.4 1.1 0 4.5 1.1 0 4.6 1.1 0 4.7 1.1 0 4.8 1.1 0 4.9 1.1 0 5 1.1 0 5.1 1.1 0 5.2 1.1 0 5.3 1.1 0 5.4 1.1 0 5.5 1.1 0 5.6 1.1 0 5.7 1.1 0 5.8 1.1 0 5.9 1.1 0 6 1.1 0 6.1 1.1 0 6.2 1.1 0 6.3 1.1 0 6.4 1.1 0 6.5 1.1 0 6.6 1.1 0 6.7 1.1 0 6.8 1.1 0 6.9 1.1 0 7 1.1 0 7.1 1.1 0 7.2 1.1 0 7.3 1.1 0 7.4 1.1 0 7.5 1.1 0 7.6 1.1 0 7.7 1.1 0 7.8 1.1 0 7.9 1.1 0 8 1.1 0 8.1 1.1 0 8.2 1.1 0 8.3 1.1 0 8.4 1.1 0 8.5 1.1 0 8.6 1.1 0 8.7 1.1 0 8.8 1.1 0 8.9 1.1 0 9 1.1 0 9.1 1.1 0 9.2 1.1 0 9.3 1.1 0 9.4 1.1 0 9.5 1.1 0 9.6 1.1 0 9.7 1.1 0 9.8 1.1 0 9.9 1.1 0 10 1.1 0 0 1.2 0 0.1 1.2 0 0.2 1.2 0 0.3 1.2 0 0.4 1.2 0 0.5 1.2 0 0.6 1.2 0 0.7 1.2 0 0.8 1.2 0 0.9 1.2 0 1 1.2 0 1.1 1.2 0 1.2 1.2 0 1.3 1.2 0 1.4 1.2 0 1.5 1.2 0 1.6 1.2 0 1.7 1.2 0 1.8 1.2 0 1.9 1.2 0 2 1.2 0 2.1 1.2 0 2.2 1.2 0 2.3 1.2 0 2.4 1.2 0 2.5 1.2 0 2.6 1.2 0 2.7 1.2 0 2.8 1.2 0 2.9 1.2 0 3 1.2 0 3.1 1.2 0 3.2 1.2 0 3.3 1.2 0 3.4 1.2 0 3.5 1.2 0 3.6 1.2 0 3.7 1.2 0 3.8 1.2 0 3.9 1.2 0 4 1.2 0 4.1 1.2 0 4.2 1.2 0 4.3 1.2 0 4.4 1.2 0 4.5 1.2 0 4.6 1.2 0 4.7 1.2 0 4.8 1.2 0 4.9 1.2 0 5 1.2 0 5.1 1.2 0 5.2 1.2 0 5.3 1.2 0 5.4 1.2 0 5.5 1.2 0 5.6 1.2 0 5.7 1.2 0 5.8 1.2 0 5.9 1.2 0 6 1.2 0 6.1 1.2 0 6.2 1.2 0 6.3 1.2 0 6.4 1.2 0 6.5 1.2 0 6.6 1.2 0 6.7 1.2 0 6.8 1.2 0 6.9 1.2 0 7 1.2 0 7.1 1.2 0 7.2 1.2 0 7.3 1.2 0 7.4 1.2 0 7.5 1.2 0 7.6 1.2 0 7.7 1.2 0 7.8 1.2 0 7.9 1.2 0 8 1.2 0 8.1 1.2 0 8.2 1.2 0 8.3 1.2 0 8.4 1.2 0 8.5 1.2 0 8.6 1.2 0 8.7 1.2 0 8.8 1.2 0 8.9 1.2 0 9 1.2 0 9.1 1.2 0 9.2 1.2 0 9.3 1.2 0 9.4 1.2 0 9.5 1.2 0 9.6 1.2 0 9.7 1.2 0 9.8 1.2 0 9.9 1.2 0 10 1.2 0 0 1.3 0 0.1 1.3 0 0.2 1.3 0 0.3 1.3 0 0.4 1.3 0 0.5 1.3 0 0.6 1.3 0 0.7 1.3 0 0.8 1.3 0 0.9 1.3 0 1 1.3 0 1.1 1.3 0 1.2 1.3 0 1.3 1.3 0 1.4 1.3 0 1.5 1.3 0 1.6 1.3 0 1.7 1.3 0 1.8 1.3 0 1.9 1.3 0 2 1.3 0 2.1 1.3 0 2.2 1.3 0 2.3 1.3 0 2.4 1.3 0 2.5 1.3 0 2.6 1.3 0 2.7 1.3 0 2.8 1.3 0 2.9 1.3 0 3 1.3 0 3.1 1.3 0 3.2 1.3 0 3.3 1.3 0 3.4 1.3 0 3.5 1.3 0 3.6 1.3 0 3.7 1.3 0 3.8 1.3 0 3.9 1.3 0 4 1.3 0 4.1 1.3 0 4.2 1.3 0 4.3 1.3 0 4.4 1.3 0 4.5 1.3 0 4.6 1.3 0 4.7 1.3 0 4.8 1.3 0 4.9 1.3 0 5 1.3 0 5.1 1.3 0 5.2 1.3 0 5.3 1.3 0 5.4 1.3 0 5.5 1.3 0 5.6 1.3 0 5.7 1.3 0 5.8 1.3 0 5.9 1.3 0 6 1.3 0 6.1 1.3 0 6.2 1.3 0 6.3 1.3 0 6.4 1.3 0 6.5 1.3 0 6.6 1.3 0 6.7 1.3 0 6.8 1.3 0 6.9 1.3 0 7 1.3 0 7.1 1.3 0 7.2 1.3 0 7.3 1.3 0 7.4 1.3 0 7.5 1.3 0 7.6 1.3 0 7.7 1.3 0 7.8 1.3 0 7.9 1.3 0 8 1.3 0 8.1 1.3 0 8.2 1.3 0 8.3 1.3 0 8.4 1.3 0 8.5 1.3 0 8.6 1.3 0 8.7 1.3 0 8.8 1.3 0 8.9 1.3 0 9 1.3 0 9.1 1.3 0 9.2 1.3 0 9.3 1.3 0 9.4 1.3 0 9.5 1.3 0 9.6 1.3 0 9.7 1.3 0 9.8 1.3 0 9.9 1.3 0 10 1.3 0 0 1.4 0 0.1 1.4 0 0.2 1.4 0 0.3 1.4 0 0.4 1.4 0 0.5 1.4 0 0.6 1.4 0 0.7 1.4 0 0.8 1.4 0 0.9 1.4 0 1 1.4 0 1.1 1.4 0 1.2 1.4 0 1.3 1.4 0 1.4 1.4 0 1.5 1.4 0 1.6 1.4 0 1.7 1.4 0 1.8 1.4 0 1.9 1.4 0 2 1.4 0 2.1 1.4 0 2.2 1.4 0 2.3 1.4 0 2.4 1.4 0 2.5 1.4 0 2.6 1.4 0 2.7 1.4 0 2.8 1.4 0 2.9 1.4 0 3 1.4 0 3.1 1.4 0 3.2 1.4 0 3.3 1.4 0 3.4 1.4 0 3.5 1.4 0 3.6 1.4 0 3.7 1.4 0 3.8 1.4 0 3.9 1.4 0 4 1.4 0 4.1 1.4 0 4.2 1.4 0 4.3 1.4 0 4.4 1.4 0 4.5 1.4 0 4.6 1.4 0 4.7 1.4 0 4.8 1.4 0 4.9 1.4 0 5 1.4 0 5.1 1.4 0 5.2 1.4 0 5.3 1.4 0 5.4 1.4 0 5.5 1.4 0 5.6 1.4 0 5.7 1.4 0 5.8 1.4 0 5.9 1.4 0 6 1.4 0 6.1 1.4 0 6.2 1.4 0 6.3 1.4 0 6.4 1.4 0 6.5 1.4 0 6.6 1.4 0 6.7 1.4 0 6.8 1.4 0 6.9 1.4 0 7 1.4 0 7.1 1.4 0 7.2 1.4 0 7.3 1.4 0 7.4 1.4 0 7.5 1.4 0 7.6 1.4 0 7.7 1.4 0 7.8 1.4 0 7.9 1.4 0 8 1.4 0 8.1 1.4 0 8.2 1.4 0 8.3 1.4 0 8.4 1.4 0 8.5 1.4 0 8.6 1.4 0 8.7 1.4 0 8.8 1.4 0 8.9 1.4 0 9 1.4 0 9.1 1.4 0 9.2 1.4 0 9.3 1.4 0 9.4 1.4 0 9.5 1.4 0 9.6 1.4 0 9.7 1.4 0 9.8 1.4 0 9.9 1.4 0 10 1.4 0 0 1.5 0 0.1 1.5 0 0.2 1.5 0 0.3 1.5 0 0.4 1.5 0 0.5 1.5 0 0.6 1.5 0 0.7 1.5 0 0.8 1.5 0 0.9 1.5 0 1 1.5 0 1.1 1.5 0 1.2 1.5 0 1.3 1.5 0 1.4 1.5 0 1.5 1.5 0 1.6 1.5 0 1.7 1.5 0 1.8 1.5 0 1.9 1.5 0 2 1.5 0 2.1 1.5 0 2.2 1.5 0 2.3 1.5 0 2.4 1.5 0 2.5 1.5 0 2.6 1.5 0 2.7 1.5 0 2.8 1.5 0 2.9 1.5 0 3 1.5 0 3.1 1.5 0 3.2 1.5 0 3.3 1.5 0 3.4 1.5 0 3.5 1.5 0 3.6 1.5 0 3.7 1.5 0 3.8 1.5 0 3.9 1.5 0 4 1.5 0 4.1 1.5 0 4.2 1.5 0 4.3 1.5 0 4.4 1.5 0 4.5 1.5 0 4.6 1.5 0 4.7 1.5 0 4.8 1.5 0 4.9 1.5 0 5 1.5 0 5.1 1.5 0 5.2 1.5 0 5.3 1.5 0 5.4 1.5 0 5.5 1.5 0 5.6 1.5 0 5.7 1.5 0 5.8 1.5 0 5.9 1.5 0 6 1.5 0 6.1 1.5 0 6.2 1.5 0 6.3 1.5 0 6.4 1.5 0 6.5 1.5 0 6.6 1.5 0 6.7 1.5 0 6.8 1.5 0 6.9 1.5 0 7 1.5 0 7.1 1.5 0 7.2 1.5 0 7.3 1.5 0 7.4 1.5 0 7.5 1.5 0 7.6 1.5 0 7.7 1.5 0 7.8 1.5 0 7.9 1.5 0 8 1.5 0 8.1 1.5 0 8.2 1.5 0 8.3 1.5 0 8.4 1.5 0 8.5 1.5 0 8.6 1.5 0 8.7 1.5 0 8.8 1.5 0 8.9 1.5 0 9 1.5 0 9.1 1.5 0 9.2 1.5 0 9.3 1.5 0 9.4 1.5 0 9.5 1.5 0 9.6 1.5 0 9.7 1.5 0 9.8 1.5 0 9.9 1.5 0 10 1.5 0 0 1.6 0 0.1 1.6 0 0.2 1.6 0 0.3 1.6 0 0.4 1.6 0 0.5 1.6 0 0.6 1.6 0 0.7 1.6 0 0.8 1.6 0 0.9 1.6 0 1 1.6 0 1.1 1.6 0 1.2 1.6 0 1.3 1.6 0 1.4 1.6 0 1.5 1.6 0 1.6 1.6 0 1.7 1.6 0 1.8 1.6 0 1.9 1.6 0 2 1.6 0 2.1 1.6 0 2.2 1.6 0 2.3 1.6 0 2.4 1.6 0 2.5 1.6 0 2.6 1.6 0 2.7 1.6 0 2.8 1.6 0 2.9 1.6 0 3 1.6 0 3.1 1.6 0 3.2 1.6 0 3.3 1.6 0 3.4 1.6 0 3.5 1.6 0 3.6 1.6 0 3.7 1.6 0 3.8 1.6 0 3.9 1.6 0 4 1.6 0 4.1 1.6 0 4.2 1.6 0 4.3 1.6 0 4.4 1.6 0 4.5 1.6 0 4.6 1.6 0 4.7 1.6 0 4.8 1.6 0 4.9 1.6 0 5 1.6 0 5.1 1.6 0 5.2 1.6 0 5.3 1.6 0 5.4 1.6 0 5.5 1.6 0 5.6 1.6 0 5.7 1.6 0 5.8 1.6 0 5.9 1.6 0 6 1.6 0 6.1 1.6 0 6.2 1.6 0 6.3 1.6 0 6.4 1.6 0 6.5 1.6 0 6.6 1.6 0 6.7 1.6 0 6.8 1.6 0 6.9 1.6 0 7 1.6 0 7.1 1.6 0 7.2 1.6 0 7.3 1.6 0 7.4 1.6 0 7.5 1.6 0 7.6 1.6 0 7.7 1.6 0 7.8 1.6 0 7.9 1.6 0 8 1.6 0 8.1 1.6 0 8.2 1.6 0 8.3 1.6 0 8.4 1.6 0 8.5 1.6 0 8.6 1.6 0 8.7 1.6 0 8.8 1.6 0 8.9 1.6 0 9 1.6 0 9.1 1.6 0 9.2 1.6 0 9.3 1.6 0 9.4 1.6 0 9.5 1.6 0 9.6 1.6 0 9.7 1.6 0 9.8 1.6 0 9.9 1.6 0 10 1.6 0 0 1.7 0 0.1 1.7 0 0.2 1.7 0 0.3 1.7 0 0.4 1.7 0 0.5 1.7 0 0.6 1.7 0 0.7 1.7 0 0.8 1.7 0 0.9 1.7 0 1 1.7 0 1.1 1.7 0 1.2 1.7 0 1.3 1.7 0 1.4 1.7 0 1.5 1.7 0 1.6 1.7 0 1.7 1.7 0 1.8 1.7 0 1.9 1.7 0 2 1.7 0 2.1 1.7 0 2.2 1.7 0 2.3 1.7 0 2.4 1.7 0 2.5 1.7 0 2.6 1.7 0 2.7 1.7 0 2.8 1.7 0 2.9 1.7 0 3 1.7 0 3.1 1.7 0 3.2 1.7 0 3.3 1.7 0 3.4 1.7 0 3.5 1.7 0 3.6 1.7 0 3.7 1.7 0 3.8 1.7 0 3.9 1.7 0 4 1.7 0 4.1 1.7 0 4.2 1.7 0 4.3 1.7 0 4.4 1.7 0 4.5 1.7 0 4.6 1.7 0 4.7 1.7 0 4.8 1.7 0 4.9 1.7 0 5 1.7 0 5.1 1.7 0 5.2 1.7 0 5.3 1.7 0 5.4 1.7 0 5.5 1.7 0 5.6 1.7 0 5.7 1.7 0 5.8 1.7 0 5.9 1.7 0 6 1.7 0 6.1 1.7 0 6.2 1.7 0 6.3 1.7 0 6.4 1.7 0 6.5 1.7 0 6.6 1.7 0 6.7 1.7 0 6.8 1.7 0 6.9 1.7 0 7 1.7 0 7.1 1.7 0 7.2 1.7 0 7.3 1.7 0 7.4 1.7 0 7.5 1.7 0 7.6 1.7 0 7.7 1.7 0 7.8 1.7 0 7.9 1.7 0 8 1.7 0 8.1 1.7 0 8.2 1.7 0 8.3 1.7 0 8.4 1.7 0 8.5 1.7 0 8.6 1.7 0 8.7 1.7 0 8.8 1.7 0 8.9 1.7 0 9 1.7 0 9.1 1.7 0 9.2 1.7 0 9.3 1.7 0 9.4 1.7 0 9.5 1.7 0 9.6 1.7 0 9.7 1.7 0 9.8 1.7 0 9.9 1.7 0 10 1.7 0 0 1.8 0 0.1 1.8 0 0.2 1.8 0 0.3 1.8 0 0.4 1.8 0 0.5 1.8 0 0.6 1.8 0 0.7 1.8 0 0.8 1.8 0 0.9 1.8 0 1 1.8 0 1.1 1.8 0 1.2 1.8 0 1.3 1.8 0 1.4 1.8 0 1.5 1.8 0 1.6 1.8 0 1.7 1.8 0 1.8 1.8 0 1.9 1.8 0 2 1.8 0 2.1 1.8 0 2.2 1.8 0 2.3 1.8 0 2.4 1.8 0 2.5 1.8 0 2.6 1.8 0 2.7 1.8 0 2.8 1.8 0 2.9 1.8 0 3 1.8 0 3.1 1.8 0 3.2 1.8 0 3.3 1.8 0 3.4 1.8 0 3.5 1.8 0 3.6 1.8 0 3.7 1.8 0 3.8 1.8 0 3.9 1.8 0 4 1.8 0 4.1 1.8 0 4.2 1.8 0 4.3 1.8 0 4.4 1.8 0 4.5 1.8 0 4.6 1.8 0 4.7 1.8 0 4.8 1.8 0 4.9 1.8 0 5 1.8 0 5.1 1.8 0 5.2 1.8 0 5.3 1.8 0 5.4 1.8 0 5.5 1.8 0 5.6 1.8 0 5.7 1.8 0 5.8 1.8 0 5.9 1.8 0 6 1.8 0 6.1 1.8 0 6.2 1.8 0 6.3 1.8 0 6.4 1.8 0 6.5 1.8 0 6.6 1.8 0 6.7 1.8 0 6.8 1.8 0 6.9 1.8 0 7 1.8 0 7.1 1.8 0 7.2 1.8 0 7.3 1.8 0 7.4 1.8 0 7.5 1.8 0 7.6 1.8 0 7.7 1.8 0 7.8 1.8 0 7.9 1.8 0 8 1.8 0 8.1 1.8 0 8.2 1.8 0 8.3 1.8 0 8.4 1.8 0 8.5 1.8 0 8.6 1.8 0 8.7 1.8 0 8.8 1.8 0 8.9 1.8 0 9 1.8 0 9.1 1.8 0 9.2 1.8 0 9.3 1.8 0 9.4 1.8 0 9.5 1.8 0 9.6 1.8 0 9.7 1.8 0 9.8 1.8 0 9.9 1.8 0 10 1.8 0 0 1.9 0 0.1 1.9 0 0.2 1.9 0 0.3 1.9 0 0.4 1.9 0 0.5 1.9 0 0.6 1.9 0 0.7 1.9 0 0.8 1.9 0 0.9 1.9 0 1 1.9 0 1.1 1.9 0 1.2 1.9 0 1.3 1.9 0 1.4 1.9 0 1.5 1.9 0 1.6 1.9 0 1.7 1.9 0 1.8 1.9 0 1.9 1.9 0 2 1.9 0 2.1 1.9 0 2.2 1.9 0 2.3 1.9 0 2.4 1.9 0 2.5 1.9 0 2.6 1.9 0 2.7 1.9 0 2.8 1.9 0 2.9 1.9 0 3 1.9 0 3.1 1.9 0 3.2 1.9 0 3.3 1.9 0 3.4 1.9 0 3.5 1.9 0 3.6 1.9 0 3.7 1.9 0 3.8 1.9 0 3.9 1.9 0 4 1.9 0 4.1 1.9 0 4.2 1.9 0 4.3 1.9 0 4.4 1.9 0 4.5 1.9 0 4.6 1.9 0 4.7 1.9 0 4.8 1.9 0 4.9 1.9 0 5 1.9 0 5.1 1.9 0 5.2 1.9 0 5.3 1.9 0 5.4 1.9 0 5.5 1.9 0 5.6 1.9 0 5.7 1.9 0 5.8 1.9 0 5.9 1.9 0 6 1.9 0 6.1 1.9 0 6.2 1.9 0 6.3 1.9 0 6.4 1.9 0 6.5 1.9 0 6.6 1.9 0 6.7 1.9 0 6.8 1.9 0 6.9 1.9 0 7 1.9 0 7.1 1.9 0 7.2 1.9 0 7.3 1.9 0 7.4 1.9 0 7.5 1.9 0 7.6 1.9 0 7.7 1.9 0 7.8 1.9 0 7.9 1.9 0 8 1.9 0 8.1 1.9 0 8.2 1.9 0 8.3 1.9 0 8.4 1.9 0 8.5 1.9 0 8.6 1.9 0 8.7 1.9 0 8.8 1.9 0 8.9 1.9 0 9 1.9 0 9.1 1.9 0 9.2 1.9 0 9.3 1.9 0 9.4 1.9 0 9.5 1.9 0 9.6 1.9 0 9.7 1.9 0 9.8 1.9 0 9.9 1.9 0 10 1.9 0 0 2 0 0.1 2 0 0.2 2 0 0.3 2 0 0.4 2 0 0.5 2 0 0.6 2 0 0.7 2 0 0.8 2 0 0.9 2 0 1 2 0 1.1 2 0 1.2 2 0 1.3 2 0 1.4 2 0 1.5 2 0 1.6 2 0 1.7 2 0 1.8 2 0 1.9 2 0 2 2 0 2.1 2 0 2.2 2 0 2.3 2 0 2.4 2 0 2.5 2 0 2.6 2 0 2.7 2 0 2.8 2 0 2.9 2 0 3 2 0 3.1 2 0 3.2 2 0 3.3 2 0 3.4 2 0 3.5 2 0 3.6 2 0 3.7 2 0 3.8 2 0 3.9 2 0 4 2 0 4.1 2 0 4.2 2 0 4.3 2 0 4.4 2 0 4.5 2 0 4.6 2 0 4.7 2 0 4.8 2 0 4.9 2 0 5 2 0 5.1 2 0 5.2 2 0 5.3 2 0 5.4 2 0 5.5 2 0 5.6 2 0 5.7 2 0 5.8 2 0 5.9 2 0 6 2 0 6.1 2 0 6.2 2 0 6.3 2 0 6.4 2 0 6.5 2 0 6.6 2 0 6.7 2 0 6.8 2 0 6.9 2 0 7 2 0 7.1 2 0 7.2 2 0 7.3 2 0 7.4 2 0 7.5 2 0 7.6 2 0 7.7 2 0 7.8 2 0 7.9 2 0 8 2 0 8.1 2 0 8.2 2 0 8.3 2 0 8.4 2 0 8.5 2 0 8.6 2 0 8.7 2 0 8.8 2 0 8.9 2 0 9 2 0 9.1 2 0 9.2 2 0 9.3 2 0 9.4 2 0 9.5 2 0 9.6 2 0 9.7 2 0 9.8 2 0 9.9 2 0 10 2 0 0 2.1 0 0.1 2.1 0 0.2 2.1 0 0.3 2.1 0 0.4 2.1 0 0.5 2.1 0 0.6 2.1 0 0.7 2.1 0 0.8 2.1 0 0.9 2.1 0 1 2.1 0 1.1 2.1 0 1.2 2.1 0 1.3 2.1 0 1.4 2.1 0 1.5 2.1 0 1.6 2.1 0 1.7 2.1 0 1.8 2.1 0 1.9 2.1 0 2 2.1 0 2.1 2.1 0 2.2 2.1 0 2.3 2.1 0 2.4 2.1 0 2.5 2.1 0 2.6 2.1 0 2.7 2.1 0 2.8 2.1 0 2.9 2.1 0 3 2.1 0 3.1 2.1 0 3.2 2.1 0 3.3 2.1 0 3.4 2.1 0 3.5 2.1 0 3.6 2.1 0 3.7 2.1 0 3.8 2.1 0 3.9 2.1 0 4 2.1 0 4.1 2.1 0 4.2 2.1 0 4.3 2.1 0 4.4 2.1 0 4.5 2.1 0 4.6 2.1 0 4.7 2.1 0 4.8 2.1 0 4.9 2.1 0 5 2.1 0 5.1 2.1 0 5.2 2.1 0 5.3 2.1 0 5.4 2.1 0 5.5 2.1 0 5.6 2.1 0 5.7 2.1 0 5.8 2.1 0 5.9 2.1 0 6 2.1 0 6.1 2.1 0 6.2 2.1 0 6.3 2.1 0 6.4 2.1 0 6.5 2.1 0 6.6 2.1 0 6.7 2.1 0 6.8 2.1 0 6.9 2.1 0 7 2.1 0 7.1 2.1 0 7.2 2.1 0 7.3 2.1 0 7.4 2.1 0 7.5 2.1 0 7.6 2.1 0 7.7 2.1 0 7.8 2.1 0 7.9 2.1 0 8 2.1 0 8.1 2.1 0 8.2 2.1 0 8.3 2.1 0 8.4 2.1 0 8.5 2.1 0 8.6 2.1 0 8.7 2.1 0 8.8 2.1 0 8.9 2.1 0 9 2.1 0 9.1 2.1 0 9.2 2.1 0 9.3 2.1 0 9.4 2.1 0 9.5 2.1 0 9.6 2.1 0 9.7 2.1 0 9.8 2.1 0 9.9 2.1 0 10 2.1 0 0 2.2 0 0.1 2.2 0 0.2 2.2 0 0.3 2.2 0 0.4 2.2 0 0.5 2.2 0 0.6 2.2 0 0.7 2.2 0 0.8 2.2 0 0.9 2.2 0 1 2.2 0 1.1 2.2 0 1.2 2.2 0 1.3 2.2 0 1.4 2.2 0 1.5 2.2 0 1.6 2.2 0 1.7 2.2 0 1.8 2.2 0 1.9 2.2 0 2 2.2 0 2.1 2.2 0 2.2 2.2 0 2.3 2.2 0 2.4 2.2 0 2.5 2.2 0 2.6 2.2 0 2.7 2.2 0 2.8 2.2 0 2.9 2.2 0 3 2.2 0 3.1 2.2 0 3.2 2.2 0 3.3 2.2 0 3.4 2.2 0 3.5 2.2 0 3.6 2.2 0 3.7 2.2 0 3.8 2.2 0 3.9 2.2 0 4 2.2 0 4.1 2.2 0 4.2 2.2 0 4.3 2.2 0 4.4 2.2 0 4.5 2.2 0 4.6 2.2 0 4.7 2.2 0 4.8 2.2 0 4.9 2.2 0 5 2.2 0 5.1 2.2 0 5.2 2.2 0 5.3 2.2 0 5.4 2.2 0 5.5 2.2 0 5.6 2.2 0 5.7 2.2 0 5.8 2.2 0 5.9 2.2 0 6 2.2 0 6.1 2.2 0 6.2 2.2 0 6.3 2.2 0 6.4 2.2 0 6.5 2.2 0 6.6 2.2 0 6.7 2.2 0 6.8 2.2 0 6.9 2.2 0 7 2.2 0 7.1 2.2 0 7.2 2.2 0 7.3 2.2 0 7.4 2.2 0 7.5 2.2 0 7.6 2.2 0 7.7 2.2 0 7.8 2.2 0 7.9 2.2 0 8 2.2 0 8.1 2.2 0 8.2 2.2 0 8.3 2.2 0 8.4 2.2 0 8.5 2.2 0 8.6 2.2 0 8.7 2.2 0 8.8 2.2 0 8.9 2.2 0 9 2.2 0 9.1 2.2 0 9.2 2.2 0 9.3 2.2 0 9.4 2.2 0 9.5 2.2 0 9.6 2.2 0 9.7 2.2 0 9.8 2.2 0 9.9 2.2 0 10 2.2 0 0 2.3 0 0.1 2.3 0 0.2 2.3 0 0.3 2.3 0 0.4 2.3 0 0.5 2.3 0 0.6 2.3 0 0.7 2.3 0 0.8 2.3 0 0.9 2.3 0 1 2.3 0 1.1 2.3 0 1.2 2.3 0 1.3 2.3 0 1.4 2.3 0 1.5 2.3 0 1.6 2.3 0 1.7 2.3 0 1.8 2.3 0 1.9 2.3 0 2 2.3 0 2.1 2.3 0 2.2 2.3 0 2.3 2.3 0 2.4 2.3 0 2.5 2.3 0 2.6 2.3 0 2.7 2.3 0 2.8 2.3 0 2.9 2.3 0 3 2.3 0 3.1 2.3 0 3.2 2.3 0 3.3 2.3 0 3.4 2.3 0 3.5 2.3 0 3.6 2.3 0 3.7 2.3 0 3.8 2.3 0 3.9 2.3 0 4 2.3 0 4.1 2.3 0 4.2 2.3 0 4.3 2.3 0 4.4 2.3 0 4.5 2.3 0 4.6 2.3 0 4.7 2.3 0 4.8 2.3 0 4.9 2.3 0 5 2.3 0 5.1 2.3 0 5.2 2.3 0 5.3 2.3 0 5.4 2.3 0 5.5 2.3 0 5.6 2.3 0 5.7 2.3 0 5.8 2.3 0 5.9 2.3 0 6 2.3 0 6.1 2.3 0 6.2 2.3 0 6.3 2.3 0 6.4 2.3 0 6.5 2.3 0 6.6 2.3 0 6.7 2.3 0 6.8 2.3 0 6.9 2.3 0 7 2.3 0 7.1 2.3 0 7.2 2.3 0 7.3 2.3 0 7.4 2.3 0 7.5 2.3 0 7.6 2.3 0 7.7 2.3 0 7.8 2.3 0 7.9 2.3 0 8 2.3 0 8.1 2.3 0 8.2 2.3 0 8.3 2.3 0 8.4 2.3 0 8.5 2.3 0 8.6 2.3 0 8.7 2.3 0 8.8 2.3 0 8.9 2.3 0 9 2.3 0 9.1 2.3 0 9.2 2.3 0 9.3 2.3 0 9.4 2.3 0 9.5 2.3 0 9.6 2.3 0 9.7 2.3 0 9.8 2.3 0 9.9 2.3 0 10 2.3 0 0 2.4 0 0.1 2.4 0 0.2 2.4 0 0.3 2.4 0 0.4 2.4 0 0.5 2.4 0 0.6 2.4 0 0.7 2.4 0 0.8 2.4 0 0.9 2.4 0 1 2.4 0 1.1 2.4 0 1.2 2.4 0 1.3 2.4 0 1.4 2.4 0 1.5 2.4 0 1.6 2.4 0 1.7 2.4 0 1.8 2.4 0 1.9 2.4 0 2 2.4 0 2.1 2.4 0 2.2 2.4 0 2.3 2.4 0 2.4 2.4 0 2.5 2.4 0 2.6 2.4 0 2.7 2.4 0 2.8 2.4 0 2.9 2.4 0 3 2.4 0 3.1 2.4 0 3.2 2.4 0 3.3 2.4 0 3.4 2.4 0 3.5 2.4 0 3.6 2.4 0 3.7 2.4 0 3.8 2.4 0 3.9 2.4 0 4 2.4 0 4.1 2.4 0 4.2 2.4 0 4.3 2.4 0 4.4 2.4 0 4.5 2.4 0 4.6 2.4 0 4.7 2.4 0 4.8 2.4 0 4.9 2.4 0 5 2.4 0 5.1 2.4 0 5.2 2.4 0 5.3 2.4 0 5.4 2.4 0 5.5 2.4 0 5.6 2.4 0 5.7 2.4 0 5.8 2.4 0 5.9 2.4 0 6 2.4 0 6.1 2.4 0 6.2 2.4 0 6.3 2.4 0 6.4 2.4 0 6.5 2.4 0 6.6 2.4 0 6.7 2.4 0 6.8 2.4 0 6.9 2.4 0 7 2.4 0 7.1 2.4 0 7.2 2.4 0 7.3 2.4 0 7.4 2.4 0 7.5 2.4 0 7.6 2.4 0 7.7 2.4 0 7.8 2.4 0 7.9 2.4 0 8 2.4 0 8.1 2.4 0 8.2 2.4 0 8.3 2.4 0 8.4 2.4 0 8.5 2.4 0 8.6 2.4 0 8.7 2.4 0 8.8 2.4 0 8.9 2.4 0 9 2.4 0 9.1 2.4 0 9.2 2.4 0 9.3 2.4 0 9.4 2.4 0 9.5 2.4 0 9.6 2.4 0 9.7 2.4 0 9.8 2.4 0 9.9 2.4 0 10 2.4 0 0 2.5 0 0.1 2.5 0 0.2 2.5 0 0.3 2.5 0 0.4 2.5 0 0.5 2.5 0 0.6 2.5 0 0.7 2.5 0 0.8 2.5 0 0.9 2.5 0 1 2.5 0 1.1 2.5 0 1.2 2.5 0 1.3 2.5 0 1.4 2.5 0 1.5 2.5 0 1.6 2.5 0 1.7 2.5 0 1.8 2.5 0 1.9 2.5 0 2 2.5 0 2.1 2.5 0 2.2 2.5 0 2.3 2.5 0 2.4 2.5 0 2.5 2.5 0 2.6 2.5 0 2.7 2.5 0 2.8 2.5 0 2.9 2.5 0 3 2.5 0 3.1 2.5 0 3.2 2.5 0 3.3 2.5 0 3.4 2.5 0 3.5 2.5 0 3.6 2.5 0 3.7 2.5 0 3.8 2.5 0 3.9 2.5 0 4 2.5 0 4.1 2.5 0 4.2 2.5 0 4.3 2.5 0 4.4 2.5 0 4.5 2.5 0 4.6 2.5 0 4.7 2.5 0 4.8 2.5 0 4.9 2.5 0 5 2.5 0 5.1 2.5 0 5.2 2.5 0 5.3 2.5 0 5.4 2.5 0 5.5 2.5 0 5.6 2.5 0 5.7 2.5 0 5.8 2.5 0 5.9 2.5 0 6 2.5 0 6.1 2.5 0 6.2 2.5 0 6.3 2.5 0 6.4 2.5 0 6.5 2.5 0 6.6 2.5 0 6.7 2.5 0 6.8 2.5 0 6.9 2.5 0 7 2.5 0 7.1 2.5 0 7.2 2.5 0 7.3 2.5 0 7.4 2.5 0 7.5 2.5 0 7.6 2.5 0 7.7 2.5 0 7.8 2.5 0 7.9 2.5 0 8 2.5 0 8.1 2.5 0 8.2 2.5 0 8.3 2.5 0 8.4 2.5 0 8.5 2.5 0 8.6 2.5 0 8.7 2.5 0 8.8 2.5 0 8.9 2.5 0 9 2.5 0 9.1 2.5 0 9.2 2.5 0 9.3 2.5 0 9.4 2.5 0 9.5 2.5 0 9.6 2.5 0 9.7 2.5 0 9.8 2.5 0 9.9 2.5 0 10 2.5 0 0 2.6 0 0.1 2.6 0 0.2 2.6 0 0.3 2.6 0 0.4 2.6 0 0.5 2.6 0 0.6 2.6 0 0.7 2.6 0 0.8 2.6 0 0.9 2.6 0 1 2.6 0 1.1 2.6 0 1.2 2.6 0 1.3 2.6 0 1.4 2.6 0 1.5 2.6 0 1.6 2.6 0 1.7 2.6 0 1.8 2.6 0 1.9 2.6 0 2 2.6 0 2.1 2.6 0 2.2 2.6 0 2.3 2.6 0 2.4 2.6 0 2.5 2.6 0 2.6 2.6 0 2.7 2.6 0 2.8 2.6 0 2.9 2.6 0 3 2.6 0 3.1 2.6 0 3.2 2.6 0 3.3 2.6 0 3.4 2.6 0 3.5 2.6 0 3.6 2.6 0 3.7 2.6 0 3.8 2.6 0 3.9 2.6 0 4 2.6 0 4.1 2.6 0 4.2 2.6 0 4.3 2.6 0 4.4 2.6 0 4.5 2.6 0 4.6 2.6 0 4.7 2.6 0 4.8 2.6 0 4.9 2.6 0 5 2.6 0 5.1 2.6 0 5.2 2.6 0 5.3 2.6 0 5.4 2.6 0 5.5 2.6 0 5.6 2.6 0 5.7 2.6 0 5.8 2.6 0 5.9 2.6 0 6 2.6 0 6.1 2.6 0 6.2 2.6 0 6.3 2.6 0 6.4 2.6 0 6.5 2.6 0 6.6 2.6 0 6.7 2.6 0 6.8 2.6 0 6.9 2.6 0 7 2.6 0 7.1 2.6 0 7.2 2.6 0 7.3 2.6 0 7.4 2.6 0 7.5 2.6 0 7.6 2.6 0 7.7 2.6 0 7.8 2.6 0 7.9 2.6 0 8 2.6 0 8.1 2.6 0 8.2 2.6 0 8.3 2.6 0 8.4 2.6 0 8.5 2.6 0 8.6 2.6 0 8.7 2.6 0 8.8 2.6 0 8.9 2.6 0 9 2.6 0 9.1 2.6 0 9.2 2.6 0 9.3 2.6 0 9.4 2.6 0 9.5 2.6 0 9.6 2.6 0 9.7 2.6 0 9.8 2.6 0 9.9 2.6 0 10 2.6 0 0 2.7 0 0.1 2.7 0 0.2 2.7 0 0.3 2.7 0 0.4 2.7 0 0.5 2.7 0 0.6 2.7 0 0.7 2.7 0 0.8 2.7 0 0.9 2.7 0 1 2.7 0 1.1 2.7 0 1.2 2.7 0 1.3 2.7 0 1.4 2.7 0 1.5 2.7 0 1.6 2.7 0 1.7 2.7 0 1.8 2.7 0 1.9 2.7 0 2 2.7 0 2.1 2.7 0 2.2 2.7 0 2.3 2.7 0 2.4 2.7 0 2.5 2.7 0 2.6 2.7 0 2.7 2.7 0 2.8 2.7 0 2.9 2.7 0 3 2.7 0 3.1 2.7 0 3.2 2.7 0 3.3 2.7 0 3.4 2.7 0 3.5 2.7 0 3.6 2.7 0 3.7 2.7 0 3.8 2.7 0 3.9 2.7 0 4 2.7 0 4.1 2.7 0 4.2 2.7 0 4.3 2.7 0 4.4 2.7 0 4.5 2.7 0 4.6 2.7 0 4.7 2.7 0 4.8 2.7 0 4.9 2.7 0 5 2.7 0 5.1 2.7 0 5.2 2.7 0 5.3 2.7 0 5.4 2.7 0 5.5 2.7 0 5.6 2.7 0 5.7 2.7 0 5.8 2.7 0 5.9 2.7 0 6 2.7 0 6.1 2.7 0 6.2 2.7 0 6.3 2.7 0 6.4 2.7 0 6.5 2.7 0 6.6 2.7 0 6.7 2.7 0 6.8 2.7 0 6.9 2.7 0 7 2.7 0 7.1 2.7 0 7.2 2.7 0 7.3 2.7 0 7.4 2.7 0 7.5 2.7 0 7.6 2.7 0 7.7 2.7 0 7.8 2.7 0 7.9 2.7 0 8 2.7 0 8.1 2.7 0 8.2 2.7 0 8.3 2.7 0 8.4 2.7 0 8.5 2.7 0 8.6 2.7 0 8.7 2.7 0 8.8 2.7 0 8.9 2.7 0 9 2.7 0 9.1 2.7 0 9.2 2.7 0 9.3 2.7 0 9.4 2.7 0 9.5 2.7 0 9.6 2.7 0 9.7 2.7 0 9.8 2.7 0 9.9 2.7 0 10 2.7 0 0 2.8 0 0.1 2.8 0 0.2 2.8 0 0.3 2.8 0 0.4 2.8 0 0.5 2.8 0 0.6 2.8 0 0.7 2.8 0 0.8 2.8 0 0.9 2.8 0 1 2.8 0 1.1 2.8 0 1.2 2.8 0 1.3 2.8 0 1.4 2.8 0 1.5 2.8 0 1.6 2.8 0 1.7 2.8 0 1.8 2.8 0 1.9 2.8 0 2 2.8 0 2.1 2.8 0 2.2 2.8 0 2.3 2.8 0 2.4 2.8 0 2.5 2.8 0 2.6 2.8 0 2.7 2.8 0 2.8 2.8 0 2.9 2.8 0 3 2.8 0 3.1 2.8 0 3.2 2.8 0 3.3 2.8 0 3.4 2.8 0 3.5 2.8 0 3.6 2.8 0 3.7 2.8 0 3.8 2.8 0 3.9 2.8 0 4 2.8 0 4.1 2.8 0 4.2 2.8 0 4.3 2.8 0 4.4 2.8 0 4.5 2.8 0 4.6 2.8 0 4.7 2.8 0 4.8 2.8 0 4.9 2.8 0 5 2.8 0 5.1 2.8 0 5.2 2.8 0 5.3 2.8 0 5.4 2.8 0 5.5 2.8 0 5.6 2.8 0 5.7 2.8 0 5.8 2.8 0 5.9 2.8 0 6 2.8 0 6.1 2.8 0 6.2 2.8 0 6.3 2.8 0 6.4 2.8 0 6.5 2.8 0 6.6 2.8 0 6.7 2.8 0 6.8 2.8 0 6.9 2.8 0 7 2.8 0 7.1 2.8 0 7.2 2.8 0 7.3 2.8 0 7.4 2.8 0 7.5 2.8 0 7.6 2.8 0 7.7 2.8 0 7.8 2.8 0 7.9 2.8 0 8 2.8 0 8.1 2.8 0 8.2 2.8 0 8.3 2.8 0 8.4 2.8 0 8.5 2.8 0 8.6 2.8 0 8.7 2.8 0 8.8 2.8 0 8.9 2.8 0 9 2.8 0 9.1 2.8 0 9.2 2.8 0 9.3 2.8 0 9.4 2.8 0 9.5 2.8 0 9.6 2.8 0 9.7 2.8 0 9.8 2.8 0 9.9 2.8 0 10 2.8 0 0 2.9 0 0.1 2.9 0 0.2 2.9 0 0.3 2.9 0 0.4 2.9 0 0.5 2.9 0 0.6 2.9 0 0.7 2.9 0 0.8 2.9 0 0.9 2.9 0 1 2.9 0 1.1 2.9 0 1.2 2.9 0 1.3 2.9 0 1.4 2.9 0 1.5 2.9 0 1.6 2.9 0 1.7 2.9 0 1.8 2.9 0 1.9 2.9 0 2 2.9 0 2.1 2.9 0 2.2 2.9 0 2.3 2.9 0 2.4 2.9 0 2.5 2.9 0 2.6 2.9 0 2.7 2.9 0 2.8 2.9 0 2.9 2.9 0 3 2.9 0 3.1 2.9 0 3.2 2.9 0 3.3 2.9 0 3.4 2.9 0 3.5 2.9 0 3.6 2.9 0 3.7 2.9 0 3.8 2.9 0 3.9 2.9 0 4 2.9 0 4.1 2.9 0 4.2 2.9 0 4.3 2.9 0 4.4 2.9 0 4.5 2.9 0 4.6 2.9 0 4.7 2.9 0 4.8 2.9 0 4.9 2.9 0 5 2.9 0 5.1 2.9 0 5.2 2.9 0 5.3 2.9 0 5.4 2.9 0 5.5 2.9 0 5.6 2.9 0 5.7 2.9 0 5.8 2.9 0 5.9 2.9 0 6 2.9 0 6.1 2.9 0 6.2 2.9 0 6.3 2.9 0 6.4 2.9 0 6.5 2.9 0 6.6 2.9 0 6.7 2.9 0 6.8 2.9 0 6.9 2.9 0 7 2.9 0 7.1 2.9 0 7.2 2.9 0 7.3 2.9 0 7.4 2.9 0 7.5 2.9 0 7.6 2.9 0 7.7 2.9 0 7.8 2.9 0 7.9 2.9 0 8 2.9 0 8.1 2.9 0 8.2 2.9 0 8.3 2.9 0 8.4 2.9 0 8.5 2.9 0 8.6 2.9 0 8.7 2.9 0 8.8 2.9 0 8.9 2.9 0 9 2.9 0 9.1 2.9 0 9.2 2.9 0 9.3 2.9 0 9.4 2.9 0 9.5 2.9 0 9.6 2.9 0 9.7 2.9 0 9.8 2.9 0 9.9 2.9 0 10 2.9 0 0 3 0 0.1 3 0 0.2 3 0 0.3 3 0 0.4 3 0 0.5 3 0 0.6 3 0 0.7 3 0 0.8 3 0 0.9 3 0 1 3 0 1.1 3 0 1.2 3 0 1.3 3 0 1.4 3 0 1.5 3 0 1.6 3 0 1.7 3 0 1.8 3 0 1.9 3 0 2 3 0 2.1 3 0 2.2 3 0 2.3 3 0 2.4 3 0 2.5 3 0 2.6 3 0 2.7 3 0 2.8 3 0 2.9 3 0 3 3 0 3.1 3 0 3.2 3 0 3.3 3 0 3.4 3 0 3.5 3 0 3.6 3 0 3.7 3 0 3.8 3 0 3.9 3 0 4 3 0 4.1 3 0 4.2 3 0 4.3 3 0 4.4 3 0 4.5 3 0 4.6 3 0 4.7 3 0 4.8 3 0 4.9 3 0 5 3 0 5.1 3 0 5.2 3 0 5.3 3 0 5.4 3 0 5.5 3 0 5.6 3 0 5.7 3 0 5.8 3 0 5.9 3 0 6 3 0 6.1 3 0 6.2 3 0 6.3 3 0 6.4 3 0 6.5 3 0 6.6 3 0 6.7 3 0 6.8 3 0 6.9 3 0 7 3 0 7.1 3 0 7.2 3 0 7.3 3 0 7.4 3 0 7.5 3 0 7.6 3 0 7.7 3 0 7.8 3 0 7.9 3 0 8 3 0 8.1 3 0 8.2 3 0 8.3 3 0 8.4 3 0 8.5 3 0 8.6 3 0 8.7 3 0 8.8 3 0 8.9 3 0 9 3 0 9.1 3 0 9.2 3 0 9.3 3 0 9.4 3 0 9.5 3 0 9.6 3 0 9.7 3 0 9.8 3 0 9.9 3 0 10 3 0 0 3.1 0 0.1 3.1 0 0.2 3.1 0 0.3 3.1 0 0.4 3.1 0 0.5 3.1 0 0.6 3.1 0 0.7 3.1 0 0.8 3.1 0 0.9 3.1 0 1 3.1 0 1.1 3.1 0 1.2 3.1 0 1.3 3.1 0 1.4 3.1 0 1.5 3.1 0 1.6 3.1 0 1.7 3.1 0 1.8 3.1 0 1.9 3.1 0 2 3.1 0 2.1 3.1 0 2.2 3.1 0 2.3 3.1 0 2.4 3.1 0 2.5 3.1 0 2.6 3.1 0 2.7 3.1 0 2.8 3.1 0 2.9 3.1 0 3 3.1 0 3.1 3.1 0 3.2 3.1 0 3.3 3.1 0 3.4 3.1 0 3.5 3.1 0 3.6 3.1 0 3.7 3.1 0 3.8 3.1 0 3.9 3.1 0 4 3.1 0 4.1 3.1 0 4.2 3.1 0 4.3 3.1 0 4.4 3.1 0 4.5 3.1 0 4.6 3.1 0 4.7 3.1 0 4.8 3.1 0 4.9 3.1 0 5 3.1 0 5.1 3.1 0 5.2 3.1 0 5.3 3.1 0 5.4 3.1 0 5.5 3.1 0 5.6 3.1 0 5.7 3.1 0 5.8 3.1 0 5.9 3.1 0 6 3.1 0 6.1 3.1 0 6.2 3.1 0 6.3 3.1 0 6.4 3.1 0 6.5 3.1 0 6.6 3.1 0 6.7 3.1 0 6.8 3.1 0 6.9 3.1 0 7 3.1 0 7.1 3.1 0 7.2 3.1 0 7.3 3.1 0 7.4 3.1 0 7.5 3.1 0 7.6 3.1 0 7.7 3.1 0 7.8 3.1 0 7.9 3.1 0 8 3.1 0 8.1 3.1 0 8.2 3.1 0 8.3 3.1 0 8.4 3.1 0 8.5 3.1 0 8.6 3.1 0 8.7 3.1 0 8.8 3.1 0 8.9 3.1 0 9 3.1 0 9.1 3.1 0 9.2 3.1 0 9.3 3.1 0 9.4 3.1 0 9.5 3.1 0 9.6 3.1 0 9.7 3.1 0 9.8 3.1 0 9.9 3.1 0 10 3.1 0 0 3.2 0 0.1 3.2 0 0.2 3.2 0 0.3 3.2 0 0.4 3.2 0 0.5 3.2 0 0.6 3.2 0 0.7 3.2 0 0.8 3.2 0 0.9 3.2 0 1 3.2 0 1.1 3.2 0 1.2 3.2 0 1.3 3.2 0 1.4 3.2 0 1.5 3.2 0 1.6 3.2 0 1.7 3.2 0 1.8 3.2 0 1.9 3.2 0 2 3.2 0 2.1 3.2 0 2.2 3.2 0 2.3 3.2 0 2.4 3.2 0 2.5 3.2 0 2.6 3.2 0 2.7 3.2 0 2.8 3.2 0 2.9 3.2 0 3 3.2 0 3.1 3.2 0 3.2 3.2 0 3.3 3.2 0 3.4 3.2 0 3.5 3.2 0 3.6 3.2 0 3.7 3.2 0 3.8 3.2 0 3.9 3.2 0 4 3.2 0 4.1 3.2 0 4.2 3.2 0 4.3 3.2 0 4.4 3.2 0 4.5 3.2 0 4.6 3.2 0 4.7 3.2 0 4.8 3.2 0 4.9 3.2 0 5 3.2 0 5.1 3.2 0 5.2 3.2 0 5.3 3.2 0 5.4 3.2 0 5.5 3.2 0 5.6 3.2 0 5.7 3.2 0 5.8 3.2 0 5.9 3.2 0 6 3.2 0 6.1 3.2 0 6.2 3.2 0 6.3 3.2 0 6.4 3.2 0 6.5 3.2 0 6.6 3.2 0 6.7 3.2 0 6.8 3.2 0 6.9 3.2 0 7 3.2 0 7.1 3.2 0 7.2 3.2 0 7.3 3.2 0 7.4 3.2 0 7.5 3.2 0 7.6 3.2 0 7.7 3.2 0 7.8 3.2 0 7.9 3.2 0 8 3.2 0 8.1 3.2 0 8.2 3.2 0 8.3 3.2 0 8.4 3.2 0 8.5 3.2 0 8.6 3.2 0 8.7 3.2 0 8.8 3.2 0 8.9 3.2 0 9 3.2 0 9.1 3.2 0 9.2 3.2 0 9.3 3.2 0 9.4 3.2 0 9.5 3.2 0 9.6 3.2 0 9.7 3.2 0 9.8 3.2 0 9.9 3.2 0 10 3.2 0 0 3.3 0 0.1 3.3 0 0.2 3.3 0 0.3 3.3 0 0.4 3.3 0 0.5 3.3 0 0.6 3.3 0 0.7 3.3 0 0.8 3.3 0 0.9 3.3 0 1 3.3 0 1.1 3.3 0 1.2 3.3 0 1.3 3.3 0 1.4 3.3 0 1.5 3.3 0 1.6 3.3 0 1.7 3.3 0 1.8 3.3 0 1.9 3.3 0 2 3.3 0 2.1 3.3 0 2.2 3.3 0 2.3 3.3 0 2.4 3.3 0 2.5 3.3 0 2.6 3.3 0 2.7 3.3 0 2.8 3.3 0 2.9 3.3 0 3 3.3 0 3.1 3.3 0 3.2 3.3 0 3.3 3.3 0 3.4 3.3 0 3.5 3.3 0 3.6 3.3 0 3.7 3.3 0 3.8 3.3 0 3.9 3.3 0 4 3.3 0 4.1 3.3 0 4.2 3.3 0 4.3 3.3 0 4.4 3.3 0 4.5 3.3 0 4.6 3.3 0 4.7 3.3 0 4.8 3.3 0 4.9 3.3 0 5 3.3 0 5.1 3.3 0 5.2 3.3 0 5.3 3.3 0 5.4 3.3 0 5.5 3.3 0 5.6 3.3 0 5.7 3.3 0 5.8 3.3 0 5.9 3.3 0 6 3.3 0 6.1 3.3 0 6.2 3.3 0 6.3 3.3 0 6.4 3.3 0 6.5 3.3 0 6.6 3.3 0 6.7 3.3 0 6.8 3.3 0 6.9 3.3 0 7 3.3 0 7.1 3.3 0 7.2 3.3 0 7.3 3.3 0 7.4 3.3 0 7.5 3.3 0 7.6 3.3 0 7.7 3.3 0 7.8 3.3 0 7.9 3.3 0 8 3.3 0 8.1 3.3 0 8.2 3.3 0 8.3 3.3 0 8.4 3.3 0 8.5 3.3 0 8.6 3.3 0 8.7 3.3 0 8.8 3.3 0 8.9 3.3 0 9 3.3 0 9.1 3.3 0 9.2 3.3 0 9.3 3.3 0 9.4 3.3 0 9.5 3.3 0 9.6 3.3 0 9.7 3.3 0 9.8 3.3 0 9.9 3.3 0 10 3.3 0 0 3.4 0 0.1 3.4 0 0.2 3.4 0 0.3 3.4 0 0.4 3.4 0 0.5 3.4 0 0.6 3.4 0 0.7 3.4 0 0.8 3.4 0 0.9 3.4 0 1 3.4 0 1.1 3.4 0 1.2 3.4 0 1.3 3.4 0 1.4 3.4 0 1.5 3.4 0 1.6 3.4 0 1.7 3.4 0 1.8 3.4 0 1.9 3.4 0 2 3.4 0 2.1 3.4 0 2.2 3.4 0 2.3 3.4 0 2.4 3.4 0 2.5 3.4 0 2.6 3.4 0 2.7 3.4 0 2.8 3.4 0 2.9 3.4 0 3 3.4 0 3.1 3.4 0 3.2 3.4 0 3.3 3.4 0 3.4 3.4 0 3.5 3.4 0 3.6 3.4 0 3.7 3.4 0 3.8 3.4 0 3.9 3.4 0 4 3.4 0 4.1 3.4 0 4.2 3.4 0 4.3 3.4 0 4.4 3.4 0 4.5 3.4 0 4.6 3.4 0 4.7 3.4 0 4.8 3.4 0 4.9 3.4 0 5 3.4 0 5.1 3.4 0 5.2 3.4 0 5.3 3.4 0 5.4 3.4 0 5.5 3.4 0 5.6 3.4 0 5.7 3.4 0 5.8 3.4 0 5.9 3.4 0 6 3.4 0 6.1 3.4 0 6.2 3.4 0 6.3 3.4 0 6.4 3.4 0 6.5 3.4 0 6.6 3.4 0 6.7 3.4 0 6.8 3.4 0 6.9 3.4 0 7 3.4 0 7.1 3.4 0 7.2 3.4 0 7.3 3.4 0 7.4 3.4 0 7.5 3.4 0 7.6 3.4 0 7.7 3.4 0 7.8 3.4 0 7.9 3.4 0 8 3.4 0 8.1 3.4 0 8.2 3.4 0 8.3 3.4 0 8.4 3.4 0 8.5 3.4 0 8.6 3.4 0 8.7 3.4 0 8.8 3.4 0 8.9 3.4 0 9 3.4 0 9.1 3.4 0 9.2 3.4 0 9.3 3.4 0 9.4 3.4 0 9.5 3.4 0 9.6 3.4 0 9.7 3.4 0 9.8 3.4 0 9.9 3.4 0 10 3.4 0 0 3.5 0 0.1 3.5 0 0.2 3.5 0 0.3 3.5 0 0.4 3.5 0 0.5 3.5 0 0.6 3.5 0 0.7 3.5 0 0.8 3.5 0 0.9 3.5 0 1 3.5 0 1.1 3.5 0 1.2 3.5 0 1.3 3.5 0 1.4 3.5 0 1.5 3.5 0 1.6 3.5 0 1.7 3.5 0 1.8 3.5 0 1.9 3.5 0 2 3.5 0 2.1 3.5 0 2.2 3.5 0 2.3 3.5 0 2.4 3.5 0 2.5 3.5 0 2.6 3.5 0 2.7 3.5 0 2.8 3.5 0 2.9 3.5 0 3 3.5 0 3.1 3.5 0 3.2 3.5 0 3.3 3.5 0 3.4 3.5 0 3.5 3.5 0 3.6 3.5 0 3.7 3.5 0 3.8 3.5 0 3.9 3.5 0 4 3.5 0 4.1 3.5 0 4.2 3.5 0 4.3 3.5 0 4.4 3.5 0 4.5 3.5 0 4.6 3.5 0 4.7 3.5 0 4.8 3.5 0 4.9 3.5 0 5 3.5 0 5.1 3.5 0 5.2 3.5 0 5.3 3.5 0 5.4 3.5 0 5.5 3.5 0 5.6 3.5 0 5.7 3.5 0 5.8 3.5 0 5.9 3.5 0 6 3.5 0 6.1 3.5 0 6.2 3.5 0 6.3 3.5 0 6.4 3.5 0 6.5 3.5 0 6.6 3.5 0 6.7 3.5 0 6.8 3.5 0 6.9 3.5 0 7 3.5 0 7.1 3.5 0 7.2 3.5 0 7.3 3.5 0 7.4 3.5 0 7.5 3.5 0 7.6 3.5 0 7.7 3.5 0 7.8 3.5 0 7.9 3.5 0 8 3.5 0 8.1 3.5 0 8.2 3.5 0 8.3 3.5 0 8.4 3.5 0 8.5 3.5 0 8.6 3.5 0 8.7 3.5 0 8.8 3.5 0 8.9 3.5 0 9 3.5 0 9.1 3.5 0 9.2 3.5 0 9.3 3.5 0 9.4 3.5 0 9.5 3.5 0 9.6 3.5 0 9.7 3.5 0 9.8 3.5 0 9.9 3.5 0 10 3.5 0 0 3.6 0 0.1 3.6 0 0.2 3.6 0 0.3 3.6 0 0.4 3.6 0 0.5 3.6 0 0.6 3.6 0 0.7 3.6 0 0.8 3.6 0 0.9 3.6 0 1 3.6 0 1.1 3.6 0 1.2 3.6 0 1.3 3.6 0 1.4 3.6 0 1.5 3.6 0 1.6 3.6 0 1.7 3.6 0 1.8 3.6 0 1.9 3.6 0 2 3.6 0 2.1 3.6 0 2.2 3.6 0 2.3 3.6 0 2.4 3.6 0 2.5 3.6 0 2.6 3.6 0 2.7 3.6 0 2.8 3.6 0 2.9 3.6 0 3 3.6 0 3.1 3.6 0 3.2 3.6 0 3.3 3.6 0 3.4 3.6 0 3.5 3.6 0 3.6 3.6 0 3.7 3.6 0 3.8 3.6 0 3.9 3.6 0 4 3.6 0 4.1 3.6 0 4.2 3.6 0 4.3 3.6 0 4.4 3.6 0 4.5 3.6 0 4.6 3.6 0 4.7 3.6 0 4.8 3.6 0 4.9 3.6 0 5 3.6 0 5.1 3.6 0 5.2 3.6 0 5.3 3.6 0 5.4 3.6 0 5.5 3.6 0 5.6 3.6 0 5.7 3.6 0 5.8 3.6 0 5.9 3.6 0 6 3.6 0 6.1 3.6 0 6.2 3.6 0 6.3 3.6 0 6.4 3.6 0 6.5 3.6 0 6.6 3.6 0 6.7 3.6 0 6.8 3.6 0 6.9 3.6 0 7 3.6 0 7.1 3.6 0 7.2 3.6 0 7.3 3.6 0 7.4 3.6 0 7.5 3.6 0 7.6 3.6 0 7.7 3.6 0 7.8 3.6 0 7.9 3.6 0 8 3.6 0 8.1 3.6 0 8.2 3.6 0 8.3 3.6 0 8.4 3.6 0 8.5 3.6 0 8.6 3.6 0 8.7 3.6 0 8.8 3.6 0 8.9 3.6 0 9 3.6 0 9.1 3.6 0 9.2 3.6 0 9.3 3.6 0 9.4 3.6 0 9.5 3.6 0 9.6 3.6 0 9.7 3.6 0 9.8 3.6 0 9.9 3.6 0 10 3.6 0 0 3.7 0 0.1 3.7 0 0.2 3.7 0 0.3 3.7 0 0.4 3.7 0 0.5 3.7 0 0.6 3.7 0 0.7 3.7 0 0.8 3.7 0 0.9 3.7 0 1 3.7 0 1.1 3.7 0 1.2 3.7 0 1.3 3.7 0 1.4 3.7 0 1.5 3.7 0 1.6 3.7 0 1.7 3.7 0 1.8 3.7 0 1.9 3.7 0 2 3.7 0 2.1 3.7 0 2.2 3.7 0 2.3 3.7 0 2.4 3.7 0 2.5 3.7 0 2.6 3.7 0 2.7 3.7 0 2.8 3.7 0 2.9 3.7 0 3 3.7 0 3.1 3.7 0 3.2 3.7 0 3.3 3.7 0 3.4 3.7 0 3.5 3.7 0 3.6 3.7 0 3.7 3.7 0 3.8 3.7 0 3.9 3.7 0 4 3.7 0 4.1 3.7 0 4.2 3.7 0 4.3 3.7 0 4.4 3.7 0 4.5 3.7 0 4.6 3.7 0 4.7 3.7 0 4.8 3.7 0 4.9 3.7 0 5 3.7 0 5.1 3.7 0 5.2 3.7 0 5.3 3.7 0 5.4 3.7 0 5.5 3.7 0 5.6 3.7 0 5.7 3.7 0 5.8 3.7 0 5.9 3.7 0 6 3.7 0 6.1 3.7 0 6.2 3.7 0 6.3 3.7 0 6.4 3.7 0 6.5 3.7 0 6.6 3.7 0 6.7 3.7 0 6.8 3.7 0 6.9 3.7 0 7 3.7 0 7.1 3.7 0 7.2 3.7 0 7.3 3.7 0 7.4 3.7 0 7.5 3.7 0 7.6 3.7 0 7.7 3.7 0 7.8 3.7 0 7.9 3.7 0 8 3.7 0 8.1 3.7 0 8.2 3.7 0 8.3 3.7 0 8.4 3.7 0 8.5 3.7 0 8.6 3.7 0 8.7 3.7 0 8.8 3.7 0 8.9 3.7 0 9 3.7 0 9.1 3.7 0 9.2 3.7 0 9.3 3.7 0 9.4 3.7 0 9.5 3.7 0 9.6 3.7 0 9.7 3.7 0 9.8 3.7 0 9.9 3.7 0 10 3.7 0 0 3.8 0 0.1 3.8 0 0.2 3.8 0 0.3 3.8 0 0.4 3.8 0 0.5 3.8 0 0.6 3.8 0 0.7 3.8 0 0.8 3.8 0 0.9 3.8 0 1 3.8 0 1.1 3.8 0 1.2 3.8 0 1.3 3.8 0 1.4 3.8 0 1.5 3.8 0 1.6 3.8 0 1.7 3.8 0 1.8 3.8 0 1.9 3.8 0 2 3.8 0 2.1 3.8 0 2.2 3.8 0 2.3 3.8 0 2.4 3.8 0 2.5 3.8 0 2.6 3.8 0 2.7 3.8 0 2.8 3.8 0 2.9 3.8 0 3 3.8 0 3.1 3.8 0 3.2 3.8 0 3.3 3.8 0 3.4 3.8 0 3.5 3.8 0 3.6 3.8 0 3.7 3.8 0 3.8 3.8 0 3.9 3.8 0 4 3.8 0 4.1 3.8 0 4.2 3.8 0 4.3 3.8 0 4.4 3.8 0 4.5 3.8 0 4.6 3.8 0 4.7 3.8 0 4.8 3.8 0 4.9 3.8 0 5 3.8 0 5.1 3.8 0 5.2 3.8 0 5.3 3.8 0 5.4 3.8 0 5.5 3.8 0 5.6 3.8 0 5.7 3.8 0 5.8 3.8 0 5.9 3.8 0 6 3.8 0 6.1 3.8 0 6.2 3.8 0 6.3 3.8 0 6.4 3.8 0 6.5 3.8 0 6.6 3.8 0 6.7 3.8 0 6.8 3.8 0 6.9 3.8 0 7 3.8 0 7.1 3.8 0 7.2 3.8 0 7.3 3.8 0 7.4 3.8 0 7.5 3.8 0 7.6 3.8 0 7.7 3.8 0 7.8 3.8 0 7.9 3.8 0 8 3.8 0 8.1 3.8 0 8.2 3.8 0 8.3 3.8 0 8.4 3.8 0 8.5 3.8 0 8.6 3.8 0 8.7 3.8 0 8.8 3.8 0 8.9 3.8 0 9 3.8 0 9.1 3.8 0 9.2 3.8 0 9.3 3.8 0 9.4 3.8 0 9.5 3.8 0 9.6 3.8 0 9.7 3.8 0 9.8 3.8 0 9.9 3.8 0 10 3.8 0 0 3.9 0 0.1 3.9 0 0.2 3.9 0 0.3 3.9 0 0.4 3.9 0 0.5 3.9 0 0.6 3.9 0 0.7 3.9 0 0.8 3.9 0 0.9 3.9 0 1 3.9 0 1.1 3.9 0 1.2 3.9 0 1.3 3.9 0 1.4 3.9 0 1.5 3.9 0 1.6 3.9 0 1.7 3.9 0 1.8 3.9 0 1.9 3.9 0 2 3.9 0 2.1 3.9 0 2.2 3.9 0 2.3 3.9 0 2.4 3.9 0 2.5 3.9 0 2.6 3.9 0 2.7 3.9 0 2.8 3.9 0 2.9 3.9 0 3 3.9 0 3.1 3.9 0 3.2 3.9 0 3.3 3.9 0 3.4 3.9 0 3.5 3.9 0 3.6 3.9 0 3.7 3.9 0 3.8 3.9 0 3.9 3.9 0 4 3.9 0 4.1 3.9 0 4.2 3.9 0 4.3 3.9 0 4.4 3.9 0 4.5 3.9 0 4.6 3.9 0 4.7 3.9 0 4.8 3.9 0 4.9 3.9 0 5 3.9 0 5.1 3.9 0 5.2 3.9 0 5.3 3.9 0 5.4 3.9 0 5.5 3.9 0 5.6 3.9 0 5.7 3.9 0 5.8 3.9 0 5.9 3.9 0 6 3.9 0 6.1 3.9 0 6.2 3.9 0 6.3 3.9 0 6.4 3.9 0 6.5 3.9 0 6.6 3.9 0 6.7 3.9 0 6.8 3.9 0 6.9 3.9 0 7 3.9 0 7.1 3.9 0 7.2 3.9 0 7.3 3.9 0 7.4 3.9 0 7.5 3.9 0 7.6 3.9 0 7.7 3.9 0 7.8 3.9 0 7.9 3.9 0 8 3.9 0 8.1 3.9 0 8.2 3.9 0 8.3 3.9 0 8.4 3.9 0 8.5 3.9 0 8.6 3.9 0 8.7 3.9 0 8.8 3.9 0 8.9 3.9 0 9 3.9 0 9.1 3.9 0 9.2 3.9 0 9.3 3.9 0 9.4 3.9 0 9.5 3.9 0 9.6 3.9 0 9.7 3.9 0 9.8 3.9 0 9.9 3.9 0 10 3.9 0 0 4 0 0.1 4 0 0.2 4 0 0.3 4 0 0.4 4 0 0.5 4 0 0.6 4 0 0.7 4 0 0.8 4 0 0.9 4 0 1 4 0 1.1 4 0 1.2 4 0 1.3 4 0 1.4 4 0 1.5 4 0 1.6 4 0 1.7 4 0 1.8 4 0 1.9 4 0 2 4 0 2.1 4 0 2.2 4 0 2.3 4 0 2.4 4 0 2.5 4 0 2.6 4 0 2.7 4 0 2.8 4 0 2.9 4 0 3 4 0 3.1 4 0 3.2 4 0 3.3 4 0 3.4 4 0 3.5 4 0 3.6 4 0 3.7 4 0 3.8 4 0 3.9 4 0 4 4 0 4.1 4 0 4.2 4 0 4.3 4 0 4.4 4 0 4.5 4 0 4.6 4 0 4.7 4 0 4.8 4 0 4.9 4 0 5 4 0 5.1 4 0 5.2 4 0 5.3 4 0 5.4 4 0 5.5 4 0 5.6 4 0 5.7 4 0 5.8 4 0 5.9 4 0 6 4 0 6.1 4 0 6.2 4 0 6.3 4 0 6.4 4 0 6.5 4 0 6.6 4 0 6.7 4 0 6.8 4 0 6.9 4 0 7 4 0 7.1 4 0 7.2 4 0 7.3 4 0 7.4 4 0 7.5 4 0 7.6 4 0 7.7 4 0 7.8 4 0 7.9 4 0 8 4 0 8.1 4 0 8.2 4 0 8.3 4 0 8.4 4 0 8.5 4 0 8.6 4 0 8.7 4 0 8.8 4 0 8.9 4 0 9 4 0 9.1 4 0 9.2 4 0 9.3 4 0 9.4 4 0 9.5 4 0 9.6 4 0 9.7 4 0 9.8 4 0 9.9 4 0 10 4 0 0 4.1 0 0.1 4.1 0 0.2 4.1 0 0.3 4.1 0 0.4 4.1 0 0.5 4.1 0 0.6 4.1 0 0.7 4.1 0 0.8 4.1 0 0.9 4.1 0 1 4.1 0 1.1 4.1 0 1.2 4.1 0 1.3 4.1 0 1.4 4.1 0 1.5 4.1 0 1.6 4.1 0 1.7 4.1 0 1.8 4.1 0 1.9 4.1 0 2 4.1 0 2.1 4.1 0 2.2 4.1 0 2.3 4.1 0 2.4 4.1 0 2.5 4.1 0 2.6 4.1 0 2.7 4.1 0 2.8 4.1 0 2.9 4.1 0 3 4.1 0 3.1 4.1 0 3.2 4.1 0 3.3 4.1 0 3.4 4.1 0 3.5 4.1 0 3.6 4.1 0 3.7 4.1 0 3.8 4.1 0 3.9 4.1 0 4 4.1 0 4.1 4.1 0 4.2 4.1 0 4.3 4.1 0 4.4 4.1 0 4.5 4.1 0 4.6 4.1 0 4.7 4.1 0 4.8 4.1 0 4.9 4.1 0 5 4.1 0 5.1 4.1 0 5.2 4.1 0 5.3 4.1 0 5.4 4.1 0 5.5 4.1 0 5.6 4.1 0 5.7 4.1 0 5.8 4.1 0 5.9 4.1 0 6 4.1 0 6.1 4.1 0 6.2 4.1 0 6.3 4.1 0 6.4 4.1 0 6.5 4.1 0 6.6 4.1 0 6.7 4.1 0 6.8 4.1 0 6.9 4.1 0 7 4.1 0 7.1 4.1 0 7.2 4.1 0 7.3 4.1 0 7.4 4.1 0 7.5 4.1 0 7.6 4.1 0 7.7 4.1 0 7.8 4.1 0 7.9 4.1 0 8 4.1 0 8.1 4.1 0 8.2 4.1 0 8.3 4.1 0 8.4 4.1 0 8.5 4.1 0 8.6 4.1 0 8.7 4.1 0 8.8 4.1 0 8.9 4.1 0 9 4.1 0 9.1 4.1 0 9.2 4.1 0 9.3 4.1 0 9.4 4.1 0 9.5 4.1 0 9.6 4.1 0 9.7 4.1 0 9.8 4.1 0 9.9 4.1 0 10 4.1 0 0 4.2 0 0.1 4.2 0 0.2 4.2 0 0.3 4.2 0 0.4 4.2 0 0.5 4.2 0 0.6 4.2 0 0.7 4.2 0 0.8 4.2 0 0.9 4.2 0 1 4.2 0 1.1 4.2 0 1.2 4.2 0 1.3 4.2 0 1.4 4.2 0 1.5 4.2 0 1.6 4.2 0 1.7 4.2 0 1.8 4.2 0 1.9 4.2 0 2 4.2 0 2.1 4.2 0 2.2 4.2 0 2.3 4.2 0 2.4 4.2 0 2.5 4.2 0 2.6 4.2 0 2.7 4.2 0 2.8 4.2 0 2.9 4.2 0 3 4.2 0 3.1 4.2 0 3.2 4.2 0 3.3 4.2 0 3.4 4.2 0 3.5 4.2 0 3.6 4.2 0 3.7 4.2 0 3.8 4.2 0 3.9 4.2 0 4 4.2 0 4.1 4.2 0 4.2 4.2 0 4.3 4.2 0 4.4 4.2 0 4.5 4.2 0 4.6 4.2 0 4.7 4.2 0 4.8 4.2 0 4.9 4.2 0 5 4.2 0 5.1 4.2 0 5.2 4.2 0 5.3 4.2 0 5.4 4.2 0 5.5 4.2 0 5.6 4.2 0 5.7 4.2 0 5.8 4.2 0 5.9 4.2 0 6 4.2 0 6.1 4.2 0 6.2 4.2 0 6.3 4.2 0 6.4 4.2 0 6.5 4.2 0 6.6 4.2 0 6.7 4.2 0 6.8 4.2 0 6.9 4.2 0 7 4.2 0 7.1 4.2 0 7.2 4.2 0 7.3 4.2 0 7.4 4.2 0 7.5 4.2 0 7.6 4.2 0 7.7 4.2 0 7.8 4.2 0 7.9 4.2 0 8 4.2 0 8.1 4.2 0 8.2 4.2 0 8.3 4.2 0 8.4 4.2 0 8.5 4.2 0 8.6 4.2 0 8.7 4.2 0 8.8 4.2 0 8.9 4.2 0 9 4.2 0 9.1 4.2 0 9.2 4.2 0 9.3 4.2 0 9.4 4.2 0 9.5 4.2 0 9.6 4.2 0 9.7 4.2 0 9.8 4.2 0 9.9 4.2 0 10 4.2 0 0 4.3 0 0.1 4.3 0 0.2 4.3 0 0.3 4.3 0 0.4 4.3 0 0.5 4.3 0 0.6 4.3 0 0.7 4.3 0 0.8 4.3 0 0.9 4.3 0 1 4.3 0 1.1 4.3 0 1.2 4.3 0 1.3 4.3 0 1.4 4.3 0 1.5 4.3 0 1.6 4.3 0 1.7 4.3 0 1.8 4.3 0 1.9 4.3 0 2 4.3 0 2.1 4.3 0 2.2 4.3 0 2.3 4.3 0 2.4 4.3 0 2.5 4.3 0 2.6 4.3 0 2.7 4.3 0 2.8 4.3 0 2.9 4.3 0 3 4.3 0 3.1 4.3 0 3.2 4.3 0 3.3 4.3 0 3.4 4.3 0 3.5 4.3 0 3.6 4.3 0 3.7 4.3 0 3.8 4.3 0 3.9 4.3 0 4 4.3 0 4.1 4.3 0 4.2 4.3 0 4.3 4.3 0 4.4 4.3 0 4.5 4.3 0 4.6 4.3 0 4.7 4.3 0 4.8 4.3 0 4.9 4.3 0 5 4.3 0 5.1 4.3 0 5.2 4.3 0 5.3 4.3 0 5.4 4.3 0 5.5 4.3 0 5.6 4.3 0 5.7 4.3 0 5.8 4.3 0 5.9 4.3 0 6 4.3 0 6.1 4.3 0 6.2 4.3 0 6.3 4.3 0 6.4 4.3 0 6.5 4.3 0 6.6 4.3 0 6.7 4.3 0 6.8 4.3 0 6.9 4.3 0 7 4.3 0 7.1 4.3 0 7.2 4.3 0 7.3 4.3 0 7.4 4.3 0 7.5 4.3 0 7.6 4.3 0 7.7 4.3 0 7.8 4.3 0 7.9 4.3 0 8 4.3 0 8.1 4.3 0 8.2 4.3 0 8.3 4.3 0 8.4 4.3 0 8.5 4.3 0 8.6 4.3 0 8.7 4.3 0 8.8 4.3 0 8.9 4.3 0 9 4.3 0 9.1 4.3 0 9.2 4.3 0 9.3 4.3 0 9.4 4.3 0 9.5 4.3 0 9.6 4.3 0 9.7 4.3 0 9.8 4.3 0 9.9 4.3 0 10 4.3 0 0 4.4 0 0.1 4.4 0 0.2 4.4 0 0.3 4.4 0 0.4 4.4 0 0.5 4.4 0 0.6 4.4 0 0.7 4.4 0 0.8 4.4 0 0.9 4.4 0 1 4.4 0 1.1 4.4 0 1.2 4.4 0 1.3 4.4 0 1.4 4.4 0 1.5 4.4 0 1.6 4.4 0 1.7 4.4 0 1.8 4.4 0 1.9 4.4 0 2 4.4 0 2.1 4.4 0 2.2 4.4 0 2.3 4.4 0 2.4 4.4 0 2.5 4.4 0 2.6 4.4 0 2.7 4.4 0 2.8 4.4 0 2.9 4.4 0 3 4.4 0 3.1 4.4 0 3.2 4.4 0 3.3 4.4 0 3.4 4.4 0 3.5 4.4 0 3.6 4.4 0 3.7 4.4 0 3.8 4.4 0 3.9 4.4 0 4 4.4 0 4.1 4.4 0 4.2 4.4 0 4.3 4.4 0 4.4 4.4 0 4.5 4.4 0 4.6 4.4 0 4.7 4.4 0 4.8 4.4 0 4.9 4.4 0 5 4.4 0 5.1 4.4 0 5.2 4.4 0 5.3 4.4 0 5.4 4.4 0 5.5 4.4 0 5.6 4.4 0 5.7 4.4 0 5.8 4.4 0 5.9 4.4 0 6 4.4 0 6.1 4.4 0 6.2 4.4 0 6.3 4.4 0 6.4 4.4 0 6.5 4.4 0 6.6 4.4 0 6.7 4.4 0 6.8 4.4 0 6.9 4.4 0 7 4.4 0 7.1 4.4 0 7.2 4.4 0 7.3 4.4 0 7.4 4.4 0 7.5 4.4 0 7.6 4.4 0 7.7 4.4 0 7.8 4.4 0 7.9 4.4 0 8 4.4 0 8.1 4.4 0 8.2 4.4 0 8.3 4.4 0 8.4 4.4 0 8.5 4.4 0 8.6 4.4 0 8.7 4.4 0 8.8 4.4 0 8.9 4.4 0 9 4.4 0 9.1 4.4 0 9.2 4.4 0 9.3 4.4 0 9.4 4.4 0 9.5 4.4 0 9.6 4.4 0 9.7 4.4 0 9.8 4.4 0 9.9 4.4 0 10 4.4 0 0 4.5 0 0.1 4.5 0 0.2 4.5 0 0.3 4.5 0 0.4 4.5 0 0.5 4.5 0 0.6 4.5 0 0.7 4.5 0 0.8 4.5 0 0.9 4.5 0 1 4.5 0 1.1 4.5 0 1.2 4.5 0 1.3 4.5 0 1.4 4.5 0 1.5 4.5 0 1.6 4.5 0 1.7 4.5 0 1.8 4.5 0 1.9 4.5 0 2 4.5 0 2.1 4.5 0 2.2 4.5 0 2.3 4.5 0 2.4 4.5 0 2.5 4.5 0 2.6 4.5 0 2.7 4.5 0 2.8 4.5 0 2.9 4.5 0 3 4.5 0 3.1 4.5 0 3.2 4.5 0 3.3 4.5 0 3.4 4.5 0 3.5 4.5 0 3.6 4.5 0 3.7 4.5 0 3.8 4.5 0 3.9 4.5 0 4 4.5 0 4.1 4.5 0 4.2 4.5 0 4.3 4.5 0 4.4 4.5 0 4.5 4.5 0 4.6 4.5 0 4.7 4.5 0 4.8 4.5 0 4.9 4.5 0 5 4.5 0 5.1 4.5 0 5.2 4.5 0 5.3 4.5 0 5.4 4.5 0 5.5 4.5 0 5.6 4.5 0 5.7 4.5 0 5.8 4.5 0 5.9 4.5 0 6 4.5 0 6.1 4.5 0 6.2 4.5 0 6.3 4.5 0 6.4 4.5 0 6.5 4.5 0 6.6 4.5 0 6.7 4.5 0 6.8 4.5 0 6.9 4.5 0 7 4.5 0 7.1 4.5 0 7.2 4.5 0 7.3 4.5 0 7.4 4.5 0 7.5 4.5 0 7.6 4.5 0 7.7 4.5 0 7.8 4.5 0 7.9 4.5 0 8 4.5 0 8.1 4.5 0 8.2 4.5 0 8.3 4.5 0 8.4 4.5 0 8.5 4.5 0 8.6 4.5 0 8.7 4.5 0 8.8 4.5 0 8.9 4.5 0 9 4.5 0 9.1 4.5 0 9.2 4.5 0 9.3 4.5 0 9.4 4.5 0 9.5 4.5 0 9.6 4.5 0 9.7 4.5 0 9.8 4.5 0 9.9 4.5 0 10 4.5 0 0 4.6 0 0.1 4.6 0 0.2 4.6 0 0.3 4.6 0 0.4 4.6 0 0.5 4.6 0 0.6 4.6 0 0.7 4.6 0 0.8 4.6 0 0.9 4.6 0 1 4.6 0 1.1 4.6 0 1.2 4.6 0 1.3 4.6 0 1.4 4.6 0 1.5 4.6 0 1.6 4.6 0 1.7 4.6 0 1.8 4.6 0 1.9 4.6 0 2 4.6 0 2.1 4.6 0 2.2 4.6 0 2.3 4.6 0 2.4 4.6 0 2.5 4.6 0 2.6 4.6 0 2.7 4.6 0 2.8 4.6 0 2.9 4.6 0 3 4.6 0 3.1 4.6 0 3.2 4.6 0 3.3 4.6 0 3.4 4.6 0 3.5 4.6 0 3.6 4.6 0 3.7 4.6 0 3.8 4.6 0 3.9 4.6 0 4 4.6 0 4.1 4.6 0 4.2 4.6 0 4.3 4.6 0 4.4 4.6 0 4.5 4.6 0 4.6 4.6 0 4.7 4.6 0 4.8 4.6 0 4.9 4.6 0 5 4.6 0 5.1 4.6 0 5.2 4.6 0 5.3 4.6 0 5.4 4.6 0 5.5 4.6 0 5.6 4.6 0 5.7 4.6 0 5.8 4.6 0 5.9 4.6 0 6 4.6 0 6.1 4.6 0 6.2 4.6 0 6.3 4.6 0 6.4 4.6 0 6.5 4.6 0 6.6 4.6 0 6.7 4.6 0 6.8 4.6 0 6.9 4.6 0 7 4.6 0 7.1 4.6 0 7.2 4.6 0 7.3 4.6 0 7.4 4.6 0 7.5 4.6 0 7.6 4.6 0 7.7 4.6 0 7.8 4.6 0 7.9 4.6 0 8 4.6 0 8.1 4.6 0 8.2 4.6 0 8.3 4.6 0 8.4 4.6 0 8.5 4.6 0 8.6 4.6 0 8.7 4.6 0 8.8 4.6 0 8.9 4.6 0 9 4.6 0 9.1 4.6 0 9.2 4.6 0 9.3 4.6 0 9.4 4.6 0 9.5 4.6 0 9.6 4.6 0 9.7 4.6 0 9.8 4.6 0 9.9 4.6 0 10 4.6 0 0 4.7 0 0.1 4.7 0 0.2 4.7 0 0.3 4.7 0 0.4 4.7 0 0.5 4.7 0 0.6 4.7 0 0.7 4.7 0 0.8 4.7 0 0.9 4.7 0 1 4.7 0 1.1 4.7 0 1.2 4.7 0 1.3 4.7 0 1.4 4.7 0 1.5 4.7 0 1.6 4.7 0 1.7 4.7 0 1.8 4.7 0 1.9 4.7 0 2 4.7 0 2.1 4.7 0 2.2 4.7 0 2.3 4.7 0 2.4 4.7 0 2.5 4.7 0 2.6 4.7 0 2.7 4.7 0 2.8 4.7 0 2.9 4.7 0 3 4.7 0 3.1 4.7 0 3.2 4.7 0 3.3 4.7 0 3.4 4.7 0 3.5 4.7 0 3.6 4.7 0 3.7 4.7 0 3.8 4.7 0 3.9 4.7 0 4 4.7 0 4.1 4.7 0 4.2 4.7 0 4.3 4.7 0 4.4 4.7 0 4.5 4.7 0 4.6 4.7 0 4.7 4.7 0 4.8 4.7 0 4.9 4.7 0 5 4.7 0 5.1 4.7 0 5.2 4.7 0 5.3 4.7 0 5.4 4.7 0 5.5 4.7 0 5.6 4.7 0 5.7 4.7 0 5.8 4.7 0 5.9 4.7 0 6 4.7 0 6.1 4.7 0 6.2 4.7 0 6.3 4.7 0 6.4 4.7 0 6.5 4.7 0 6.6 4.7 0 6.7 4.7 0 6.8 4.7 0 6.9 4.7 0 7 4.7 0 7.1 4.7 0 7.2 4.7 0 7.3 4.7 0 7.4 4.7 0 7.5 4.7 0 7.6 4.7 0 7.7 4.7 0 7.8 4.7 0 7.9 4.7 0 8 4.7 0 8.1 4.7 0 8.2 4.7 0 8.3 4.7 0 8.4 4.7 0 8.5 4.7 0 8.6 4.7 0 8.7 4.7 0 8.8 4.7 0 8.9 4.7 0 9 4.7 0 9.1 4.7 0 9.2 4.7 0 9.3 4.7 0 9.4 4.7 0 9.5 4.7 0 9.6 4.7 0 9.7 4.7 0 9.8 4.7 0 9.9 4.7 0 10 4.7 0 0 4.8 0 0.1 4.8 0 0.2 4.8 0 0.3 4.8 0 0.4 4.8 0 0.5 4.8 0 0.6 4.8 0 0.7 4.8 0 0.8 4.8 0 0.9 4.8 0 1 4.8 0 1.1 4.8 0 1.2 4.8 0 1.3 4.8 0 1.4 4.8 0 1.5 4.8 0 1.6 4.8 0 1.7 4.8 0 1.8 4.8 0 1.9 4.8 0 2 4.8 0 2.1 4.8 0 2.2 4.8 0 2.3 4.8 0 2.4 4.8 0 2.5 4.8 0 2.6 4.8 0 2.7 4.8 0 2.8 4.8 0 2.9 4.8 0 3 4.8 0 3.1 4.8 0 3.2 4.8 0 3.3 4.8 0 3.4 4.8 0 3.5 4.8 0 3.6 4.8 0 3.7 4.8 0 3.8 4.8 0 3.9 4.8 0 4 4.8 0 4.1 4.8 0 4.2 4.8 0 4.3 4.8 0 4.4 4.8 0 4.5 4.8 0 4.6 4.8 0 4.7 4.8 0 4.8 4.8 0 4.9 4.8 0 5 4.8 0 5.1 4.8 0 5.2 4.8 0 5.3 4.8 0 5.4 4.8 0 5.5 4.8 0 5.6 4.8 0 5.7 4.8 0 5.8 4.8 0 5.9 4.8 0 6 4.8 0 6.1 4.8 0 6.2 4.8 0 6.3 4.8 0 6.4 4.8 0 6.5 4.8 0 6.6 4.8 0 6.7 4.8 0 6.8 4.8 0 6.9 4.8 0 7 4.8 0 7.1 4.8 0 7.2 4.8 0 7.3 4.8 0 7.4 4.8 0 7.5 4.8 0 7.6 4.8 0 7.7 4.8 0 7.8 4.8 0 7.9 4.8 0 8 4.8 0 8.1 4.8 0 8.2 4.8 0 8.3 4.8 0 8.4 4.8 0 8.5 4.8 0 8.6 4.8 0 8.7 4.8 0 8.8 4.8 0 8.9 4.8 0 9 4.8 0 9.1 4.8 0 9.2 4.8 0 9.3 4.8 0 9.4 4.8 0 9.5 4.8 0 9.6 4.8 0 9.7 4.8 0 9.8 4.8 0 9.9 4.8 0 10 4.8 0 0 4.9 0 0.1 4.9 0 0.2 4.9 0 0.3 4.9 0 0.4 4.9 0 0.5 4.9 0 0.6 4.9 0 0.7 4.9 0 0.8 4.9 0 0.9 4.9 0 1 4.9 0 1.1 4.9 0 1.2 4.9 0 1.3 4.9 0 1.4 4.9 0 1.5 4.9 0 1.6 4.9 0 1.7 4.9 0 1.8 4.9 0 1.9 4.9 0 2 4.9 0 2.1 4.9 0 2.2 4.9 0 2.3 4.9 0 2.4 4.9 0 2.5 4.9 0 2.6 4.9 0 2.7 4.9 0 2.8 4.9 0 2.9 4.9 0 3 4.9 0 3.1 4.9 0 3.2 4.9 0 3.3 4.9 0 3.4 4.9 0 3.5 4.9 0 3.6 4.9 0 3.7 4.9 0 3.8 4.9 0 3.9 4.9 0 4 4.9 0 4.1 4.9 0 4.2 4.9 0 4.3 4.9 0 4.4 4.9 0 4.5 4.9 0 4.6 4.9 0 4.7 4.9 0 4.8 4.9 0 4.9 4.9 0 5 4.9 0 5.1 4.9 0 5.2 4.9 0 5.3 4.9 0 5.4 4.9 0 5.5 4.9 0 5.6 4.9 0 5.7 4.9 0 5.8 4.9 0 5.9 4.9 0 6 4.9 0 6.1 4.9 0 6.2 4.9 0 6.3 4.9 0 6.4 4.9 0 6.5 4.9 0 6.6 4.9 0 6.7 4.9 0 6.8 4.9 0 6.9 4.9 0 7 4.9 0 7.1 4.9 0 7.2 4.9 0 7.3 4.9 0 7.4 4.9 0 7.5 4.9 0 7.6 4.9 0 7.7 4.9 0 7.8 4.9 0 7.9 4.9 0 8 4.9 0 8.1 4.9 0 8.2 4.9 0 8.3 4.9 0 8.4 4.9 0 8.5 4.9 0 8.6 4.9 0 8.7 4.9 0 8.8 4.9 0 8.9 4.9 0 9 4.9 0 9.1 4.9 0 9.2 4.9 0 9.3 4.9 0 9.4 4.9 0 9.5 4.9 0 9.6 4.9 0 9.7 4.9 0 9.8 4.9 0 9.9 4.9 0 10 4.9 0 0 5 0 0.1 5 0 0.2 5 0 0.3 5 0 0.4 5 0 0.5 5 0 0.6 5 0 0.7 5 0 0.8 5 0 0.9 5 0 1 5 0 1.1 5 0 1.2 5 0 1.3 5 0 1.4 5 0 1.5 5 0 1.6 5 0 1.7 5 0 1.8 5 0 1.9 5 0 2 5 0 2.1 5 0 2.2 5 0 2.3 5 0 2.4 5 0 2.5 5 0 2.6 5 0 2.7 5 0 2.8 5 0 2.9 5 0 3 5 0 3.1 5 0 3.2 5 0 3.3 5 0 3.4 5 0 3.5 5 0 3.6 5 0 3.7 5 0 3.8 5 0 3.9 5 0 4 5 0 4.1 5 0 4.2 5 0 4.3 5 0 4.4 5 0 4.5 5 0 4.6 5 0 4.7 5 0 4.8 5 0 4.9 5 0 5 5 0 5.1 5 0 5.2 5 0 5.3 5 0 5.4 5 0 5.5 5 0 5.6 5 0 5.7 5 0 5.8 5 0 5.9 5 0 6 5 0 6.1 5 0 6.2 5 0 6.3 5 0 6.4 5 0 6.5 5 0 6.6 5 0 6.7 5 0 6.8 5 0 6.9 5 0 7 5 0 7.1 5 0 7.2 5 0 7.3 5 0 7.4 5 0 7.5 5 0 7.6 5 0 7.7 5 0 7.8 5 0 7.9 5 0 8 5 0 8.1 5 0 8.2 5 0 8.3 5 0 8.4 5 0 8.5 5 0 8.6 5 0 8.7 5 0 8.8 5 0 8.9 5 0 9 5 0 9.1 5 0 9.2 5 0 9.3 5 0 9.4 5 0 9.5 5 0 9.6 5 0 9.7 5 0 9.8 5 0 9.9 5 0 10 5 0 0 5.1 0 0.1 5.1 0 0.2 5.1 0 0.3 5.1 0 0.4 5.1 0 0.5 5.1 0 0.6 5.1 0 0.7 5.1 0 0.8 5.1 0 0.9 5.1 0 1 5.1 0 1.1 5.1 0 1.2 5.1 0 1.3 5.1 0 1.4 5.1 0 1.5 5.1 0 1.6 5.1 0 1.7 5.1 0 1.8 5.1 0 1.9 5.1 0 2 5.1 0 2.1 5.1 0 2.2 5.1 0 2.3 5.1 0 2.4 5.1 0 2.5 5.1 0 2.6 5.1 0 2.7 5.1 0 2.8 5.1 0 2.9 5.1 0 3 5.1 0 3.1 5.1 0 3.2 5.1 0 3.3 5.1 0 3.4 5.1 0 3.5 5.1 0 3.6 5.1 0 3.7 5.1 0 3.8 5.1 0 3.9 5.1 0 4 5.1 0 4.1 5.1 0 4.2 5.1 0 4.3 5.1 0 4.4 5.1 0 4.5 5.1 0 4.6 5.1 0 4.7 5.1 0 4.8 5.1 0 4.9 5.1 0 5 5.1 0 5.1 5.1 0 5.2 5.1 0 5.3 5.1 0 5.4 5.1 0 5.5 5.1 0 5.6 5.1 0 5.7 5.1 0 5.8 5.1 0 5.9 5.1 0 6 5.1 0 6.1 5.1 0 6.2 5.1 0 6.3 5.1 0 6.4 5.1 0 6.5 5.1 0 6.6 5.1 0 6.7 5.1 0 6.8 5.1 0 6.9 5.1 0 7 5.1 0 7.1 5.1 0 7.2 5.1 0 7.3 5.1 0 7.4 5.1 0 7.5 5.1 0 7.6 5.1 0 7.7 5.1 0 7.8 5.1 0 7.9 5.1 0 8 5.1 0 8.1 5.1 0 8.2 5.1 0 8.3 5.1 0 8.4 5.1 0 8.5 5.1 0 8.6 5.1 0 8.7 5.1 0 8.8 5.1 0 8.9 5.1 0 9 5.1 0 9.1 5.1 0 9.2 5.1 0 9.3 5.1 0 9.4 5.1 0 9.5 5.1 0 9.6 5.1 0 9.7 5.1 0 9.8 5.1 0 9.9 5.1 0 10 5.1 0 0 5.2 0 0.1 5.2 0 0.2 5.2 0 0.3 5.2 0 0.4 5.2 0 0.5 5.2 0 0.6 5.2 0 0.7 5.2 0 0.8 5.2 0 0.9 5.2 0 1 5.2 0 1.1 5.2 0 1.2 5.2 0 1.3 5.2 0 1.4 5.2 0 1.5 5.2 0 1.6 5.2 0 1.7 5.2 0 1.8 5.2 0 1.9 5.2 0 2 5.2 0 2.1 5.2 0 2.2 5.2 0 2.3 5.2 0 2.4 5.2 0 2.5 5.2 0 2.6 5.2 0 2.7 5.2 0 2.8 5.2 0 2.9 5.2 0 3 5.2 0 3.1 5.2 0 3.2 5.2 0 3.3 5.2 0 3.4 5.2 0 3.5 5.2 0 3.6 5.2 0 3.7 5.2 0 3.8 5.2 0 3.9 5.2 0 4 5.2 0 4.1 5.2 0 4.2 5.2 0 4.3 5.2 0 4.4 5.2 0 4.5 5.2 0 4.6 5.2 0 4.7 5.2 0 4.8 5.2 0 4.9 5.2 0 5 5.2 0 5.1 5.2 0 5.2 5.2 0 5.3 5.2 0 5.4 5.2 0 5.5 5.2 0 5.6 5.2 0 5.7 5.2 0 5.8 5.2 0 5.9 5.2 0 6 5.2 0 6.1 5.2 0 6.2 5.2 0 6.3 5.2 0 6.4 5.2 0 6.5 5.2 0 6.6 5.2 0 6.7 5.2 0 6.8 5.2 0 6.9 5.2 0 7 5.2 0 7.1 5.2 0 7.2 5.2 0 7.3 5.2 0 7.4 5.2 0 7.5 5.2 0 7.6 5.2 0 7.7 5.2 0 7.8 5.2 0 7.9 5.2 0 8 5.2 0 8.1 5.2 0 8.2 5.2 0 8.3 5.2 0 8.4 5.2 0 8.5 5.2 0 8.6 5.2 0 8.7 5.2 0 8.8 5.2 0 8.9 5.2 0 9 5.2 0 9.1 5.2 0 9.2 5.2 0 9.3 5.2 0 9.4 5.2 0 9.5 5.2 0 9.6 5.2 0 9.7 5.2 0 9.8 5.2 0 9.9 5.2 0 10 5.2 0 0 5.3 0 0.1 5.3 0 0.2 5.3 0 0.3 5.3 0 0.4 5.3 0 0.5 5.3 0 0.6 5.3 0 0.7 5.3 0 0.8 5.3 0 0.9 5.3 0 1 5.3 0 1.1 5.3 0 1.2 5.3 0 1.3 5.3 0 1.4 5.3 0 1.5 5.3 0 1.6 5.3 0 1.7 5.3 0 1.8 5.3 0 1.9 5.3 0 2 5.3 0 2.1 5.3 0 2.2 5.3 0 2.3 5.3 0 2.4 5.3 0 2.5 5.3 0 2.6 5.3 0 2.7 5.3 0 2.8 5.3 0 2.9 5.3 0 3 5.3 0 3.1 5.3 0 3.2 5.3 0 3.3 5.3 0 3.4 5.3 0 3.5 5.3 0 3.6 5.3 0 3.7 5.3 0 3.8 5.3 0 3.9 5.3 0 4 5.3 0 4.1 5.3 0 4.2 5.3 0 4.3 5.3 0 4.4 5.3 0 4.5 5.3 0 4.6 5.3 0 4.7 5.3 0 4.8 5.3 0 4.9 5.3 0 5 5.3 0 5.1 5.3 0 5.2 5.3 0 5.3 5.3 0 5.4 5.3 0 5.5 5.3 0 5.6 5.3 0 5.7 5.3 0 5.8 5.3 0 5.9 5.3 0 6 5.3 0 6.1 5.3 0 6.2 5.3 0 6.3 5.3 0 6.4 5.3 0 6.5 5.3 0 6.6 5.3 0 6.7 5.3 0 6.8 5.3 0 6.9 5.3 0 7 5.3 0 7.1 5.3 0 7.2 5.3 0 7.3 5.3 0 7.4 5.3 0 7.5 5.3 0 7.6 5.3 0 7.7 5.3 0 7.8 5.3 0 7.9 5.3 0 8 5.3 0 8.1 5.3 0 8.2 5.3 0 8.3 5.3 0 8.4 5.3 0 8.5 5.3 0 8.6 5.3 0 8.7 5.3 0 8.8 5.3 0 8.9 5.3 0 9 5.3 0 9.1 5.3 0 9.2 5.3 0 9.3 5.3 0 9.4 5.3 0 9.5 5.3 0 9.6 5.3 0 9.7 5.3 0 9.8 5.3 0 9.9 5.3 0 10 5.3 0 0 5.4 0 0.1 5.4 0 0.2 5.4 0 0.3 5.4 0 0.4 5.4 0 0.5 5.4 0 0.6 5.4 0 0.7 5.4 0 0.8 5.4 0 0.9 5.4 0 1 5.4 0 1.1 5.4 0 1.2 5.4 0 1.3 5.4 0 1.4 5.4 0 1.5 5.4 0 1.6 5.4 0 1.7 5.4 0 1.8 5.4 0 1.9 5.4 0 2 5.4 0 2.1 5.4 0 2.2 5.4 0 2.3 5.4 0 2.4 5.4 0 2.5 5.4 0 2.6 5.4 0 2.7 5.4 0 2.8 5.4 0 2.9 5.4 0 3 5.4 0 3.1 5.4 0 3.2 5.4 0 3.3 5.4 0 3.4 5.4 0 3.5 5.4 0 3.6 5.4 0 3.7 5.4 0 3.8 5.4 0 3.9 5.4 0 4 5.4 0 4.1 5.4 0 4.2 5.4 0 4.3 5.4 0 4.4 5.4 0 4.5 5.4 0 4.6 5.4 0 4.7 5.4 0 4.8 5.4 0 4.9 5.4 0 5 5.4 0 5.1 5.4 0 5.2 5.4 0 5.3 5.4 0 5.4 5.4 0 5.5 5.4 0 5.6 5.4 0 5.7 5.4 0 5.8 5.4 0 5.9 5.4 0 6 5.4 0 6.1 5.4 0 6.2 5.4 0 6.3 5.4 0 6.4 5.4 0 6.5 5.4 0 6.6 5.4 0 6.7 5.4 0 6.8 5.4 0 6.9 5.4 0 7 5.4 0 7.1 5.4 0 7.2 5.4 0 7.3 5.4 0 7.4 5.4 0 7.5 5.4 0 7.6 5.4 0 7.7 5.4 0 7.8 5.4 0 7.9 5.4 0 8 5.4 0 8.1 5.4 0 8.2 5.4 0 8.3 5.4 0 8.4 5.4 0 8.5 5.4 0 8.6 5.4 0 8.7 5.4 0 8.8 5.4 0 8.9 5.4 0 9 5.4 0 9.1 5.4 0 9.2 5.4 0 9.3 5.4 0 9.4 5.4 0 9.5 5.4 0 9.6 5.4 0 9.7 5.4 0 9.8 5.4 0 9.9 5.4 0 10 5.4 0 0 5.5 0 0.1 5.5 0 0.2 5.5 0 0.3 5.5 0 0.4 5.5 0 0.5 5.5 0 0.6 5.5 0 0.7 5.5 0 0.8 5.5 0 0.9 5.5 0 1 5.5 0 1.1 5.5 0 1.2 5.5 0 1.3 5.5 0 1.4 5.5 0 1.5 5.5 0 1.6 5.5 0 1.7 5.5 0 1.8 5.5 0 1.9 5.5 0 2 5.5 0 2.1 5.5 0 2.2 5.5 0 2.3 5.5 0 2.4 5.5 0 2.5 5.5 0 2.6 5.5 0 2.7 5.5 0 2.8 5.5 0 2.9 5.5 0 3 5.5 0 3.1 5.5 0 3.2 5.5 0 3.3 5.5 0 3.4 5.5 0 3.5 5.5 0 3.6 5.5 0 3.7 5.5 0 3.8 5.5 0 3.9 5.5 0 4 5.5 0 4.1 5.5 0 4.2 5.5 0 4.3 5.5 0 4.4 5.5 0 4.5 5.5 0 4.6 5.5 0 4.7 5.5 0 4.8 5.5 0 4.9 5.5 0 5 5.5 0 5.1 5.5 0 5.2 5.5 0 5.3 5.5 0 5.4 5.5 0 5.5 5.5 0 5.6 5.5 0 5.7 5.5 0 5.8 5.5 0 5.9 5.5 0 6 5.5 0 6.1 5.5 0 6.2 5.5 0 6.3 5.5 0 6.4 5.5 0 6.5 5.5 0 6.6 5.5 0 6.7 5.5 0 6.8 5.5 0 6.9 5.5 0 7 5.5 0 7.1 5.5 0 7.2 5.5 0 7.3 5.5 0 7.4 5.5 0 7.5 5.5 0 7.6 5.5 0 7.7 5.5 0 7.8 5.5 0 7.9 5.5 0 8 5.5 0 8.1 5.5 0 8.2 5.5 0 8.3 5.5 0 8.4 5.5 0 8.5 5.5 0 8.6 5.5 0 8.7 5.5 0 8.8 5.5 0 8.9 5.5 0 9 5.5 0 9.1 5.5 0 9.2 5.5 0 9.3 5.5 0 9.4 5.5 0 9.5 5.5 0 9.6 5.5 0 9.7 5.5 0 9.8 5.5 0 9.9 5.5 0 10 5.5 0 0 5.6 0 0.1 5.6 0 0.2 5.6 0 0.3 5.6 0 0.4 5.6 0 0.5 5.6 0 0.6 5.6 0 0.7 5.6 0 0.8 5.6 0 0.9 5.6 0 1 5.6 0 1.1 5.6 0 1.2 5.6 0 1.3 5.6 0 1.4 5.6 0 1.5 5.6 0 1.6 5.6 0 1.7 5.6 0 1.8 5.6 0 1.9 5.6 0 2 5.6 0 2.1 5.6 0 2.2 5.6 0 2.3 5.6 0 2.4 5.6 0 2.5 5.6 0 2.6 5.6 0 2.7 5.6 0 2.8 5.6 0 2.9 5.6 0 3 5.6 0 3.1 5.6 0 3.2 5.6 0 3.3 5.6 0 3.4 5.6 0 3.5 5.6 0 3.6 5.6 0 3.7 5.6 0 3.8 5.6 0 3.9 5.6 0 4 5.6 0 4.1 5.6 0 4.2 5.6 0 4.3 5.6 0 4.4 5.6 0 4.5 5.6 0 4.6 5.6 0 4.7 5.6 0 4.8 5.6 0 4.9 5.6 0 5 5.6 0 5.1 5.6 0 5.2 5.6 0 5.3 5.6 0 5.4 5.6 0 5.5 5.6 0 5.6 5.6 0 5.7 5.6 0 5.8 5.6 0 5.9 5.6 0 6 5.6 0 6.1 5.6 0 6.2 5.6 0 6.3 5.6 0 6.4 5.6 0 6.5 5.6 0 6.6 5.6 0 6.7 5.6 0 6.8 5.6 0 6.9 5.6 0 7 5.6 0 7.1 5.6 0 7.2 5.6 0 7.3 5.6 0 7.4 5.6 0 7.5 5.6 0 7.6 5.6 0 7.7 5.6 0 7.8 5.6 0 7.9 5.6 0 8 5.6 0 8.1 5.6 0 8.2 5.6 0 8.3 5.6 0 8.4 5.6 0 8.5 5.6 0 8.6 5.6 0 8.7 5.6 0 8.8 5.6 0 8.9 5.6 0 9 5.6 0 9.1 5.6 0 9.2 5.6 0 9.3 5.6 0 9.4 5.6 0 9.5 5.6 0 9.6 5.6 0 9.7 5.6 0 9.8 5.6 0 9.9 5.6 0 10 5.6 0 0 5.7 0 0.1 5.7 0 0.2 5.7 0 0.3 5.7 0 0.4 5.7 0 0.5 5.7 0 0.6 5.7 0 0.7 5.7 0 0.8 5.7 0 0.9 5.7 0 1 5.7 0 1.1 5.7 0 1.2 5.7 0 1.3 5.7 0 1.4 5.7 0 1.5 5.7 0 1.6 5.7 0 1.7 5.7 0 1.8 5.7 0 1.9 5.7 0 2 5.7 0 2.1 5.7 0 2.2 5.7 0 2.3 5.7 0 2.4 5.7 0 2.5 5.7 0 2.6 5.7 0 2.7 5.7 0 2.8 5.7 0 2.9 5.7 0 3 5.7 0 3.1 5.7 0 3.2 5.7 0 3.3 5.7 0 3.4 5.7 0 3.5 5.7 0 3.6 5.7 0 3.7 5.7 0 3.8 5.7 0 3.9 5.7 0 4 5.7 0 4.1 5.7 0 4.2 5.7 0 4.3 5.7 0 4.4 5.7 0 4.5 5.7 0 4.6 5.7 0 4.7 5.7 0 4.8 5.7 0 4.9 5.7 0 5 5.7 0 5.1 5.7 0 5.2 5.7 0 5.3 5.7 0 5.4 5.7 0 5.5 5.7 0 5.6 5.7 0 5.7 5.7 0 5.8 5.7 0 5.9 5.7 0 6 5.7 0 6.1 5.7 0 6.2 5.7 0 6.3 5.7 0 6.4 5.7 0 6.5 5.7 0 6.6 5.7 0 6.7 5.7 0 6.8 5.7 0 6.9 5.7 0 7 5.7 0 7.1 5.7 0 7.2 5.7 0 7.3 5.7 0 7.4 5.7 0 7.5 5.7 0 7.6 5.7 0 7.7 5.7 0 7.8 5.7 0 7.9 5.7 0 8 5.7 0 8.1 5.7 0 8.2 5.7 0 8.3 5.7 0 8.4 5.7 0 8.5 5.7 0 8.6 5.7 0 8.7 5.7 0 8.8 5.7 0 8.9 5.7 0 9 5.7 0 9.1 5.7 0 9.2 5.7 0 9.3 5.7 0 9.4 5.7 0 9.5 5.7 0 9.6 5.7 0 9.7 5.7 0 9.8 5.7 0 9.9 5.7 0 10 5.7 0 0 5.8 0 0.1 5.8 0 0.2 5.8 0 0.3 5.8 0 0.4 5.8 0 0.5 5.8 0 0.6 5.8 0 0.7 5.8 0 0.8 5.8 0 0.9 5.8 0 1 5.8 0 1.1 5.8 0 1.2 5.8 0 1.3 5.8 0 1.4 5.8 0 1.5 5.8 0 1.6 5.8 0 1.7 5.8 0 1.8 5.8 0 1.9 5.8 0 2 5.8 0 2.1 5.8 0 2.2 5.8 0 2.3 5.8 0 2.4 5.8 0 2.5 5.8 0 2.6 5.8 0 2.7 5.8 0 2.8 5.8 0 2.9 5.8 0 3 5.8 0 3.1 5.8 0 3.2 5.8 0 3.3 5.8 0 3.4 5.8 0 3.5 5.8 0 3.6 5.8 0 3.7 5.8 0 3.8 5.8 0 3.9 5.8 0 4 5.8 0 4.1 5.8 0 4.2 5.8 0 4.3 5.8 0 4.4 5.8 0 4.5 5.8 0 4.6 5.8 0 4.7 5.8 0 4.8 5.8 0 4.9 5.8 0 5 5.8 0 5.1 5.8 0 5.2 5.8 0 5.3 5.8 0 5.4 5.8 0 5.5 5.8 0 5.6 5.8 0 5.7 5.8 0 5.8 5.8 0 5.9 5.8 0 6 5.8 0 6.1 5.8 0 6.2 5.8 0 6.3 5.8 0 6.4 5.8 0 6.5 5.8 0 6.6 5.8 0 6.7 5.8 0 6.8 5.8 0 6.9 5.8 0 7 5.8 0 7.1 5.8 0 7.2 5.8 0 7.3 5.8 0 7.4 5.8 0 7.5 5.8 0 7.6 5.8 0 7.7 5.8 0 7.8 5.8 0 7.9 5.8 0 8 5.8 0 8.1 5.8 0 8.2 5.8 0 8.3 5.8 0 8.4 5.8 0 8.5 5.8 0 8.6 5.8 0 8.7 5.8 0 8.8 5.8 0 8.9 5.8 0 9 5.8 0 9.1 5.8 0 9.2 5.8 0 9.3 5.8 0 9.4 5.8 0 9.5 5.8 0 9.6 5.8 0 9.7 5.8 0 9.8 5.8 0 9.9 5.8 0 10 5.8 0 0 5.9 0 0.1 5.9 0 0.2 5.9 0 0.3 5.9 0 0.4 5.9 0 0.5 5.9 0 0.6 5.9 0 0.7 5.9 0 0.8 5.9 0 0.9 5.9 0 1 5.9 0 1.1 5.9 0 1.2 5.9 0 1.3 5.9 0 1.4 5.9 0 1.5 5.9 0 1.6 5.9 0 1.7 5.9 0 1.8 5.9 0 1.9 5.9 0 2 5.9 0 2.1 5.9 0 2.2 5.9 0 2.3 5.9 0 2.4 5.9 0 2.5 5.9 0 2.6 5.9 0 2.7 5.9 0 2.8 5.9 0 2.9 5.9 0 3 5.9 0 3.1 5.9 0 3.2 5.9 0 3.3 5.9 0 3.4 5.9 0 3.5 5.9 0 3.6 5.9 0 3.7 5.9 0 3.8 5.9 0 3.9 5.9 0 4 5.9 0 4.1 5.9 0 4.2 5.9 0 4.3 5.9 0 4.4 5.9 0 4.5 5.9 0 4.6 5.9 0 4.7 5.9 0 4.8 5.9 0 4.9 5.9 0 5 5.9 0 5.1 5.9 0 5.2 5.9 0 5.3 5.9 0 5.4 5.9 0 5.5 5.9 0 5.6 5.9 0 5.7 5.9 0 5.8 5.9 0 5.9 5.9 0 6 5.9 0 6.1 5.9 0 6.2 5.9 0 6.3 5.9 0 6.4 5.9 0 6.5 5.9 0 6.6 5.9 0 6.7 5.9 0 6.8 5.9 0 6.9 5.9 0 7 5.9 0 7.1 5.9 0 7.2 5.9 0 7.3 5.9 0 7.4 5.9 0 7.5 5.9 0 7.6 5.9 0 7.7 5.9 0 7.8 5.9 0 7.9 5.9 0 8 5.9 0 8.1 5.9 0 8.2 5.9 0 8.3 5.9 0 8.4 5.9 0 8.5 5.9 0 8.6 5.9 0 8.7 5.9 0 8.8 5.9 0 8.9 5.9 0 9 5.9 0 9.1 5.9 0 9.2 5.9 0 9.3 5.9 0 9.4 5.9 0 9.5 5.9 0 9.6 5.9 0 9.7 5.9 0 9.8 5.9 0 9.9 5.9 0 10 5.9 0 0 6 0 0.1 6 0 0.2 6 0 0.3 6 0 0.4 6 0 0.5 6 0 0.6 6 0 0.7 6 0 0.8 6 0 0.9 6 0 1 6 0 1.1 6 0 1.2 6 0 1.3 6 0 1.4 6 0 1.5 6 0 1.6 6 0 1.7 6 0 1.8 6 0 1.9 6 0 2 6 0 2.1 6 0 2.2 6 0 2.3 6 0 2.4 6 0 2.5 6 0 2.6 6 0 2.7 6 0 2.8 6 0 2.9 6 0 3 6 0 3.1 6 0 3.2 6 0 3.3 6 0 3.4 6 0 3.5 6 0 3.6 6 0 3.7 6 0 3.8 6 0 3.9 6 0 4 6 0 4.1 6 0 4.2 6 0 4.3 6 0 4.4 6 0 4.5 6 0 4.6 6 0 4.7 6 0 4.8 6 0 4.9 6 0 5 6 0 5.1 6 0 5.2 6 0 5.3 6 0 5.4 6 0 5.5 6 0 5.6 6 0 5.7 6 0 5.8 6 0 5.9 6 0 6 6 0 6.1 6 0 6.2 6 0 6.3 6 0 6.4 6 0 6.5 6 0 6.6 6 0 6.7 6 0 6.8 6 0 6.9 6 0 7 6 0 7.1 6 0 7.2 6 0 7.3 6 0 7.4 6 0 7.5 6 0 7.6 6 0 7.7 6 0 7.8 6 0 7.9 6 0 8 6 0 8.1 6 0 8.2 6 0 8.3 6 0 8.4 6 0 8.5 6 0 8.6 6 0 8.7 6 0 8.8 6 0 8.9 6 0 9 6 0 9.1 6 0 9.2 6 0 9.3 6 0 9.4 6 0 9.5 6 0 9.6 6 0 9.7 6 0 9.8 6 0 9.9 6 0 10 6 0 0 6.1 0 0.1 6.1 0 0.2 6.1 0 0.3 6.1 0 0.4 6.1 0 0.5 6.1 0 0.6 6.1 0 0.7 6.1 0 0.8 6.1 0 0.9 6.1 0 1 6.1 0 1.1 6.1 0 1.2 6.1 0 1.3 6.1 0 1.4 6.1 0 1.5 6.1 0 1.6 6.1 0 1.7 6.1 0 1.8 6.1 0 1.9 6.1 0 2 6.1 0 2.1 6.1 0 2.2 6.1 0 2.3 6.1 0 2.4 6.1 0 2.5 6.1 0 2.6 6.1 0 2.7 6.1 0 2.8 6.1 0 2.9 6.1 0 3 6.1 0 3.1 6.1 0 3.2 6.1 0 3.3 6.1 0 3.4 6.1 0 3.5 6.1 0 3.6 6.1 0 3.7 6.1 0 3.8 6.1 0 3.9 6.1 0 4 6.1 0 4.1 6.1 0 4.2 6.1 0 4.3 6.1 0 4.4 6.1 0 4.5 6.1 0 4.6 6.1 0 4.7 6.1 0 4.8 6.1 0 4.9 6.1 0 5 6.1 0 5.1 6.1 0 5.2 6.1 0 5.3 6.1 0 5.4 6.1 0 5.5 6.1 0 5.6 6.1 0 5.7 6.1 0 5.8 6.1 0 5.9 6.1 0 6 6.1 0 6.1 6.1 0 6.2 6.1 0 6.3 6.1 0 6.4 6.1 0 6.5 6.1 0 6.6 6.1 0 6.7 6.1 0 6.8 6.1 0 6.9 6.1 0 7 6.1 0 7.1 6.1 0 7.2 6.1 0 7.3 6.1 0 7.4 6.1 0 7.5 6.1 0 7.6 6.1 0 7.7 6.1 0 7.8 6.1 0 7.9 6.1 0 8 6.1 0 8.1 6.1 0 8.2 6.1 0 8.3 6.1 0 8.4 6.1 0 8.5 6.1 0 8.6 6.1 0 8.7 6.1 0 8.8 6.1 0 8.9 6.1 0 9 6.1 0 9.1 6.1 0 9.2 6.1 0 9.3 6.1 0 9.4 6.1 0 9.5 6.1 0 9.6 6.1 0 9.7 6.1 0 9.8 6.1 0 9.9 6.1 0 10 6.1 0 0 6.2 0 0.1 6.2 0 0.2 6.2 0 0.3 6.2 0 0.4 6.2 0 0.5 6.2 0 0.6 6.2 0 0.7 6.2 0 0.8 6.2 0 0.9 6.2 0 1 6.2 0 1.1 6.2 0 1.2 6.2 0 1.3 6.2 0 1.4 6.2 0 1.5 6.2 0 1.6 6.2 0 1.7 6.2 0 1.8 6.2 0 1.9 6.2 0 2 6.2 0 2.1 6.2 0 2.2 6.2 0 2.3 6.2 0 2.4 6.2 0 2.5 6.2 0 2.6 6.2 0 2.7 6.2 0 2.8 6.2 0 2.9 6.2 0 3 6.2 0 3.1 6.2 0 3.2 6.2 0 3.3 6.2 0 3.4 6.2 0 3.5 6.2 0 3.6 6.2 0 3.7 6.2 0 3.8 6.2 0 3.9 6.2 0 4 6.2 0 4.1 6.2 0 4.2 6.2 0 4.3 6.2 0 4.4 6.2 0 4.5 6.2 0 4.6 6.2 0 4.7 6.2 0 4.8 6.2 0 4.9 6.2 0 5 6.2 0 5.1 6.2 0 5.2 6.2 0 5.3 6.2 0 5.4 6.2 0 5.5 6.2 0 5.6 6.2 0 5.7 6.2 0 5.8 6.2 0 5.9 6.2 0 6 6.2 0 6.1 6.2 0 6.2 6.2 0 6.3 6.2 0 6.4 6.2 0 6.5 6.2 0 6.6 6.2 0 6.7 6.2 0 6.8 6.2 0 6.9 6.2 0 7 6.2 0 7.1 6.2 0 7.2 6.2 0 7.3 6.2 0 7.4 6.2 0 7.5 6.2 0 7.6 6.2 0 7.7 6.2 0 7.8 6.2 0 7.9 6.2 0 8 6.2 0 8.1 6.2 0 8.2 6.2 0 8.3 6.2 0 8.4 6.2 0 8.5 6.2 0 8.6 6.2 0 8.7 6.2 0 8.8 6.2 0 8.9 6.2 0 9 6.2 0 9.1 6.2 0 9.2 6.2 0 9.3 6.2 0 9.4 6.2 0 9.5 6.2 0 9.6 6.2 0 9.7 6.2 0 9.8 6.2 0 9.9 6.2 0 10 6.2 0 0 6.3 0 0.1 6.3 0 0.2 6.3 0 0.3 6.3 0 0.4 6.3 0 0.5 6.3 0 0.6 6.3 0 0.7 6.3 0 0.8 6.3 0 0.9 6.3 0 1 6.3 0 1.1 6.3 0 1.2 6.3 0 1.3 6.3 0 1.4 6.3 0 1.5 6.3 0 1.6 6.3 0 1.7 6.3 0 1.8 6.3 0 1.9 6.3 0 2 6.3 0 2.1 6.3 0 2.2 6.3 0 2.3 6.3 0 2.4 6.3 0 2.5 6.3 0 2.6 6.3 0 2.7 6.3 0 2.8 6.3 0 2.9 6.3 0 3 6.3 0 3.1 6.3 0 3.2 6.3 0 3.3 6.3 0 3.4 6.3 0 3.5 6.3 0 3.6 6.3 0 3.7 6.3 0 3.8 6.3 0 3.9 6.3 0 4 6.3 0 4.1 6.3 0 4.2 6.3 0 4.3 6.3 0 4.4 6.3 0 4.5 6.3 0 4.6 6.3 0 4.7 6.3 0 4.8 6.3 0 4.9 6.3 0 5 6.3 0 5.1 6.3 0 5.2 6.3 0 5.3 6.3 0 5.4 6.3 0 5.5 6.3 0 5.6 6.3 0 5.7 6.3 0 5.8 6.3 0 5.9 6.3 0 6 6.3 0 6.1 6.3 0 6.2 6.3 0 6.3 6.3 0 6.4 6.3 0 6.5 6.3 0 6.6 6.3 0 6.7 6.3 0 6.8 6.3 0 6.9 6.3 0 7 6.3 0 7.1 6.3 0 7.2 6.3 0 7.3 6.3 0 7.4 6.3 0 7.5 6.3 0 7.6 6.3 0 7.7 6.3 0 7.8 6.3 0 7.9 6.3 0 8 6.3 0 8.1 6.3 0 8.2 6.3 0 8.3 6.3 0 8.4 6.3 0 8.5 6.3 0 8.6 6.3 0 8.7 6.3 0 8.8 6.3 0 8.9 6.3 0 9 6.3 0 9.1 6.3 0 9.2 6.3 0 9.3 6.3 0 9.4 6.3 0 9.5 6.3 0 9.6 6.3 0 9.7 6.3 0 9.8 6.3 0 9.9 6.3 0 10 6.3 0 0 6.4 0 0.1 6.4 0 0.2 6.4 0 0.3 6.4 0 0.4 6.4 0 0.5 6.4 0 0.6 6.4 0 0.7 6.4 0 0.8 6.4 0 0.9 6.4 0 1 6.4 0 1.1 6.4 0 1.2 6.4 0 1.3 6.4 0 1.4 6.4 0 1.5 6.4 0 1.6 6.4 0 1.7 6.4 0 1.8 6.4 0 1.9 6.4 0 2 6.4 0 2.1 6.4 0 2.2 6.4 0 2.3 6.4 0 2.4 6.4 0 2.5 6.4 0 2.6 6.4 0 2.7 6.4 0 2.8 6.4 0 2.9 6.4 0 3 6.4 0 3.1 6.4 0 3.2 6.4 0 3.3 6.4 0 3.4 6.4 0 3.5 6.4 0 3.6 6.4 0 3.7 6.4 0 3.8 6.4 0 3.9 6.4 0 4 6.4 0 4.1 6.4 0 4.2 6.4 0 4.3 6.4 0 4.4 6.4 0 4.5 6.4 0 4.6 6.4 0 4.7 6.4 0 4.8 6.4 0 4.9 6.4 0 5 6.4 0 5.1 6.4 0 5.2 6.4 0 5.3 6.4 0 5.4 6.4 0 5.5 6.4 0 5.6 6.4 0 5.7 6.4 0 5.8 6.4 0 5.9 6.4 0 6 6.4 0 6.1 6.4 0 6.2 6.4 0 6.3 6.4 0 6.4 6.4 0 6.5 6.4 0 6.6 6.4 0 6.7 6.4 0 6.8 6.4 0 6.9 6.4 0 7 6.4 0 7.1 6.4 0 7.2 6.4 0 7.3 6.4 0 7.4 6.4 0 7.5 6.4 0 7.6 6.4 0 7.7 6.4 0 7.8 6.4 0 7.9 6.4 0 8 6.4 0 8.1 6.4 0 8.2 6.4 0 8.3 6.4 0 8.4 6.4 0 8.5 6.4 0 8.6 6.4 0 8.7 6.4 0 8.8 6.4 0 8.9 6.4 0 9 6.4 0 9.1 6.4 0 9.2 6.4 0 9.3 6.4 0 9.4 6.4 0 9.5 6.4 0 9.6 6.4 0 9.7 6.4 0 9.8 6.4 0 9.9 6.4 0 10 6.4 0 0 6.5 0 0.1 6.5 0 0.2 6.5 0 0.3 6.5 0 0.4 6.5 0 0.5 6.5 0 0.6 6.5 0 0.7 6.5 0 0.8 6.5 0 0.9 6.5 0 1 6.5 0 1.1 6.5 0 1.2 6.5 0 1.3 6.5 0 1.4 6.5 0 1.5 6.5 0 1.6 6.5 0 1.7 6.5 0 1.8 6.5 0 1.9 6.5 0 2 6.5 0 2.1 6.5 0 2.2 6.5 0 2.3 6.5 0 2.4 6.5 0 2.5 6.5 0 2.6 6.5 0 2.7 6.5 0 2.8 6.5 0 2.9 6.5 0 3 6.5 0 3.1 6.5 0 3.2 6.5 0 3.3 6.5 0 3.4 6.5 0 3.5 6.5 0 3.6 6.5 0 3.7 6.5 0 3.8 6.5 0 3.9 6.5 0 4 6.5 0 4.1 6.5 0 4.2 6.5 0 4.3 6.5 0 4.4 6.5 0 4.5 6.5 0 4.6 6.5 0 4.7 6.5 0 4.8 6.5 0 4.9 6.5 0 5 6.5 0 5.1 6.5 0 5.2 6.5 0 5.3 6.5 0 5.4 6.5 0 5.5 6.5 0 5.6 6.5 0 5.7 6.5 0 5.8 6.5 0 5.9 6.5 0 6 6.5 0 6.1 6.5 0 6.2 6.5 0 6.3 6.5 0 6.4 6.5 0 6.5 6.5 0 6.6 6.5 0 6.7 6.5 0 6.8 6.5 0 6.9 6.5 0 7 6.5 0 7.1 6.5 0 7.2 6.5 0 7.3 6.5 0 7.4 6.5 0 7.5 6.5 0 7.6 6.5 0 7.7 6.5 0 7.8 6.5 0 7.9 6.5 0 8 6.5 0 8.1 6.5 0 8.2 6.5 0 8.3 6.5 0 8.4 6.5 0 8.5 6.5 0 8.6 6.5 0 8.7 6.5 0 8.8 6.5 0 8.9 6.5 0 9 6.5 0 9.1 6.5 0 9.2 6.5 0 9.3 6.5 0 9.4 6.5 0 9.5 6.5 0 9.6 6.5 0 9.7 6.5 0 9.8 6.5 0 9.9 6.5 0 10 6.5 0 0 6.6 0 0.1 6.6 0 0.2 6.6 0 0.3 6.6 0 0.4 6.6 0 0.5 6.6 0 0.6 6.6 0 0.7 6.6 0 0.8 6.6 0 0.9 6.6 0 1 6.6 0 1.1 6.6 0 1.2 6.6 0 1.3 6.6 0 1.4 6.6 0 1.5 6.6 0 1.6 6.6 0 1.7 6.6 0 1.8 6.6 0 1.9 6.6 0 2 6.6 0 2.1 6.6 0 2.2 6.6 0 2.3 6.6 0 2.4 6.6 0 2.5 6.6 0 2.6 6.6 0 2.7 6.6 0 2.8 6.6 0 2.9 6.6 0 3 6.6 0 3.1 6.6 0 3.2 6.6 0 3.3 6.6 0 3.4 6.6 0 3.5 6.6 0 3.6 6.6 0 3.7 6.6 0 3.8 6.6 0 3.9 6.6 0 4 6.6 0 4.1 6.6 0 4.2 6.6 0 4.3 6.6 0 4.4 6.6 0 4.5 6.6 0 4.6 6.6 0 4.7 6.6 0 4.8 6.6 0 4.9 6.6 0 5 6.6 0 5.1 6.6 0 5.2 6.6 0 5.3 6.6 0 5.4 6.6 0 5.5 6.6 0 5.6 6.6 0 5.7 6.6 0 5.8 6.6 0 5.9 6.6 0 6 6.6 0 6.1 6.6 0 6.2 6.6 0 6.3 6.6 0 6.4 6.6 0 6.5 6.6 0 6.6 6.6 0 6.7 6.6 0 6.8 6.6 0 6.9 6.6 0 7 6.6 0 7.1 6.6 0 7.2 6.6 0 7.3 6.6 0 7.4 6.6 0 7.5 6.6 0 7.6 6.6 0 7.7 6.6 0 7.8 6.6 0 7.9 6.6 0 8 6.6 0 8.1 6.6 0 8.2 6.6 0 8.3 6.6 0 8.4 6.6 0 8.5 6.6 0 8.6 6.6 0 8.7 6.6 0 8.8 6.6 0 8.9 6.6 0 9 6.6 0 9.1 6.6 0 9.2 6.6 0 9.3 6.6 0 9.4 6.6 0 9.5 6.6 0 9.6 6.6 0 9.7 6.6 0 9.8 6.6 0 9.9 6.6 0 10 6.6 0 0 6.7 0 0.1 6.7 0 0.2 6.7 0 0.3 6.7 0 0.4 6.7 0 0.5 6.7 0 0.6 6.7 0 0.7 6.7 0 0.8 6.7 0 0.9 6.7 0 1 6.7 0 1.1 6.7 0 1.2 6.7 0 1.3 6.7 0 1.4 6.7 0 1.5 6.7 0 1.6 6.7 0 1.7 6.7 0 1.8 6.7 0 1.9 6.7 0 2 6.7 0 2.1 6.7 0 2.2 6.7 0 2.3 6.7 0 2.4 6.7 0 2.5 6.7 0 2.6 6.7 0 2.7 6.7 0 2.8 6.7 0 2.9 6.7 0 3 6.7 0 3.1 6.7 0 3.2 6.7 0 3.3 6.7 0 3.4 6.7 0 3.5 6.7 0 3.6 6.7 0 3.7 6.7 0 3.8 6.7 0 3.9 6.7 0 4 6.7 0 4.1 6.7 0 4.2 6.7 0 4.3 6.7 0 4.4 6.7 0 4.5 6.7 0 4.6 6.7 0 4.7 6.7 0 4.8 6.7 0 4.9 6.7 0 5 6.7 0 5.1 6.7 0 5.2 6.7 0 5.3 6.7 0 5.4 6.7 0 5.5 6.7 0 5.6 6.7 0 5.7 6.7 0 5.8 6.7 0 5.9 6.7 0 6 6.7 0 6.1 6.7 0 6.2 6.7 0 6.3 6.7 0 6.4 6.7 0 6.5 6.7 0 6.6 6.7 0 6.7 6.7 0 6.8 6.7 0 6.9 6.7 0 7 6.7 0 7.1 6.7 0 7.2 6.7 0 7.3 6.7 0 7.4 6.7 0 7.5 6.7 0 7.6 6.7 0 7.7 6.7 0 7.8 6.7 0 7.9 6.7 0 8 6.7 0 8.1 6.7 0 8.2 6.7 0 8.3 6.7 0 8.4 6.7 0 8.5 6.7 0 8.6 6.7 0 8.7 6.7 0 8.8 6.7 0 8.9 6.7 0 9 6.7 0 9.1 6.7 0 9.2 6.7 0 9.3 6.7 0 9.4 6.7 0 9.5 6.7 0 9.6 6.7 0 9.7 6.7 0 9.8 6.7 0 9.9 6.7 0 10 6.7 0 0 6.8 0 0.1 6.8 0 0.2 6.8 0 0.3 6.8 0 0.4 6.8 0 0.5 6.8 0 0.6 6.8 0 0.7 6.8 0 0.8 6.8 0 0.9 6.8 0 1 6.8 0 1.1 6.8 0 1.2 6.8 0 1.3 6.8 0 1.4 6.8 0 1.5 6.8 0 1.6 6.8 0 1.7 6.8 0 1.8 6.8 0 1.9 6.8 0 2 6.8 0 2.1 6.8 0 2.2 6.8 0 2.3 6.8 0 2.4 6.8 0 2.5 6.8 0 2.6 6.8 0 2.7 6.8 0 2.8 6.8 0 2.9 6.8 0 3 6.8 0 3.1 6.8 0 3.2 6.8 0 3.3 6.8 0 3.4 6.8 0 3.5 6.8 0 3.6 6.8 0 3.7 6.8 0 3.8 6.8 0 3.9 6.8 0 4 6.8 0 4.1 6.8 0 4.2 6.8 0 4.3 6.8 0 4.4 6.8 0 4.5 6.8 0 4.6 6.8 0 4.7 6.8 0 4.8 6.8 0 4.9 6.8 0 5 6.8 0 5.1 6.8 0 5.2 6.8 0 5.3 6.8 0 5.4 6.8 0 5.5 6.8 0 5.6 6.8 0 5.7 6.8 0 5.8 6.8 0 5.9 6.8 0 6 6.8 0 6.1 6.8 0 6.2 6.8 0 6.3 6.8 0 6.4 6.8 0 6.5 6.8 0 6.6 6.8 0 6.7 6.8 0 6.8 6.8 0 6.9 6.8 0 7 6.8 0 7.1 6.8 0 7.2 6.8 0 7.3 6.8 0 7.4 6.8 0 7.5 6.8 0 7.6 6.8 0 7.7 6.8 0 7.8 6.8 0 7.9 6.8 0 8 6.8 0 8.1 6.8 0 8.2 6.8 0 8.3 6.8 0 8.4 6.8 0 8.5 6.8 0 8.6 6.8 0 8.7 6.8 0 8.8 6.8 0 8.9 6.8 0 9 6.8 0 9.1 6.8 0 9.2 6.8 0 9.3 6.8 0 9.4 6.8 0 9.5 6.8 0 9.6 6.8 0 9.7 6.8 0 9.8 6.8 0 9.9 6.8 0 10 6.8 0 0 6.9 0 0.1 6.9 0 0.2 6.9 0 0.3 6.9 0 0.4 6.9 0 0.5 6.9 0 0.6 6.9 0 0.7 6.9 0 0.8 6.9 0 0.9 6.9 0 1 6.9 0 1.1 6.9 0 1.2 6.9 0 1.3 6.9 0 1.4 6.9 0 1.5 6.9 0 1.6 6.9 0 1.7 6.9 0 1.8 6.9 0 1.9 6.9 0 2 6.9 0 2.1 6.9 0 2.2 6.9 0 2.3 6.9 0 2.4 6.9 0 2.5 6.9 0 2.6 6.9 0 2.7 6.9 0 2.8 6.9 0 2.9 6.9 0 3 6.9 0 3.1 6.9 0 3.2 6.9 0 3.3 6.9 0 3.4 6.9 0 3.5 6.9 0 3.6 6.9 0 3.7 6.9 0 3.8 6.9 0 3.9 6.9 0 4 6.9 0 4.1 6.9 0 4.2 6.9 0 4.3 6.9 0 4.4 6.9 0 4.5 6.9 0 4.6 6.9 0 4.7 6.9 0 4.8 6.9 0 4.9 6.9 0 5 6.9 0 5.1 6.9 0 5.2 6.9 0 5.3 6.9 0 5.4 6.9 0 5.5 6.9 0 5.6 6.9 0 5.7 6.9 0 5.8 6.9 0 5.9 6.9 0 6 6.9 0 6.1 6.9 0 6.2 6.9 0 6.3 6.9 0 6.4 6.9 0 6.5 6.9 0 6.6 6.9 0 6.7 6.9 0 6.8 6.9 0 6.9 6.9 0 7 6.9 0 7.1 6.9 0 7.2 6.9 0 7.3 6.9 0 7.4 6.9 0 7.5 6.9 0 7.6 6.9 0 7.7 6.9 0 7.8 6.9 0 7.9 6.9 0 8 6.9 0 8.1 6.9 0 8.2 6.9 0 8.3 6.9 0 8.4 6.9 0 8.5 6.9 0 8.6 6.9 0 8.7 6.9 0 8.8 6.9 0 8.9 6.9 0 9 6.9 0 9.1 6.9 0 9.2 6.9 0 9.3 6.9 0 9.4 6.9 0 9.5 6.9 0 9.6 6.9 0 9.7 6.9 0 9.8 6.9 0 9.9 6.9 0 10 6.9 0 0 7 0 0.1 7 0 0.2 7 0 0.3 7 0 0.4 7 0 0.5 7 0 0.6 7 0 0.7 7 0 0.8 7 0 0.9 7 0 1 7 0 1.1 7 0 1.2 7 0 1.3 7 0 1.4 7 0 1.5 7 0 1.6 7 0 1.7 7 0 1.8 7 0 1.9 7 0 2 7 0 2.1 7 0 2.2 7 0 2.3 7 0 2.4 7 0 2.5 7 0 2.6 7 0 2.7 7 0 2.8 7 0 2.9 7 0 3 7 0 3.1 7 0 3.2 7 0 3.3 7 0 3.4 7 0 3.5 7 0 3.6 7 0 3.7 7 0 3.8 7 0 3.9 7 0 4 7 0 4.1 7 0 4.2 7 0 4.3 7 0 4.4 7 0 4.5 7 0 4.6 7 0 4.7 7 0 4.8 7 0 4.9 7 0 5 7 0 5.1 7 0 5.2 7 0 5.3 7 0 5.4 7 0 5.5 7 0 5.6 7 0 5.7 7 0 5.8 7 0 5.9 7 0 6 7 0 6.1 7 0 6.2 7 0 6.3 7 0 6.4 7 0 6.5 7 0 6.6 7 0 6.7 7 0 6.8 7 0 6.9 7 0 7 7 0 7.1 7 0 7.2 7 0 7.3 7 0 7.4 7 0 7.5 7 0 7.6 7 0 7.7 7 0 7.8 7 0 7.9 7 0 8 7 0 8.1 7 0 8.2 7 0 8.3 7 0 8.4 7 0 8.5 7 0 8.6 7 0 8.7 7 0 8.8 7 0 8.9 7 0 9 7 0 9.1 7 0 9.2 7 0 9.3 7 0 9.4 7 0 9.5 7 0 9.6 7 0 9.7 7 0 9.8 7 0 9.9 7 0 10 7 0 0 7.1 0 0.1 7.1 0 0.2 7.1 0 0.3 7.1 0 0.4 7.1 0 0.5 7.1 0 0.6 7.1 0 0.7 7.1 0 0.8 7.1 0 0.9 7.1 0 1 7.1 0 1.1 7.1 0 1.2 7.1 0 1.3 7.1 0 1.4 7.1 0 1.5 7.1 0 1.6 7.1 0 1.7 7.1 0 1.8 7.1 0 1.9 7.1 0 2 7.1 0 2.1 7.1 0 2.2 7.1 0 2.3 7.1 0 2.4 7.1 0 2.5 7.1 0 2.6 7.1 0 2.7 7.1 0 2.8 7.1 0 2.9 7.1 0 3 7.1 0 3.1 7.1 0 3.2 7.1 0 3.3 7.1 0 3.4 7.1 0 3.5 7.1 0 3.6 7.1 0 3.7 7.1 0 3.8 7.1 0 3.9 7.1 0 4 7.1 0 4.1 7.1 0 4.2 7.1 0 4.3 7.1 0 4.4 7.1 0 4.5 7.1 0 4.6 7.1 0 4.7 7.1 0 4.8 7.1 0 4.9 7.1 0 5 7.1 0 5.1 7.1 0 5.2 7.1 0 5.3 7.1 0 5.4 7.1 0 5.5 7.1 0 5.6 7.1 0 5.7 7.1 0 5.8 7.1 0 5.9 7.1 0 6 7.1 0 6.1 7.1 0 6.2 7.1 0 6.3 7.1 0 6.4 7.1 0 6.5 7.1 0 6.6 7.1 0 6.7 7.1 0 6.8 7.1 0 6.9 7.1 0 7 7.1 0 7.1 7.1 0 7.2 7.1 0 7.3 7.1 0 7.4 7.1 0 7.5 7.1 0 7.6 7.1 0 7.7 7.1 0 7.8 7.1 0 7.9 7.1 0 8 7.1 0 8.1 7.1 0 8.2 7.1 0 8.3 7.1 0 8.4 7.1 0 8.5 7.1 0 8.6 7.1 0 8.7 7.1 0 8.8 7.1 0 8.9 7.1 0 9 7.1 0 9.1 7.1 0 9.2 7.1 0 9.3 7.1 0 9.4 7.1 0 9.5 7.1 0 9.6 7.1 0 9.7 7.1 0 9.8 7.1 0 9.9 7.1 0 10 7.1 0 0 7.2 0 0.1 7.2 0 0.2 7.2 0 0.3 7.2 0 0.4 7.2 0 0.5 7.2 0 0.6 7.2 0 0.7 7.2 0 0.8 7.2 0 0.9 7.2 0 1 7.2 0 1.1 7.2 0 1.2 7.2 0 1.3 7.2 0 1.4 7.2 0 1.5 7.2 0 1.6 7.2 0 1.7 7.2 0 1.8 7.2 0 1.9 7.2 0 2 7.2 0 2.1 7.2 0 2.2 7.2 0 2.3 7.2 0 2.4 7.2 0 2.5 7.2 0 2.6 7.2 0 2.7 7.2 0 2.8 7.2 0 2.9 7.2 0 3 7.2 0 3.1 7.2 0 3.2 7.2 0 3.3 7.2 0 3.4 7.2 0 3.5 7.2 0 3.6 7.2 0 3.7 7.2 0 3.8 7.2 0 3.9 7.2 0 4 7.2 0 4.1 7.2 0 4.2 7.2 0 4.3 7.2 0 4.4 7.2 0 4.5 7.2 0 4.6 7.2 0 4.7 7.2 0 4.8 7.2 0 4.9 7.2 0 5 7.2 0 5.1 7.2 0 5.2 7.2 0 5.3 7.2 0 5.4 7.2 0 5.5 7.2 0 5.6 7.2 0 5.7 7.2 0 5.8 7.2 0 5.9 7.2 0 6 7.2 0 6.1 7.2 0 6.2 7.2 0 6.3 7.2 0 6.4 7.2 0 6.5 7.2 0 6.6 7.2 0 6.7 7.2 0 6.8 7.2 0 6.9 7.2 0 7 7.2 0 7.1 7.2 0 7.2 7.2 0 7.3 7.2 0 7.4 7.2 0 7.5 7.2 0 7.6 7.2 0 7.7 7.2 0 7.8 7.2 0 7.9 7.2 0 8 7.2 0 8.1 7.2 0 8.2 7.2 0 8.3 7.2 0 8.4 7.2 0 8.5 7.2 0 8.6 7.2 0 8.7 7.2 0 8.8 7.2 0 8.9 7.2 0 9 7.2 0 9.1 7.2 0 9.2 7.2 0 9.3 7.2 0 9.4 7.2 0 9.5 7.2 0 9.6 7.2 0 9.7 7.2 0 9.8 7.2 0 9.9 7.2 0 10 7.2 0 0 7.3 0 0.1 7.3 0 0.2 7.3 0 0.3 7.3 0 0.4 7.3 0 0.5 7.3 0 0.6 7.3 0 0.7 7.3 0 0.8 7.3 0 0.9 7.3 0 1 7.3 0 1.1 7.3 0 1.2 7.3 0 1.3 7.3 0 1.4 7.3 0 1.5 7.3 0 1.6 7.3 0 1.7 7.3 0 1.8 7.3 0 1.9 7.3 0 2 7.3 0 2.1 7.3 0 2.2 7.3 0 2.3 7.3 0 2.4 7.3 0 2.5 7.3 0 2.6 7.3 0 2.7 7.3 0 2.8 7.3 0 2.9 7.3 0 3 7.3 0 3.1 7.3 0 3.2 7.3 0 3.3 7.3 0 3.4 7.3 0 3.5 7.3 0 3.6 7.3 0 3.7 7.3 0 3.8 7.3 0 3.9 7.3 0 4 7.3 0 4.1 7.3 0 4.2 7.3 0 4.3 7.3 0 4.4 7.3 0 4.5 7.3 0 4.6 7.3 0 4.7 7.3 0 4.8 7.3 0 4.9 7.3 0 5 7.3 0 5.1 7.3 0 5.2 7.3 0 5.3 7.3 0 5.4 7.3 0 5.5 7.3 0 5.6 7.3 0 5.7 7.3 0 5.8 7.3 0 5.9 7.3 0 6 7.3 0 6.1 7.3 0 6.2 7.3 0 6.3 7.3 0 6.4 7.3 0 6.5 7.3 0 6.6 7.3 0 6.7 7.3 0 6.8 7.3 0 6.9 7.3 0 7 7.3 0 7.1 7.3 0 7.2 7.3 0 7.3 7.3 0 7.4 7.3 0 7.5 7.3 0 7.6 7.3 0 7.7 7.3 0 7.8 7.3 0 7.9 7.3 0 8 7.3 0 8.1 7.3 0 8.2 7.3 0 8.3 7.3 0 8.4 7.3 0 8.5 7.3 0 8.6 7.3 0 8.7 7.3 0 8.8 7.3 0 8.9 7.3 0 9 7.3 0 9.1 7.3 0 9.2 7.3 0 9.3 7.3 0 9.4 7.3 0 9.5 7.3 0 9.6 7.3 0 9.7 7.3 0 9.8 7.3 0 9.9 7.3 0 10 7.3 0 0 7.4 0 0.1 7.4 0 0.2 7.4 0 0.3 7.4 0 0.4 7.4 0 0.5 7.4 0 0.6 7.4 0 0.7 7.4 0 0.8 7.4 0 0.9 7.4 0 1 7.4 0 1.1 7.4 0 1.2 7.4 0 1.3 7.4 0 1.4 7.4 0 1.5 7.4 0 1.6 7.4 0 1.7 7.4 0 1.8 7.4 0 1.9 7.4 0 2 7.4 0 2.1 7.4 0 2.2 7.4 0 2.3 7.4 0 2.4 7.4 0 2.5 7.4 0 2.6 7.4 0 2.7 7.4 0 2.8 7.4 0 2.9 7.4 0 3 7.4 0 3.1 7.4 0 3.2 7.4 0 3.3 7.4 0 3.4 7.4 0 3.5 7.4 0 3.6 7.4 0 3.7 7.4 0 3.8 7.4 0 3.9 7.4 0 4 7.4 0 4.1 7.4 0 4.2 7.4 0 4.3 7.4 0 4.4 7.4 0 4.5 7.4 0 4.6 7.4 0 4.7 7.4 0 4.8 7.4 0 4.9 7.4 0 5 7.4 0 5.1 7.4 0 5.2 7.4 0 5.3 7.4 0 5.4 7.4 0 5.5 7.4 0 5.6 7.4 0 5.7 7.4 0 5.8 7.4 0 5.9 7.4 0 6 7.4 0 6.1 7.4 0 6.2 7.4 0 6.3 7.4 0 6.4 7.4 0 6.5 7.4 0 6.6 7.4 0 6.7 7.4 0 6.8 7.4 0 6.9 7.4 0 7 7.4 0 7.1 7.4 0 7.2 7.4 0 7.3 7.4 0 7.4 7.4 0 7.5 7.4 0 7.6 7.4 0 7.7 7.4 0 7.8 7.4 0 7.9 7.4 0 8 7.4 0 8.1 7.4 0 8.2 7.4 0 8.3 7.4 0 8.4 7.4 0 8.5 7.4 0 8.6 7.4 0 8.7 7.4 0 8.8 7.4 0 8.9 7.4 0 9 7.4 0 9.1 7.4 0 9.2 7.4 0 9.3 7.4 0 9.4 7.4 0 9.5 7.4 0 9.6 7.4 0 9.7 7.4 0 9.8 7.4 0 9.9 7.4 0 10 7.4 0 0 7.5 0 0.1 7.5 0 0.2 7.5 0 0.3 7.5 0 0.4 7.5 0 0.5 7.5 0 0.6 7.5 0 0.7 7.5 0 0.8 7.5 0 0.9 7.5 0 1 7.5 0 1.1 7.5 0 1.2 7.5 0 1.3 7.5 0 1.4 7.5 0 1.5 7.5 0 1.6 7.5 0 1.7 7.5 0 1.8 7.5 0 1.9 7.5 0 2 7.5 0 2.1 7.5 0 2.2 7.5 0 2.3 7.5 0 2.4 7.5 0 2.5 7.5 0 2.6 7.5 0 2.7 7.5 0 2.8 7.5 0 2.9 7.5 0 3 7.5 0 3.1 7.5 0 3.2 7.5 0 3.3 7.5 0 3.4 7.5 0 3.5 7.5 0 3.6 7.5 0 3.7 7.5 0 3.8 7.5 0 3.9 7.5 0 4 7.5 0 4.1 7.5 0 4.2 7.5 0 4.3 7.5 0 4.4 7.5 0 4.5 7.5 0 4.6 7.5 0 4.7 7.5 0 4.8 7.5 0 4.9 7.5 0 5 7.5 0 5.1 7.5 0 5.2 7.5 0 5.3 7.5 0 5.4 7.5 0 5.5 7.5 0 5.6 7.5 0 5.7 7.5 0 5.8 7.5 0 5.9 7.5 0 6 7.5 0 6.1 7.5 0 6.2 7.5 0 6.3 7.5 0 6.4 7.5 0 6.5 7.5 0 6.6 7.5 0 6.7 7.5 0 6.8 7.5 0 6.9 7.5 0 7 7.5 0 7.1 7.5 0 7.2 7.5 0 7.3 7.5 0 7.4 7.5 0 7.5 7.5 0 7.6 7.5 0 7.7 7.5 0 7.8 7.5 0 7.9 7.5 0 8 7.5 0 8.1 7.5 0 8.2 7.5 0 8.3 7.5 0 8.4 7.5 0 8.5 7.5 0 8.6 7.5 0 8.7 7.5 0 8.8 7.5 0 8.9 7.5 0 9 7.5 0 9.1 7.5 0 9.2 7.5 0 9.3 7.5 0 9.4 7.5 0 9.5 7.5 0 9.6 7.5 0 9.7 7.5 0 9.8 7.5 0 9.9 7.5 0 10 7.5 0 0 7.6 0 0.1 7.6 0 0.2 7.6 0 0.3 7.6 0 0.4 7.6 0 0.5 7.6 0 0.6 7.6 0 0.7 7.6 0 0.8 7.6 0 0.9 7.6 0 1 7.6 0 1.1 7.6 0 1.2 7.6 0 1.3 7.6 0 1.4 7.6 0 1.5 7.6 0 1.6 7.6 0 1.7 7.6 0 1.8 7.6 0 1.9 7.6 0 2 7.6 0 2.1 7.6 0 2.2 7.6 0 2.3 7.6 0 2.4 7.6 0 2.5 7.6 0 2.6 7.6 0 2.7 7.6 0 2.8 7.6 0 2.9 7.6 0 3 7.6 0 3.1 7.6 0 3.2 7.6 0 3.3 7.6 0 3.4 7.6 0 3.5 7.6 0 3.6 7.6 0 3.7 7.6 0 3.8 7.6 0 3.9 7.6 0 4 7.6 0 4.1 7.6 0 4.2 7.6 0 4.3 7.6 0 4.4 7.6 0 4.5 7.6 0 4.6 7.6 0 4.7 7.6 0 4.8 7.6 0 4.9 7.6 0 5 7.6 0 5.1 7.6 0 5.2 7.6 0 5.3 7.6 0 5.4 7.6 0 5.5 7.6 0 5.6 7.6 0 5.7 7.6 0 5.8 7.6 0 5.9 7.6 0 6 7.6 0 6.1 7.6 0 6.2 7.6 0 6.3 7.6 0 6.4 7.6 0 6.5 7.6 0 6.6 7.6 0 6.7 7.6 0 6.8 7.6 0 6.9 7.6 0 7 7.6 0 7.1 7.6 0 7.2 7.6 0 7.3 7.6 0 7.4 7.6 0 7.5 7.6 0 7.6 7.6 0 7.7 7.6 0 7.8 7.6 0 7.9 7.6 0 8 7.6 0 8.1 7.6 0 8.2 7.6 0 8.3 7.6 0 8.4 7.6 0 8.5 7.6 0 8.6 7.6 0 8.7 7.6 0 8.8 7.6 0 8.9 7.6 0 9 7.6 0 9.1 7.6 0 9.2 7.6 0 9.3 7.6 0 9.4 7.6 0 9.5 7.6 0 9.6 7.6 0 9.7 7.6 0 9.8 7.6 0 9.9 7.6 0 10 7.6 0 0 7.7 0 0.1 7.7 0 0.2 7.7 0 0.3 7.7 0 0.4 7.7 0 0.5 7.7 0 0.6 7.7 0 0.7 7.7 0 0.8 7.7 0 0.9 7.7 0 1 7.7 0 1.1 7.7 0 1.2 7.7 0 1.3 7.7 0 1.4 7.7 0 1.5 7.7 0 1.6 7.7 0 1.7 7.7 0 1.8 7.7 0 1.9 7.7 0 2 7.7 0 2.1 7.7 0 2.2 7.7 0 2.3 7.7 0 2.4 7.7 0 2.5 7.7 0 2.6 7.7 0 2.7 7.7 0 2.8 7.7 0 2.9 7.7 0 3 7.7 0 3.1 7.7 0 3.2 7.7 0 3.3 7.7 0 3.4 7.7 0 3.5 7.7 0 3.6 7.7 0 3.7 7.7 0 3.8 7.7 0 3.9 7.7 0 4 7.7 0 4.1 7.7 0 4.2 7.7 0 4.3 7.7 0 4.4 7.7 0 4.5 7.7 0 4.6 7.7 0 4.7 7.7 0 4.8 7.7 0 4.9 7.7 0 5 7.7 0 5.1 7.7 0 5.2 7.7 0 5.3 7.7 0 5.4 7.7 0 5.5 7.7 0 5.6 7.7 0 5.7 7.7 0 5.8 7.7 0 5.9 7.7 0 6 7.7 0 6.1 7.7 0 6.2 7.7 0 6.3 7.7 0 6.4 7.7 0 6.5 7.7 0 6.6 7.7 0 6.7 7.7 0 6.8 7.7 0 6.9 7.7 0 7 7.7 0 7.1 7.7 0 7.2 7.7 0 7.3 7.7 0 7.4 7.7 0 7.5 7.7 0 7.6 7.7 0 7.7 7.7 0 7.8 7.7 0 7.9 7.7 0 8 7.7 0 8.1 7.7 0 8.2 7.7 0 8.3 7.7 0 8.4 7.7 0 8.5 7.7 0 8.6 7.7 0 8.7 7.7 0 8.8 7.7 0 8.9 7.7 0 9 7.7 0 9.1 7.7 0 9.2 7.7 0 9.3 7.7 0 9.4 7.7 0 9.5 7.7 0 9.6 7.7 0 9.7 7.7 0 9.8 7.7 0 9.9 7.7 0 10 7.7 0 0 7.8 0 0.1 7.8 0 0.2 7.8 0 0.3 7.8 0 0.4 7.8 0 0.5 7.8 0 0.6 7.8 0 0.7 7.8 0 0.8 7.8 0 0.9 7.8 0 1 7.8 0 1.1 7.8 0 1.2 7.8 0 1.3 7.8 0 1.4 7.8 0 1.5 7.8 0 1.6 7.8 0 1.7 7.8 0 1.8 7.8 0 1.9 7.8 0 2 7.8 0 2.1 7.8 0 2.2 7.8 0 2.3 7.8 0 2.4 7.8 0 2.5 7.8 0 2.6 7.8 0 2.7 7.8 0 2.8 7.8 0 2.9 7.8 0 3 7.8 0 3.1 7.8 0 3.2 7.8 0 3.3 7.8 0 3.4 7.8 0 3.5 7.8 0 3.6 7.8 0 3.7 7.8 0 3.8 7.8 0 3.9 7.8 0 4 7.8 0 4.1 7.8 0 4.2 7.8 0 4.3 7.8 0 4.4 7.8 0 4.5 7.8 0 4.6 7.8 0 4.7 7.8 0 4.8 7.8 0 4.9 7.8 0 5 7.8 0 5.1 7.8 0 5.2 7.8 0 5.3 7.8 0 5.4 7.8 0 5.5 7.8 0 5.6 7.8 0 5.7 7.8 0 5.8 7.8 0 5.9 7.8 0 6 7.8 0 6.1 7.8 0 6.2 7.8 0 6.3 7.8 0 6.4 7.8 0 6.5 7.8 0 6.6 7.8 0 6.7 7.8 0 6.8 7.8 0 6.9 7.8 0 7 7.8 0 7.1 7.8 0 7.2 7.8 0 7.3 7.8 0 7.4 7.8 0 7.5 7.8 0 7.6 7.8 0 7.7 7.8 0 7.8 7.8 0 7.9 7.8 0 8 7.8 0 8.1 7.8 0 8.2 7.8 0 8.3 7.8 0 8.4 7.8 0 8.5 7.8 0 8.6 7.8 0 8.7 7.8 0 8.8 7.8 0 8.9 7.8 0 9 7.8 0 9.1 7.8 0 9.2 7.8 0 9.3 7.8 0 9.4 7.8 0 9.5 7.8 0 9.6 7.8 0 9.7 7.8 0 9.8 7.8 0 9.9 7.8 0 10 7.8 0 0 7.9 0 0.1 7.9 0 0.2 7.9 0 0.3 7.9 0 0.4 7.9 0 0.5 7.9 0 0.6 7.9 0 0.7 7.9 0 0.8 7.9 0 0.9 7.9 0 1 7.9 0 1.1 7.9 0 1.2 7.9 0 1.3 7.9 0 1.4 7.9 0 1.5 7.9 0 1.6 7.9 0 1.7 7.9 0 1.8 7.9 0 1.9 7.9 0 2 7.9 0 2.1 7.9 0 2.2 7.9 0 2.3 7.9 0 2.4 7.9 0 2.5 7.9 0 2.6 7.9 0 2.7 7.9 0 2.8 7.9 0 2.9 7.9 0 3 7.9 0 3.1 7.9 0 3.2 7.9 0 3.3 7.9 0 3.4 7.9 0 3.5 7.9 0 3.6 7.9 0 3.7 7.9 0 3.8 7.9 0 3.9 7.9 0 4 7.9 0 4.1 7.9 0 4.2 7.9 0 4.3 7.9 0 4.4 7.9 0 4.5 7.9 0 4.6 7.9 0 4.7 7.9 0 4.8 7.9 0 4.9 7.9 0 5 7.9 0 5.1 7.9 0 5.2 7.9 0 5.3 7.9 0 5.4 7.9 0 5.5 7.9 0 5.6 7.9 0 5.7 7.9 0 5.8 7.9 0 5.9 7.9 0 6 7.9 0 6.1 7.9 0 6.2 7.9 0 6.3 7.9 0 6.4 7.9 0 6.5 7.9 0 6.6 7.9 0 6.7 7.9 0 6.8 7.9 0 6.9 7.9 0 7 7.9 0 7.1 7.9 0 7.2 7.9 0 7.3 7.9 0 7.4 7.9 0 7.5 7.9 0 7.6 7.9 0 7.7 7.9 0 7.8 7.9 0 7.9 7.9 0 8 7.9 0 8.1 7.9 0 8.2 7.9 0 8.3 7.9 0 8.4 7.9 0 8.5 7.9 0 8.6 7.9 0 8.7 7.9 0 8.8 7.9 0 8.9 7.9 0 9 7.9 0 9.1 7.9 0 9.2 7.9 0 9.3 7.9 0 9.4 7.9 0 9.5 7.9 0 9.6 7.9 0 9.7 7.9 0 9.8 7.9 0 9.9 7.9 0 10 7.9 0 0 8 0 0.1 8 0 0.2 8 0 0.3 8 0 0.4 8 0 0.5 8 0 0.6 8 0 0.7 8 0 0.8 8 0 0.9 8 0 1 8 0 1.1 8 0 1.2 8 0 1.3 8 0 1.4 8 0 1.5 8 0 1.6 8 0 1.7 8 0 1.8 8 0 1.9 8 0 2 8 0 2.1 8 0 2.2 8 0 2.3 8 0 2.4 8 0 2.5 8 0 2.6 8 0 2.7 8 0 2.8 8 0 2.9 8 0 3 8 0 3.1 8 0 3.2 8 0 3.3 8 0 3.4 8 0 3.5 8 0 3.6 8 0 3.7 8 0 3.8 8 0 3.9 8 0 4 8 0 4.1 8 0 4.2 8 0 4.3 8 0 4.4 8 0 4.5 8 0 4.6 8 0 4.7 8 0 4.8 8 0 4.9 8 0 5 8 0 5.1 8 0 5.2 8 0 5.3 8 0 5.4 8 0 5.5 8 0 5.6 8 0 5.7 8 0 5.8 8 0 5.9 8 0 6 8 0 6.1 8 0 6.2 8 0 6.3 8 0 6.4 8 0 6.5 8 0 6.6 8 0 6.7 8 0 6.8 8 0 6.9 8 0 7 8 0 7.1 8 0 7.2 8 0 7.3 8 0 7.4 8 0 7.5 8 0 7.6 8 0 7.7 8 0 7.8 8 0 7.9 8 0 8 8 0 8.1 8 0 8.2 8 0 8.3 8 0 8.4 8 0 8.5 8 0 8.6 8 0 8.7 8 0 8.8 8 0 8.9 8 0 9 8 0 9.1 8 0 9.2 8 0 9.3 8 0 9.4 8 0 9.5 8 0 9.6 8 0 9.7 8 0 9.8 8 0 9.9 8 0 10 8 0 0 8.1 0 0.1 8.1 0 0.2 8.1 0 0.3 8.1 0 0.4 8.1 0 0.5 8.1 0 0.6 8.1 0 0.7 8.1 0 0.8 8.1 0 0.9 8.1 0 1 8.1 0 1.1 8.1 0 1.2 8.1 0 1.3 8.1 0 1.4 8.1 0 1.5 8.1 0 1.6 8.1 0 1.7 8.1 0 1.8 8.1 0 1.9 8.1 0 2 8.1 0 2.1 8.1 0 2.2 8.1 0 2.3 8.1 0 2.4 8.1 0 2.5 8.1 0 2.6 8.1 0 2.7 8.1 0 2.8 8.1 0 2.9 8.1 0 3 8.1 0 3.1 8.1 0 3.2 8.1 0 3.3 8.1 0 3.4 8.1 0 3.5 8.1 0 3.6 8.1 0 3.7 8.1 0 3.8 8.1 0 3.9 8.1 0 4 8.1 0 4.1 8.1 0 4.2 8.1 0 4.3 8.1 0 4.4 8.1 0 4.5 8.1 0 4.6 8.1 0 4.7 8.1 0 4.8 8.1 0 4.9 8.1 0 5 8.1 0 5.1 8.1 0 5.2 8.1 0 5.3 8.1 0 5.4 8.1 0 5.5 8.1 0 5.6 8.1 0 5.7 8.1 0 5.8 8.1 0 5.9 8.1 0 6 8.1 0 6.1 8.1 0 6.2 8.1 0 6.3 8.1 0 6.4 8.1 0 6.5 8.1 0 6.6 8.1 0 6.7 8.1 0 6.8 8.1 0 6.9 8.1 0 7 8.1 0 7.1 8.1 0 7.2 8.1 0 7.3 8.1 0 7.4 8.1 0 7.5 8.1 0 7.6 8.1 0 7.7 8.1 0 7.8 8.1 0 7.9 8.1 0 8 8.1 0 8.1 8.1 0 8.2 8.1 0 8.3 8.1 0 8.4 8.1 0 8.5 8.1 0 8.6 8.1 0 8.7 8.1 0 8.8 8.1 0 8.9 8.1 0 9 8.1 0 9.1 8.1 0 9.2 8.1 0 9.3 8.1 0 9.4 8.1 0 9.5 8.1 0 9.6 8.1 0 9.7 8.1 0 9.8 8.1 0 9.9 8.1 0 10 8.1 0 0 8.2 0 0.1 8.2 0 0.2 8.2 0 0.3 8.2 0 0.4 8.2 0 0.5 8.2 0 0.6 8.2 0 0.7 8.2 0 0.8 8.2 0 0.9 8.2 0 1 8.2 0 1.1 8.2 0 1.2 8.2 0 1.3 8.2 0 1.4 8.2 0 1.5 8.2 0 1.6 8.2 0 1.7 8.2 0 1.8 8.2 0 1.9 8.2 0 2 8.2 0 2.1 8.2 0 2.2 8.2 0 2.3 8.2 0 2.4 8.2 0 2.5 8.2 0 2.6 8.2 0 2.7 8.2 0 2.8 8.2 0 2.9 8.2 0 3 8.2 0 3.1 8.2 0 3.2 8.2 0 3.3 8.2 0 3.4 8.2 0 3.5 8.2 0 3.6 8.2 0 3.7 8.2 0 3.8 8.2 0 3.9 8.2 0 4 8.2 0 4.1 8.2 0 4.2 8.2 0 4.3 8.2 0 4.4 8.2 0 4.5 8.2 0 4.6 8.2 0 4.7 8.2 0 4.8 8.2 0 4.9 8.2 0 5 8.2 0 5.1 8.2 0 5.2 8.2 0 5.3 8.2 0 5.4 8.2 0 5.5 8.2 0 5.6 8.2 0 5.7 8.2 0 5.8 8.2 0 5.9 8.2 0 6 8.2 0 6.1 8.2 0 6.2 8.2 0 6.3 8.2 0 6.4 8.2 0 6.5 8.2 0 6.6 8.2 0 6.7 8.2 0 6.8 8.2 0 6.9 8.2 0 7 8.2 0 7.1 8.2 0 7.2 8.2 0 7.3 8.2 0 7.4 8.2 0 7.5 8.2 0 7.6 8.2 0 7.7 8.2 0 7.8 8.2 0 7.9 8.2 0 8 8.2 0 8.1 8.2 0 8.2 8.2 0 8.3 8.2 0 8.4 8.2 0 8.5 8.2 0 8.6 8.2 0 8.7 8.2 0 8.8 8.2 0 8.9 8.2 0 9 8.2 0 9.1 8.2 0 9.2 8.2 0 9.3 8.2 0 9.4 8.2 0 9.5 8.2 0 9.6 8.2 0 9.7 8.2 0 9.8 8.2 0 9.9 8.2 0 10 8.2 0 0 8.3 0 0.1 8.3 0 0.2 8.3 0 0.3 8.3 0 0.4 8.3 0 0.5 8.3 0 0.6 8.3 0 0.7 8.3 0 0.8 8.3 0 0.9 8.3 0 1 8.3 0 1.1 8.3 0 1.2 8.3 0 1.3 8.3 0 1.4 8.3 0 1.5 8.3 0 1.6 8.3 0 1.7 8.3 0 1.8 8.3 0 1.9 8.3 0 2 8.3 0 2.1 8.3 0 2.2 8.3 0 2.3 8.3 0 2.4 8.3 0 2.5 8.3 0 2.6 8.3 0 2.7 8.3 0 2.8 8.3 0 2.9 8.3 0 3 8.3 0 3.1 8.3 0 3.2 8.3 0 3.3 8.3 0 3.4 8.3 0 3.5 8.3 0 3.6 8.3 0 3.7 8.3 0 3.8 8.3 0 3.9 8.3 0 4 8.3 0 4.1 8.3 0 4.2 8.3 0 4.3 8.3 0 4.4 8.3 0 4.5 8.3 0 4.6 8.3 0 4.7 8.3 0 4.8 8.3 0 4.9 8.3 0 5 8.3 0 5.1 8.3 0 5.2 8.3 0 5.3 8.3 0 5.4 8.3 0 5.5 8.3 0 5.6 8.3 0 5.7 8.3 0 5.8 8.3 0 5.9 8.3 0 6 8.3 0 6.1 8.3 0 6.2 8.3 0 6.3 8.3 0 6.4 8.3 0 6.5 8.3 0 6.6 8.3 0 6.7 8.3 0 6.8 8.3 0 6.9 8.3 0 7 8.3 0 7.1 8.3 0 7.2 8.3 0 7.3 8.3 0 7.4 8.3 0 7.5 8.3 0 7.6 8.3 0 7.7 8.3 0 7.8 8.3 0 7.9 8.3 0 8 8.3 0 8.1 8.3 0 8.2 8.3 0 8.3 8.3 0 8.4 8.3 0 8.5 8.3 0 8.6 8.3 0 8.7 8.3 0 8.8 8.3 0 8.9 8.3 0 9 8.3 0 9.1 8.3 0 9.2 8.3 0 9.3 8.3 0 9.4 8.3 0 9.5 8.3 0 9.6 8.3 0 9.7 8.3 0 9.8 8.3 0 9.9 8.3 0 10 8.3 0 0 8.4 0 0.1 8.4 0 0.2 8.4 0 0.3 8.4 0 0.4 8.4 0 0.5 8.4 0 0.6 8.4 0 0.7 8.4 0 0.8 8.4 0 0.9 8.4 0 1 8.4 0 1.1 8.4 0 1.2 8.4 0 1.3 8.4 0 1.4 8.4 0 1.5 8.4 0 1.6 8.4 0 1.7 8.4 0 1.8 8.4 0 1.9 8.4 0 2 8.4 0 2.1 8.4 0 2.2 8.4 0 2.3 8.4 0 2.4 8.4 0 2.5 8.4 0 2.6 8.4 0 2.7 8.4 0 2.8 8.4 0 2.9 8.4 0 3 8.4 0 3.1 8.4 0 3.2 8.4 0 3.3 8.4 0 3.4 8.4 0 3.5 8.4 0 3.6 8.4 0 3.7 8.4 0 3.8 8.4 0 3.9 8.4 0 4 8.4 0 4.1 8.4 0 4.2 8.4 0 4.3 8.4 0 4.4 8.4 0 4.5 8.4 0 4.6 8.4 0 4.7 8.4 0 4.8 8.4 0 4.9 8.4 0 5 8.4 0 5.1 8.4 0 5.2 8.4 0 5.3 8.4 0 5.4 8.4 0 5.5 8.4 0 5.6 8.4 0 5.7 8.4 0 5.8 8.4 0 5.9 8.4 0 6 8.4 0 6.1 8.4 0 6.2 8.4 0 6.3 8.4 0 6.4 8.4 0 6.5 8.4 0 6.6 8.4 0 6.7 8.4 0 6.8 8.4 0 6.9 8.4 0 7 8.4 0 7.1 8.4 0 7.2 8.4 0 7.3 8.4 0 7.4 8.4 0 7.5 8.4 0 7.6 8.4 0 7.7 8.4 0 7.8 8.4 0 7.9 8.4 0 8 8.4 0 8.1 8.4 0 8.2 8.4 0 8.3 8.4 0 8.4 8.4 0 8.5 8.4 0 8.6 8.4 0 8.7 8.4 0 8.8 8.4 0 8.9 8.4 0 9 8.4 0 9.1 8.4 0 9.2 8.4 0 9.3 8.4 0 9.4 8.4 0 9.5 8.4 0 9.6 8.4 0 9.7 8.4 0 9.8 8.4 0 9.9 8.4 0 10 8.4 0 0 8.5 0 0.1 8.5 0 0.2 8.5 0 0.3 8.5 0 0.4 8.5 0 0.5 8.5 0 0.6 8.5 0 0.7 8.5 0 0.8 8.5 0 0.9 8.5 0 1 8.5 0 1.1 8.5 0 1.2 8.5 0 1.3 8.5 0 1.4 8.5 0 1.5 8.5 0 1.6 8.5 0 1.7 8.5 0 1.8 8.5 0 1.9 8.5 0 2 8.5 0 2.1 8.5 0 2.2 8.5 0 2.3 8.5 0 2.4 8.5 0 2.5 8.5 0 2.6 8.5 0 2.7 8.5 0 2.8 8.5 0 2.9 8.5 0 3 8.5 0 3.1 8.5 0 3.2 8.5 0 3.3 8.5 0 3.4 8.5 0 3.5 8.5 0 3.6 8.5 0 3.7 8.5 0 3.8 8.5 0 3.9 8.5 0 4 8.5 0 4.1 8.5 0 4.2 8.5 0 4.3 8.5 0 4.4 8.5 0 4.5 8.5 0 4.6 8.5 0 4.7 8.5 0 4.8 8.5 0 4.9 8.5 0 5 8.5 0 5.1 8.5 0 5.2 8.5 0 5.3 8.5 0 5.4 8.5 0 5.5 8.5 0 5.6 8.5 0 5.7 8.5 0 5.8 8.5 0 5.9 8.5 0 6 8.5 0 6.1 8.5 0 6.2 8.5 0 6.3 8.5 0 6.4 8.5 0 6.5 8.5 0 6.6 8.5 0 6.7 8.5 0 6.8 8.5 0 6.9 8.5 0 7 8.5 0 7.1 8.5 0 7.2 8.5 0 7.3 8.5 0 7.4 8.5 0 7.5 8.5 0 7.6 8.5 0 7.7 8.5 0 7.8 8.5 0 7.9 8.5 0 8 8.5 0 8.1 8.5 0 8.2 8.5 0 8.3 8.5 0 8.4 8.5 0 8.5 8.5 0 8.6 8.5 0 8.7 8.5 0 8.8 8.5 0 8.9 8.5 0 9 8.5 0 9.1 8.5 0 9.2 8.5 0 9.3 8.5 0 9.4 8.5 0 9.5 8.5 0 9.6 8.5 0 9.7 8.5 0 9.8 8.5 0 9.9 8.5 0 10 8.5 0 0 8.6 0 0.1 8.6 0 0.2 8.6 0 0.3 8.6 0 0.4 8.6 0 0.5 8.6 0 0.6 8.6 0 0.7 8.6 0 0.8 8.6 0 0.9 8.6 0 1 8.6 0 1.1 8.6 0 1.2 8.6 0 1.3 8.6 0 1.4 8.6 0 1.5 8.6 0 1.6 8.6 0 1.7 8.6 0 1.8 8.6 0 1.9 8.6 0 2 8.6 0 2.1 8.6 0 2.2 8.6 0 2.3 8.6 0 2.4 8.6 0 2.5 8.6 0 2.6 8.6 0 2.7 8.6 0 2.8 8.6 0 2.9 8.6 0 3 8.6 0 3.1 8.6 0 3.2 8.6 0 3.3 8.6 0 3.4 8.6 0 3.5 8.6 0 3.6 8.6 0 3.7 8.6 0 3.8 8.6 0 3.9 8.6 0 4 8.6 0 4.1 8.6 0 4.2 8.6 0 4.3 8.6 0 4.4 8.6 0 4.5 8.6 0 4.6 8.6 0 4.7 8.6 0 4.8 8.6 0 4.9 8.6 0 5 8.6 0 5.1 8.6 0 5.2 8.6 0 5.3 8.6 0 5.4 8.6 0 5.5 8.6 0 5.6 8.6 0 5.7 8.6 0 5.8 8.6 0 5.9 8.6 0 6 8.6 0 6.1 8.6 0 6.2 8.6 0 6.3 8.6 0 6.4 8.6 0 6.5 8.6 0 6.6 8.6 0 6.7 8.6 0 6.8 8.6 0 6.9 8.6 0 7 8.6 0 7.1 8.6 0 7.2 8.6 0 7.3 8.6 0 7.4 8.6 0 7.5 8.6 0 7.6 8.6 0 7.7 8.6 0 7.8 8.6 0 7.9 8.6 0 8 8.6 0 8.1 8.6 0 8.2 8.6 0 8.3 8.6 0 8.4 8.6 0 8.5 8.6 0 8.6 8.6 0 8.7 8.6 0 8.8 8.6 0 8.9 8.6 0 9 8.6 0 9.1 8.6 0 9.2 8.6 0 9.3 8.6 0 9.4 8.6 0 9.5 8.6 0 9.6 8.6 0 9.7 8.6 0 9.8 8.6 0 9.9 8.6 0 10 8.6 0 0 8.7 0 0.1 8.7 0 0.2 8.7 0 0.3 8.7 0 0.4 8.7 0 0.5 8.7 0 0.6 8.7 0 0.7 8.7 0 0.8 8.7 0 0.9 8.7 0 1 8.7 0 1.1 8.7 0 1.2 8.7 0 1.3 8.7 0 1.4 8.7 0 1.5 8.7 0 1.6 8.7 0 1.7 8.7 0 1.8 8.7 0 1.9 8.7 0 2 8.7 0 2.1 8.7 0 2.2 8.7 0 2.3 8.7 0 2.4 8.7 0 2.5 8.7 0 2.6 8.7 0 2.7 8.7 0 2.8 8.7 0 2.9 8.7 0 3 8.7 0 3.1 8.7 0 3.2 8.7 0 3.3 8.7 0 3.4 8.7 0 3.5 8.7 0 3.6 8.7 0 3.7 8.7 0 3.8 8.7 0 3.9 8.7 0 4 8.7 0 4.1 8.7 0 4.2 8.7 0 4.3 8.7 0 4.4 8.7 0 4.5 8.7 0 4.6 8.7 0 4.7 8.7 0 4.8 8.7 0 4.9 8.7 0 5 8.7 0 5.1 8.7 0 5.2 8.7 0 5.3 8.7 0 5.4 8.7 0 5.5 8.7 0 5.6 8.7 0 5.7 8.7 0 5.8 8.7 0 5.9 8.7 0 6 8.7 0 6.1 8.7 0 6.2 8.7 0 6.3 8.7 0 6.4 8.7 0 6.5 8.7 0 6.6 8.7 0 6.7 8.7 0 6.8 8.7 0 6.9 8.7 0 7 8.7 0 7.1 8.7 0 7.2 8.7 0 7.3 8.7 0 7.4 8.7 0 7.5 8.7 0 7.6 8.7 0 7.7 8.7 0 7.8 8.7 0 7.9 8.7 0 8 8.7 0 8.1 8.7 0 8.2 8.7 0 8.3 8.7 0 8.4 8.7 0 8.5 8.7 0 8.6 8.7 0 8.7 8.7 0 8.8 8.7 0 8.9 8.7 0 9 8.7 0 9.1 8.7 0 9.2 8.7 0 9.3 8.7 0 9.4 8.7 0 9.5 8.7 0 9.6 8.7 0 9.7 8.7 0 9.8 8.7 0 9.9 8.7 0 10 8.7 0 0 8.8 0 0.1 8.8 0 0.2 8.8 0 0.3 8.8 0 0.4 8.8 0 0.5 8.8 0 0.6 8.8 0 0.7 8.8 0 0.8 8.8 0 0.9 8.8 0 1 8.8 0 1.1 8.8 0 1.2 8.8 0 1.3 8.8 0 1.4 8.8 0 1.5 8.8 0 1.6 8.8 0 1.7 8.8 0 1.8 8.8 0 1.9 8.8 0 2 8.8 0 2.1 8.8 0 2.2 8.8 0 2.3 8.8 0 2.4 8.8 0 2.5 8.8 0 2.6 8.8 0 2.7 8.8 0 2.8 8.8 0 2.9 8.8 0 3 8.8 0 3.1 8.8 0 3.2 8.8 0 3.3 8.8 0 3.4 8.8 0 3.5 8.8 0 3.6 8.8 0 3.7 8.8 0 3.8 8.8 0 3.9 8.8 0 4 8.8 0 4.1 8.8 0 4.2 8.8 0 4.3 8.8 0 4.4 8.8 0 4.5 8.8 0 4.6 8.8 0 4.7 8.8 0 4.8 8.8 0 4.9 8.8 0 5 8.8 0 5.1 8.8 0 5.2 8.8 0 5.3 8.8 0 5.4 8.8 0 5.5 8.8 0 5.6 8.8 0 5.7 8.8 0 5.8 8.8 0 5.9 8.8 0 6 8.8 0 6.1 8.8 0 6.2 8.8 0 6.3 8.8 0 6.4 8.8 0 6.5 8.8 0 6.6 8.8 0 6.7 8.8 0 6.8 8.8 0 6.9 8.8 0 7 8.8 0 7.1 8.8 0 7.2 8.8 0 7.3 8.8 0 7.4 8.8 0 7.5 8.8 0 7.6 8.8 0 7.7 8.8 0 7.8 8.8 0 7.9 8.8 0 8 8.8 0 8.1 8.8 0 8.2 8.8 0 8.3 8.8 0 8.4 8.8 0 8.5 8.8 0 8.6 8.8 0 8.7 8.8 0 8.8 8.8 0 8.9 8.8 0 9 8.8 0 9.1 8.8 0 9.2 8.8 0 9.3 8.8 0 9.4 8.8 0 9.5 8.8 0 9.6 8.8 0 9.7 8.8 0 9.8 8.8 0 9.9 8.8 0 10 8.8 0 0 8.9 0 0.1 8.9 0 0.2 8.9 0 0.3 8.9 0 0.4 8.9 0 0.5 8.9 0 0.6 8.9 0 0.7 8.9 0 0.8 8.9 0 0.9 8.9 0 1 8.9 0 1.1 8.9 0 1.2 8.9 0 1.3 8.9 0 1.4 8.9 0 1.5 8.9 0 1.6 8.9 0 1.7 8.9 0 1.8 8.9 0 1.9 8.9 0 2 8.9 0 2.1 8.9 0 2.2 8.9 0 2.3 8.9 0 2.4 8.9 0 2.5 8.9 0 2.6 8.9 0 2.7 8.9 0 2.8 8.9 0 2.9 8.9 0 3 8.9 0 3.1 8.9 0 3.2 8.9 0 3.3 8.9 0 3.4 8.9 0 3.5 8.9 0 3.6 8.9 0 3.7 8.9 0 3.8 8.9 0 3.9 8.9 0 4 8.9 0 4.1 8.9 0 4.2 8.9 0 4.3 8.9 0 4.4 8.9 0 4.5 8.9 0 4.6 8.9 0 4.7 8.9 0 4.8 8.9 0 4.9 8.9 0 5 8.9 0 5.1 8.9 0 5.2 8.9 0 5.3 8.9 0 5.4 8.9 0 5.5 8.9 0 5.6 8.9 0 5.7 8.9 0 5.8 8.9 0 5.9 8.9 0 6 8.9 0 6.1 8.9 0 6.2 8.9 0 6.3 8.9 0 6.4 8.9 0 6.5 8.9 0 6.6 8.9 0 6.7 8.9 0 6.8 8.9 0 6.9 8.9 0 7 8.9 0 7.1 8.9 0 7.2 8.9 0 7.3 8.9 0 7.4 8.9 0 7.5 8.9 0 7.6 8.9 0 7.7 8.9 0 7.8 8.9 0 7.9 8.9 0 8 8.9 0 8.1 8.9 0 8.2 8.9 0 8.3 8.9 0 8.4 8.9 0 8.5 8.9 0 8.6 8.9 0 8.7 8.9 0 8.8 8.9 0 8.9 8.9 0 9 8.9 0 9.1 8.9 0 9.2 8.9 0 9.3 8.9 0 9.4 8.9 0 9.5 8.9 0 9.6 8.9 0 9.7 8.9 0 9.8 8.9 0 9.9 8.9 0 10 8.9 0 0 9 0 0.1 9 0 0.2 9 0 0.3 9 0 0.4 9 0 0.5 9 0 0.6 9 0 0.7 9 0 0.8 9 0 0.9 9 0 1 9 0 1.1 9 0 1.2 9 0 1.3 9 0 1.4 9 0 1.5 9 0 1.6 9 0 1.7 9 0 1.8 9 0 1.9 9 0 2 9 0 2.1 9 0 2.2 9 0 2.3 9 0 2.4 9 0 2.5 9 0 2.6 9 0 2.7 9 0 2.8 9 0 2.9 9 0 3 9 0 3.1 9 0 3.2 9 0 3.3 9 0 3.4 9 0 3.5 9 0 3.6 9 0 3.7 9 0 3.8 9 0 3.9 9 0 4 9 0 4.1 9 0 4.2 9 0 4.3 9 0 4.4 9 0 4.5 9 0 4.6 9 0 4.7 9 0 4.8 9 0 4.9 9 0 5 9 0 5.1 9 0 5.2 9 0 5.3 9 0 5.4 9 0 5.5 9 0 5.6 9 0 5.7 9 0 5.8 9 0 5.9 9 0 6 9 0 6.1 9 0 6.2 9 0 6.3 9 0 6.4 9 0 6.5 9 0 6.6 9 0 6.7 9 0 6.8 9 0 6.9 9 0 7 9 0 7.1 9 0 7.2 9 0 7.3 9 0 7.4 9 0 7.5 9 0 7.6 9 0 7.7 9 0 7.8 9 0 7.9 9 0 8 9 0 8.1 9 0 8.2 9 0 8.3 9 0 8.4 9 0 8.5 9 0 8.6 9 0 8.7 9 0 8.8 9 0 8.9 9 0 9 9 0 9.1 9 0 9.2 9 0 9.3 9 0 9.4 9 0 9.5 9 0 9.6 9 0 9.7 9 0 9.8 9 0 9.9 9 0 10 9 0 0 9.1 0 0.1 9.1 0 0.2 9.1 0 0.3 9.1 0 0.4 9.1 0 0.5 9.1 0 0.6 9.1 0 0.7 9.1 0 0.8 9.1 0 0.9 9.1 0 1 9.1 0 1.1 9.1 0 1.2 9.1 0 1.3 9.1 0 1.4 9.1 0 1.5 9.1 0 1.6 9.1 0 1.7 9.1 0 1.8 9.1 0 1.9 9.1 0 2 9.1 0 2.1 9.1 0 2.2 9.1 0 2.3 9.1 0 2.4 9.1 0 2.5 9.1 0 2.6 9.1 0 2.7 9.1 0 2.8 9.1 0 2.9 9.1 0 3 9.1 0 3.1 9.1 0 3.2 9.1 0 3.3 9.1 0 3.4 9.1 0 3.5 9.1 0 3.6 9.1 0 3.7 9.1 0 3.8 9.1 0 3.9 9.1 0 4 9.1 0 4.1 9.1 0 4.2 9.1 0 4.3 9.1 0 4.4 9.1 0 4.5 9.1 0 4.6 9.1 0 4.7 9.1 0 4.8 9.1 0 4.9 9.1 0 5 9.1 0 5.1 9.1 0 5.2 9.1 0 5.3 9.1 0 5.4 9.1 0 5.5 9.1 0 5.6 9.1 0 5.7 9.1 0 5.8 9.1 0 5.9 9.1 0 6 9.1 0 6.1 9.1 0 6.2 9.1 0 6.3 9.1 0 6.4 9.1 0 6.5 9.1 0 6.6 9.1 0 6.7 9.1 0 6.8 9.1 0 6.9 9.1 0 7 9.1 0 7.1 9.1 0 7.2 9.1 0 7.3 9.1 0 7.4 9.1 0 7.5 9.1 0 7.6 9.1 0 7.7 9.1 0 7.8 9.1 0 7.9 9.1 0 8 9.1 0 8.1 9.1 0 8.2 9.1 0 8.3 9.1 0 8.4 9.1 0 8.5 9.1 0 8.6 9.1 0 8.7 9.1 0 8.8 9.1 0 8.9 9.1 0 9 9.1 0 9.1 9.1 0 9.2 9.1 0 9.3 9.1 0 9.4 9.1 0 9.5 9.1 0 9.6 9.1 0 9.7 9.1 0 9.8 9.1 0 9.9 9.1 0 10 9.1 0 0 9.2 0 0.1 9.2 0 0.2 9.2 0 0.3 9.2 0 0.4 9.2 0 0.5 9.2 0 0.6 9.2 0 0.7 9.2 0 0.8 9.2 0 0.9 9.2 0 1 9.2 0 1.1 9.2 0 1.2 9.2 0 1.3 9.2 0 1.4 9.2 0 1.5 9.2 0 1.6 9.2 0 1.7 9.2 0 1.8 9.2 0 1.9 9.2 0 2 9.2 0 2.1 9.2 0 2.2 9.2 0 2.3 9.2 0 2.4 9.2 0 2.5 9.2 0 2.6 9.2 0 2.7 9.2 0 2.8 9.2 0 2.9 9.2 0 3 9.2 0 3.1 9.2 0 3.2 9.2 0 3.3 9.2 0 3.4 9.2 0 3.5 9.2 0 3.6 9.2 0 3.7 9.2 0 3.8 9.2 0 3.9 9.2 0 4 9.2 0 4.1 9.2 0 4.2 9.2 0 4.3 9.2 0 4.4 9.2 0 4.5 9.2 0 4.6 9.2 0 4.7 9.2 0 4.8 9.2 0 4.9 9.2 0 5 9.2 0 5.1 9.2 0 5.2 9.2 0 5.3 9.2 0 5.4 9.2 0 5.5 9.2 0 5.6 9.2 0 5.7 9.2 0 5.8 9.2 0 5.9 9.2 0 6 9.2 0 6.1 9.2 0 6.2 9.2 0 6.3 9.2 0 6.4 9.2 0 6.5 9.2 0 6.6 9.2 0 6.7 9.2 0 6.8 9.2 0 6.9 9.2 0 7 9.2 0 7.1 9.2 0 7.2 9.2 0 7.3 9.2 0 7.4 9.2 0 7.5 9.2 0 7.6 9.2 0 7.7 9.2 0 7.8 9.2 0 7.9 9.2 0 8 9.2 0 8.1 9.2 0 8.2 9.2 0 8.3 9.2 0 8.4 9.2 0 8.5 9.2 0 8.6 9.2 0 8.7 9.2 0 8.8 9.2 0 8.9 9.2 0 9 9.2 0 9.1 9.2 0 9.2 9.2 0 9.3 9.2 0 9.4 9.2 0 9.5 9.2 0 9.6 9.2 0 9.7 9.2 0 9.8 9.2 0 9.9 9.2 0 10 9.2 0 0 9.3 0 0.1 9.3 0 0.2 9.3 0 0.3 9.3 0 0.4 9.3 0 0.5 9.3 0 0.6 9.3 0 0.7 9.3 0 0.8 9.3 0 0.9 9.3 0 1 9.3 0 1.1 9.3 0 1.2 9.3 0 1.3 9.3 0 1.4 9.3 0 1.5 9.3 0 1.6 9.3 0 1.7 9.3 0 1.8 9.3 0 1.9 9.3 0 2 9.3 0 2.1 9.3 0 2.2 9.3 0 2.3 9.3 0 2.4 9.3 0 2.5 9.3 0 2.6 9.3 0 2.7 9.3 0 2.8 9.3 0 2.9 9.3 0 3 9.3 0 3.1 9.3 0 3.2 9.3 0 3.3 9.3 0 3.4 9.3 0 3.5 9.3 0 3.6 9.3 0 3.7 9.3 0 3.8 9.3 0 3.9 9.3 0 4 9.3 0 4.1 9.3 0 4.2 9.3 0 4.3 9.3 0 4.4 9.3 0 4.5 9.3 0 4.6 9.3 0 4.7 9.3 0 4.8 9.3 0 4.9 9.3 0 5 9.3 0 5.1 9.3 0 5.2 9.3 0 5.3 9.3 0 5.4 9.3 0 5.5 9.3 0 5.6 9.3 0 5.7 9.3 0 5.8 9.3 0 5.9 9.3 0 6 9.3 0 6.1 9.3 0 6.2 9.3 0 6.3 9.3 0 6.4 9.3 0 6.5 9.3 0 6.6 9.3 0 6.7 9.3 0 6.8 9.3 0 6.9 9.3 0 7 9.3 0 7.1 9.3 0 7.2 9.3 0 7.3 9.3 0 7.4 9.3 0 7.5 9.3 0 7.6 9.3 0 7.7 9.3 0 7.8 9.3 0 7.9 9.3 0 8 9.3 0 8.1 9.3 0 8.2 9.3 0 8.3 9.3 0 8.4 9.3 0 8.5 9.3 0 8.6 9.3 0 8.7 9.3 0 8.8 9.3 0 8.9 9.3 0 9 9.3 0 9.1 9.3 0 9.2 9.3 0 9.3 9.3 0 9.4 9.3 0 9.5 9.3 0 9.6 9.3 0 9.7 9.3 0 9.8 9.3 0 9.9 9.3 0 10 9.3 0 0 9.4 0 0.1 9.4 0 0.2 9.4 0 0.3 9.4 0 0.4 9.4 0 0.5 9.4 0 0.6 9.4 0 0.7 9.4 0 0.8 9.4 0 0.9 9.4 0 1 9.4 0 1.1 9.4 0 1.2 9.4 0 1.3 9.4 0 1.4 9.4 0 1.5 9.4 0 1.6 9.4 0 1.7 9.4 0 1.8 9.4 0 1.9 9.4 0 2 9.4 0 2.1 9.4 0 2.2 9.4 0 2.3 9.4 0 2.4 9.4 0 2.5 9.4 0 2.6 9.4 0 2.7 9.4 0 2.8 9.4 0 2.9 9.4 0 3 9.4 0 3.1 9.4 0 3.2 9.4 0 3.3 9.4 0 3.4 9.4 0 3.5 9.4 0 3.6 9.4 0 3.7 9.4 0 3.8 9.4 0 3.9 9.4 0 4 9.4 0 4.1 9.4 0 4.2 9.4 0 4.3 9.4 0 4.4 9.4 0 4.5 9.4 0 4.6 9.4 0 4.7 9.4 0 4.8 9.4 0 4.9 9.4 0 5 9.4 0 5.1 9.4 0 5.2 9.4 0 5.3 9.4 0 5.4 9.4 0 5.5 9.4 0 5.6 9.4 0 5.7 9.4 0 5.8 9.4 0 5.9 9.4 0 6 9.4 0 6.1 9.4 0 6.2 9.4 0 6.3 9.4 0 6.4 9.4 0 6.5 9.4 0 6.6 9.4 0 6.7 9.4 0 6.8 9.4 0 6.9 9.4 0 7 9.4 0 7.1 9.4 0 7.2 9.4 0 7.3 9.4 0 7.4 9.4 0 7.5 9.4 0 7.6 9.4 0 7.7 9.4 0 7.8 9.4 0 7.9 9.4 0 8 9.4 0 8.1 9.4 0 8.2 9.4 0 8.3 9.4 0 8.4 9.4 0 8.5 9.4 0 8.6 9.4 0 8.7 9.4 0 8.8 9.4 0 8.9 9.4 0 9 9.4 0 9.1 9.4 0 9.2 9.4 0 9.3 9.4 0 9.4 9.4 0 9.5 9.4 0 9.6 9.4 0 9.7 9.4 0 9.8 9.4 0 9.9 9.4 0 10 9.4 0 0 9.5 0 0.1 9.5 0 0.2 9.5 0 0.3 9.5 0 0.4 9.5 0 0.5 9.5 0 0.6 9.5 0 0.7 9.5 0 0.8 9.5 0 0.9 9.5 0 1 9.5 0 1.1 9.5 0 1.2 9.5 0 1.3 9.5 0 1.4 9.5 0 1.5 9.5 0 1.6 9.5 0 1.7 9.5 0 1.8 9.5 0 1.9 9.5 0 2 9.5 0 2.1 9.5 0 2.2 9.5 0 2.3 9.5 0 2.4 9.5 0 2.5 9.5 0 2.6 9.5 0 2.7 9.5 0 2.8 9.5 0 2.9 9.5 0 3 9.5 0 3.1 9.5 0 3.2 9.5 0 3.3 9.5 0 3.4 9.5 0 3.5 9.5 0 3.6 9.5 0 3.7 9.5 0 3.8 9.5 0 3.9 9.5 0 4 9.5 0 4.1 9.5 0 4.2 9.5 0 4.3 9.5 0 4.4 9.5 0 4.5 9.5 0 4.6 9.5 0 4.7 9.5 0 4.8 9.5 0 4.9 9.5 0 5 9.5 0 5.1 9.5 0 5.2 9.5 0 5.3 9.5 0 5.4 9.5 0 5.5 9.5 0 5.6 9.5 0 5.7 9.5 0 5.8 9.5 0 5.9 9.5 0 6 9.5 0 6.1 9.5 0 6.2 9.5 0 6.3 9.5 0 6.4 9.5 0 6.5 9.5 0 6.6 9.5 0 6.7 9.5 0 6.8 9.5 0 6.9 9.5 0 7 9.5 0 7.1 9.5 0 7.2 9.5 0 7.3 9.5 0 7.4 9.5 0 7.5 9.5 0 7.6 9.5 0 7.7 9.5 0 7.8 9.5 0 7.9 9.5 0 8 9.5 0 8.1 9.5 0 8.2 9.5 0 8.3 9.5 0 8.4 9.5 0 8.5 9.5 0 8.6 9.5 0 8.7 9.5 0 8.8 9.5 0 8.9 9.5 0 9 9.5 0 9.1 9.5 0 9.2 9.5 0 9.3 9.5 0 9.4 9.5 0 9.5 9.5 0 9.6 9.5 0 9.7 9.5 0 9.8 9.5 0 9.9 9.5 0 10 9.5 0 0 9.6 0 0.1 9.6 0 0.2 9.6 0 0.3 9.6 0 0.4 9.6 0 0.5 9.6 0 0.6 9.6 0 0.7 9.6 0 0.8 9.6 0 0.9 9.6 0 1 9.6 0 1.1 9.6 0 1.2 9.6 0 1.3 9.6 0 1.4 9.6 0 1.5 9.6 0 1.6 9.6 0 1.7 9.6 0 1.8 9.6 0 1.9 9.6 0 2 9.6 0 2.1 9.6 0 2.2 9.6 0 2.3 9.6 0 2.4 9.6 0 2.5 9.6 0 2.6 9.6 0 2.7 9.6 0 2.8 9.6 0 2.9 9.6 0 3 9.6 0 3.1 9.6 0 3.2 9.6 0 3.3 9.6 0 3.4 9.6 0 3.5 9.6 0 3.6 9.6 0 3.7 9.6 0 3.8 9.6 0 3.9 9.6 0 4 9.6 0 4.1 9.6 0 4.2 9.6 0 4.3 9.6 0 4.4 9.6 0 4.5 9.6 0 4.6 9.6 0 4.7 9.6 0 4.8 9.6 0 4.9 9.6 0 5 9.6 0 5.1 9.6 0 5.2 9.6 0 5.3 9.6 0 5.4 9.6 0 5.5 9.6 0 5.6 9.6 0 5.7 9.6 0 5.8 9.6 0 5.9 9.6 0 6 9.6 0 6.1 9.6 0 6.2 9.6 0 6.3 9.6 0 6.4 9.6 0 6.5 9.6 0 6.6 9.6 0 6.7 9.6 0 6.8 9.6 0 6.9 9.6 0 7 9.6 0 7.1 9.6 0 7.2 9.6 0 7.3 9.6 0 7.4 9.6 0 7.5 9.6 0 7.6 9.6 0 7.7 9.6 0 7.8 9.6 0 7.9 9.6 0 8 9.6 0 8.1 9.6 0 8.2 9.6 0 8.3 9.6 0 8.4 9.6 0 8.5 9.6 0 8.6 9.6 0 8.7 9.6 0 8.8 9.6 0 8.9 9.6 0 9 9.6 0 9.1 9.6 0 9.2 9.6 0 9.3 9.6 0 9.4 9.6 0 9.5 9.6 0 9.6 9.6 0 9.7 9.6 0 9.8 9.6 0 9.9 9.6 0 10 9.6 0 0 9.7 0 0.1 9.7 0 0.2 9.7 0 0.3 9.7 0 0.4 9.7 0 0.5 9.7 0 0.6 9.7 0 0.7 9.7 0 0.8 9.7 0 0.9 9.7 0 1 9.7 0 1.1 9.7 0 1.2 9.7 0 1.3 9.7 0 1.4 9.7 0 1.5 9.7 0 1.6 9.7 0 1.7 9.7 0 1.8 9.7 0 1.9 9.7 0 2 9.7 0 2.1 9.7 0 2.2 9.7 0 2.3 9.7 0 2.4 9.7 0 2.5 9.7 0 2.6 9.7 0 2.7 9.7 0 2.8 9.7 0 2.9 9.7 0 3 9.7 0 3.1 9.7 0 3.2 9.7 0 3.3 9.7 0 3.4 9.7 0 3.5 9.7 0 3.6 9.7 0 3.7 9.7 0 3.8 9.7 0 3.9 9.7 0 4 9.7 0 4.1 9.7 0 4.2 9.7 0 4.3 9.7 0 4.4 9.7 0 4.5 9.7 0 4.6 9.7 0 4.7 9.7 0 4.8 9.7 0 4.9 9.7 0 5 9.7 0 5.1 9.7 0 5.2 9.7 0 5.3 9.7 0 5.4 9.7 0 5.5 9.7 0 5.6 9.7 0 5.7 9.7 0 5.8 9.7 0 5.9 9.7 0 6 9.7 0 6.1 9.7 0 6.2 9.7 0 6.3 9.7 0 6.4 9.7 0 6.5 9.7 0 6.6 9.7 0 6.7 9.7 0 6.8 9.7 0 6.9 9.7 0 7 9.7 0 7.1 9.7 0 7.2 9.7 0 7.3 9.7 0 7.4 9.7 0 7.5 9.7 0 7.6 9.7 0 7.7 9.7 0 7.8 9.7 0 7.9 9.7 0 8 9.7 0 8.1 9.7 0 8.2 9.7 0 8.3 9.7 0 8.4 9.7 0 8.5 9.7 0 8.6 9.7 0 8.7 9.7 0 8.8 9.7 0 8.9 9.7 0 9 9.7 0 9.1 9.7 0 9.2 9.7 0 9.3 9.7 0 9.4 9.7 0 9.5 9.7 0 9.6 9.7 0 9.7 9.7 0 9.8 9.7 0 9.9 9.7 0 10 9.7 0 0 9.8 0 0.1 9.8 0 0.2 9.8 0 0.3 9.8 0 0.4 9.8 0 0.5 9.8 0 0.6 9.8 0 0.7 9.8 0 0.8 9.8 0 0.9 9.8 0 1 9.8 0 1.1 9.8 0 1.2 9.8 0 1.3 9.8 0 1.4 9.8 0 1.5 9.8 0 1.6 9.8 0 1.7 9.8 0 1.8 9.8 0 1.9 9.8 0 2 9.8 0 2.1 9.8 0 2.2 9.8 0 2.3 9.8 0 2.4 9.8 0 2.5 9.8 0 2.6 9.8 0 2.7 9.8 0 2.8 9.8 0 2.9 9.8 0 3 9.8 0 3.1 9.8 0 3.2 9.8 0 3.3 9.8 0 3.4 9.8 0 3.5 9.8 0 3.6 9.8 0 3.7 9.8 0 3.8 9.8 0 3.9 9.8 0 4 9.8 0 4.1 9.8 0 4.2 9.8 0 4.3 9.8 0 4.4 9.8 0 4.5 9.8 0 4.6 9.8 0 4.7 9.8 0 4.8 9.8 0 4.9 9.8 0 5 9.8 0 5.1 9.8 0 5.2 9.8 0 5.3 9.8 0 5.4 9.8 0 5.5 9.8 0 5.6 9.8 0 5.7 9.8 0 5.8 9.8 0 5.9 9.8 0 6 9.8 0 6.1 9.8 0 6.2 9.8 0 6.3 9.8 0 6.4 9.8 0 6.5 9.8 0 6.6 9.8 0 6.7 9.8 0 6.8 9.8 0 6.9 9.8 0 7 9.8 0 7.1 9.8 0 7.2 9.8 0 7.3 9.8 0 7.4 9.8 0 7.5 9.8 0 7.6 9.8 0 7.7 9.8 0 7.8 9.8 0 7.9 9.8 0 8 9.8 0 8.1 9.8 0 8.2 9.8 0 8.3 9.8 0 8.4 9.8 0 8.5 9.8 0 8.6 9.8 0 8.7 9.8 0 8.8 9.8 0 8.9 9.8 0 9 9.8 0 9.1 9.8 0 9.2 9.8 0 9.3 9.8 0 9.4 9.8 0 9.5 9.8 0 9.6 9.8 0 9.7 9.8 0 9.8 9.8 0 9.9 9.8 0 10 9.8 0 0 9.9 0 0.1 9.9 0 0.2 9.9 0 0.3 9.9 0 0.4 9.9 0 0.5 9.9 0 0.6 9.9 0 0.7 9.9 0 0.8 9.9 0 0.9 9.9 0 1 9.9 0 1.1 9.9 0 1.2 9.9 0 1.3 9.9 0 1.4 9.9 0 1.5 9.9 0 1.6 9.9 0 1.7 9.9 0 1.8 9.9 0 1.9 9.9 0 2 9.9 0 2.1 9.9 0 2.2 9.9 0 2.3 9.9 0 2.4 9.9 0 2.5 9.9 0 2.6 9.9 0 2.7 9.9 0 2.8 9.9 0 2.9 9.9 0 3 9.9 0 3.1 9.9 0 3.2 9.9 0 3.3 9.9 0 3.4 9.9 0 3.5 9.9 0 3.6 9.9 0 3.7 9.9 0 3.8 9.9 0 3.9 9.9 0 4 9.9 0 4.1 9.9 0 4.2 9.9 0 4.3 9.9 0 4.4 9.9 0 4.5 9.9 0 4.6 9.9 0 4.7 9.9 0 4.8 9.9 0 4.9 9.9 0 5 9.9 0 5.1 9.9 0 5.2 9.9 0 5.3 9.9 0 5.4 9.9 0 5.5 9.9 0 5.6 9.9 0 5.7 9.9 0 5.8 9.9 0 5.9 9.9 0 6 9.9 0 6.1 9.9 0 6.2 9.9 0 6.3 9.9 0 6.4 9.9 0 6.5 9.9 0 6.6 9.9 0 6.7 9.9 0 6.8 9.9 0 6.9 9.9 0 7 9.9 0 7.1 9.9 0 7.2 9.9 0 7.3 9.9 0 7.4 9.9 0 7.5 9.9 0 7.6 9.9 0 7.7 9.9 0 7.8 9.9 0 7.9 9.9 0 8 9.9 0 8.1 9.9 0 8.2 9.9 0 8.3 9.9 0 8.4 9.9 0 8.5 9.9 0 8.6 9.9 0 8.7 9.9 0 8.8 9.9 0 8.9 9.9 0 9 9.9 0 9.1 9.9 0 9.2 9.9 0 9.3 9.9 0 9.4 9.9 0 9.5 9.9 0 9.6 9.9 0 9.7 9.9 0 9.8 9.9 0 9.9 9.9 0 10 9.9 0 0 10 0 0.1 10 0 0.2 10 0 0.3 10 0 0.4 10 0 0.5 10 0 0.6 10 0 0.7 10 0 0.8 10 0 0.9 10 0 1 10 0 1.1 10 0 1.2 10 0 1.3 10 0 1.4 10 0 1.5 10 0 1.6 10 0 1.7 10 0 1.8 10 0 1.9 10 0 2 10 0 2.1 10 0 2.2 10 0 2.3 10 0 2.4 10 0 2.5 10 0 2.6 10 0 2.7 10 0 2.8 10 0 2.9 10 0 3 10 0 3.1 10 0 3.2 10 0 3.3 10 0 3.4 10 0 3.5 10 0 3.6 10 0 3.7 10 0 3.8 10 0 3.9 10 0 4 10 0 4.1 10 0 4.2 10 0 4.3 10 0 4.4 10 0 4.5 10 0 4.6 10 0 4.7 10 0 4.8 10 0 4.9 10 0 5 10 0 5.1 10 0 5.2 10 0 5.3 10 0 5.4 10 0 5.5 10 0 5.6 10 0 5.7 10 0 5.8 10 0 5.9 10 0 6 10 0 6.1 10 0 6.2 10 0 6.3 10 0 6.4 10 0 6.5 10 0 6.6 10 0 6.7 10 0 6.8 10 0 6.9 10 0 7 10 0 7.1 10 0 7.2 10 0 7.3 10 0 7.4 10 0 7.5 10 0 7.6 10 0 7.7 10 0 7.8 10 0 7.9 10 0 8 10 0 8.1 10 0 8.2 10 0 8.3 10 0 8.4 10 0 8.5 10 0 8.6 10 0 8.7 10 0 8.8 10 0 8.9 10 0 9 10 0 9.1 10 0 9.2 10 0 9.3 10 0 9.4 10 0 9.5 10 0 9.6 10 0 9.7 10 0 9.8 10 0 9.9 10 0 10 10 0 
</DataArray>
</Points> 
</Piece> 
</StructuredGrid> 
</VTKFile> 
