<?xml version="1.0"?> 
<VTKFile type="StructuredGrid" version="0.1"> 
<StructuredGrid WholeExtent="0 100 0 100 0 0"> 
<Piece Extent="0 100 0 100 0 0"> 
<PointData>
<DataArray type="Float32" Name="value" format="ascii" NumberOfComponents="1"> 
79.5515 79.5827 79.6755 79.8279 80.0372 80.2983 80.6054 80.9524 81.3311 81.7325 82.1474 82.5654 82.9757 83.3672 83.7289 84.0496 84.3184 84.5248 84.6597 84.714 84.6795 84.5506 84.3216 83.988 83.5481 83.0006 82.345 81.5832 80.7181 79.7526 78.6918 77.5415 76.3075 74.9969 73.617 72.1753 70.6797 69.1385 67.56 65.9521 64.3223 62.678 61.0265 59.3752 57.7312 56.101 54.4892 52.9004 51.339 49.8095 48.3165 46.8639 45.4537 44.0874 42.7665 41.4924 40.2666 39.0904 37.9641 36.887 35.8587 34.8787 33.9465 33.0615 32.223 31.4293 30.6792 29.9713 29.304 28.6761 28.086 27.5322 27.0132 26.5274 26.0733 25.6492 25.2539 24.8857 24.5435 24.226 23.9318 23.6597 23.4082 23.1765 22.9636 22.7684 22.5902 22.428 22.2808 22.148 22.0289 21.923 21.8298 21.7488 21.6794 21.6212 21.574 21.5376 21.5118 21.4964 21.4912 79.5827 79.6141 79.7076 79.861 80.0718 80.3348 80.6442 80.9938 81.3755 81.7802 82.1986 82.6205 83.0348 83.4305 83.7964 84.1214 84.3943 84.6048 84.7436 84.8015 84.7704 84.6444 84.4181 84.0867 83.6486 83.1024 82.4476 81.6863 80.8211 79.8552 78.7936 77.642 76.4064 75.0936 73.7113 72.267 70.7687 69.2246 67.6428 66.0313 64.3977 62.7496 61.0946 59.4399 57.7925 56.1588 54.5435 52.9512 51.3863 49.8535 48.3572 46.9014 45.4883 44.1192 42.7956 41.519 40.2909 39.1127 37.9844 36.9055 35.8756 34.894 33.9604 33.0742 32.2343 31.4395 30.6883 29.9793 29.3112 28.6824 28.0916 27.5372 27.0176 26.5313 26.0767 25.6523 25.2566 24.8881 24.5456 24.2278 23.9334 23.661 23.4094 23.1776 22.9645 22.7692 22.5909 22.4286 22.2813 22.1484 22.0292 21.9233 21.8301 21.7491 21.6796 21.6214 21.5742 21.5377 21.5119 21.4965 21.4913 79.6755 79.7076 79.803 79.9596 80.1748 80.4435 80.7596 81.1172 81.5079 81.9225 82.3517 82.785 83.2114 83.6195 83.9981 84.3358 84.6213 84.8441 84.9946 85.0634 85.0424 84.9255 84.7071 84.3824 83.9496 83.4074 82.7553 81.9952 81.13 80.1627 79.0984 77.943 76.7025 75.3838 73.9946 72.5425 71.0356 69.4821 67.8905 66.2688 64.6246 62.9658 61.2998 59.634 57.9756 56.331 54.705 53.1023 51.5272 49.9845 48.4788 47.014 45.5922 44.2149 42.8836 41.5997 40.3647 39.18 38.0456 36.9612 35.926 34.9397 34.0016 33.1113 32.2677 31.4695 30.7152 30.0034 29.3327 28.7016 28.1086 27.5523 27.0311 26.5432 26.0873 25.6617 25.2648 24.8953 24.552 24.2334 23.9383 23.6653 23.4132 23.1808 22.9673 22.7717 22.593 22.4304 22.2829 22.1498 22.0304 21.9243 21.831 21.7498 21.6803 21.622 21.5747 21.5382 21.5123 21.4969 21.4917 79.8279 79.861 79.9596 80.1215 80.344 80.6221 80.9496 81.3203 81.7259 82.1569 82.604 83.0565 83.503 83.9319 84.3317 84.6907 84.9973 85.2405 85.4106 85.4979 85.4939 85.3923 85.1872 84.8737 84.4501 83.9148 83.2673 82.5095 81.6443 80.6749 79.6064 78.4448 77.1962 75.8678 74.4672 73.0021 71.4808 69.9119 68.304 66.6654 65.0038 63.3269 61.6425 59.9581 58.2812 56.6184 54.9745 53.3542 51.7622 50.2031 48.6816 47.2017 45.7656 44.3746 43.0303 41.7342 40.4877 39.2921 38.1477 37.0538 36.0099 35.0155 34.07 33.1729 32.3231 31.5192 30.7598 30.0433 29.3684 28.7334 28.137 27.5775 27.0534 26.563 26.1048 25.6771 25.2784 24.9073 24.5625 24.2426 23.9463 23.6723 23.4193 23.1861 22.9719 22.7757 22.5965 22.4334 22.2855 22.152 22.0323 21.926 21.8324 21.7511 21.6814 21.6229 21.5755 21.539 21.513 21.4976 21.4924 80.0372 80.0718 80.1748 80.344 80.5768 80.8679 81.2111 81.6002 82.0266 82.4807 82.9528 83.4321 83.9067 84.3647 84.7943 85.1833 85.5195 85.7916 85.9894 86.1028 86.1227 86.0427 85.8566 85.5593 85.1488 84.6235 83.9827 83.2286 82.3638 81.3917 80.3176 79.1476 77.8878 76.5457 75.1292 73.646 72.1049 70.5146 68.8841 67.2218 65.5356 63.8335 62.1233 60.4128 58.7099 57.0215 55.3525 53.7076 52.0918 50.5096 48.9658 47.4648 46.0084 44.5982 43.2357 41.9224 40.6597 39.449 38.2904 37.1833 36.1272 35.1214 34.1655 33.2589 32.4004 31.5886 30.822 30.099 29.4181 28.7778 28.1765 27.6126 27.0845 26.5905 26.1291 25.6985 25.2972 24.9239 24.577 24.2554 23.9575 23.6821 23.4278 23.1935 22.9783 22.7812 22.6013 22.4376 22.2891 22.1551 22.035 21.9283 21.8344 21.7528 21.6829 21.6242 21.5767 21.54 21.514 21.4985 21.4933 80.2983 80.3348 80.4435 80.6221 80.8679 81.1756 81.5389 81.9515 82.4045 82.8881 83.3923 83.9059 84.4167 84.9123 85.3803 85.808 86.1826 86.4922 86.726 86.8733 86.9246 86.873 86.712 86.436 86.0429 85.5311 84.8997 84.1508 83.2873 82.3124 81.2316 80.0511 78.7774 77.418 75.9812 74.4752 72.9088 71.2912 69.6316 67.9387 66.2207 64.486 62.7425 60.9986 59.2624 57.541 55.8396 54.1631 52.5163 50.9042 49.3318 47.8032 46.3207 44.8857 43.4997 42.1642 40.8806 39.6504 38.4735 37.3495 36.2776 35.2573 34.2881 33.3691 32.4995 31.6775 30.9016 30.1702 29.4817 28.8344 28.2269 27.6574 27.1241 26.6256 26.16 25.7258 25.3213 24.945 24.5955 24.2716 23.9717 23.6945 23.4386 23.2029 22.9865 22.7883 22.6074 22.4428 22.2936 22.159 22.0383 21.9311 21.8369 21.7549 21.6847 21.6259 21.5781 21.5413 21.5152 21.4996 21.4944 80.6054 80.6442 80.7596 80.9496 81.2111 81.5389 81.9266 82.3676 82.8528 83.3723 83.9156 84.4711 85.0261 85.5678 86.083 86.5583 86.9803 87.3362 87.6147 87.8042 87.8946 87.8786 87.749 87.5 87.1292 86.6348 86.0158 85.2743 84.4132 83.4358 82.3477 81.1553 79.8652 78.4852 77.0241 75.4904 73.8933 72.2423 70.5471 68.8165 67.0595 65.2847 63.5008 61.7162 59.9393 58.1776 56.4365 54.721 53.0363 51.3874 49.7796 48.2173 46.7026 45.2371 43.8221 42.4594 41.1502 39.8961 38.6969 37.5522 36.4611 35.4231 34.4375 33.5036 32.6203 31.7858 30.9985 30.2568 29.5589 28.9033 28.2881 27.7116 27.1722 26.6681 26.1976 25.7589 25.3503 24.9705 24.6179 24.2912 23.9888 23.7094 23.4516 23.2142 22.9963 22.7968 22.6147 22.4491 22.299 22.1636 22.0423 21.9346 21.8398 21.7574 21.6869 21.6278 21.5798 21.5428 21.5166 21.501 21.4957 80.9524 80.9938 81.1172 81.3203 81.6002 81.9515 82.3676 82.8418 83.3648 83.9263 84.5156 85.1205 85.7278 86.3239 86.8952 87.4272 87.9057 88.3172 88.6493 88.8896 89.0274 89.0545 88.9633 88.7474 88.4042 87.9317 87.3286 86.5971 85.7401 84.7609 83.6652 82.4598 81.1512 79.7479 78.2587 76.6928 75.0596 73.3691 71.6314 69.8561 68.0527 66.2305 64.3988 62.5662 60.7414 58.9321 57.1438 55.3821 53.6522 51.9596 50.3097 48.7071 47.1541 45.6523 44.203 42.8079 41.4684 40.1859 38.9605 37.7912 36.6776 35.6186 34.6138 33.6622 32.7626 31.9134 31.1127 30.3587 29.6497 28.984 28.3598 27.7752 27.2285 26.7178 26.2415 25.7976 25.3844 25.0004 24.6441 24.3141 24.0088 23.7268 23.4667 23.2274 23.0077 22.8066 22.6232 22.4565 22.3053 22.169 22.047 21.9386 21.8432 21.7604 21.6895 21.63 21.5818 21.5446 21.5182 21.5025 21.4972 81.3311 81.3755 81.5079 81.7259 82.0266 82.4045 82.8528 83.3648 83.931 84.5404 85.1824 85.844 86.5114 87.1704 87.8066 88.4045 88.949 89.4255 89.8205 90.1208 90.3146 90.3931 90.3479 90.172 89.8625 89.4171 88.8344 88.1163 87.2659 86.2864 85.1837 83.9646 82.6362 81.2071 79.6865 78.084 76.4095 74.6737 72.8872 71.0603 69.2032 67.3262 65.439 63.5506 61.6701 59.8054 57.9625 56.147 54.3647 52.6213 50.9225 49.2731 47.6756 46.1315 44.6423 43.2096 41.8349 40.5197 39.2637 38.0663 36.9264 35.8434 34.8163 33.8443 32.9261 32.0597 31.2435 30.4754 29.7536 29.0763 28.4417 27.8478 27.2927 26.7745 26.2915 25.8416 25.4231 25.0343 24.6738 24.34 24.0315 23.7466 23.4839 23.2422 23.0205 22.8177 22.6328 22.4647 22.3124 22.1751 22.0522 21.943 21.847 21.7636 21.6923 21.6325 21.5839 21.5465 21.52 21.5042 21.4989 81.7325 81.7802 81.9225 82.1569 82.4807 82.8881 83.3723 83.9263 84.5404 85.2036 85.9045 86.6298 87.365 88.0954 88.8053 89.4784 90.0984 90.6496 91.1175 91.4874 91.7466 91.8854 91.8946 91.7665 91.4978 91.0858 90.5288 89.8287 88.9883 88.0109 86.9025 85.6701 84.321 82.8641 81.3092 79.6661 77.9456 76.159 74.3177 72.4328 70.5152 68.5758 66.6249 64.6722 62.7274 60.7991 58.8935 57.0167 55.1746 53.3733 51.6187 49.9159 48.2674 46.6749 45.1401 43.6645 42.2497 40.8971 39.6064 38.3768 37.2072 36.0968 35.0444 34.0493 33.1099 32.2242 31.3903 30.6062 29.87 29.1797 28.5333 27.9288 27.3643 26.8378 26.3472 25.8906 25.4661 25.0721 24.7068 24.3689 24.0566 23.7685 23.5029 23.2587 23.0348 22.83 22.6434 22.4738 22.3202 22.1818 22.0579 21.9479 21.8512 21.7672 21.6953 21.6351 21.5862 21.5486 21.5219 21.506 21.5006 82.1474 82.1986 82.3517 82.604 82.9528 83.3923 83.9156 84.5156 85.1824 85.9045 86.6703 87.4662 88.2767 89.0865 89.8789 90.6366 91.342 91.9781 92.529 92.9788 93.3133 93.5221 93.5949 93.5233 93.3035 92.9323 92.4075 91.7309 90.905 89.9331 88.8212 87.5764 86.2064 84.7202 83.1284 81.4412 79.6702 77.8278 75.9263 73.9775 71.9927 69.9831 67.9597 65.9335 63.9153 61.9146 59.938 57.9919 56.0827 54.2164 52.399 50.636 48.93 47.2829 45.6966 44.1726 42.7126 41.3179 39.9882 38.7223 37.5193 36.3781 35.2974 34.2763 33.3132 32.4059 31.5524 30.7506 29.9983 29.2935 28.6341 28.018 27.443 26.9072 26.4083 25.9444 25.5133 25.1133 24.7429 24.4003 24.084 23.7923 23.5236 23.2766 23.0502 22.8433 22.6548 22.4836 22.3286 22.1889 22.0639 21.953 21.8556 21.771 21.6985 21.6379 21.5887 21.5507 21.5239 21.5079 21.5025 82.5654 82.6205 82.785 83.0565 83.4321 83.9059 84.4711 85.1205 85.844 86.6298 87.4662 88.3389 89.2318 90.1288 91.0124 91.8639 92.6644 93.3958 94.0404 94.5808 95.0014 95.2906 95.4374 95.4322 95.2706 94.9489 94.4643 93.8181 93.0127 92.051 90.9391 89.6842 88.2937 86.7776 85.1466 83.4121 81.5864 79.683 77.7154 75.6961 73.6369 71.5492 69.445 67.3365 65.2361 63.1542 61.098 59.0745 57.0903 55.1515 53.2643 51.4341 49.6637 47.9556 46.3117 44.7339 43.2235 41.7818 40.4085 39.1024 37.8621 36.6866 35.5745 34.5247 33.5354 32.6043 31.7292 30.9078 30.138 29.4173 28.7437 28.1148 27.5284 26.9824 26.4744 26.0024 25.5641 25.1578 24.7817 24.4341 24.1134 23.8178 23.5457 23.2957 23.0666 22.8575 22.667 22.494 22.3375 22.1965 22.0704 21.9585 21.8602 21.7749 21.7019 21.6407 21.5911 21.5529 21.5259 21.5097 21.5043 82.9757 83.0348 83.2114 83.503 83.9067 84.4167 85.0261 85.7278 86.5114 87.365 88.2767 89.2318 90.2134 91.205 92.188 93.1423 94.048 94.8851 95.6344 96.2767 96.795 97.1763 97.4084 97.4808 97.3882 97.1262 96.6914 96.0846 95.3075 94.3626 93.2557 91.9939 90.5848 89.0385 87.3669 85.582 83.6972 81.7272 79.6864 77.5887 75.4467 73.2731 71.0808 68.8829 66.6925 64.521 62.3765 60.2667 58.1992 56.18 54.2153 52.3106 50.469 48.6932 46.9857 45.3482 43.7821 42.2886 40.8671 39.5164 38.2351 37.0217 35.8751 34.7937 33.7757 32.8186 31.92 31.0774 30.2884 29.5506 28.8615 28.2187 27.62 27.0629 26.5452 26.0644 25.6184 25.2051 24.823 24.4701 24.1446 23.8449 23.5691 23.3159 23.084 22.8724 22.6797 22.5049 22.3468 22.2044 22.077 21.9641 21.8649 21.7789 21.7053 21.6436 21.5936 21.5551 21.5278 21.5116 21.5061 83.3672 83.4305 83.6195 83.9319 84.3647 84.9123 85.5678 86.3239 87.1704 88.0954 89.0865 90.1288 91.205 92.2979 93.3881 94.4541 95.4746 96.4281 97.2935 98.0498 98.678 99.1641 99.4942 99.6565 99.6451 99.4547 99.0813 98.5246 97.7855 96.8656 95.7703 94.5064 93.0812 91.5056 89.7923 87.9544 86.0062 83.9633 81.8414 79.6558 77.4217 75.1543 72.8676 70.5744 68.2873 66.018 63.7761 61.5709 59.4112 57.3032 55.253 53.2661 51.3461 49.496 47.7186 46.0157 44.3884 42.8379 41.3636 39.964 38.6375 37.3828 36.1983 35.0825 34.0333 33.0481 32.1241 31.2586 30.4491 29.6928 28.9871 28.3294 27.7174 27.1485 26.6202 26.1301 25.6757 25.2551 24.8665 24.5079 24.1774 23.8733 23.5936 23.337 23.1021 22.8879 22.693 22.5162 22.3563 22.2124 22.0838 21.9698 21.8697 21.7829 21.7087 21.6465 21.5961 21.5572 21.5297 21.5133 21.5078 83.7289 83.7964 83.9981 84.3317 84.7943 85.3803 86.083 86.8952 87.8066 88.8053 89.8789 91.0124 92.188 93.3881 94.5924 95.7783 96.923 98.0034 98.9965 99.8791 100.631 101.235 101.677 101.944 102.028 101.923 101.625 101.131 100.442 99.5574 98.4821 97.2224 95.7852 94.1821 92.4269 90.5338 88.5183 86.397 84.1866 81.9047 79.5697 77.2 74.8114 72.4156 70.0241 67.6484 65.2999 62.9899 60.7287 58.5229 56.3786 54.3016 52.2957 50.3642 48.5104 46.7359 45.0418 43.4292 41.8972 40.4442 39.0687 37.7689 36.5433 35.3903 34.3074 33.2918 32.3406 31.4507 30.6192 29.8432 29.1197 28.4462 27.82 27.2384 26.6989 26.1989 25.7357 25.3073 24.9118 24.5472 24.2115 23.9028 23.619 23.3588 23.1208 22.9038 22.7065 22.5277 22.3661 22.2206 22.0907 21.9755 21.8745 21.7869 21.712 21.6492 21.5984 21.5592 21.5315 21.515 21.5094 84.0496 84.1214 84.3358 84.6907 85.1833 85.808 86.5583 87.4272 88.4045 89.4784 90.6366 91.8639 93.1423 94.4541 95.7783 97.0911 98.3685 99.586 100.718 101.74 102.628 103.366 103.936 104.323 104.519 104.518 104.311 103.896 103.272 102.435 101.39 100.142 98.6991 97.072 95.276 93.3266 91.2407 89.0368 86.7331 84.3495 81.9068 79.4261 76.9246 74.4144 71.9072 69.4151 66.9508 64.5269 62.1547 59.8416 57.5942 55.4184 53.3186 51.2984 49.3611 47.5085 45.7417 44.0613 42.4667 40.9559 39.5272 38.1789 36.909 35.7159 34.5969 33.5489 32.5686 31.6526 30.7977 30.0007 29.2585 28.5681 27.9269 27.3321 26.7808 26.2702 25.7978 25.3613 24.9587 24.5878 24.2466 23.933 23.645 23.3811 23.1398 22.92 22.7203 22.5393 22.3758 22.2288 22.0975 21.9812 21.8792 21.7907 21.7152 21.6519 21.6006 21.5611 21.5331 21.5164 21.5108 84.3184 84.3943 84.6213 84.9973 85.5195 86.1826 86.9803 87.9057 88.949 90.0984 91.342 92.6644 94.048 95.4746 96.923 98.3685 99.7864 101.151 102.434 103.607 104.647 105.534 106.249 106.775 107.104 107.225 107.129 106.812 106.268 105.494 104.492 103.268 101.826 100.179 98.3449 96.3388 94.1803 91.8909 89.4918 87.0043 84.4494 81.8482 79.2195 76.5787 73.9412 71.3214 68.7319 66.1851 63.6924 61.262 58.9014 56.6178 54.4157 52.2988 50.2707 48.3331 46.4871 44.7334 43.071 41.4979 40.0121 38.6115 37.2943 36.0584 34.9009 33.8182 32.8069 31.8632 30.9836 30.1645 29.4024 28.6944 28.0374 27.4286 26.865 26.3436 25.8615 25.4166 25.0065 24.6291 24.2822 23.9637 23.6713 23.4035 23.159 22.9362 22.734 22.5508 22.3855 22.2368 22.1041 21.9867 21.8837 21.7944 21.7181 21.6542 21.6025 21.5626 21.5344 21.5176 21.512 84.5248 84.6048 84.8441 85.2405 85.7916 86.4922 87.3362 88.3172 89.4255 90.6496 91.9781 93.3958 94.8851 96.4281 98.0034 99.586 101.151 102.67 104.114 105.453 106.659 107.711 108.59 109.278 109.761 110.028 110.067 109.87 109.428 108.735 107.791 106.601 105.169 103.51 101.639 99.5762 97.343 94.965 92.4676 89.8731 87.2008 84.4699 81.7005 78.9141 76.1322 73.3731 70.6483 67.9688 65.3452 62.7868 60.3029 57.9017 55.5881 53.366 51.2391 49.2092 47.2773 45.4443 43.7089 42.0689 40.5219 39.0657 37.6981 36.4166 35.2181 34.0987 33.0546 32.0816 31.1758 30.3334 29.5505 28.824 28.1507 27.5274 26.951 26.4183 25.9264 25.4727 25.0549 24.6708 24.3181 23.9945 23.6976 23.4259 23.178 22.9523 22.7475 22.5621 22.3949 22.2446 22.1105 21.9918 21.8878 21.7977 21.7207 21.6563 21.6041 21.5639 21.5354 21.5185 21.5128 84.6597 84.7436 84.9946 85.4106 85.9894 86.726 87.6147 88.6493 89.8205 91.1175 92.529 94.0404 95.6344 97.2935 98.9965 100.718 102.434 104.114 105.729 107.244 108.63 109.867 110.931 111.803 112.468 112.908 113.111 113.061 112.748 112.158 111.292 110.151 108.739 107.07 105.165 103.044 100.733 98.2606 95.6569 92.9459 90.1465 87.2777 84.3613 81.423 78.4888 75.5798 72.7079 69.8835 67.1172 64.4198 61.8017 59.2725 56.8375 54.5009 52.2666 50.1364 48.1115 46.193 44.3793 42.6677 41.0556 39.5403 38.1192 36.7894 35.5476 34.3894 33.3105 32.3066 31.3733 30.5064 29.7018 28.9561 28.2658 27.6276 27.0381 26.4939 25.9917 25.529 25.1035 24.7125 24.3539 24.025 23.7237 23.448 23.1966 22.9679 22.7606 22.573 22.4039 22.2519 22.1164 21.9966 21.8916 21.8006 21.7229 21.6579 21.6053 21.5648 21.5361 21.519 21.5133 84.714 84.8015 85.0634 85.4979 86.1028 86.8733 87.8042 88.8896 90.1208 91.4874 92.9788 94.5808 96.2767 98.0498 99.8791 101.74 103.607 105.453 107.244 108.945 110.528 111.968 113.24 114.324 115.198 115.845 116.244 116.377 116.223 115.765 114.999 113.924 112.541 110.868 108.929 106.748 104.354 101.779 99.0555 96.2115 93.2708 90.2573 87.1948 84.1075 81.0196 77.9518 74.9188 71.9347 69.0126 66.1643 63.4009 60.7327 58.1656 55.7043 53.3531 51.1142 48.989 46.9785 45.0809 43.2931 41.6119 40.0341 38.5565 37.1759 35.8883 34.6892 33.5737 32.5373 31.5751 30.6827 29.8555 29.0898 28.382 27.7285 27.1256 26.5696 26.0571 25.5853 25.1517 24.7539 24.3892 24.0551 23.7491 23.4695 23.2146 22.983 22.7731 22.5834 22.4123 22.2588 22.1219 22.0008 21.8948 21.803 21.7247 21.6591 21.606 21.5652 21.5363 21.5191 21.5133 84.6795 84.7704 85.0424 85.4939 86.1227 86.9246 87.8946 89.0274 90.3146 91.7466 93.3133 95.0014 96.795 98.678 100.631 102.628 104.647 106.659 108.63 110.528 112.321 113.983 115.489 116.812 117.929 118.817 119.451 119.804 119.846 119.552 118.911 117.92 116.579 114.908 112.935 110.693 108.212 105.528 102.672 99.6801 96.5849 93.4204 90.2131 86.9797 83.7358 80.4991 77.2902 74.1302 71.0377 68.0253 65.1043 62.2849 59.5738 56.9766 54.4985 52.142 49.9086 47.7994 45.8122 43.9433 42.1889 40.545 39.008 37.574 36.2384 34.9963 33.8426 32.7721 31.7799 30.8608 30.0102 29.2241 28.4984 27.8293 27.2128 26.6449 26.1218 25.6409 25.1993 24.7944 24.4236 24.0842 23.7737 23.4901 23.2318 22.9973 22.7849 22.593 22.4201 22.2649 22.1267 22.0044 21.8975 21.8049 21.7259 21.6598 21.6063 21.5651 21.536 21.5186 21.5128 84.5506 84.6444 84.9255 85.3923 86.0427 86.873 87.8786 89.0545 90.3931 91.8854 93.5221 95.2906 97.1763 99.1641 101.235 103.366 105.534 107.711 109.867 111.968 113.983 115.886 117.647 119.24 120.634 121.801 122.71 123.322 123.597 123.497 123.009 122.126 120.843 119.183 117.185 114.885 112.321 109.527 106.542 103.403 100.152 96.8298 93.4652 90.0697 86.6536 83.2325 79.8327 76.4816 73.2029 70.0104 66.9161 63.931 61.0628 58.3178 55.7023 53.2187 50.8688 48.6536 46.5705 44.6151 42.7829 41.0694 39.47 37.98 36.5945 35.3078 34.1144 33.0089 31.9856 31.0393 30.1648 29.3578 28.6139 27.929 27.2987 26.7188 26.1853 25.6951 25.2454 24.8336 24.4567 24.1121 23.7971 23.5096 23.248 23.0105 22.7957 22.6017 22.427 22.2703 22.1307 22.0073 21.8994 21.806 21.7264 21.6598 21.6059 21.5644 21.5351 21.5176 21.5117 84.3216 84.4181 84.7071 85.1872 85.8566 86.712 87.749 88.9633 90.3479 91.8946 93.5949 95.4374 97.4084 99.4942 101.677 103.936 106.249 108.59 110.931 113.24 115.489 117.647 119.688 121.581 123.289 124.775 125.998 126.908 127.452 127.582 127.276 126.524 125.32 123.689 121.678 119.33 116.69 113.8 110.702 107.437 104.041 100.554 97.0041 93.4102 89.7895 86.1629 82.5575 79.0013 75.5191 72.1273 68.8408 65.6733 62.6333 59.7279 56.9636 54.3431 51.8679 49.5389 47.353 45.3052 43.3904 41.6032 39.9383 38.3902 36.9529 35.6205 34.3866 33.2452 32.1904 31.2164 30.3177 29.4895 28.7274 28.0266 27.3825 26.7907 26.2466 25.7473 25.2897 24.8709 24.4881 24.1384 23.819 23.5276 23.2627 23.0226 22.8053 22.6093 22.4329 22.2747 22.1338 22.0094 21.9006 21.8065 21.7262 21.6591 21.6048 21.5631 21.5336 21.516 21.51 83.988 84.0867 84.3824 84.8737 85.5593 86.436 87.5 88.7474 90.172 91.7665 93.5233 95.4322 97.4808 99.6565 101.944 104.323 106.775 109.278 111.803 114.324 116.812 119.24 121.581 123.804 125.861 127.707 129.287 130.539 131.394 131.79 131.699 131.106 130.003 128.419 126.41 124.027 121.325 118.355 115.17 111.806 108.285 104.627 100.861 97.0263 93.1637 89.3072 85.4797 81.7026 77.997 74.3837 70.8834 67.5143 64.2861 61.2062 58.281 55.5131 52.9035 50.4524 48.1566 46.0102 44.0076 42.1428 40.4094 38.8008 37.3104 35.9312 34.6562 33.4787 32.3923 31.3905 30.4675 29.6182 28.8377 28.121 27.4633 26.8595 26.3051 25.7968 25.3314 24.9059 24.5174 24.1627 23.839 23.544 23.276 23.0331 22.8136 22.6157 22.4376 22.2779 22.1359 22.0105 21.9008 21.806 21.7252 21.6577 21.603 21.561 21.5313 21.5136 21.5077 83.5481 83.6486 83.9496 84.4501 85.1488 86.0429 87.1292 88.4042 89.8625 91.4978 93.3035 95.2706 97.3882 99.6451 102.028 104.519 107.104 109.761 112.468 115.198 117.929 120.634 123.289 125.861 128.298 130.542 132.531 134.181 135.404 136.117 136.284 135.882 134.896 133.367 131.363 128.954 126.203 123.169 119.909 116.456 112.814 108.987 105.004 100.923 96.8061 92.7003 88.6266 84.6024 80.6475 76.7877 73.05 69.458 66.0225 62.7514 59.6513 56.7243 53.9703 51.3891 48.9764 46.7258 44.6311 42.6851 40.8804 39.2094 37.6644 36.2375 34.9209 33.7072 32.5891 31.5598 30.6127 29.7424 28.9437 28.2113 27.54 26.9246 26.36 25.8429 25.37 24.9381 24.544 24.1847 23.8569 23.5584 23.2873 23.0419 22.8203 22.6205 22.4409 22.28 22.1368 22.0105 21.9001 21.8047 21.7234 21.6554 21.6005 21.5582 21.5283 21.5106 21.5045 83.0006 83.1024 83.4074 83.9148 84.6235 85.5311 86.6348 87.9317 89.4171 91.0858 92.9323 94.9489 97.1262 99.4547 101.923 104.518 107.225 110.028 112.908 115.845 118.817 121.801 124.775 127.707 130.542 133.222 135.679 137.801 139.467 140.565 141.041 140.862 140.004 138.524 136.519 134.087 131.299 128.209 124.871 121.313 117.54 113.558 109.392 105.103 100.748 96.3798 92.0271 87.718 83.4811 79.3472 75.3472 71.5085 67.8437 64.3618 61.0708 57.9716 55.0631 52.3435 49.8075 47.4478 45.257 43.227 41.3488 39.6135 38.0124 36.5368 35.1782 33.9283 32.7791 31.7227 30.7519 29.8609 29.0443 28.2965 27.6119 26.985 26.4106 25.885 25.4049 24.9669 24.5676 24.2038 23.8722 23.5705 23.2966 23.0488 22.8252 22.6237 22.4427 22.2806 22.1364 22.0093 21.8982 21.8023 21.7206 21.6522 21.597 21.5545 21.5245 21.5066 21.5006 82.345 82.4476 82.7553 83.2673 83.9827 84.8997 86.0158 87.3286 88.8344 90.5288 92.4075 94.4643 96.6914 99.0813 101.625 104.311 107.129 110.067 113.111 116.244 119.451 122.71 125.998 129.287 132.531 135.679 138.662 141.333 143.525 145.084 145.929 146.011 145.292 143.854 141.842 139.397 136.597 133.472 130.053 126.371 122.454 118.334 114.039 109.596 105.032 100.385 95.7118 91.0697 86.511 82.0706 77.7801 73.668 69.749 66.0346 62.5346 59.2493 56.1755 53.3094 50.6442 48.1711 45.8813 43.765 41.8115 40.0104 38.3517 36.8263 35.4254 34.1397 32.9601 31.8774 30.8835 29.9724 29.1384 28.3754 27.6779 27.0399 26.456 25.9224 25.4355 24.9918 24.5878 24.2199 23.8848 23.58 23.3036 23.0536 22.8281 22.6251 22.4428 22.2796 22.1346 22.0068 21.8952 21.7988 21.7167 21.6481 21.5926 21.5499 21.5198 21.5018 21.4958 81.5832 81.6863 81.9952 82.5095 83.2286 84.1508 85.2743 86.5971 88.1163 89.8287 91.7309 93.8181 96.0846 98.5246 101.131 103.896 106.812 109.87 113.061 116.377 119.804 123.322 126.908 130.539 134.181 137.801 141.333 144.591 147.357 149.429 150.699 151.093 150.555 149.202 147.236 144.85 142.124 139.052 135.628 131.877 127.851 123.606 119.173 114.551 109.74 104.766 99.7174 94.6886 89.7589 84.9679 80.3486 75.9304 71.73 67.7608 64.034 60.5485 57.2985 54.2782 51.4782 48.888 46.4967 44.2925 42.2628 40.395 38.6783 37.103 35.6599 34.339 33.1298 32.0218 31.0057 30.0753 29.2244 28.447 27.7371 27.0885 26.4957 25.9546 25.4614 25.0125 24.6041 24.2325 23.8943 23.5867 23.308 23.056 22.8289 22.6245 22.4411 22.277 22.1313 22.0029 21.8909 21.7942 21.7118 21.6429 21.5872 21.5444 21.5141 21.4961 21.4901 80.7181 80.8211 81.13 81.6443 82.3638 83.2873 84.4132 85.7401 87.2659 88.9883 90.905 93.0127 95.3075 97.7855 100.442 103.272 106.268 109.428 112.748 116.223 119.846 123.597 127.452 131.394 135.404 139.467 143.525 147.357 150.7 153.31 155.048 155.819 155.549 154.386 152.589 150.409 147.919 145.071 141.814 138.144 134.103 129.737 125.079 120.148 114.963 109.571 104.082 98.6087 93.2488 88.0498 83.0512 78.2878 73.7767 69.5303 65.5591 61.8593 58.4227 55.2403 52.3006 49.5901 47.0954 44.8024 42.6963 40.7622 38.9879 37.3634 35.879 34.5238 33.2861 32.1537 31.1164 30.1676 29.3008 28.5099 27.7884 27.1301 26.529 25.981 25.4821 25.0284 24.6161 24.2413 23.9002 23.5903 23.3095 23.0559 22.8273 22.6219 22.4375 22.2727 22.1264 21.9976 21.8852 21.7883 21.7057 21.6366 21.5808 21.5378 21.5075 21.4895 21.4834 79.7526 79.8552 80.1627 80.6749 81.3917 82.3124 83.4358 84.7609 86.2864 88.0109 89.9331 92.051 94.3626 96.8656 99.5574 102.435 105.494 108.735 112.158 115.765 119.552 123.497 127.582 131.79 136.117 140.565 145.084 149.429 153.31 156.452 158.696 159.924 160.046 159.237 157.806 156.044 154.02 151.635 148.79 145.422 141.505 137.017 131.991 126.543 120.793 114.857 108.845 102.861 96.9997 91.3226 85.8839 80.7302 75.8769 71.3311 67.098 63.1704 59.537 56.1858 53.1018 50.2685 47.6695 45.2876 43.1056 41.1064 39.2761 37.6041 36.0799 34.6918 33.4266 32.271 31.2137 30.2476 29.3662 28.5628 27.8309 27.1638 26.5553 26.0011 25.4971 25.0392 24.6235 24.2458 23.9024 23.5905 23.308 23.053 22.8233 22.617 22.4319 22.2666 22.1199 21.9908 21.8782 21.7811 21.6983 21.6292 21.5732 21.5302 21.4998 21.4818 21.4758 78.6918 78.7936 79.0984 79.6064 80.3176 81.2316 82.3477 83.6652 85.1837 86.9025 88.8212 90.9391 93.2557 95.7703 98.4821 101.39 104.492 107.791 111.292 114.999 118.911 123.009 127.276 131.699 136.284 141.041 145.929 150.699 155.048 158.696 161.472 163.248 163.926 163.691 162.873 161.782 160.461 158.758 156.519 153.608 149.91 145.312 139.85 133.766 127.317 120.709 114.055 107.454 101 94.7678 88.8273 83.2374 78.0087 73.14 68.6284 64.4616 60.624 57.0995 53.8692 50.9128 48.2098 45.7401 43.4841 41.4221 39.5385 37.8216 36.2598 34.8404 33.5491 32.3715 31.2955 30.3136 29.419 28.6046 27.8635 27.1888 26.574 26.0144 25.506 25.0445 24.6258 24.2458 23.9004 23.5869 23.3031 23.0471 22.8167 22.6098 22.4242 22.2586 22.1116 21.9824 21.8697 21.7725 21.6897 21.6205 21.5645 21.5215 21.4911 21.4731 21.4671 77.5415 77.642 77.943 78.4448 79.1476 80.0511 81.1553 82.4598 83.9646 85.6701 87.5764 89.6842 91.9939 94.5064 97.2224 100.142 103.268 106.601 110.151 113.924 117.92 122.126 126.524 131.106 135.882 140.862 146.011 151.093 155.819 159.924 163.248 165.671 167.104 167.716 167.81 167.667 167.278 166.426 164.889 162.472 159.007 154.333 148.49 141.805 134.622 127.223 119.765 112.39 105.227 98.3578 91.8569 85.7853 80.1467 74.9303 70.1242 65.7093 61.6635 57.9649 54.5892 51.5115 48.7068 46.1519 43.8247 41.7034 39.7705 38.0124 36.416 34.9673 33.6512 32.4529 31.3597 30.3637 29.4576 28.6339 27.8853 27.2044 26.5843 26.0204 25.5083 25.0438 24.6227 24.2407 23.8939 23.5792 23.2947 23.0381 22.8072 22.6001 22.4144 22.2486 22.1016 21.9723 21.8596 21.7624 21.6796 21.6105 21.5546 21.5117 21.4813 21.4633 21.4573 76.3075 76.4064 76.7025 77.1962 77.8878 78.7774 79.8652 81.1512 82.6362 84.321 86.2064 88.2937 90.5848 93.0812 95.7852 98.6991 101.826 105.169 108.739 112.541 116.579 120.843 125.32 130.003 134.896 140.004 145.292 150.555 155.549 160.046 163.926 167.104 169.52 171.294 172.641 173.755 174.539 174.687 173.891 171.928 168.659 163.953 157.864 150.706 142.81 134.489 126.017 117.665 109.653 102.061 94.9437 88.3462 82.262 76.6725 71.5577 66.8892 62.6355 58.7654 55.248 52.0532 49.1509 46.5146 44.1205 41.9447 39.9675 38.173 36.5456 35.0699 33.7307 32.5132 31.4045 30.3963 29.4806 28.6496 27.8952 27.2097 26.5858 26.0184 25.5035 25.0367 24.6138 24.2304 23.8825 23.5673 23.2824 23.0257 22.7949 22.5878 22.4022 22.2366 22.0897 21.9605 21.8479 21.7508 21.6682 21.5992 21.5435 21.5007 21.4704 21.4525 21.4465 74.9969 75.0936 75.3838 75.8678 76.5457 77.418 78.4852 79.7479 81.2071 82.8641 84.7202 86.7776 89.0385 91.5056 94.1821 97.072 100.179 103.51 107.07 110.868 114.908 119.183 123.689 128.419 133.367 138.524 143.854 149.202 154.386 159.237 163.691 167.716 171.294 174.495 177.436 180.212 182.602 184.161 184.445 183.169 180.206 175.439 168.943 161.057 152.135 142.563 132.774 123.206 114.198 105.802 98.0225 90.8607 84.299 78.3159 72.8869 67.9703 63.5184 59.4846 55.8307 52.5231 49.5287 46.8179 44.3641 42.1408 40.1256 38.2999 36.6454 35.1455 33.7855 32.5507 31.4286 30.4103 29.4872 28.6509 27.8927 27.2043 26.5778 26.0082 25.4914 25.023 24.5988 24.2146 23.8663 23.5509 23.2662 23.0098 22.7794 22.5729 22.3877 22.2224 22.0758 21.9469 21.8345 21.7377 21.6553 21.5866 21.5311 21.4885 21.4584 21.4405 21.4345 73.617 73.7113 73.9946 74.4672 75.1292 75.9812 77.0241 78.2587 79.6865 81.3092 83.1284 85.1466 87.3669 89.7923 92.4269 95.276 98.3449 101.639 105.165 108.929 112.935 117.185 121.678 126.41 131.363 136.519 141.842 147.236 152.589 157.806 162.873 167.81 172.641 177.436 182.287 187.256 191.974 195.765 197.952 198.048 195.752 190.779 183.228 173.723 162.931 151.483 139.953 128.907 118.756 109.485 101.01 93.2531 86.1883 79.7991 74.0628 68.9182 64.2901 60.1064 56.322 52.9055 49.8255 47.0504 44.5482 42.287 40.2409 38.3892 36.712 35.1914 33.8134 32.5641 31.4312 30.4052 29.4769 28.6374 27.8773 27.1875 26.5599 25.9892 25.4715 25.0023 24.5777 24.1933 23.8451 23.5301 23.2461 22.9905 22.761 22.5552 22.3708 22.2061 22.06 21.9315 21.8195 21.723 21.6409 21.5726 21.5174 21.4751 21.4452 21.4274 21.4214 72.1753 72.267 72.5425 73.0021 73.646 74.4752 75.4904 76.6928 78.084 79.6661 81.4412 83.4121 85.582 87.9544 90.5338 93.3266 96.3388 99.5762 103.044 106.748 110.693 114.885 119.33 124.027 128.954 134.087 139.397 144.85 150.409 156.044 161.782 167.667 173.755 180.212 187.256 195.056 203.088 210.325 215.734 218.372 217.385 211.944 202.168 189.489 175.432 161.214 147.443 134.66 123.226 113.014 103.81 95.4375 87.8567 81.0634 75.0409 69.7003 64.927 60.6124 56.7055 53.1847 50.0277 47.2015 44.6652 42.378 40.3091 38.4372 36.7416 35.2044 33.8122 32.5519 31.4112 30.3802 29.4493 28.6086 27.8484 27.159 26.5316 25.9611 25.4435 24.9746 24.5502 24.1663 23.8189 23.5049 23.222 22.9676 22.7394 22.5348 22.3514 22.1876 22.0422 21.9143 21.8028 21.7068 21.6252 21.5572 21.5025 21.4605 21.4308 21.4132 21.4071 70.6797 70.7687 71.0356 71.4808 72.1049 72.9088 73.8933 75.0596 76.4095 77.9456 79.6702 81.5864 83.6972 86.0062 88.5183 91.2407 94.1803 97.343 100.733 104.354 108.212 112.321 116.69 121.325 126.203 131.299 136.597 142.124 147.919 154.02 160.461 167.278 174.539 182.602 191.974 203.088 215.359 227.466 238.053 245.296 246.902 240.611 226.518 207.978 188.579 170.757 154.7 140.342 127.587 116.265 106.188 97.1914 89.1833 82.0914 75.8375 70.3107 65.3877 60.9524 56.9492 53.3537 50.1409 47.2745 44.7098 42.4024 40.3186 38.4349 36.7287 35.1812 33.78 32.5127 31.3678 30.3349 29.4037 28.5641 27.8056 27.1182 26.4925 25.9235 25.4071 24.9394 24.5163 24.1337 23.7877 23.4753 23.194 22.9413 22.7147 22.5115 22.3295 22.1667 22.0223 21.8952 21.7844 21.689 21.608 21.5406 21.4863 21.4447 21.4153 21.3978 21.3917 69.1385 69.2246 69.4821 69.9119 70.5146 71.2912 72.2423 73.3691 74.6737 76.159 77.8278 79.683 81.7272 83.9633 86.397 89.0368 91.8909 94.965 98.2606 101.779 105.528 109.527 113.8 118.355 123.169 128.209 133.472 139.052 145.071 151.635 158.758 166.426 174.687 184.161 195.765 210.325 227.466 245.943 264.403 279.5 285.886 278.245 256.526 227.981 200.376 178.418 160.872 145.821 131.875 119.098 107.804 98.1936 90.0128 82.8955 76.5134 70.7621 65.6179 61.0534 57.0096 53.4111 50.1843 47.2824 44.6781 42.3445 40.2523 38.3701 36.6663 35.118 33.7144 32.4452 31.3001 30.2685 29.3398 28.5034 27.7485 27.0646 26.4421 25.8759 25.3621 24.8967 24.4757 24.0953 23.7514 23.4412 23.1621 22.9115 22.6867 22.4854 22.305 22.1436 22.0003 21.8742 21.7643 21.6697 21.5894 21.5226 21.4688 21.4277 21.3986 21.3813 21.3752 67.56 67.6428 67.8905 68.304 68.8841 69.6316 70.5471 71.6314 72.8872 74.3177 75.9263 77.7154 79.6864 81.8414 84.1866 86.7331 89.4918 92.4676 95.6569 99.0555 102.672 106.542 110.702 115.17 119.909 124.871 130.053 135.628 141.814 148.79 156.519 164.889 173.891 184.445 197.952 215.734 238.053 264.403 294.047 321.279 335.43 325.842 292.132 248.178 208.851 182.555 165.12 150.938 136.095 121.368 108.334 98.1398 90.1968 83.4839 77.1222 71.0648 65.5656 60.8467 56.846 53.3555 50.1754 47.237 44.5663 42.1894 40.0944 38.231 36.5477 35.0112 33.6134 32.348 31.2072 30.1806 29.2571 28.4261 27.6766 26.9977 26.3799 25.8179 25.3079 24.8461 24.4284 24.051 23.7101 23.4027 23.1262 22.878 22.6556 22.4564 22.2778 22.118 21.9762 21.8513 21.7425 21.6489 21.5694 21.5033 21.4501 21.4095 21.3808 21.3636 21.3576 65.9521 66.0313 66.2688 66.6654 67.2218 67.9387 68.8165 69.8561 71.0603 72.4328 73.9775 75.6961 77.5887 79.6558 81.9047 84.3495 87.0043 89.8731 92.9459 96.2115 99.6801 103.403 107.437 111.806 116.456 121.313 126.371 131.877 138.144 145.422 153.608 162.472 171.928 183.169 198.048 218.372 245.296 279.5 321.279 362.268 385.444 373.764 326.413 265.087 213.058 183.003 167.033 154.9 139.55 122.762 107.824 97.1634 89.7654 83.7539 77.5335 71.1491 65.2391 60.3703 56.4785 53.1747 50.0873 47.1194 44.3719 41.946 39.855 38.0241 36.3751 34.8609 33.4767 32.2209 31.0891 30.0709 29.1556 28.3322 27.5898 26.9176 26.3059 25.7496 25.2448 24.7877 24.3744 24.001 23.6638 23.3598 23.0865 22.8411 22.6213 22.4244 22.2479 22.0901 21.9499 21.8266 21.7191 21.6265 21.548 21.4827 21.4302 21.3901 21.3617 21.3448 21.3388 64.3223 64.3977 64.6246 65.0038 65.5356 66.2207 67.0595 68.0527 69.2032 70.5152 71.9927 73.6369 75.4467 77.4217 79.5697 81.9068 84.4494 87.2008 90.1465 93.2708 96.5849 100.152 104.041 108.285 112.814 117.54 122.454 127.851 134.103 141.505 149.91 159.007 168.659 180.206 195.752 217.385 246.902 285.886 335.43 385.444 414.652 401.736 345.576 273.071 213.076 181.083 166.63 156.283 140.841 122.809 106.692 95.8355 88.9271 83.4918 77.4333 70.8664 64.7064 59.7686 55.988 52.8462 49.849 46.8797 44.0935 41.6464 39.5705 37.7738 36.1597 34.6712 33.3058 32.065 30.9464 29.9403 29.0358 28.2222 27.4888 26.8248 26.2206 25.6713 25.1729 24.7217 24.3138 23.9454 23.6127 23.3127 23.0429 22.8008 22.5839 22.3897 22.2156 22.0599 21.9216 21.8 21.694 21.6027 21.5253 21.4609 21.4092 21.3695 21.3416 21.3249 21.319 62.678 62.7496 62.9658 63.3269 63.8335 64.486 65.2847 66.2305 67.3262 68.5758 69.9831 71.5492 73.2731 75.1543 77.2 79.4261 81.8482 84.4699 87.2777 90.2573 93.4204 96.8298 100.554 104.627 108.987 113.558 118.334 123.606 129.737 137.017 145.312 154.333 163.953 175.439 190.779 211.944 240.611 278.245 325.842 373.764 401.736 389.444 335.825 266.52 209.036 178.155 163.952 153.667 138.567 121.037 105.366 94.7351 87.894 82.4838 76.5061 70.0677 64.0372 59.1883 55.4569 52.3478 49.3889 46.4675 43.7301 41.3237 39.2779 37.505 35.9128 34.4462 33.1022 31.8811 30.78 29.7892 28.8982 28.0966 27.3739 26.7196 26.1245 25.5834 25.0928 24.6486 24.247 23.8843 23.5567 23.2613 22.9957 22.7572 22.5436 22.3522 22.1808 22.0275 21.8914 21.7717 21.6673 21.5775 21.5013 21.4379 21.3869 21.3479 21.3204 21.3039 21.2982 61.0265 61.0946 61.2998 61.6425 62.1233 62.7425 63.5008 64.3988 65.439 66.6249 67.9597 69.445 71.0808 72.8676 74.8114 76.9246 79.2195 81.7005 84.3613 87.1948 90.2131 93.4652 97.0041 100.861 105.004 109.392 114.039 119.173 125.079 131.991 139.85 148.49 157.864 168.943 183.228 202.168 226.518 256.526 292.132 326.413 345.576 335.825 296.532 245.35 201.203 174.501 159.113 147.012 132.667 117.45 103.912 93.9338 86.7001 80.7231 74.7342 68.7484 63.2449 58.648 54.8969 51.681 48.7035 45.8809 43.2837 40.9826 38.9826 37.222 35.6372 34.188 32.8673 31.6703 30.5905 29.6182 28.7433 27.9558 27.2456 26.6027 26.0179 25.4865 25.0046 24.5684 24.1742 23.818 23.4962 23.206 22.9448 22.7104 22.5004 22.3122 22.1436 21.993 21.8593 21.7416 21.6392 21.5509 21.4761 21.4138 21.3636 21.3252 21.2981 21.282 21.2763 59.3752 59.4399 59.634 59.9581 60.4128 60.9986 61.7162 62.5662 63.5506 64.6722 65.9335 67.3365 68.8829 70.5744 72.4156 74.4144 76.5787 78.9141 81.423 84.1075 86.9797 90.0697 93.4102 97.0263 100.923 105.103 109.596 114.551 120.148 126.543 133.766 141.805 150.706 161.057 173.723 189.489 207.978 227.981 248.178 265.087 273.071 266.52 245.35 217.148 190.04 168.907 152.337 138.193 124.94 112.706 101.9 92.7996 85.1322 78.4907 72.5132 67.1043 62.2648 57.9896 54.2225 50.8807 47.8837 45.1847 42.7608 40.5899 38.6462 36.9007 35.3245 33.8956 32.6024 31.4337 30.3787 29.428 28.5717 27.8004 27.1045 26.4744 25.9014 25.3808 24.9088 24.4817 24.0955 23.7466 23.4313 23.1467 22.8906 22.6606 22.4544 22.2697 22.1043 21.9565 21.8254 21.71 21.6096 21.523 21.4496 21.3885 21.3392 21.3015 21.2749 21.259 21.2535 57.7312 57.7925 57.9756 58.2812 58.7099 59.2624 59.9393 60.7414 61.6701 62.7274 63.9153 65.2361 66.6925 68.2873 70.0241 71.9072 73.9412 76.1322 78.4888 81.0196 83.7358 86.6536 89.7895 93.1637 96.8061 100.748 105.032 109.74 114.963 120.793 127.317 134.622 142.81 152.135 162.931 175.432 188.579 200.376 208.851 213.058 213.076 209.036 201.203 190.04 176.025 160.057 143.853 129.219 117.315 107.51 98.8662 90.6521 82.9598 76.0876 70.2676 65.3454 61.0269 57.0425 53.3411 49.9839 47.0269 44.4481 42.1684 40.1093 38.2275 36.515 34.9651 33.5679 32.3086 31.1722 30.1455 29.2191 28.3839 27.6309 26.9511 26.3353 25.7754 25.2668 24.8058 24.3885 24.0113 23.6703 23.362 23.0836 22.8329 22.6077 22.4058 22.2249 22.0629 21.9182 21.7898 21.6769 21.5786 21.4939 21.422 21.3621 21.3138 21.2768 21.2507 21.2352 21.2298 56.101 56.1588 56.331 56.6184 57.0215 57.541 58.1776 58.9321 59.8054 60.7991 61.9146 63.1542 64.521 66.018 67.6484 69.4151 71.3214 73.3731 75.5798 77.9518 80.4991 83.2325 86.1629 89.3072 92.7003 96.3798 100.385 104.766 109.571 114.857 120.709 127.223 134.489 142.563 151.483 161.214 170.757 178.418 182.555 183.003 181.083 178.155 174.501 168.907 160.057 147.774 134.088 121.282 110.882 102.32 94.6729 87.2262 80.1157 73.689 68.2242 63.5917 59.5143 55.7386 52.2186 49.0153 46.1849 43.7085 41.5135 39.5272 37.7101 36.0551 34.5568 33.2058 31.9877 30.8873 29.892 28.9926 28.1808 27.4481 26.786 26.186 25.6406 25.1451 24.6959 24.2894 23.9218 23.5894 23.2886 23.0169 22.7721 22.5521 22.3547 22.1779 22.0195 21.878 21.7526 21.6423 21.5462 21.4635 21.3932 21.3346 21.2874 21.2512 21.2256 21.2104 21.2052 54.4892 54.5435 54.705 54.9745 55.3525 55.8396 56.4365 57.1438 57.9625 58.8935 59.938 61.098 62.3765 63.7761 65.2999 66.9508 68.7319 70.6483 72.7079 74.9188 77.2902 79.8327 82.5575 85.4797 88.6266 92.0271 95.7118 99.7174 104.082 108.845 114.055 119.765 126.017 132.774 139.953 147.443 154.7 160.872 165.12 167.033 166.63 163.952 159.113 152.337 143.853 134.088 123.849 113.987 105.104 97.1154 89.8219 83.0638 76.8486 71.2253 66.2264 61.7885 57.8132 54.2083 50.9334 47.9753 45.3199 42.941 40.8038 38.8735 37.125 35.5425 34.1106 32.815 31.643 30.5818 29.6203 28.7503 27.9639 27.2532 26.6104 26.0276 25.4977 25.0163 24.5799 24.1848 23.8275 23.5042 23.2115 22.9469 22.7083 22.4938 22.3013 22.1288 21.9742 21.8363 21.714 21.6064 21.5127 21.432 21.3634 21.3063 21.2601 21.2247 21.1998 21.1849 21.1799 52.9004 52.9512 53.1023 53.3542 53.7076 54.1631 54.721 55.3821 56.147 57.0167 57.9919 59.0745 60.2667 61.5709 62.9899 64.5269 66.1851 67.9688 69.8835 71.9347 74.1302 76.4816 79.0013 81.7026 84.6024 87.718 91.0697 94.6886 98.6087 102.861 107.454 112.39 117.665 123.206 128.907 134.66 140.342 145.821 150.938 154.9 156.283 153.667 147.012 138.193 129.219 121.282 113.987 106.757 99.2569 91.8181 84.8873 78.7994 73.4438 68.5987 64.0736 59.8614 56.0218 52.6048 49.5768 46.8612 44.3842 42.1136 40.0472 38.1833 36.5093 35.0024 33.6391 32.4014 31.278 30.2583 29.3329 28.4941 27.7348 27.0477 26.4255 25.8611 25.3478 24.8814 24.4585 24.0754 23.7289 23.4152 23.131 22.8738 22.6419 22.4332 22.2458 22.0778 21.9274 21.7931 21.674 21.5693 21.4781 21.3995 21.3327 21.277 21.232 21.1975 21.1731 21.1587 21.1538 51.339 51.3863 51.5272 51.7622 52.0918 52.5163 53.0363 53.6522 54.3647 55.1746 56.0827 57.0903 58.1992 59.4112 60.7287 62.1547 63.6924 65.3452 67.1172 69.0126 71.0377 73.2029 75.5191 77.997 80.6475 83.4811 86.511 89.7589 93.2488 96.9997 101 105.227 109.653 114.198 118.756 123.226 127.587 131.875 136.095 139.55 140.841 138.567 132.667 124.94 117.315 110.882 105.104 99.2569 92.9064 86.414 80.278 74.8773 70.1127 65.7655 61.6502 57.7739 54.2138 51.0362 48.2154 45.6775 43.3517 41.2093 39.252 37.4817 35.889 34.453 33.1524 31.9702 30.896 29.9196 29.0318 28.2259 27.4952 26.833 26.2327 25.6876 25.1917 24.741 24.3322 23.9618 23.6264 23.3227 23.0474 22.7981 22.5731 22.3705 22.1885 22.0253 21.8791 21.7486 21.6329 21.5311 21.4425 21.3661 21.3012 21.247 21.2032 21.1696 21.1458 21.1317 21.127 49.8095 49.8535 49.9845 50.2031 50.5096 50.9042 51.3874 51.9596 52.6213 53.3733 54.2164 55.1515 56.18 57.3032 58.5229 59.8416 61.262 62.7868 64.4198 66.1643 68.0253 70.0104 72.1273 74.3837 76.7877 79.3472 82.0706 84.9679 88.0498 91.3226 94.7678 98.3578 102.061 105.802 109.485 113.014 116.265 119.098 121.368 122.762 122.809 121.037 117.45 112.706 107.51 102.32 97.1154 91.8181 86.414 81.0609 75.9462 71.2174 66.8629 62.8308 59.0765 55.595 52.396 49.4861 46.847 44.4472 42.2558 40.2533 38.4278 36.7679 35.261 33.8936 32.6523 31.5248 30.5003 29.5683 28.7195 27.9477 27.2467 26.6104 26.0329 25.5081 25.0304 24.5961 24.2018 23.8445 23.5207 23.2274 22.9612 22.72 22.5022 22.3059 22.1295 21.9713 21.8295 21.7029 21.5907 21.492 21.406 21.3319 21.2688 21.2162 21.1737 21.141 21.1179 21.1042 21.0996 48.3165 48.3572 48.4788 48.6816 48.9658 49.3318 49.7796 50.3097 50.9225 51.6187 52.399 53.2643 54.2153 55.253 56.3786 57.5942 58.9014 60.3029 61.8017 63.4009 65.1043 66.9161 68.8408 70.8834 73.05 75.3472 77.7801 80.3486 83.0512 85.8839 88.8273 91.8569 94.9437 98.0225 101.01 103.81 106.188 107.804 108.334 107.824 106.692 105.366 103.912 101.9 98.8662 94.6729 89.8219 84.8873 80.278 75.9462 71.7659 67.65 63.6672 59.9251 56.5128 53.4115 50.5638 47.9166 45.4579 43.1964 41.1401 39.2777 37.5846 36.0362 34.6169 33.3201 32.1399 31.0681 30.0941 29.2072 28.3982 27.6613 26.9908 26.3815 25.8276 25.3237 24.8648 24.4473 24.0681 23.7241 23.4122 23.1294 22.8727 22.6399 22.4294 22.2397 22.0691 21.916 21.7788 21.6563 21.5476 21.452 21.3688 21.297 21.2359 21.1848 21.1436 21.1119 21.0895 21.0762 21.0718 46.8639 46.9014 47.014 47.2017 47.4648 47.8032 48.2173 48.7071 49.2731 49.9159 50.636 51.4341 52.3106 53.2661 54.3016 55.4184 56.6178 57.9017 59.2725 60.7327 62.2849 63.931 65.6733 67.5143 69.458 71.5085 73.668 75.9304 78.2878 80.7302 83.2374 85.7853 88.3462 90.8607 93.2531 95.4375 97.1914 98.1936 98.1398 97.1634 95.8355 94.7351 93.9338 92.7996 90.6521 87.2262 83.0638 78.7994 74.8773 71.2174 67.65 64.0551 60.5129 57.1536 54.086 51.2946 48.7189 46.3036 44.0412 41.9482 40.0401 38.3092 36.7318 35.2841 33.9518 32.7306 31.6165 30.603 29.6805 28.839 28.0701 27.3686 26.7294 26.1474 25.6178 25.1355 24.6958 24.2954 23.9315 23.6012 23.3014 23.0294 22.7822 22.558 22.3551 22.1722 22.0075 21.8597 21.7271 21.6088 21.5038 21.4114 21.3308 21.2614 21.2023 21.1529 21.113 21.0823 21.0606 21.0478 21.0435 45.4537 45.4883 45.5922 45.7656 46.0084 46.3207 46.7026 47.1541 47.6756 48.2674 48.93 49.6637 50.469 51.3461 52.2957 53.3186 54.4157 55.5881 56.8375 58.1656 59.5738 61.0628 62.6333 64.2861 66.0225 67.8437 69.749 71.73 73.7767 75.8769 78.0087 80.1467 82.262 84.299 86.1883 87.8567 89.1833 90.0128 90.1968 89.7654 88.9271 87.894 86.7001 85.1322 82.9598 80.1157 76.8486 73.4438 70.1127 66.8629 63.6672 60.5129 57.4442 54.5197 51.7893 49.2518 46.8874 44.6781 42.6189 40.7119 38.9585 37.3513 35.8767 34.5211 33.2747 32.1318 31.0868 30.133 29.2621 28.466 27.7374 27.0715 26.4638 25.9098 25.4048 24.9443 24.5242 24.1413 23.7929 23.4763 23.1888 22.9277 22.6903 22.4747 22.2796 22.1035 21.945 21.8025 21.6747 21.5606 21.4593 21.3701 21.2924 21.2253 21.1682 21.1205 21.082 21.0523 21.0314 21.0189 21.0148 44.0874 44.1192 44.2149 44.3746 44.5982 44.8857 45.2371 45.6523 46.1315 46.6749 47.2829 47.9556 48.6932 49.496 50.3642 51.2984 52.2988 53.366 54.5009 55.7043 56.9766 58.3178 59.7279 61.2062 62.7514 64.3618 66.0346 67.7608 69.5303 71.3311 73.14 74.9303 76.6725 78.3159 79.7991 81.0634 82.0914 82.8955 83.4839 83.7539 83.4918 82.4838 80.7231 78.4907 76.0876 73.689 71.2253 68.5987 65.7655 62.8308 59.9251 57.1536 54.5197 52.0016 49.5823 47.2746 45.1018 43.0846 41.2202 39.4935 37.89 36.4019 35.0262 33.7599 32.5978 31.5324 30.5559 29.6613 28.8417 28.0905 27.402 26.7718 26.1958 25.6698 25.1897 24.7513 24.3509 23.9855 23.6528 23.3501 23.0749 22.8248 22.5972 22.3905 22.2032 22.034 21.8817 21.7447 21.6218 21.5119 21.4143 21.3285 21.2535 21.1889 21.1338 21.0878 21.0506 21.022 21.0018 20.9898 20.9858 42.7665 42.7956 42.8836 43.0303 43.2357 43.4997 43.8221 44.203 44.6423 45.1401 45.6966 46.3117 46.9857 47.7186 48.5104 49.3611 50.2707 51.2391 52.2666 53.3531 54.4985 55.7023 56.9636 58.281 59.6513 61.0708 62.5346 64.034 65.5591 67.098 68.6284 70.1242 71.5577 72.8869 74.0628 75.0409 75.8375 76.5134 77.1222 77.5335 77.4333 76.5061 74.7342 72.5132 70.2676 68.2242 66.2264 64.0736 61.6502 59.0765 56.5128 54.086 51.7893 49.5823 47.4331 45.3579 43.3907 41.562 39.8705 38.2991 36.8312 35.4602 34.1868 33.0119 31.9322 30.9404 30.0289 29.1912 28.4217 27.715 27.0662 26.4714 25.9268 25.4288 24.9736 24.5573 24.1767 23.8289 23.5118 23.223 22.9603 22.7211 22.5034 22.3055 22.1262 21.964 21.8179 21.6864 21.5684 21.4628 21.3691 21.2864 21.2144 21.1521 21.0991 21.0548 21.019 20.9915 20.9721 20.9605 20.9566 41.4924 41.519 41.5997 41.7342 41.9224 42.1642 42.4594 42.8079 43.2096 43.6645 44.1726 44.7339 45.3482 46.0157 46.7359 47.5085 48.3331 49.2092 50.1364 51.1142 52.142 53.2187 54.3431 55.5131 56.7243 57.9716 59.2493 60.5485 61.8593 63.1704 64.4616 65.7093 66.8892 67.9703 68.9182 69.7003 70.3107 70.7621 71.0648 71.1491 70.8664 70.0677 68.7484 67.1043 65.3454 63.5917 61.7885 59.8614 57.7739 55.595 53.4115 51.2946 49.2518 47.2746 45.3579 43.5135 41.7599 40.1135 38.5749 37.1364 35.7905 34.5335 33.364 32.281 31.2811 30.3589 29.5088 28.7257 28.0049 27.3417 26.7319 26.1719 25.6585 25.1882 24.7577 24.3634 24.0024 23.6722 23.3707 23.0958 22.8453 22.6172 22.4093 22.2203 22.0488 21.8937 21.7538 21.6279 21.5148 21.4135 21.3236 21.2443 21.175 21.1152 21.0643 21.0217 20.9873 20.9608 20.9421 20.931 20.9273 40.2666 40.2909 40.3647 40.4877 40.6597 40.8806 41.1502 41.4684 41.8349 42.2497 42.7126 43.2235 43.7821 44.3884 45.0418 45.7417 46.4871 47.2773 48.1115 48.989 49.9086 50.8688 51.8679 52.9035 53.9703 55.0631 56.1755 57.2985 58.4227 59.537 60.624 61.6635 62.6355 63.5184 64.2901 64.927 65.3877 65.6179 65.5656 65.2391 64.7064 64.0372 63.2449 62.2648 61.0269 59.5143 57.8132 56.0218 54.2138 52.396 50.5638 48.7189 46.8874 45.1018 43.3907 41.7599 40.2069 38.7299 37.3307 36.0131 34.7806 33.6321 32.5629 31.5685 30.6449 29.789 28.9976 28.2672 27.5936 26.9729 26.4012 25.8754 25.3925 24.9494 24.5431 24.1706 23.8289 23.516 23.2299 22.9688 22.7306 22.5134 22.3154 22.1351 21.9715 21.8234 21.6898 21.5693 21.4611 21.3642 21.278 21.202 21.1356 21.0782 21.0294 20.9885 20.9555 20.9301 20.9122 20.9015 20.8979 39.0904 39.1127 39.18 39.2921 39.449 39.6504 39.8961 40.1859 40.5197 40.8971 41.3179 41.7818 42.2886 42.8379 43.4292 44.0613 44.7334 45.4443 46.193 46.9785 47.7994 48.6536 49.5389 50.4524 51.3891 52.3435 53.3094 54.2782 55.2403 56.1858 57.0995 57.9649 58.7654 59.4846 60.1064 60.6124 60.9524 61.0534 60.8467 60.3703 59.7686 59.1883 58.648 57.9896 57.0425 55.7386 54.2083 52.6048 51.0362 49.4861 47.9166 46.3036 44.6781 43.0846 41.562 40.1135 38.7299 37.4031 36.136 34.9367 33.8132 32.7655 31.7881 30.8756 30.0242 29.2321 28.4976 27.8182 27.1905 26.6109 26.0762 25.5835 25.1302 24.7136 24.331 23.9796 23.657 23.3611 23.0902 22.8426 22.6166 22.4102 22.2219 22.0504 21.8946 21.7534 21.6259 21.5109 21.4076 21.3149 21.2325 21.1598 21.0962 21.0413 20.9945 20.9554 20.9237 20.8994 20.8822 20.872 20.8685 37.9641 37.9844 38.0456 38.1477 38.2904 38.4735 38.6969 38.9605 39.2637 39.6064 39.9882 40.4085 40.8671 41.3636 41.8972 42.4667 43.071 43.7089 44.3793 45.0809 45.8122 46.5705 47.353 48.1566 48.9764 49.8075 50.6442 51.4782 52.3006 53.1018 53.8692 54.5892 55.248 55.8307 56.322 56.7055 56.9492 57.0096 56.846 56.4785 55.988 55.4569 54.8969 54.2225 53.3411 52.2186 50.9334 49.5768 48.2154 46.847 45.4579 44.0412 42.6189 41.2202 39.8705 38.5749 37.3307 36.136 34.9939 33.9105 32.8913 31.9364 31.042 30.2043 29.4208 28.69 28.0105 27.3805 26.7969 26.257 25.758 25.2973 24.8727 24.4818 24.1222 23.7914 23.4873 23.208 22.9521 22.7178 22.5037 22.308 22.1293 21.9663 21.8182 21.6839 21.5624 21.4529 21.3543 21.2659 21.1872 21.1178 21.0571 21.0046 20.9598 20.9224 20.8921 20.8688 20.8523 20.8425 20.8392 36.887 36.9055 36.9612 37.0538 37.1833 37.3495 37.5522 37.7912 38.0663 38.3768 38.7223 39.1024 39.5164 39.964 40.4442 40.9559 41.4979 42.0689 42.6677 43.2931 43.9433 44.6151 45.3052 46.0102 46.7258 47.4478 48.1711 48.888 49.5901 50.2685 50.9128 51.5115 52.0532 52.5231 52.9055 53.1847 53.3537 53.4111 53.3555 53.1747 52.8462 52.3478 51.681 50.8807 49.9839 49.0153 47.9753 46.8612 45.6775 44.4472 43.1964 41.9482 40.7119 39.4935 38.2991 37.1364 36.0131 34.9367 33.9105 32.9359 32.0138 31.144 30.3255 29.557 28.8372 28.1647 27.5379 26.9551 26.414 25.9122 25.4474 25.0176 24.6207 24.2545 23.9171 23.6064 23.3202 23.0572 22.8158 22.5946 22.3922 22.207 22.0377 21.8832 21.7426 21.615 21.4995 21.3953 21.3014 21.2172 21.1423 21.0761 21.0181 20.968 20.9253 20.8895 20.8606 20.8384 20.8226 20.8133 20.8101 35.8587 35.8756 35.926 36.0099 36.1272 36.2776 36.4611 36.6776 36.9264 37.2072 37.5193 37.8621 38.2351 38.6375 39.0687 39.5272 40.0121 40.5219 41.0556 41.6119 42.1889 42.7829 43.3904 44.0076 44.6311 45.257 45.8813 46.4967 47.0954 47.6695 48.2098 48.7068 49.1509 49.5287 49.8255 50.0277 50.1409 50.1843 50.1754 50.0873 49.849 49.3889 48.7035 47.8837 47.0269 46.1849 45.3199 44.3842 43.3517 42.2558 41.1401 40.0401 38.9585 37.89 36.8312 35.7905 34.7806 33.8132 32.8913 32.0138 31.1793 30.3878 29.6398 28.936 28.276 27.6583 27.0813 26.5434 26.0426 25.5772 25.1453 24.7451 24.3747 24.0325 23.7166 23.4251 23.1565 22.9092 22.682 22.4735 22.2825 22.1075 21.9474 21.8012 21.6679 21.5469 21.4373 21.3383 21.2491 21.1691 21.0977 21.0347 20.9795 20.9318 20.8911 20.857 20.8294 20.8082 20.7931 20.7842 20.7812 34.8787 34.894 34.9397 35.0155 35.1214 35.2573 35.4231 35.6186 35.8434 36.0968 36.3781 36.6866 37.0217 37.3828 37.7689 38.1789 38.6115 39.0657 39.5403 40.0341 40.545 41.0694 41.6032 42.1428 42.6851 43.227 43.765 44.2925 44.8024 45.2876 45.7401 46.1519 46.5146 46.8179 47.0504 47.2015 47.2745 47.2824 47.237 47.1194 46.8797 46.4675 45.8809 45.1847 44.4481 43.7085 42.941 42.1136 41.2093 40.2533 39.2777 38.3092 37.3513 36.4019 35.4602 34.5335 33.6321 32.7655 31.9364 31.144 30.3878 29.668 28.9859 28.3429 27.7389 27.1724 26.642 26.1464 25.6839 25.2531 24.8525 24.4805 24.1356 23.8163 23.521 23.2482 22.9964 22.7643 22.5509 22.3547 22.1748 22.0099 21.8587 21.7205 21.5945 21.4799 21.3761 21.2822 21.1975 21.1215 21.0538 20.9939 20.9414 20.896 20.8572 20.8248 20.7985 20.7783 20.764 20.7554 20.7526 33.9465 33.9604 34.0016 34.07 34.1655 34.2881 34.4375 34.6138 34.8163 35.0444 35.2974 35.5745 35.8751 36.1983 36.5433 36.909 37.2943 37.6981 38.1192 38.5565 39.008 39.47 39.9383 40.4094 40.8804 41.3488 41.8115 42.2628 42.6963 43.1056 43.4841 43.8247 44.1205 44.3641 44.5482 44.6652 44.7098 44.6781 44.5663 44.3719 44.0935 43.7301 43.2837 42.7608 42.1684 41.5135 40.8038 40.0472 39.252 38.4278 37.5846 36.7318 35.8767 35.0262 34.1868 33.364 32.5629 31.7881 31.042 30.3255 29.6398 28.9859 28.3652 27.7788 27.2268 26.708 26.2212 25.7652 25.3388 24.9407 24.5698 24.2246 23.904 23.6066 23.3311 23.0761 22.8406 22.6232 22.4229 22.2388 22.0696 21.9143 21.7718 21.6414 21.5224 21.4142 21.3159 21.227 21.1468 21.0747 21.0105 20.9536 20.9038 20.8607 20.8238 20.793 20.768 20.7487 20.7351 20.727 20.7243 33.0615 33.0742 33.1113 33.1729 33.2589 33.3691 33.5036 33.6622 33.8443 34.0493 34.2763 34.5247 34.7937 35.0825 35.3903 35.7159 36.0584 36.4166 36.7894 37.1759 37.574 37.98 38.3902 38.8008 39.2094 39.6135 40.0104 40.395 40.7622 41.1064 41.4221 41.7034 41.9447 42.1408 42.287 42.378 42.4024 42.3445 42.1894 41.946 41.6464 41.3237 40.9826 40.5899 40.1093 39.5272 38.8735 38.1833 37.4817 36.7679 36.0362 35.2841 34.5211 33.7599 33.0119 32.281 31.5685 30.8756 30.2043 29.557 28.936 28.3429 27.7788 27.2448 26.741 26.2664 25.82 25.401 25.0083 24.6409 24.2979 23.9782 23.6806 23.404 23.1474 22.9095 22.6895 22.4861 22.2986 22.1259 21.967 21.821 21.687 21.5642 21.452 21.3498 21.2569 21.1729 21.097 21.0288 20.9679 20.9141 20.8669 20.8259 20.791 20.7617 20.7379 20.7197 20.7067 20.699 20.6965 32.223 32.2343 32.2677 32.3231 32.4004 32.4995 32.6203 32.7626 32.9261 33.1099 33.3132 33.5354 33.7757 34.0333 34.3074 34.5969 34.9009 35.2181 35.5476 35.8883 36.2384 36.5945 36.9529 37.3104 37.6644 38.0124 38.3517 38.6783 38.9879 39.2761 39.5385 39.7705 39.9675 40.1256 40.2409 40.3091 40.3186 40.2523 40.0944 39.855 39.5705 39.2779 38.9826 38.6462 38.2275 37.7101 37.125 36.5093 35.889 35.261 34.6169 33.9518 33.2747 32.5978 31.9322 31.2811 30.6449 30.0242 29.4208 28.8372 28.276 27.7389 27.2268 26.741 26.2815 25.8477 25.4388 25.0541 24.6928 24.3542 24.0374 23.7416 23.4657 23.2089 22.9702 22.7487 22.5434 22.3535 22.1781 22.0164 21.8674 21.7304 21.6044 21.4889 21.3832 21.2869 21.1994 21.12 21.0483 20.9839 20.9263 20.8753 20.8306 20.7918 20.7587 20.7309 20.7084 20.6911 20.6788 20.6715 20.6691 31.4293 31.4395 31.4695 31.5192 31.5886 31.6775 31.7858 31.9134 32.0597 32.2242 32.4059 32.6043 32.8186 33.0481 33.2918 33.5489 33.8182 34.0987 34.3894 34.6892 34.9963 35.3078 35.6205 35.9312 36.2375 36.5368 36.8263 37.103 37.3634 37.6041 37.8216 38.0124 38.173 38.2999 38.3892 38.4372 38.4349 38.3701 38.231 38.0241 37.7738 37.505 37.222 36.9007 36.515 36.0551 35.5425 35.0024 34.453 33.8936 33.3201 32.7306 32.1318 31.5324 30.9404 30.3589 29.789 29.2321 28.69 28.1647 27.6583 27.1724 26.708 26.2664 25.8477 25.4515 25.0773 24.7244 24.3923 24.0805 23.7883 23.5149 23.2595 23.0214 22.7998 22.5937 22.4025 22.2254 22.0616 21.9103 21.7708 21.6424 21.5242 21.4157 21.3163 21.2257 21.1432 21.0684 21.0008 20.94 20.8856 20.8374 20.7951 20.7584 20.7271 20.7008 20.6795 20.6631 20.6514 20.6445 20.6422 30.6792 30.6883 30.7152 30.7598 30.822 30.9016 30.9985 31.1127 31.2435 31.3903 31.5524 31.7292 31.92 32.1241 32.3406 32.5686 32.8069 33.0546 33.3105 33.5737 33.8426 34.1144 34.3866 34.6562 34.9209 35.1782 35.4254 35.6599 35.879 36.0799 36.2598 36.416 36.5456 36.6454 36.712 36.7416 36.7287 36.6663 36.5477 36.3751 36.1597 35.9128 35.6372 35.3245 34.9651 34.5568 34.1106 33.6391 33.1524 32.6523 32.1399 31.6165 31.0868 30.5559 30.0289 29.5088 28.9976 28.4976 28.0105 27.5379 27.0813 26.642 26.2212 25.82 25.4388 25.0773 24.735 24.4115 24.1066 23.8197 23.5505 23.2982 23.0621 22.8417 22.6361 22.4448 22.2669 22.1019 21.9492 21.8079 21.6774 21.5571 21.4464 21.3446 21.2514 21.1662 21.0886 21.0182 20.9545 20.8972 20.8459 20.8004 20.7604 20.7258 20.6961 20.6713 20.6511 20.6356 20.6246 20.6181 20.6159 29.9713 29.9793 30.0034 30.0433 30.099 30.1702 30.2568 30.3587 30.4754 30.6062 30.7506 30.9078 31.0774 31.2586 31.4507 31.6526 31.8632 32.0816 32.3066 32.5373 32.7721 33.0089 33.2452 33.4787 33.7072 33.9283 34.1397 34.339 34.5238 34.6918 34.8404 34.9673 35.0699 35.1455 35.1914 35.2044 35.1812 35.118 35.0112 34.8609 34.6712 34.4462 34.188 33.8956 33.5679 33.2058 32.815 32.4014 31.9702 31.5248 31.0681 30.603 30.133 29.6613 29.1912 28.7257 28.2672 27.8182 27.3805 26.9551 26.5434 26.1464 25.7652 25.401 25.0541 24.7244 24.4115 24.1153 23.8355 23.5719 23.3241 23.0915 22.8736 22.6697 22.4793 22.3019 22.1367 21.9832 21.8409 21.7091 21.5873 21.4748 21.3712 21.2758 21.1884 21.1085 21.0356 20.9695 20.9095 20.8555 20.8072 20.7643 20.7267 20.6939 20.666 20.6425 20.6235 20.6088 20.5984 20.5922 20.5901 29.304 29.3112 29.3327 29.3684 29.4181 29.4817 29.5589 29.6497 29.7536 29.87 29.9983 30.138 30.2884 30.4491 30.6192 30.7977 30.9836 31.1758 31.3733 31.5751 31.7799 31.9856 32.1904 32.3923 32.5891 32.7791 32.9601 33.1298 33.2861 33.4266 33.5491 33.6512 33.7307 33.7855 33.8134 33.8122 33.78 33.7144 33.6134 33.4767 33.3058 33.1022 32.8673 32.6024 32.3086 31.9877 31.643 31.278 30.896 30.5003 30.0941 29.6805 29.2621 28.8417 28.4217 28.0049 27.5936 27.1905 26.7969 26.414 26.0426 25.6839 25.3388 25.0083 24.6928 24.3923 24.1066 23.8355 23.5791 23.337 23.1091 22.895 22.694 22.5057 22.3296 22.1652 22.0119 21.8694 21.7369 21.6142 21.5005 21.3955 21.2986 21.2094 21.1276 21.0527 20.9843 20.9222 20.8659 20.8151 20.7697 20.7293 20.6938 20.663 20.6366 20.6144 20.5965 20.5827 20.5729 20.567 20.565 28.6761 28.6824 28.7016 28.7334 28.7778 28.8344 28.9033 28.984 29.0763 29.1797 29.2935 29.4173 29.5506 29.6928 29.8432 30.0007 30.1645 30.3334 30.5064 30.6827 30.8608 31.0393 31.2164 31.3905 31.5598 31.7227 31.8774 32.0218 32.1537 32.271 32.3715 32.4529 32.5132 32.5507 32.5641 32.5519 32.5127 32.4452 32.348 32.2209 32.065 31.8811 31.6703 31.4337 31.1722 30.8873 30.5818 30.2583 29.9196 29.5683 29.2072 28.839 28.466 28.0905 27.715 27.3417 26.9729 26.6109 26.257 25.9122 25.5772 25.2531 24.9407 24.6409 24.3542 24.0805 23.8197 23.5719 23.337 23.115 22.9056 22.7086 22.5234 22.3497 22.1869 22.0348 21.8928 21.7605 21.6374 21.5232 21.4173 21.3193 21.2289 21.1455 21.069 20.9988 20.9348 20.8765 20.8237 20.776 20.7333 20.6953 20.6619 20.6329 20.608 20.5872 20.5703 20.5572 20.548 20.5425 20.5406 28.086 28.0916 28.1086 28.137 28.1765 28.2269 28.2881 28.3598 28.4417 28.5333 28.6341 28.7437 28.8615 28.9871 29.1197 29.2585 29.4024 29.5505 29.7018 29.8555 30.0102 30.1648 30.3177 30.4675 30.6127 30.7519 30.8835 31.0057 31.1164 31.2137 31.2955 31.3597 31.4045 31.4286 31.4312 31.4112 31.3678 31.3001 31.2072 31.0891 30.9464 30.78 30.5905 30.3787 30.1455 29.892 29.6203 29.3329 29.0318 28.7195 28.3982 28.0701 27.7374 27.402 27.0662 26.7319 26.4012 26.0762 25.758 25.4474 25.1453 24.8525 24.5698 24.2979 24.0374 23.7883 23.5505 23.3241 23.1091 22.9056 22.7135 22.5323 22.3619 22.2017 22.0514 21.9107 21.7792 21.6566 21.5423 21.4361 21.3376 21.2463 21.162 21.0842 21.0126 20.947 20.8871 20.8325 20.783 20.7382 20.6981 20.6624 20.6311 20.6038 20.5804 20.5608 20.5448 20.5326 20.5239 20.5187 20.5169 27.5322 27.5372 27.5523 27.5775 27.6126 27.6574 27.7116 27.7752 27.8478 27.9288 28.018 28.1148 28.2187 28.3294 28.4462 28.5681 28.6944 28.824 28.9561 29.0898 29.2241 29.3578 29.4895 29.6182 29.7424 29.8609 29.9724 30.0753 30.1676 30.2476 30.3136 30.3637 30.3963 30.4103 30.4052 30.3802 30.3349 30.2685 30.1806 30.0709 29.9403 29.7892 29.6182 29.428 29.2191 28.9926 28.7503 28.4941 28.2259 27.9477 27.6613 27.3686 27.0715 26.7718 26.4714 26.1719 25.8754 25.5835 25.2973 25.0176 24.7451 24.4805 24.2246 23.9782 23.7416 23.5149 23.2982 23.0915 22.895 22.7086 22.5323 22.366 22.2091 22.0615 21.9229 21.7929 21.6713 21.5576 21.4517 21.3531 21.2614 21.1765 21.0979 21.0253 20.9585 20.8973 20.8412 20.7901 20.7437 20.7018 20.6642 20.6307 20.6012 20.5756 20.5536 20.5352 20.5202 20.5087 20.5005 20.4956 20.494 27.0132 27.0176 27.0311 27.0534 27.0845 27.1241 27.1722 27.2285 27.2927 27.3643 27.443 27.5284 27.62 27.7174 27.82 27.9269 28.0374 28.1507 28.2658 28.382 28.4984 28.6139 28.7274 28.8377 28.9437 29.0443 29.1384 29.2244 29.3008 29.3662 29.419 29.4576 29.4806 29.4872 29.4769 29.4493 29.4037 29.3398 29.2571 29.1556 29.0358 28.8982 28.7433 28.5717 28.3839 28.1808 27.9639 27.7348 27.4952 27.2467 26.9908 26.7294 26.4638 26.1958 25.9268 25.6585 25.3925 25.1302 24.8727 24.6207 24.3747 24.1356 23.904 23.6806 23.4657 23.2595 23.0621 22.8736 22.694 22.5234 22.3619 22.2091 22.0649 21.9291 21.8012 21.6812 21.5688 21.4636 21.3654 21.2739 21.1888 21.1098 21.0367 20.969 20.9068 20.8496 20.7972 20.7494 20.706 20.6667 20.6315 20.6001 20.5725 20.5484 20.5278 20.5105 20.4964 20.4856 20.4779 20.4733 20.4717 26.5274 26.5313 26.5432 26.563 26.5905 26.6256 26.6681 26.7178 26.7745 26.8378 26.9072 26.9824 27.0629 27.1485 27.2384 27.3321 27.4286 27.5274 27.6276 27.7285 27.8293 27.929 28.0266 28.121 28.2113 28.2965 28.3754 28.447 28.5099 28.5628 28.6046 28.6339 28.6496 28.6509 28.6374 28.6086 28.5641 28.5034 28.4261 28.3322 28.2222 28.0966 27.9558 27.8004 27.6309 27.4481 27.2532 27.0477 26.833 26.6104 26.3815 26.1474 25.9098 25.6698 25.4288 25.1882 24.9494 24.7136 24.4818 24.2545 24.0325 23.8163 23.6066 23.404 23.2089 23.0214 22.8417 22.6697 22.5057 22.3497 22.2017 22.0615 21.9291 21.804 21.6862 21.5755 21.4716 21.3744 21.2834 21.1986 21.1197 21.0463 20.9782 20.9153 20.8573 20.8039 20.755 20.7104 20.6698 20.6331 20.6001 20.5707 20.5448 20.5222 20.5029 20.4867 20.4735 20.4633 20.4561 20.4517 20.4503 26.0733 26.0767 26.0873 26.1048 26.1291 26.16 26.1976 26.2415 26.2915 26.3472 26.4083 26.4744 26.5452 26.6202 26.6989 26.7808 26.865 26.951 27.0381 27.1256 27.2128 27.2987 27.3825 27.4633 27.54 27.6119 27.6779 27.7371 27.7884 27.8309 27.8635 27.8853 27.8952 27.8927 27.8773 27.8484 27.8056 27.7485 27.6766 27.5898 27.4888 27.3739 27.2456 27.1045 26.9511 26.786 26.6104 26.4255 26.2327 26.0329 25.8276 25.6178 25.4048 25.1897 24.9736 24.7577 24.5431 24.331 24.1222 23.9171 23.7166 23.521 23.3311 23.1474 22.9702 22.7998 22.6361 22.4793 22.3296 22.1869 22.0514 21.9229 21.8012 21.6862 21.5778 21.4757 21.3798 21.2899 21.2058 21.1272 21.054 20.9858 20.9226 20.8641 20.81 20.7603 20.7147 20.6731 20.6351 20.6008 20.57 20.5425 20.5182 20.4971 20.479 20.4637 20.4514 20.4418 20.435 20.431 20.4296 25.6492 25.6523 25.6617 25.6771 25.6985 25.7258 25.7589 25.7976 25.8416 25.8906 25.9444 26.0024 26.0644 26.1301 26.1989 26.2702 26.3436 26.4183 26.4939 26.5696 26.6449 26.7188 26.7907 26.8595 26.9246 26.985 27.0399 27.0885 27.1301 27.1638 27.1888 27.2044 27.2097 27.2043 27.1875 27.159 27.1182 27.0646 26.9977 26.9176 26.8248 26.7196 26.6027 26.4744 26.3353 26.186 26.0276 25.8611 25.6876 25.5081 25.3237 25.1355 24.9443 24.7513 24.5573 24.3634 24.1706 23.9796 23.7914 23.6064 23.4251 23.2482 23.0761 22.9095 22.7487 22.5937 22.4448 22.3019 22.1652 22.0348 21.9107 21.7929 21.6812 21.5755 21.4757 21.3816 21.2931 21.2101 21.1323 21.0596 20.9917 20.9285 20.8698 20.8154 20.7651 20.7188 20.6763 20.6374 20.602 20.57 20.5412 20.5155 20.4928 20.473 20.456 20.4417 20.4301 20.4212 20.4148 20.411 20.4098 25.2539 25.2566 25.2648 25.2784 25.2972 25.3213 25.3503 25.3844 25.4231 25.4661 25.5133 25.5641 25.6184 25.6757 25.7357 25.7978 25.8615 25.9264 25.9917 26.0571 26.1218 26.1853 26.2466 26.3051 26.36 26.4106 26.456 26.4957 26.529 26.5553 26.574 26.5843 26.5858 26.5778 26.5599 26.5316 26.4925 26.4421 26.3799 26.3059 26.2206 26.1245 26.0179 25.9014 25.7754 25.6406 25.4977 25.3478 25.1917 25.0304 24.8648 24.6958 24.5242 24.3509 24.1767 24.0024 23.8289 23.657 23.4873 23.3202 23.1565 22.9964 22.8406 22.6895 22.5434 22.4025 22.2669 22.1367 22.0119 21.8928 21.7792 21.6713 21.5688 21.4716 21.3798 21.2931 21.2115 21.1349 21.063 20.9957 20.9328 20.8742 20.8197 20.7692 20.7224 20.6793 20.6397 20.6035 20.5705 20.5406 20.5137 20.4896 20.4684 20.4499 20.434 20.4207 20.4098 20.4014 20.3955 20.3919 20.3907 24.8857 24.8881 24.8953 24.9073 24.9239 24.945 24.9705 25.0004 25.0343 25.0721 25.1133 25.1578 25.2051 25.2551 25.3073 25.3613 25.4166 25.4727 25.529 25.5853 25.6409 25.6951 25.7473 25.7968 25.8429 25.885 25.9224 25.9546 25.981 26.0011 26.0144 26.0204 26.0184 26.0082 25.9892 25.9611 25.9235 25.8759 25.8179 25.7496 25.6713 25.5834 25.4865 25.3808 25.2668 25.1451 25.0163 24.8814 24.741 24.5961 24.4473 24.2954 24.1413 23.9855 23.8289 23.6722 23.516 23.3611 23.208 23.0572 22.9092 22.7643 22.6232 22.4861 22.3535 22.2254 22.1019 21.9832 21.8694 21.7605 21.6566 21.5576 21.4636 21.3744 21.2899 21.2101 21.1349 21.0641 20.9977 20.9354 20.8772 20.8229 20.7724 20.7254 20.682 20.6419 20.605 20.5713 20.5405 20.5126 20.4875 20.465 20.4452 20.4279 20.413 20.4005 20.3904 20.3825 20.377 20.3736 20.3725 24.5435 24.5456 24.552 24.5625 24.577 24.5955 24.6179 24.6441 24.6738 24.7068 24.7429 24.7817 24.823 24.8665 24.9118 24.9587 25.0065 25.0549 25.1035 25.1517 25.1993 25.2454 25.2897 25.3314 25.37 25.4049 25.4355 25.4614 25.4821 25.4971 25.506 25.5083 25.5035 25.4914 25.4715 25.4435 25.4071 25.3621 25.3079 25.2448 25.1729 25.0928 25.0046 24.9088 24.8058 24.6959 24.5799 24.4585 24.3322 24.2018 24.0681 23.9315 23.7929 23.6528 23.5118 23.3707 23.2299 23.0902 22.9521 22.8158 22.682 22.5509 22.4229 22.2986 22.1781 22.0616 21.9492 21.8409 21.7369 21.6374 21.5423 21.4517 21.3654 21.2834 21.2058 21.1323 21.063 20.9977 20.9363 20.8788 20.8249 20.7746 20.7277 20.6841 20.6437 20.6065 20.5722 20.5407 20.512 20.486 20.4626 20.4416 20.4231 20.4069 20.393 20.3813 20.3718 20.3645 20.3593 20.3562 20.3551 24.226 24.2278 24.2334 24.2426 24.2554 24.2716 24.2912 24.3141 24.34 24.3689 24.4003 24.4341 24.4701 24.5079 24.5472 24.5878 24.6291 24.6708 24.7125 24.7539 24.7944 24.8336 24.8709 24.9059 24.9381 24.9669 24.9918 25.0125 25.0284 25.0392 25.0445 25.0438 25.0367 25.023 25.0023 24.9746 24.9394 24.8967 24.8461 24.7877 24.7217 24.6486 24.5684 24.4817 24.3885 24.2894 24.1848 24.0754 23.9618 23.8445 23.7241 23.6012 23.4763 23.3501 23.223 23.0958 22.9688 22.8426 22.7178 22.5946 22.4735 22.3547 22.2388 22.1259 22.0164 21.9103 21.8079 21.7091 21.6142 21.5232 21.4361 21.3531 21.2739 21.1986 21.1272 21.0596 20.9957 20.9354 20.8788 20.8256 20.7757 20.7291 20.6856 20.6451 20.6076 20.573 20.5411 20.5118 20.4851 20.4608 20.4389 20.4194 20.4021 20.387 20.374 20.3631 20.3542 20.3473 20.3424 20.3395 20.3385 23.9318 23.9334 23.9383 23.9463 23.9575 23.9717 23.9888 24.0088 24.0315 24.0566 24.084 24.1134 24.1446 24.1774 24.2115 24.2466 24.2822 24.3181 24.3539 24.3892 24.4236 24.4567 24.4881 24.5174 24.544 24.5676 24.5878 24.6041 24.6161 24.6235 24.6258 24.6227 24.6138 24.5988 24.5777 24.5502 24.5163 24.4757 24.4284 24.3744 24.3138 24.247 24.1742 24.0955 24.0113 23.9218 23.8275 23.7289 23.6264 23.5207 23.4122 23.3014 23.1888 23.0749 22.9603 22.8453 22.7306 22.6166 22.5037 22.3922 22.2825 22.1748 22.0696 21.967 21.8674 21.7708 21.6774 21.5873 21.5005 21.4173 21.3376 21.2614 21.1888 21.1197 21.054 20.9917 20.9328 20.8772 20.8249 20.7757 20.7295 20.6863 20.646 20.6085 20.5737 20.5414 20.5118 20.4845 20.4596 20.437 20.4166 20.3983 20.3822 20.3681 20.3559 20.3457 20.3374 20.331 20.3264 20.3237 20.3228 23.6597 23.661 23.6653 23.6723 23.6821 23.6945 23.7094 23.7268 23.7466 23.7685 23.7923 23.8178 23.8449 23.8733 23.9028 23.933 23.9637 23.9945 24.025 24.0551 24.0842 24.1121 24.1384 24.1627 24.1847 24.2038 24.2199 24.2325 24.2413 24.2458 24.2458 24.2407 24.2304 24.2146 24.1933 24.1663 24.1337 24.0953 24.051 24.001 23.9454 23.8843 23.818 23.7466 23.6703 23.5894 23.5042 23.4152 23.3227 23.2274 23.1294 23.0294 22.9277 22.8248 22.7211 22.6172 22.5134 22.4102 22.308 22.207 22.1075 22.0099 21.9143 21.821 21.7304 21.6424 21.5571 21.4748 21.3955 21.3193 21.2463 21.1765 21.1098 21.0463 20.9858 20.9285 20.8742 20.8229 20.7746 20.7291 20.6863 20.6463 20.6089 20.5741 20.5417 20.5118 20.4842 20.4588 20.4356 20.4145 20.3955 20.3785 20.3634 20.3502 20.3389 20.3293 20.3216 20.3156 20.3113 20.3087 20.3079 23.4082 23.4094 23.4132 23.4193 23.4278 23.4386 23.4516 23.4667 23.4839 23.5029 23.5236 23.5457 23.5691 23.5936 23.619 23.645 23.6713 23.6976 23.7237 23.7491 23.7737 23.7971 23.819 23.839 23.8569 23.8722 23.8848 23.8943 23.9002 23.9024 23.9004 23.8939 23.8825 23.8663 23.8451 23.8189 23.7877 23.7514 23.7101 23.6638 23.6127 23.5567 23.4962 23.4313 23.362 23.2886 23.2115 23.131 23.0474 22.9612 22.8727 22.7822 22.6903 22.5972 22.5034 22.4093 22.3154 22.2219 22.1293 22.0377 21.9474 21.8587 21.7718 21.687 21.6044 21.5242 21.4464 21.3712 21.2986 21.2289 21.162 21.0979 21.0367 20.9782 20.9226 20.8698 20.8197 20.7724 20.7277 20.6856 20.646 20.6089 20.5742 20.5419 20.5119 20.484 20.4583 20.4347 20.4131 20.3934 20.3757 20.3598 20.3457 20.3334 20.3228 20.3138 20.3066 20.301 20.297 20.2946 20.2938 23.1765 23.1776 23.1808 23.1861 23.1935 23.2029 23.2142 23.2274 23.2422 23.2587 23.2766 23.2957 23.3159 23.337 23.3588 23.3811 23.4035 23.4259 23.448 23.4695 23.4901 23.5096 23.5276 23.544 23.5584 23.5705 23.58 23.5867 23.5903 23.5905 23.5869 23.5792 23.5673 23.5509 23.5301 23.5049 23.4753 23.4412 23.4027 23.3598 23.3127 23.2613 23.206 23.1467 23.0836 23.0169 22.9469 22.8738 22.7981 22.72 22.6399 22.558 22.4747 22.3905 22.3055 22.2203 22.1351 22.0504 21.9663 21.8832 21.8012 21.7205 21.6414 21.5642 21.4889 21.4157 21.3446 21.2758 21.2094 21.1455 21.0842 21.0253 20.969 20.9153 20.8641 20.8154 20.7692 20.7254 20.6841 20.6451 20.6085 20.5741 20.5419 20.5119 20.4839 20.458 20.4341 20.4121 20.392 20.3736 20.3571 20.3422 20.329 20.3175 20.3076 20.2993 20.2925 20.2872 20.2835 20.2812 20.2805 22.9636 22.9645 22.9673 22.9719 22.9783 22.9865 22.9963 23.0077 23.0205 23.0348 23.0502 23.0666 23.084 23.1021 23.1208 23.1398 23.159 23.178 23.1966 23.2146 23.2318 23.248 23.2627 23.276 23.2873 23.2966 23.3036 23.308 23.3095 23.308 23.3031 23.2947 23.2824 23.2662 23.2461 23.222 23.194 23.1621 23.1262 23.0865 23.0429 22.9957 22.9448 22.8906 22.8329 22.7721 22.7083 22.6419 22.5731 22.5022 22.4294 22.3551 22.2796 22.2032 22.1262 22.0488 21.9715 21.8946 21.8182 21.7426 21.6679 21.5945 21.5224 21.452 21.3832 21.3163 21.2514 21.1884 21.1276 21.069 21.0126 20.9585 20.9068 20.8573 20.81 20.7651 20.7224 20.682 20.6437 20.6076 20.5737 20.5417 20.5119 20.4839 20.458 20.4338 20.4116 20.391 20.3722 20.3551 20.3396 20.3258 20.3135 20.3027 20.2934 20.2856 20.2793 20.2743 20.2708 20.2687 20.268 22.7684 22.7692 22.7717 22.7757 22.7812 22.7883 22.7968 22.8066 22.8177 22.83 22.8433 22.8575 22.8724 22.8879 22.9038 22.92 22.9362 22.9523 22.9679 22.983 22.9973 23.0105 23.0226 23.0331 23.0419 23.0488 23.0536 23.056 23.0559 23.053 23.0471 23.0381 23.0257 23.0098 22.9905 22.9676 22.9413 22.9115 22.878 22.8411 22.8008 22.7572 22.7104 22.6606 22.6077 22.5521 22.4938 22.4332 22.3705 22.3059 22.2397 22.1722 22.1035 22.034 21.964 21.8937 21.8234 21.7534 21.6839 21.615 21.5469 21.4799 21.4142 21.3498 21.2869 21.2257 21.1662 21.1085 21.0527 20.9988 20.947 20.8973 20.8496 20.8039 20.7603 20.7188 20.6793 20.6419 20.6065 20.573 20.5414 20.5118 20.484 20.458 20.4338 20.4114 20.3906 20.3714 20.3539 20.3379 20.3234 20.3105 20.2989 20.2889 20.2802 20.2729 20.2669 20.2623 20.259 20.257 20.2564 22.5902 22.5909 22.593 22.5965 22.6013 22.6074 22.6147 22.6232 22.6328 22.6434 22.6548 22.667 22.6797 22.693 22.7065 22.7203 22.734 22.7475 22.7606 22.7731 22.7849 22.7957 22.8053 22.8136 22.8203 22.8252 22.8281 22.8289 22.8273 22.8233 22.8167 22.8072 22.7949 22.7794 22.761 22.7394 22.7147 22.6867 22.6556 22.6213 22.5839 22.5436 22.5004 22.4544 22.4058 22.3547 22.3013 22.2458 22.1885 22.1295 22.0691 22.0075 21.945 21.8817 21.8179 21.7538 21.6898 21.6259 21.5624 21.4995 21.4373 21.3761 21.3159 21.2569 21.1994 21.1432 21.0886 21.0356 20.9843 20.9348 20.8871 20.8412 20.7972 20.755 20.7147 20.6763 20.6397 20.605 20.5722 20.5411 20.5118 20.4842 20.4583 20.4341 20.4116 20.3906 20.3712 20.3533 20.3369 20.3219 20.3084 20.2962 20.2854 20.276 20.2678 20.261 20.2554 20.2511 20.248 20.2461 20.2455 22.428 22.4286 22.4304 22.4334 22.4376 22.4428 22.4491 22.4565 22.4647 22.4738 22.4836 22.494 22.5049 22.5162 22.5277 22.5393 22.5508 22.5621 22.573 22.5834 22.593 22.6017 22.6093 22.6157 22.6205 22.6237 22.6251 22.6245 22.6219 22.617 22.6098 22.6001 22.5878 22.5729 22.5552 22.5348 22.5115 22.4854 22.4564 22.4244 22.3897 22.3522 22.3122 22.2697 22.2249 22.1779 22.1288 22.0778 22.0253 21.9713 21.916 21.8597 21.8025 21.7447 21.6864 21.6279 21.5693 21.5109 21.4529 21.3953 21.3383 21.2822 21.227 21.1729 21.12 21.0684 21.0182 20.9695 20.9222 20.8765 20.8325 20.7901 20.7494 20.7104 20.6731 20.6374 20.6035 20.5713 20.5407 20.5118 20.4845 20.4588 20.4347 20.4121 20.391 20.3714 20.3533 20.3365 20.3212 20.3072 20.2945 20.2831 20.273 20.2641 20.2564 20.25 20.2447 20.2407 20.2378 20.236 20.2355 22.2808 22.2813 22.2829 22.2855 22.2891 22.2936 22.299 22.3053 22.3124 22.3202 22.3286 22.3375 22.3468 22.3563 22.3661 22.3758 22.3855 22.3949 22.4039 22.4123 22.4201 22.427 22.4329 22.4376 22.4409 22.4427 22.4428 22.4411 22.4375 22.4319 22.4242 22.4144 22.4022 22.3877 22.3708 22.3514 22.3295 22.305 22.2778 22.2479 22.2156 22.1808 22.1436 22.1043 22.0629 22.0195 21.9742 21.9274 21.8791 21.8295 21.7788 21.7271 21.6747 21.6218 21.5684 21.5148 21.4611 21.4076 21.3543 21.3014 21.2491 21.1975 21.1468 21.097 21.0483 21.0008 20.9545 20.9095 20.8659 20.8237 20.783 20.7437 20.706 20.6698 20.6351 20.602 20.5705 20.5405 20.512 20.4851 20.4596 20.4356 20.4131 20.392 20.3722 20.3539 20.3369 20.3212 20.3068 20.2936 20.2817 20.271 20.2615 20.2531 20.2459 20.2399 20.2349 20.2311 20.2284 20.2267 20.2262 22.148 22.1484 22.1498 22.152 22.1551 22.159 22.1636 22.169 22.1751 22.1818 22.1889 22.1965 22.2044 22.2124 22.2206 22.2288 22.2368 22.2446 22.2519 22.2588 22.2649 22.2703 22.2747 22.2779 22.28 22.2806 22.2796 22.277 22.2727 22.2666 22.2586 22.2486 22.2366 22.2224 22.2061 22.1876 22.1667 22.1436 22.118 22.0901 22.0599 22.0275 21.993 21.9565 21.9182 21.878 21.8363 21.7931 21.7486 21.7029 21.6563 21.6088 21.5606 21.5119 21.4628 21.4135 21.3642 21.3149 21.2659 21.2172 21.1691 21.1215 21.0747 21.0288 20.9839 20.94 20.8972 20.8555 20.8151 20.776 20.7382 20.7018 20.6667 20.6331 20.6008 20.57 20.5406 20.5126 20.486 20.4608 20.437 20.4145 20.3934 20.3736 20.3551 20.3379 20.3219 20.3072 20.2936 20.2812 20.27 20.2599 20.251 20.2431 20.2363 20.2306 20.2259 20.2223 20.2197 20.2182 20.2177 22.0289 22.0292 22.0304 22.0323 22.035 22.0383 22.0423 22.047 22.0522 22.0579 22.0639 22.0704 22.077 22.0838 22.0907 22.0975 22.1041 22.1105 22.1164 22.1219 22.1267 22.1307 22.1338 22.1359 22.1368 22.1364 22.1346 22.1313 22.1264 22.1199 22.1116 22.1016 22.0897 22.0758 22.06 22.0422 22.0223 22.0003 21.9762 21.9499 21.9216 21.8914 21.8593 21.8254 21.7898 21.7526 21.714 21.674 21.6329 21.5907 21.5476 21.5038 21.4593 21.4143 21.3691 21.3236 21.278 21.2325 21.1872 21.1423 21.0977 21.0538 21.0105 20.9679 20.9263 20.8856 20.8459 20.8072 20.7697 20.7333 20.6981 20.6642 20.6315 20.6001 20.57 20.5412 20.5137 20.4875 20.4626 20.4389 20.4166 20.3955 20.3757 20.3571 20.3396 20.3234 20.3084 20.2945 20.2817 20.27 20.2594 20.2499 20.2414 20.234 20.2276 20.2222 20.2178 20.2143 20.2119 20.2104 20.21 21.923 21.9233 21.9243 21.926 21.9283 21.9311 21.9346 21.9386 21.943 21.9479 21.953 21.9585 21.9641 21.9698 21.9755 21.9812 21.9867 21.9918 21.9966 22.0008 22.0044 22.0073 22.0094 22.0105 22.0105 22.0093 22.0068 22.0029 21.9976 21.9908 21.9824 21.9723 21.9605 21.9469 21.9315 21.9143 21.8952 21.8742 21.8513 21.8266 21.8 21.7717 21.7416 21.71 21.6769 21.6423 21.6064 21.5693 21.5311 21.492 21.452 21.4114 21.3701 21.3285 21.2864 21.2443 21.202 21.1598 21.1178 21.0761 21.0347 20.9939 20.9536 20.9141 20.8753 20.8374 20.8004 20.7643 20.7293 20.6953 20.6624 20.6307 20.6001 20.5707 20.5425 20.5155 20.4896 20.465 20.4416 20.4194 20.3983 20.3785 20.3598 20.3422 20.3258 20.3105 20.2962 20.2831 20.271 20.2599 20.2499 20.2409 20.2328 20.2258 20.2197 20.2146 20.2104 20.2071 20.2048 20.2035 20.203 21.8298 21.8301 21.831 21.8324 21.8344 21.8369 21.8398 21.8432 21.847 21.8512 21.8556 21.8602 21.8649 21.8697 21.8745 21.8792 21.8837 21.8878 21.8916 21.8948 21.8975 21.8994 21.9006 21.9008 21.9001 21.8982 21.8952 21.8909 21.8852 21.8782 21.8697 21.8596 21.8479 21.8345 21.8195 21.8028 21.7844 21.7643 21.7425 21.7191 21.694 21.6673 21.6392 21.6096 21.5786 21.5462 21.5127 21.4781 21.4425 21.406 21.3688 21.3308 21.2924 21.2535 21.2144 21.175 21.1356 21.0962 21.0571 21.0181 20.9795 20.9414 20.9038 20.8669 20.8306 20.7951 20.7604 20.7267 20.6938 20.6619 20.6311 20.6012 20.5725 20.5448 20.5182 20.4928 20.4684 20.4452 20.4231 20.4021 20.3822 20.3634 20.3457 20.329 20.3135 20.2989 20.2854 20.273 20.2615 20.251 20.2414 20.2328 20.2252 20.2185 20.2127 20.2078 20.2038 20.2007 20.1985 20.1972 20.1968 21.7488 21.7491 21.7498 21.7511 21.7528 21.7549 21.7574 21.7604 21.7636 21.7672 21.771 21.7749 21.7789 21.7829 21.7869 21.7907 21.7944 21.7977 21.8006 21.803 21.8049 21.806 21.8065 21.806 21.8047 21.8023 21.7988 21.7942 21.7883 21.7811 21.7725 21.7624 21.7508 21.7377 21.723 21.7068 21.689 21.6697 21.6489 21.6265 21.6027 21.5775 21.5509 21.523 21.4939 21.4635 21.432 21.3995 21.3661 21.3319 21.297 21.2614 21.2253 21.1889 21.1521 21.1152 21.0782 21.0413 21.0046 20.968 20.9318 20.896 20.8607 20.8259 20.7918 20.7584 20.7258 20.6939 20.663 20.6329 20.6038 20.5756 20.5484 20.5222 20.4971 20.473 20.4499 20.4279 20.4069 20.387 20.3681 20.3502 20.3334 20.3175 20.3027 20.2889 20.276 20.2641 20.2531 20.2431 20.234 20.2258 20.2185 20.2121 20.2065 20.2019 20.1981 20.1951 20.193 20.1917 20.1913 21.6794 21.6796 21.6803 21.6814 21.6829 21.6847 21.6869 21.6895 21.6923 21.6953 21.6985 21.7019 21.7053 21.7087 21.712 21.7152 21.7181 21.7207 21.7229 21.7247 21.7259 21.7264 21.7262 21.7252 21.7234 21.7206 21.7167 21.7118 21.7057 21.6983 21.6897 21.6796 21.6682 21.6553 21.6409 21.6252 21.608 21.5894 21.5694 21.548 21.5253 21.5013 21.4761 21.4496 21.422 21.3932 21.3634 21.3327 21.3012 21.2688 21.2359 21.2023 21.1682 21.1338 21.0991 21.0643 21.0294 20.9945 20.9598 20.9253 20.8911 20.8572 20.8238 20.791 20.7587 20.7271 20.6961 20.666 20.6366 20.608 20.5804 20.5536 20.5278 20.5029 20.479 20.456 20.434 20.413 20.393 20.374 20.3559 20.3389 20.3228 20.3076 20.2934 20.2802 20.2678 20.2564 20.2459 20.2363 20.2276 20.2197 20.2127 20.2065 20.2012 20.1967 20.1931 20.1902 20.1882 20.187 20.1866 21.6212 21.6214 21.622 21.6229 21.6242 21.6259 21.6278 21.63 21.6325 21.6351 21.6379 21.6407 21.6436 21.6465 21.6492 21.6519 21.6542 21.6563 21.6579 21.6591 21.6598 21.6598 21.6591 21.6577 21.6554 21.6522 21.6481 21.6429 21.6366 21.6292 21.6205 21.6105 21.5992 21.5866 21.5726 21.5572 21.5406 21.5226 21.5033 21.4827 21.4609 21.4379 21.4138 21.3885 21.3621 21.3346 21.3063 21.277 21.247 21.2162 21.1848 21.1529 21.1205 21.0878 21.0548 21.0217 20.9885 20.9554 20.9224 20.8895 20.857 20.8248 20.793 20.7617 20.7309 20.7008 20.6713 20.6425 20.6144 20.5872 20.5608 20.5352 20.5105 20.4867 20.4637 20.4417 20.4207 20.4005 20.3813 20.3631 20.3457 20.3293 20.3138 20.2993 20.2856 20.2729 20.261 20.25 20.2399 20.2306 20.2222 20.2146 20.2078 20.2019 20.1967 20.1924 20.1889 20.1861 20.1842 20.183 20.1826 21.574 21.5742 21.5747 21.5755 21.5767 21.5781 21.5798 21.5818 21.5839 21.5862 21.5887 21.5911 21.5936 21.5961 21.5984 21.6006 21.6025 21.6041 21.6053 21.606 21.6063 21.6059 21.6048 21.603 21.6005 21.597 21.5926 21.5872 21.5808 21.5732 21.5645 21.5546 21.5435 21.5311 21.5174 21.5025 21.4863 21.4688 21.4501 21.4302 21.4092 21.3869 21.3636 21.3392 21.3138 21.2874 21.2601 21.232 21.2032 21.1737 21.1436 21.113 21.082 21.0506 21.019 20.9873 20.9555 20.9237 20.8921 20.8606 20.8294 20.7985 20.768 20.7379 20.7084 20.6795 20.6511 20.6235 20.5965 20.5703 20.5448 20.5202 20.4964 20.4735 20.4514 20.4301 20.4098 20.3904 20.3718 20.3542 20.3374 20.3216 20.3066 20.2925 20.2793 20.2669 20.2554 20.2447 20.2349 20.2259 20.2178 20.2104 20.2038 20.1981 20.1931 20.1889 20.1854 20.1828 20.1809 20.1797 20.1794 21.5376 21.5377 21.5382 21.539 21.54 21.5413 21.5428 21.5446 21.5465 21.5486 21.5507 21.5529 21.5551 21.5572 21.5592 21.5611 21.5626 21.5639 21.5648 21.5652 21.5651 21.5644 21.5631 21.561 21.5582 21.5545 21.5499 21.5444 21.5378 21.5302 21.5215 21.5117 21.5007 21.4885 21.4751 21.4605 21.4447 21.4277 21.4095 21.3901 21.3695 21.3479 21.3252 21.3015 21.2768 21.2512 21.2247 21.1975 21.1696 21.141 21.1119 21.0823 21.0523 21.022 20.9915 20.9608 20.9301 20.8994 20.8688 20.8384 20.8082 20.7783 20.7487 20.7197 20.6911 20.6631 20.6356 20.6088 20.5827 20.5572 20.5326 20.5087 20.4856 20.4633 20.4418 20.4212 20.4014 20.3825 20.3645 20.3473 20.331 20.3156 20.301 20.2872 20.2743 20.2623 20.2511 20.2407 20.2311 20.2223 20.2143 20.2071 20.2007 20.1951 20.1902 20.1861 20.1828 20.1802 20.1783 20.1772 20.1768 21.5118 21.5119 21.5123 21.513 21.514 21.5152 21.5166 21.5182 21.52 21.5219 21.5239 21.5259 21.5278 21.5297 21.5315 21.5331 21.5344 21.5354 21.5361 21.5363 21.536 21.5351 21.5336 21.5313 21.5283 21.5245 21.5198 21.5141 21.5075 21.4998 21.4911 21.4813 21.4704 21.4584 21.4452 21.4308 21.4153 21.3986 21.3808 21.3617 21.3416 21.3204 21.2981 21.2749 21.2507 21.2256 21.1998 21.1731 21.1458 21.1179 21.0895 21.0606 21.0314 21.0018 20.9721 20.9421 20.9122 20.8822 20.8523 20.8226 20.7931 20.764 20.7351 20.7067 20.6788 20.6514 20.6246 20.5984 20.5729 20.548 20.5239 20.5005 20.4779 20.4561 20.435 20.4148 20.3955 20.377 20.3593 20.3424 20.3264 20.3113 20.297 20.2835 20.2708 20.259 20.248 20.2378 20.2284 20.2197 20.2119 20.2048 20.1985 20.193 20.1882 20.1842 20.1809 20.1783 20.1765 20.1754 20.175 21.4964 21.4965 21.4969 21.4976 21.4985 21.4996 21.501 21.5025 21.5042 21.506 21.5079 21.5097 21.5116 21.5133 21.515 21.5164 21.5176 21.5185 21.519 21.5191 21.5186 21.5176 21.516 21.5136 21.5106 21.5066 21.5018 21.4961 21.4895 21.4818 21.4731 21.4633 21.4525 21.4405 21.4274 21.4132 21.3978 21.3813 21.3636 21.3448 21.3249 21.3039 21.282 21.259 21.2352 21.2104 21.1849 21.1587 21.1317 21.1042 21.0762 21.0478 21.0189 20.9898 20.9605 20.931 20.9015 20.872 20.8425 20.8133 20.7842 20.7554 20.727 20.699 20.6715 20.6445 20.6181 20.5922 20.567 20.5425 20.5187 20.4956 20.4733 20.4517 20.431 20.411 20.3919 20.3736 20.3562 20.3395 20.3237 20.3087 20.2946 20.2812 20.2687 20.257 20.2461 20.236 20.2267 20.2182 20.2104 20.2035 20.1972 20.1917 20.187 20.183 20.1797 20.1772 20.1754 20.1743 20.174 21.4912 21.4913 21.4917 21.4924 21.4933 21.4944 21.4957 21.4972 21.4989 21.5006 21.5025 21.5043 21.5061 21.5078 21.5094 21.5108 21.512 21.5128 21.5133 21.5133 21.5128 21.5117 21.51 21.5077 21.5045 21.5006 21.4958 21.4901 21.4834 21.4758 21.4671 21.4573 21.4465 21.4345 21.4214 21.4071 21.3917 21.3752 21.3576 21.3388 21.319 21.2982 21.2763 21.2535 21.2298 21.2052 21.1799 21.1538 21.127 21.0996 21.0718 21.0435 21.0148 20.9858 20.9566 20.9273 20.8979 20.8685 20.8392 20.8101 20.7812 20.7526 20.7243 20.6965 20.6691 20.6422 20.6159 20.5901 20.565 20.5406 20.5169 20.494 20.4717 20.4503 20.4296 20.4098 20.3907 20.3725 20.3551 20.3385 20.3228 20.3079 20.2938 20.2805 20.268 20.2564 20.2455 20.2355 20.2262 20.2177 20.21 20.203 20.1968 20.1913 20.1866 20.1826 20.1794 20.1768 20.175 20.174 20.1736 </DataArray> 
<DataArray type="Float32" Name="gradient" format="ascii" NumberOfComponents="3"> 
-0.11018 -0.11018 0 18.0942 -0.109966 0 35.6645 -0.11073 0 52.6008 -0.111889 0 68.4914 -0.112951 0 82.6807 -0.113957 0 95.1605 -0.115142 0 105.668 -0.116679 0 113.559 -0.118229 0 118.806 -0.119189 0 121.3 -0.119 0 120.642 -0.117753 0 116.793 -0.116004 0 109.749 -0.1143 0 99.4898 -0.112655 0 86.0119 -0.110552 0 69.3553 -0.107466 0 49.936 -0.103452 0 27.8646 -0.0993753 0 3.17364 -0.0961481 0 -23.4223 -0.0934776 0 -51.6308 -0.0887279 0 -81.4421 -0.0789959 0 -112.095 -0.0631677 0 -143.11 -0.0450713 0 -174.488 -0.0293809 0 -205.655 -0.0181515 0 -236.034 -0.00296071 0 -265.628 0.0272333 0 -294.094 0.0782957 0 -320.89 0.125862 0 -346.008 0.134627 0 -369.316 0.0765419 0 -390.485 -0.0131447 0 -409.5 -0.0665918 0 -426.311 -0.0221819 0 -440.734 0.0935614 0 -452.749 0.190593 0 -462.389 0.181325 0 -469.834 0.066975 0 -475.116 -0.0624373 0 -478.24 -0.114387 0 -479.251 -0.0577812 0 -478.162 0.0532346 0 -474.999 0.158415 0 -470.306 0.219247 0 -464.308 0.239429 0 -457.005 0.227507 0 -448.396 0.192027 0 -438.481 0.141538 0 -427.261 0.0845841 0 -415.174 0.0287715 0 -402.66 -0.0220648 0 -389.719 -0.0650317 0 -376.351 -0.0972359 0 -362.555 -0.115784 0 -348.332 -0.117784 0 -333.843 -0.101004 0 -319.479 -0.0689861 0 -305.258 -0.0282434 0 -291.181 0.0146871 0 -277.247 0.0532678 0 -263.456 0.0809615 0 -249.842 0.0914749 0 -236.603 0.0841334 0 -223.774 0.0638805 0 -211.352 0.0359042 0 -199.34 0.00539251 0 -187.736 -0.0224668 0 -176.542 -0.0425057 0 -165.786 -0.0519791 0 -155.48 -0.0528471 0 -145.622 -0.0476102 0 -136.213 -0.0387694 0 -127.254 -0.0288251 0 -118.744 -0.0202782 0 -110.648 -0.0150672 0 -102.932 -0.0128829 0 -95.5948 -0.0128539 0 -88.6371 -0.0141088 0 -82.0588 -0.0157763 0 -75.8599 -0.016985 0 -70.0096 -0.0169537 0 -64.4324 -0.015686 0 -59.1251 -0.0135896 0 -54.0876 -0.0110755 0 -49.3198 -0.00855464 0 -44.8219 -0.00643815 0 -40.5796 -0.00512267 0 -36.5076 -0.00467519 0 -32.5919 -0.00483304 0 -28.8324 -0.00531919 0 -25.2292 -0.00585665 0 -21.7821 -0.00616839 0 -18.4881 -0.00597907 0 -15.277 -0.00521465 0 -12.1202 -0.0041921 0 -9.01759 -0.00327331 0 -5.96922 -0.00282016 0 -2.97509 -0.00319454 0 -0.0351992 -0.00475835 0 -0.109966 18.0942 0 18.2185 18.2185 0 35.9118 18.5904 0 52.97 19.2071 0 68.98 20.0655 0 83.2844 21.158 0 95.8746 22.4761 0 106.486 24.0102 0 114.474 25.745 0 119.807 27.662 0 122.378 29.7424 0 121.782 31.9609 0 117.979 34.2882 0 110.967 36.6945 0 100.72 39.146 0 87.2363 41.6047 0 70.5548 44.0325 0 51.0922 46.3919 0 28.959 48.6468 0 4.18811 50.761 0 -22.5008 52.7021 0 -50.8134 54.4448 0 -80.7398 55.9644 0 -111.515 57.2404 0 -142.659 58.2637 0 -174.171 59.027 0 -205.47 59.5251 0 -235.975 59.7613 0 -265.686 59.7408 0 -294.268 59.4698 0 -321.191 58.9578 0 -346.447 58.2161 0 -369.888 57.2563 0 -391.152 56.0946 0 -410.222 54.7493 0 -427.063 53.2389 0 -441.544 51.58 0 -453.652 49.788 0 -463.406 47.8789 0 -470.919 45.8759 0 -476.208 43.8103 0 -479.286 41.7134 0 -480.259 39.6071 0 -479.157 37.5002 0 -476.004 35.4007 0 -471.322 33.3174 0 -465.325 31.2611 0 -458.013 29.2426 0 -449.386 27.2728 0 -439.444 25.3624 0 -428.187 23.5224 0 -416.058 21.7622 0 -403.5 20.0846 0 -390.512 18.4914 0 -377.094 16.9838 0 -363.248 15.5636 0 -348.971 14.2321 0 -334.429 12.9904 0 -320.016 11.836 0 -305.753 10.7645 0 -291.638 9.77133 0 -277.672 8.85206 0 -263.855 8.00224 0 -250.218 7.21742 0 -236.957 6.49409 0 -224.104 5.82959 0 -211.657 5.22131 0 -199.619 4.66666 0 -187.988 4.16303 0 -176.765 3.70781 0 -165.983 3.29805 0 -155.653 2.93016 0 -145.774 2.6005 0 -136.348 2.30538 0 -127.375 2.04115 0 -118.853 1.80415 0 -110.748 1.59105 0 -103.022 1.3999 0 -95.6759 1.22908 0 -88.7097 1.07698 0 -82.1232 0.941975 0 -75.9165 0.822455 0 -70.0589 0.716833 0 -64.4753 0.623784 0 -59.1623 0.542118 0 -54.1198 0.470647 0 -49.348 0.408181 0 -44.8467 0.353532 0 -40.6017 0.305527 0 -36.5273 0.263377 0 -32.6092 0.226677 0 -28.8474 0.195038 0 -25.2418 0.168072 0 -21.7926 0.145388 0 -18.4964 0.1266 0 -15.2834 0.111347 0 -12.125 0.0993326 0 -9.02109 0.0902622 0 -5.97178 0.0838438 0 -2.97703 0.0797847 0 -0.0368368 0.0777923 0 -0.11073 35.6645 0 18.5904 35.9118 0 36.6523 36.6523 0 54.0751 37.8807 0 70.4423 39.5905 0 85.0911 41.7675 0 98.0129 44.395 0 108.939 47.4547 0 117.214 50.9167 0 122.808 54.7447 0 125.608 58.9017 0 125.199 63.3382 0 121.539 67.9957 0 114.623 72.8152 0 104.418 77.7293 0 90.9178 82.6621 0 74.1631 87.5373 0 54.5723 92.28 0 32.2568 96.8174 0 7.2497 101.077 0 -19.7176 104.993 0 -48.3458 108.514 0 -78.625 111.591 0 -109.774 114.182 0 -141.301 116.269 0 -173.208 117.838 0 -204.904 118.877 0 -235.801 119.389 0 -265.9 119.379 0 -294.858 118.854 0 -322.13 117.845 0 -347.709 116.387 0 -371.453 114.518 0 -393.008 112.253 0 -412.359 109.601 0 -429.464 106.575 0 -444.161 103.221 0 -456.437 99.6143 0 -466.314 95.829 0 -473.929 91.9061 0 -479.304 87.8547 0 -482.45 83.6828 0 -483.461 79.4179 0 -482.363 75.1146 0 -479.181 70.8294 0 -474.451 66.6059 0 -468.392 62.4635 0 -461.005 58.4185 0 -452.289 54.4872 0 -442.246 50.6861 0 -430.873 47.0314 0 -418.622 43.5369 0 -405.94 40.206 0 -392.827 37.0394 0 -379.284 34.0377 0 -365.311 31.2018 0 -350.907 28.5324 0 -336.237 26.0297 0 -321.702 23.6913 0 -307.319 21.5132 0 -293.089 19.4911 0 -279.012 17.621 0 -265.088 15.8989 0 -251.349 14.3206 0 -237.992 12.8793 0 -225.047 11.566 0 -212.517 10.3714 0 -200.399 9.28628 0 -188.696 8.30145 0 -177.407 7.40767 0 -166.563 6.5969 0 -156.175 5.86346 0 -146.244 5.2019 0 -136.77 4.60681 0 -127.753 4.07274 0 -119.192 3.59427 0 -111.051 3.16621 0 -103.292 2.78437 0 -95.9165 2.44483 0 -88.9231 2.14363 0 -82.3123 1.87684 0 -76.084 1.64051 0 -70.2073 1.43086 0 -64.6062 1.24522 0 -59.2773 1.08156 0 -54.2206 0.937838 0 -49.436 0.812011 0 -44.9237 0.702041 0 -40.6692 0.605909 0 -36.5861 0.522096 0 -32.6599 0.449582 0 -28.8907 0.387366 0 -25.2785 0.33445 0 -21.8233 0.289835 0 -18.5219 0.252523 0 -15.304 0.221742 0 -12.141 0.197158 0 -9.03287 0.178487 0 -5.97954 0.165446 0 -2.98107 0.157751 0 -0.037433 0.155119 0 -0.111889 52.6008 0 19.2071 52.97 0 37.8807 54.0751 0 55.9088 55.9088 0 72.8696 58.4621 0 88.0913 61.7145 0 101.565 65.6416 0 113.017 70.2169 0 121.773 75.3968 0 127.803 81.1289 0 130.99 87.3592 0 130.896 94.0142 0 127.478 101.007 0 120.729 108.248 0 110.597 115.637 0 97.0763 123.062 0 80.2056 130.407 0 60.4066 137.561 0 37.7911 144.413 0 12.3934 150.851 0 -15.0343 156.779 0 -44.1843 162.119 0 -75.0463 166.801 0 -106.813 170.761 0 -138.979 173.97 0 -171.542 176.403 0 -203.902 178.038 0 -235.456 178.881 0 -266.205 178.941 0 -295.792 178.231 0 -323.653 176.786 0 -349.78 174.648 0 -374.035 171.86 0 -396.081 168.461 0 -415.903 164.489 0 -433.446 159.985 0 -448.501 155.016 0 -461.049 149.669 0 -471.121 144.032 0 -478.911 138.158 0 -484.45 132.071 0 -487.743 125.794 0 -488.841 119.375 0 -487.757 112.897 0 -484.517 106.444 0 -479.695 100.085 0 -473.523 93.8466 0 -466.003 87.7551 0 -457.134 81.8354 0 -446.916 76.1125 0 -435.35 70.6114 0 -422.893 65.353 0 -410.006 60.3421 0 -396.687 55.5791 0 -382.938 51.0645 0 -368.757 46.799 0 -354.145 42.7831 0 -339.268 39.0169 0 -324.53 35.4969 0 -309.949 32.2177 0 -295.526 29.174 0 -281.261 26.3602 0 -267.152 23.771 0 -253.235 21.4009 0 -239.71 19.2397 0 -226.61 17.273 0 -213.936 15.4861 0 -201.688 13.8642 0 -189.865 12.3928 0 -178.469 11.0571 0 -167.525 9.84459 0 -157.045 8.74704 0 -147.028 7.75662 0 -137.474 6.86552 0 -128.384 6.06594 0 -119.757 5.35007 0 -111.555 4.7104 0 -103.741 4.14053 0 -96.3147 3.63438 0 -89.2758 3.18583 0 -82.6245 2.78881 0 -76.3608 2.43719 0 -70.4529 2.12512 0 -64.8233 1.84863 0 -59.4684 1.60474 0 -54.3881 1.3905 0 -49.5826 1.20293 0 -45.0517 1.03909 0 -40.781 0.896023 0 -36.683 0.771482 0 -32.7434 0.66388 0 -28.962 0.571664 0 -25.3389 0.49328 0 -21.874 0.427172 0 -18.5642 0.371791 0 -15.3385 0.325968 0 -12.168 0.289283 0 -9.05259 0.261401 0 -5.99236 0.241987 0 -2.98728 0.230705 0 -0.0373497 0.227221 0 -0.112951 68.4914 0 20.0655 68.98 0 39.5905 70.4423 0 58.4621 72.8696 0 76.2508 76.2508 0 92.2727 80.5603 0 106.519 85.767 0 118.706 91.8373 0 128.138 98.7157 0 134.785 106.335 0 138.52 114.627 0 138.875 123.495 0 135.804 132.824 0 129.296 142.497 0 119.277 152.381 0 105.736 162.325 0 88.7129 172.179 0 68.6309 181.791 0 45.6024 191.011 0 19.6629 199.691 0 -8.40344 207.697 0 -38.276 214.929 0 -69.944 221.293 0 -102.569 226.705 0 -135.624 231.12 0 -169.11 234.501 0 -202.402 236.818 0 -234.874 238.078 0 -266.529 238.295 0 -296.999 237.487 0 -325.703 235.687 0 -352.633 232.933 0 -377.645 229.267 0 -400.387 224.758 0 -420.841 219.49 0 -438.949 213.547 0 -454.49 207.01 0 -467.441 199.957 0 -477.841 192.465 0 -485.911 184.605 0 -491.688 176.442 0 -495.173 168.04 0 -496.381 159.476 0 -495.314 150.846 0 -492.002 142.246 0 -487.058 133.754 0 -480.735 125.41 0 -473.032 117.253 0 -463.95 109.317 0 -453.489 101.642 0 -441.647 94.2625 0 -428.901 87.2105 0 -415.722 80.4928 0 -402.112 74.1104 0 -388.07 68.0641 0 -373.596 62.3551 0 -358.691 56.9843 0 -343.521 51.952 0 -328.498 47.2527 0 -313.638 42.8782 0 -298.942 38.8199 0 -284.411 35.0695 0 -270.044 31.6186 0 -255.876 28.4584 0 -242.116 25.5754 0 -228.798 22.9507 0 -215.923 20.5654 0 -203.49 18.4005 0 -191.499 16.4371 0 -179.953 14.656 0 -168.87 13.0411 0 -158.26 11.5809 0 -148.122 10.2646 0 -138.457 9.08151 0 -129.264 8.02075 0 -120.544 7.07157 0 -112.257 6.22362 0 -104.366 5.46838 0 -96.8685 4.79773 0 -89.7661 4.2036 0 -83.0584 3.67788 0 -76.7454 3.21249 0 -70.7943 2.79962 0 -65.125 2.434 0 -59.7338 2.11165 0 -54.6208 1.82862 0 -49.7859 1.58095 0 -45.2292 1.36467 0 -40.9359 1.17587 0 -36.8174 1.01153 0 -32.859 0.869573 0 -29.0607 0.747933 0 -25.4224 0.64456 0 -21.9442 0.5574 0 -18.6228 0.484403 0 -15.3863 0.424026 0 -12.2053 0.375709 0 -9.07994 0.339005 0 -6.01008 0.313466 0 -2.99574 0.298647 0 -0.0369492 0.294098 0 -0.113957 82.6807 0 21.158 83.2844 0 41.7675 85.0911 0 61.7145 88.0913 0 80.5603 92.2727 0 97.606 97.606 0 112.843 104.056 0 125.976 111.584 0 136.282 120.126 0 143.729 129.601 0 148.181 139.929 0 149.128 150.993 0 146.521 162.656 0 140.343 174.774 0 130.489 187.182 0 116.943 199.693 0 99.7444 212.117 0 79.3171 224.264 0 55.7737 235.944 0 29.1518 246.969 0 0.276508 257.17 0 -30.5145 266.418 0 -63.21 274.588 0 -96.9314 281.576 0 -131.127 287.324 0 -165.796 291.783 0 -200.286 294.916 0 -233.941 296.726 0 -266.762 297.228 0 -298.375 296.439 0 -328.182 294.395 0 -356.177 291.137 0 -382.199 286.71 0 -405.852 281.203 0 -427.12 274.725 0 -445.947 267.384 0 -462.124 259.274 0 -475.633 250.483 0 -486.509 241.094 0 -494.967 231.209 0 -501.043 220.942 0 -504.737 210.41 0 -506.059 199.719 0 -505.011 188.963 0 -501.622 178.234 0 -496.544 167.613 0 -490.042 157.155 0 -482.116 146.911 0 -472.767 136.933 0 -461.994 127.274 0 -449.798 117.985 0 -436.673 109.109 0 -423.115 100.658 0 -409.123 92.6333 0 -394.699 85.0366 0 -379.841 77.8701 0 -364.55 71.1359 0 -348.997 64.8349 0 -333.6 58.9588 0 -318.377 53.4946 0 -303.33 48.429 0 -288.457 43.749 0 -273.759 39.4415 0 -259.272 35.4931 0 -245.212 31.8863 0 -231.616 28.5991 0 -218.482 25.6094 0 -205.812 22.8952 0 -193.604 20.4342 0 -181.861 18.2046 0 -170.597 16.1865 0 -159.817 14.3651 0 -149.523 12.7259 0 -139.713 11.2548 0 -130.389 9.93717 0 -121.55 8.75875 0 -113.155 7.70589 0 -105.164 6.76791 0 -97.5761 5.9349 0 -90.3924 5.19693 0 -83.6124 4.54407 0 -77.2361 3.96641 0 -71.2296 3.45436 0 -65.5094 3.00134 0 -60.0718 2.6023 0 -54.9169 2.25222 0 -50.0447 1.94606 0 -45.455 1.67879 0 -41.133 1.44545 0 -36.9884 1.24225 0 -33.0061 1.06666 0 -29.1862 0.916172 0 -25.5286 0.788291 0 -22.0333 0.680518 0 -18.6971 0.59036 0 -15.4469 0.515916 0 -12.2527 0.456435 0 -9.11458 0.411298 0 -6.03252 0.379884 0 -3.00653 0.361575 0 -0.0365935 0.355752 0 -0.115142 95.1605 0 22.4761 95.8746 0 44.395 98.0129 0 65.6416 101.565 0 85.767 106.519 0 104.056 112.843 0 120.5 120.5 0 134.789 129.448 0 146.17 139.617 0 154.607 150.916 0 159.952 163.254 0 161.645 176.5 0 159.634 190.492 0 153.892 205.068 0 144.273 220.031 0 130.752 235.156 0 113.37 250.212 0 92.5493 264.97 0 68.4034 279.202 0 40.9716 292.678 0 11.1268 305.19 0 -20.774 316.577 0 -54.7188 326.682 0 -89.7756 335.37 0 -125.359 342.576 0 -161.468 348.243 0 -197.418 352.326 0 -232.523 354.822 0 -266.782 355.737 0 -299.807 355.086 0 -330.982 352.909 0 -360.298 349.258 0 -387.575 344.19 0 -412.374 337.799 0 -434.674 330.197 0 -454.423 321.497 0 -471.427 311.81 0 -485.665 301.246 0 -497.168 289.918 0 -506.113 277.967 0 -512.531 265.571 0 -516.426 252.904 0 -517.851 240.103 0 -516.822 227.246 0 -513.367 214.408 0 -508.156 201.663 0 -501.46 189.08 0 -493.279 176.73 0 -483.614 164.683 0 -472.465 153.009 0 -459.831 141.778 0 -446.237 131.05 0 -432.207 120.838 0 -417.741 111.148 0 -402.839 101.982 0 -387.502 93.3441 0 -371.728 85.238 0 -355.694 77.6658 0 -339.832 70.6152 0 -324.161 64.0669 0 -308.681 58.0012 0 -293.392 52.3987 0 -278.294 47.2399 0 -263.424 42.5051 0 -249.003 38.1725 0 -235.069 34.2182 0 -221.621 30.6181 0 -208.66 27.3482 0 -196.184 24.3843 0 -184.196 21.7026 0 -172.704 19.2806 0 -161.715 17.0995 0 -151.226 15.1406 0 -141.239 13.3853 0 -131.754 11.8152 0 -122.77 10.4116 0 -114.244 9.15718 0 -106.133 8.03913 0 -98.4356 7.04587 0 -91.1531 6.16581 0 -84.2851 5.38737 0 -77.8316 4.69895 0 -71.7571 4.08934 0 -65.9748 3.55064 0 -60.4807 3.07668 0 -55.2748 2.66128 0 -50.3572 2.29826 0 -45.7278 1.98145 0 -41.3712 1.70476 0 -37.1951 1.46364 0 -33.184 1.25514 0 -29.338 1.07638 0 -25.657 0.924472 0 -22.1411 0.796526 0 -18.7869 0.689661 0 -15.5198 0.601639 0 -12.3096 0.531462 0 -9.15618 0.47828 0 -6.05954 0.441241 0 -3.01969 0.419491 0 -0.0366448 0.412181 0 -0.116679 105.668 0 24.0102 106.486 0 47.4547 108.939 0 70.2169 113.017 0 91.8373 118.706 0 111.584 125.976 0 129.448 134.789 0 145.106 145.106 0 157.763 156.848 0 167.385 169.922 0 173.807 184.229 0 176.413 199.624 0 175.142 215.929 0 169.961 232.962 0 160.664 250.5 0 147.217 268.278 0 129.66 286.028 0 108.414 303.482 0 83.5931 320.367 0 55.238 336.412 0 24.2736 351.37 0 -8.92198 365.043 0 -44.3359 377.238 0 -80.9656 387.793 0 -118.181 396.628 0 -155.982 403.68 0 -193.653 408.893 0 -230.477 412.253 0 -266.453 413.755 0 -301.172 413.401 0 -333.982 411.241 0 -364.874 407.339 0 -393.653 401.764 0 -419.848 394.608 0 -443.435 385.976 0 -464.359 375.975 0 -482.409 364.738 0 -497.565 352.415 0 -509.846 339.157 0 -519.373 325.154 0 -526.166 310.632 0 -530.239 295.817 0 -531.75 280.871 0 -530.74 265.868 0 -527.24 250.873 0 -521.906 235.962 0 -515.008 221.219 0 -506.546 206.732 0 -496.52 192.59 0 -484.931 178.877 0 -471.779 165.678 0 -457.624 153.067 0 -443.027 141.063 0 -427.99 129.677 0 -412.511 118.916 0 -396.592 108.786 0 -380.232 99.2924 0 -363.616 90.4376 0 -347.193 82.2048 0 -330.985 74.5676 0 -314.991 67.4992 0 -299.212 60.9729 0 -283.646 54.9621 0 -268.332 49.44 0 -253.492 44.3806 0 -239.163 39.758 0 -225.345 35.5465 0 -212.038 31.7205 0 -199.242 28.2542 0 -186.958 25.122 0 -175.193 22.299 0 -163.95 19.7619 0 -153.229 17.4877 0 -143.031 15.4533 0 -133.355 13.6357 0 -124.201 12.0118 0 -115.522 10.5602 0 -107.27 9.26604 0 -99.4446 8.11615 0 -92.0461 7.09732 0 -85.0746 6.19635 0 -78.5299 5.40005 0 -72.375 4.69564 0 -66.5192 4.07391 0 -60.9584 3.52751 0 -55.6926 3.04911 0 -50.7218 2.63135 0 -46.046 2.26692 0 -41.6493 1.94854 0 -37.4366 1.67094 0 -33.3921 1.43077 0 -29.5156 1.2248 0 -25.8072 1.04977 0 -22.267 0.902454 0 -18.8914 0.779599 0 -15.6046 0.67864 0 -12.3756 0.598319 0 -9.2044 0.537527 0 -6.09096 0.495152 0 -3.0353 0.470087 0 -0.0374176 0.461222 0 -0.118229 113.559 0 25.745 114.474 0 50.9167 117.214 0 75.3968 121.773 0 98.7157 128.138 0 120.126 136.282 0 139.617 146.17 0 156.848 157.763 0 170.986 170.986 0 181.993 185.744 0 189.687 201.936 0 193.383 219.41 0 193.018 237.974 0 188.544 257.433 0 179.681 277.54 0 166.384 297.997 0 148.691 318.502 0 127.017 338.748 0 101.471 358.414 0 72.0994 377.182 0 39.885 394.761 0 5.23092 410.921 0 -31.849 425.439 0 -70.2703 438.123 0 -109.352 448.873 0 -149.093 457.602 0 -188.747 464.236 0 -227.565 468.745 0 -265.548 471.109 0 -302.255 471.321 0 -336.987 469.424 0 -369.734 465.485 0 -400.292 459.573 0 -428.158 451.785 0 -453.308 442.234 0 -475.675 431.036 0 -494.998 418.357 0 -511.252 404.395 0 -524.451 389.351 0 -534.673 373.436 0 -541.932 356.868 0 -546.253 339.866 0 -547.892 322.614 0 -546.919 305.244 0 -543.363 287.884 0 -537.882 270.655 0 -530.744 253.653 0 -521.949 236.976 0 -511.502 220.715 0 -499.408 204.954 0 -485.665 189.774 0 -470.869 175.247 0 -455.616 161.406 0 -439.907 148.275 0 -423.745 135.877 0 -407.138 124.218 0 -390.087 113.304 0 -372.784 103.133 0 -355.704 93.6861 0 -338.868 84.9297 0 -322.275 76.8318 0 -305.927 69.36 0 -289.822 62.4821 0 -273.998 56.1658 0 -258.676 50.3803 0 -243.891 45.0964 0 -229.646 40.285 0 -215.938 35.9168 0 -202.769 31.9627 0 -190.139 28.3937 0 -178.053 25.181 0 -166.515 22.2976 0 -155.525 19.7164 0 -145.081 17.4101 0 -135.186 15.3518 0 -125.837 13.5143 0 -116.983 11.8726 0 -108.57 10.4096 0 -100.597 9.1103 0 -93.0661 7.95982 0 -85.9757 6.9431 0 -79.3263 6.04517 0 -73.079 5.25149 0 -67.1389 4.55157 0 -61.5017 3.93698 0 -56.1673 3.39932 0 -51.1358 2.93018 0 -46.4072 2.52116 0 -41.9651 2.16395 0 -37.7109 1.85253 0 -33.6283 1.58317 0 -29.7172 1.35222 0 -25.9777 1.15606 0 -22.4097 0.991045 0 -19.0098 0.853551 0 -15.7004 0.740682 0 -12.4501 0.65097 0 -9.25882 0.583109 0 -6.12649 0.535795 0 -3.05316 0.507723 0 -0.038812 0.497588 0 -0.119189 118.806 0 27.662 119.807 0 54.7447 122.808 0 81.1289 127.803 0 106.335 134.785 0 129.601 143.729 0 150.916 154.607 0 169.922 167.385 0 185.744 181.993 0 198.34 198.34 0 207.51 216.333 0 212.493 235.814 0 213.217 256.582 0 209.619 278.434 0 201.331 301.104 0 188.294 324.265 0 170.544 347.587 0 148.471 370.722 0 122.181 393.299 0 91.721 414.943 0 58.1507 435.321 0 21.9035 454.172 0 -17.0057 471.248 0 -57.4097 486.329 0 -98.5754 499.281 0 -140.503 509.985 0 -182.406 518.336 0 -223.501 524.283 0 -263.787 527.794 0 -302.792 528.842 0 -339.761 527.46 0 -374.685 523.701 0 -407.341 517.624 0 -437.184 509.338 0 -464.189 498.98 0 -488.266 486.69 0 -509.078 472.679 0 -526.592 457.205 0 -540.826 440.524 0 -551.888 422.842 0 -559.797 404.312 0 -564.578 385.085 0 -566.486 365.358 0 -565.591 345.393 0 -561.925 325.453 0 -556.211 305.748 0 -548.745 286.387 0 -539.525 267.462 0 -528.573 249.06 0 -515.902 231.243 0 -501.511 214.069 0 -486.014 197.594 0 -470.024 181.869 0 -453.54 166.945 0 -436.582 152.866 0 -419.177 139.642 0 -401.327 127.272 0 -383.234 115.753 0 -365.397 105.057 0 -347.839 95.15 0 -330.559 85.9947 0 -313.557 77.5549 0 -296.833 69.7942 0 -280.425 62.6763 0 -264.55 56.1658 0 -249.245 50.228 0 -234.51 44.8285 0 -220.345 39.9328 0 -206.751 35.5063 0 -193.726 31.5145 0 -181.276 27.9241 0 -169.402 24.7043 0 -158.105 21.8243 0 -147.384 19.2536 0 -137.239 16.9614 0 -127.671 14.9171 0 -118.619 13.0924 0 -110.025 11.4679 0 -101.887 10.0267 0 -94.2059 8.75187 0 -86.982 7.62635 0 -80.2149 6.63317 0 -73.864 5.75589 0 -67.8294 4.98272 0 -62.1065 4.30427 0 -56.6954 3.71118 0 -51.5961 3.19406 0 -46.8085 2.74356 0 -42.3157 2.35041 0 -38.0153 2.0079 0 -33.8903 1.71186 0 -29.9408 1.45823 0 -26.1666 1.24295 0 -22.5678 1.06197 0 -19.1407 0.911217 0 -15.8065 0.787481 0 -12.5325 0.689139 0 -9.31898 0.614757 0 -6.16579 0.562903 0 -3.07297 0.53214 0 -0.0405149 0.521037 0 -0.119 121.3 0 29.7424 122.378 0 58.9017 125.608 0 87.3592 130.99 0 114.627 138.52 0 139.929 148.181 0 163.254 159.952 0 184.229 173.807 0 201.936 189.687 0 216.333 207.51 0 227.195 227.195 0 233.674 248.585 0 235.689 271.479 0 233.161 295.669 0 225.62 320.875 0 212.987 346.747 0 195.295 372.932 0 172.89 399.045 0 145.864 424.656 0 114.27 449.336 0 79.2643 472.703 0 41.3191 494.469 0 0.450757 514.359 0 -42.0995 532.124 0 -85.5517 547.591 0 -129.906 560.599 0 -174.33 571.004 0 -217.989 578.73 0 -260.885 583.719 0 -302.51 585.92 0 -342.06 585.341 0 -379.523 582.01 0 -414.645 575.965 0 -446.804 567.334 0 -475.97 556.288 0 -502.028 543.008 0 -524.539 527.753 0 -543.462 510.838 0 -558.837 492.576 0 -570.915 473.163 0 -579.739 452.675 0 -585.315 431.188 0 -587.717 408.914 0 -586.964 386.254 0 -583.098 363.623 0 -577.016 341.337 0 -569.089 319.521 0 -559.316 298.276 0 -547.75 277.684 0 -534.426 257.776 0 -519.343 238.573 0 -503.1 220.107 0 -486.298 202.45 0 -468.936 185.685 0 -451.06 169.883 0 -432.743 155.057 0 -413.985 141.198 0 -394.999 128.295 0 -376.305 116.318 0 -357.928 105.229 0 -339.867 94.9881 0 -322.121 85.5577 0 -304.692 76.8984 0 -287.616 68.9717 0 -271.111 61.737 0 -255.214 55.1528 0 -239.925 49.1772 0 -225.244 43.7684 0 -211.171 38.8848 0 -197.706 34.4845 0 -184.85 30.5283 0 -172.602 26.9819 0 -160.962 23.8116 0 -149.932 20.9837 0 -139.51 18.4644 0 -129.696 16.2202 0 -120.424 14.2196 0 -111.627 12.441 0 -103.305 10.8654 0 -95.4584 9.47348 0 -88.0865 8.24609 0 -81.1896 7.16406 0 -74.7246 6.20885 0 -68.5859 5.36738 0 -62.7688 4.62939 0 -57.2732 3.98467 0 -52.0993 3.42299 0 -47.2469 2.9341 0 -42.6984 2.50791 0 -38.3472 2.13704 0 -34.1758 1.81686 0 -30.184 1.54284 0 -26.372 1.31046 0 -22.7396 1.11522 0 -19.2832 0.952597 0 -15.9218 0.819036 0 -12.6222 0.712826 0 -9.38442 0.632472 0 -6.20852 0.576476 0 -3.09445 0.543341 0 -0.0422114 0.53157 0 -0.117753 120.642 0 31.9609 121.782 0 63.3382 125.199 0 94.0142 130.896 0 123.495 138.875 0 150.993 149.128 0 176.5 161.645 0 199.624 176.413 0 219.41 193.383 0 235.814 212.493 0 248.585 233.674 0 256.783 256.783 0 260.317 281.63 0 259.087 308.016 0 252.501 335.659 0 240.458 364.188 0 222.987 393.23 0 200.364 422.366 0 172.663 451.12 0 139.941 479.01 0 103.467 505.607 0 63.7588 530.583 0 20.833 553.62 0 -23.9967 574.431 0 -69.905 592.811 0 -116.892 608.57 0 -164.079 621.53 0 -210.587 631.562 0 -256.415 638.549 0 -301.023 642.387 0 -343.544 643.042 0 -383.968 640.505 0 -421.989 634.785 0 -456.857 626.026 0 -488.539 614.442 0 -516.892 600.257 0 -541.377 583.755 0 -561.943 565.271 0 -578.66 545.137 0 -591.944 523.61 0 -601.864 500.872 0 -608.408 477.104 0 -611.428 452.56 0 -610.885 427.593 0 -606.83 402.564 0 -600.347 377.78 0 -591.88 353.44 0 -581.43 329.733 0 -569.131 306.802 0 -555.064 284.666 0 -539.231 263.32 0 -522.187 242.781 0 -504.489 223.135 0 -486.137 204.486 0 -467.218 186.925 0 -447.87 170.463 0 -428.095 155.081 0 -408.113 140.761 0 -388.461 127.469 0 -369.166 115.166 0 -350.225 103.812 0 -331.64 93.3682 0 -313.41 83.7947 0 -295.574 75.0517 0 -278.353 67.0939 0 -261.788 59.8706 0 -245.876 53.3309 0 -230.619 47.4238 0 -216.016 42.0983 0 -202.066 37.3036 0 -188.764 32.9934 0 -176.105 29.1303 0 -164.089 25.6781 0 -152.718 22.6004 0 -141.989 19.861 0 -131.905 17.4236 0 -122.39 15.2542 0 -113.37 13.329 0 -104.846 11.6264 0 -96.8165 10.1246 0 -89.2828 8.80233 0 -82.2444 7.63784 0 -75.6555 6.61036 0 -69.4039 5.70553 0 -63.4844 4.91234 0 -57.8972 4.21981 0 -52.6422 3.61696 0 -47.7193 3.09279 0 -43.1102 2.63646 0 -38.704 2.23995 0 -34.4822 1.89815 0 -30.4449 1.60603 0 -26.592 1.35858 0 -22.9236 1.15081 0 -19.4358 0.977691 0 -16.0454 0.835347 0 -12.7184 0.722033 0 -9.45468 0.636254 0 -6.25431 0.576516 0 -3.11728 0.541325 0 -0.0435865 0.529187 0 -0.116004 116.793 0 34.2882 117.979 0 67.9957 121.539 0 101.007 127.478 0 132.824 135.804 0 162.656 146.521 0 190.492 159.634 0 215.929 175.142 0 237.974 193.018 0 256.582 213.217 0 271.479 235.689 0 281.63 260.317 0 286.934 286.934 0 287.268 315.368 0 281.889 345.341 0 270.671 376.467 0 253.634 408.353 0 230.965 440.557 0 202.715 472.559 0 168.946 503.835 0 131.035 533.91 0 89.5451 562.396 0 44.4937 588.92 0 -2.71681 613.145 0 -51.2057 634.845 0 -100.973 653.814 0 -151.12 669.844 0 -200.748 682.727 0 -249.858 692.252 0 -297.857 698.227 0 -343.801 700.56 0 -387.68 699.195 0 -429.109 694.101 0 -467.156 685.438 0 -501.777 673.469 0 -532.812 658.461 0 -559.661 640.702 0 -582.265 620.501 0 -600.696 598.169 0 -615.375 574.106 0 -626.373 548.798 0 -633.682 522.731 0 -637.212 496.229 0 -636.94 469.389 0 -632.915 442.293 0 -626.202 415.109 0 -617.238 388.18 0 -606.027 361.865 0 -592.868 336.437 0 -577.952 311.925 0 -561.279 288.315 0 -543.344 265.617 0 -524.644 243.924 0 -505.18 223.349 0 -485.09 203.993 0 -464.592 185.859 0 -443.691 168.921 0 -422.609 153.15 0 -401.898 138.509 0 -381.581 124.961 0 -361.659 112.466 0 -342.132 100.987 0 -322.999 90.4831 0 -304.301 80.9166 0 -286.273 72.2366 0 -268.957 64.3816 0 -252.35 57.2897 0 -236.454 50.8988 0 -221.269 45.1468 0 -206.794 39.9719 0 -193.007 35.3195 0 -179.902 31.1496 0 -167.478 27.4239 0 -155.734 24.1038 0 -144.672 21.151 0 -134.291 18.5272 0 -124.509 16.1963 0 -115.245 14.1318 0 -106.5 12.3096 0 -98.2729 10.7054 0 -90.5639 9.29507 0 -83.3731 8.05451 0 -76.6514 6.96042 0 -70.2787 5.99718 0 -64.2495 5.15311 0 -58.5637 4.41659 0 -53.2215 3.77598 0 -48.2229 3.21963 0 -43.5485 2.73605 0 -39.083 2.31664 0 -34.8073 1.95574 0 -30.7212 1.64781 0 -26.8249 1.38732 0 -23.1183 1.16872 0 -19.5975 0.986498 0 -16.1766 0.836415 0 -12.8206 0.716758 0 -9.52929 0.626101 0 -6.30283 0.563021 0 -3.14118 0.526091 0 -0.0443254 0.513888 0 -0.1143 109.749 0 36.6945 110.967 0 72.8152 114.623 0 108.248 120.729 0 142.497 129.296 0 174.774 140.343 0 205.068 153.892 0 232.962 169.961 0 257.433 188.544 0 278.434 209.619 0 295.669 233.161 0 308.016 259.087 0 315.368 287.268 0 317.571 317.571 0 313.695 349.732 0 303.584 383.359 0 287.247 418.052 0 264.765 453.347 0 236.16 488.688 0 201.497 523.516 0 162.245 557.305 0 119.003 589.606 0 71.7916 619.974 0 22.1332 648.019 0 -29.0149 673.495 0 -81.6528 696.18 0 -134.911 715.835 0 -187.922 732.142 0 -240.685 744.768 0 -292.535 753.4 0 -342.416 757.876 0 -390.313 758.083 0 -435.741 753.941 0 -477.509 745.627 0 -515.562 733.451 0 -549.743 717.726 0 -579.456 698.733 0 -604.643 676.738 0 -625.322 652.019 0 -641.588 625.168 0 -653.456 597.086 0 -660.979 568.683 0 -664.694 540.369 0 -664.744 511.872 0 -661.158 482.871 0 -654.582 453.327 0 -645.28 423.748 0 -633.26 394.705 0 -619.118 366.634 0 -603.228 339.598 0 -585.592 313.595 0 -566.642 288.642 0 -546.813 264.833 0 -526.105 242.281 0 -504.712 221.081 0 -482.945 201.232 0 -460.807 182.695 0 -438.524 165.434 0 -416.648 149.411 0 -395.205 134.588 0 -374.194 120.928 0 -353.616 108.395 0 -333.47 96.9493 0 -313.801 86.5544 0 -294.866 77.1538 0 -276.711 68.6739 0 -259.334 61.0402 0 -242.736 54.1783 0 -226.917 48.0136 0 -211.875 42.4719 0 -197.57 37.4894 0 -183.984 33.0236 0 -171.119 29.0343 0 -158.975 25.4811 0 -147.551 22.3238 0 -136.846 19.5222 0 -126.774 17.0382 0 -117.246 14.8428 0 -108.261 12.9091 0 -99.8205 11.2103 0 -91.9233 9.71935 0 -84.5698 8.4095 0 -77.7071 7.2549 0 -71.2057 6.23866 0 -65.0597 5.34854 0 -59.2692 4.57233 0 -53.8341 3.89781 0 -48.7545 3.31277 0 -44.0103 2.80513 0 -39.4816 2.36574 0 -35.1484 1.9884 0 -31.0108 1.66703 0 -27.0687 1.39556 0 -23.3221 1.16792 0 -19.7669 0.97804 0 -16.3144 0.821357 0 -12.928 0.696227 0 -9.60777 0.601339 0 -6.35372 0.53538 0 -3.16584 0.497041 0 -0.0441312 0.485008 0 -0.112655 99.4898 0 39.146 100.72 0 77.7293 104.418 0 115.637 110.597 0 152.381 119.277 0 187.182 130.489 0 220.031 144.273 0 250.5 160.664 0 277.54 179.681 0 301.104 201.331 0 320.875 225.62 0 335.659 252.501 0 345.341 281.889 0 349.732 313.695 0 347.693 347.693 0 339.034 383.524 0 323.749 420.819 0 301.772 459.112 0 273.087 497.801 0 237.763 536.276 0 197.353 573.967 0 152.49 610.39 0 103.195 645.068 0 51.119 677.567 0 -2.70187 707.565 0 -58.2676 734.76 0 -114.784 758.822 0 -171.456 779.306 0 -228.285 795.735 0 -284.503 807.67 0 -338.891 814.874 0 -391.434 817.186 0 -441.513 814.477 0 -487.618 806.93 0 -529.681 794.882 0 -567.547 778.676 0 -600.641 758.671 0 -628.907 735.237 0 -652.277 708.758 0 -670.351 679.886 0 -683.061 649.543 0 -690.548 618.653 0 -694.302 587.674 0 -694.718 556.425 0 -691.798 524.674 0 -685.565 492.433 0 -676.029 460.182 0 -663.202 428.454 0 -648.015 397.671 0 -631.051 367.957 0 -612.311 339.382 0 -592.19 312.022 0 -571.084 285.97 0 -548.993 261.323 0 -526.166 238.164 0 -503.001 216.489 0 -479.503 196.262 0 -455.899 177.447 0 -432.74 160.003 0 -410.053 143.889 0 -387.838 129.064 0 -366.094 115.484 0 -344.822 103.108 0 -324.07 91.8943 0 -304.128 81.7783 0 -285.045 72.676 0 -266.821 64.502 0 -249.455 57.1713 0 -232.949 50.5985 0 -217.298 44.6985 0 -202.437 39.3993 0 -188.337 34.6547 0 -175 30.4213 0 -162.424 26.6556 0 -150.611 23.3144 0 -139.559 20.3542 0 -129.174 17.7339 0 -119.361 15.4222 0 -110.12 13.3896 0 -101.45 11.6071 0 -93.3525 10.0455 0 -85.8267 8.67541 0 -78.8153 7.46895 0 -72.1782 6.40799 0 -65.9091 5.47961 0 -60.008 4.67093 0 -54.4749 3.96907 0 -49.3097 3.36113 0 -44.4918 2.83439 0 -39.8964 2.37914 0 -35.5029 1.98877 0 -31.3112 1.6568 0 -27.3212 1.37675 0 -23.5331 1.14211 0 -19.9427 0.946436 0 -16.4574 0.78488 0 -13.0397 0.655798 0 -9.68933 0.557908 0 -6.40647 0.489927 0 -3.19107 0.450573 0 -0.0431255 0.438563 0 -0.110552 86.0119 0 41.6047 87.2363 0 82.6621 90.9178 0 123.062 97.0763 0 162.325 105.736 0 199.693 116.943 0 235.156 130.752 0 268.278 147.217 0 297.997 166.384 0 324.265 188.294 0 346.747 212.987 0 364.188 240.458 0 376.467 270.671 0 383.359 303.584 0 383.524 339.034 0 376.738 376.738 0 362.972 416.402 0 341.933 457.581 0 313.541 499.613 0 277.874 541.819 0 236.597 583.591 0 190.393 624.446 0 139.283 663.918 0 84.9786 701.54 0 28.5558 736.855 0 -29.9858 769.401 0 -89.9397 798.693 0 -150.599 824.133 0 -211.964 845.094 0 -273.13 860.997 0 -332.653 871.537 0 -390.515 876.507 0 -445.95 875.739 0 -497.082 869.403 0 -543.827 857.843 0 -586.001 841.417 0 -622.914 820.654 0 -654.501 796.208 0 -680.664 768.732 0 -700.825 738.777 0 -714.888 706.801 0 -723.042 673.256 0 -727.267 638.595 0 -728.09 603.278 0 -725.503 567.764 0 -719.304 532.43 0 -709.412 497.49 0 -695.842 463.145 0 -679.677 429.594 0 -661.601 397.047 0 -641.614 365.715 0 -620.136 335.786 0 -597.588 307.352 0 -573.97 280.483 0 -549.576 255.239 0 -524.872 231.618 0 -499.866 209.6 0 -474.786 189.161 0 -450.2 170.259 0 -426.132 152.839 0 -402.583 136.849 0 -379.552 122.236 0 -357.04 108.946 0 -335.1 96.9245 0 -314.055 86.0989 0 -293.958 76.376 0 -274.81 67.6619 0 -256.611 59.8627 0 -239.36 52.8848 0 -223.053 46.6343 0 -207.593 41.032 0 -192.941 36.0267 0 -179.097 31.5703 0 -166.06 27.6148 0 -153.83 24.1121 0 -142.408 21.0142 0 -131.691 18.2759 0 -121.576 15.8632 0 -112.063 13.7451 0 -103.151 11.8906 0 -94.842 10.2684 0 -87.1346 8.84768 0 -79.9672 7.59843 0 -73.1879 6.50149 0 -66.7898 5.54315 0 -60.773 4.70971 0 -55.1374 3.98751 0 -49.8831 3.36288 0 -44.9884 2.82227 0 -40.3237 2.35549 0 -35.8675 1.95564 0 -31.6197 1.61598 0 -27.5804 1.32976 0 -23.7496 1.09025 0 -20.1228 0.890705 0 -16.604 0.726101 0 -13.154 0.594696 0 -9.77284 0.495133 0 -6.4604 0.426049 0 -3.21674 0.386088 0 -0.041848 0.373887 0 -0.107466 69.3553 0 44.0325 70.5548 0 87.5373 74.1631 0 130.407 80.2056 0 172.179 88.7129 0 212.117 99.7444 0 250.212 113.37 0 286.028 129.66 0 318.502 148.691 0 347.587 170.544 0 372.932 195.295 0 393.23 222.987 0 408.353 253.634 0 418.052 287.247 0 420.819 323.749 0 416.402 362.972 0 404.74 404.74 0 385.184 448.649 0 357.56 493.974 0 321.952 539.969 0 280.214 585.988 0 233.102 631.587 0 180.638 676.341 0 124.459 719.765 0 65.5914 761.203 0 4.03673 799.972 0 -59.5684 835.367 0 -124.587 866.607 0 -191.019 892.892 0 -257.774 913.482 0 -323.117 927.996 0 -387.027 936.185 0 -448.576 937.841 0 -505.5 933.116 0 -557.697 922.355 0 -604.88 905.929 0 -645.972 884.62 0 -680.868 859.501 0 -709.58 831.624 0 -732.167 801.319 0 -748.638 768.201 0 -759.113 731.869 0 -764.82 692.73 0 -766.089 652.315 0 -762.945 612.229 0 -755.958 573.457 0 -745.362 535.776 0 -731.168 498.826 0 -714.223 462.424 0 -695.06 426.889 0 -673.678 392.62 0 -650.626 359.958 0 -626.455 328.997 0 -601.163 299.77 0 -575.067 272.306 0 -548.671 246.617 0 -521.979 222.707 0 -495.24 200.576 0 -469.053 180.177 0 -443.447 161.437 0 -418.421 144.285 0 -393.975 128.651 0 -370.11 114.461 0 -346.883 101.645 0 -324.644 90.1157 0 -303.451 79.774 0 -283.303 70.5197 0 -264.201 62.2525 0 -246.145 54.8724 0 -229.128 48.2792 0 -213.023 42.3874 0 -197.776 37.1396 0 -183.388 32.4813 0 -169.859 28.3585 0 -157.188 24.7169 0 -145.375 21.5023 0 -134.309 18.664 0 -123.877 16.1659 0 -114.078 13.9756 0 -104.913 12.0606 0 -96.3818 10.3883 0 -88.4845 8.92629 0 -81.1539 7.64335 0 -74.2261 6.51918 0 -67.6937 5.53915 0 -61.5566 4.68867 0 -55.815 3.95315 0 -50.4687 3.318 0 -45.4952 2.76879 0 -40.7595 2.29479 0 -36.2391 1.889 0 -31.9339 1.54456 0 -27.844 1.25462 0 -23.9693 1.01233 0 -20.3053 0.81085 0 -16.7524 0.64502 0 -13.2697 0.512922 0 -9.85715 0.413012 0 -6.51484 0.343748 0 -3.24274 0.303585 0 -0.0408567 0.290982 0 -0.103452 49.936 0 46.3919 51.0922 0 92.28 54.5723 0 137.561 60.4066 0 181.791 68.6309 0 224.264 79.3171 0 264.97 92.5493 0 303.482 108.414 0 338.748 127.017 0 370.722 148.471 0 399.045 172.89 0 422.366 200.364 0 440.557 230.965 0 453.347 264.765 0 459.112 301.772 0 457.581 341.933 0 448.649 385.184 0 431.209 431.209 0 404.966 479.336 0 370.014 528.868 0 328.422 579.193 0 281.036 629.862 0 227.875 680.446 0 170.351 730.409 0 109.351 778.917 0 44.8756 825.089 0 -22.5194 867.999 0 -92.2783 906.557 0 -164.401 939.632 0 -237.548 966.176 0 -309.586 985.648 0 -380.488 997.687 0 -449.128 1001.99 0 -512.757 998.807 0 -571.248 988.635 0 -624.162 972.021 0 -669.845 949.914 0 -708.139 923.553 0 -739.273 894.148 0 -764.618 862.067 0 -784.4 826.839 0 -798.573 787.976 0 -806.631 745.902 0 -808.437 702.308 0 -804.089 658.974 0 -795.703 616.993 0 -784.144 576.129 0 -769.416 535.994 0 -751.83 496.398 0 -731.579 457.705 0 -708.664 420.376 0 -683.842 384.799 0 -657.868 351.084 0 -630.743 319.271 0 -602.788 289.397 0 -574.515 261.493 0 -545.932 235.585 0 -517.311 211.692 0 -489.324 189.757 0 -462.001 169.683 0 -435.342 151.372 0 -409.347 134.729 0 -384.017 119.656 0 -359.41 106.056 0 -335.891 93.8286 0 -313.521 82.87 0 -292.298 73.0755 0 -272.224 64.3407 0 -253.298 56.5615 0 -235.513 49.6334 0 -218.71 43.4656 0 -202.823 37.9933 0 -187.852 33.1543 0 -173.798 28.8868 0 -160.661 25.1289 0 -148.44 21.8184 0 -137.011 18.8983 0 -126.249 16.3304 0 -116.153 14.0812 0 -106.724 12.1172 0 -97.9622 10.405 0 -89.8669 8.91126 0 -82.3664 7.60369 0 -75.2843 6.46104 0 -68.6128 5.46762 0 -62.3516 4.60782 0 -56.501 3.86599 0 -51.0608 3.22651 0 -46.0075 2.67393 0 -41.1999 2.19704 0 -36.6144 1.78884 0 -32.251 1.44254 0 -28.1096 1.15131 0 -24.1904 0.908349 0 -20.4885 0.706868 0 -16.9008 0.541638 0 -13.385 0.410475 0 -9.94112 0.311547 0 -6.56909 0.243022 0 -3.26895 0.203066 0 -0.0407096 0.189847 0 -0.0993753 27.8646 0 48.6468 28.959 0 96.8174 32.2568 0 144.413 37.7911 0 191.011 45.6024 0 235.944 55.7737 0 279.202 68.4034 0 320.367 83.5931 0 358.414 101.471 0 393.299 122.181 0 424.656 145.864 0 451.12 172.663 0 472.559 202.715 0 488.688 236.16 0 497.801 273.087 0 499.613 313.541 0 493.974 357.56 0 479.336 404.966 0 455.286 455.286 0 421.922 508.024 0 381.415 562.682 0 334.652 618.753 0 281.647 675.731 0 223.51 732.986 0 160.937 789.547 0 93.9279 844.384 0 22.83 896.364 0 -52.0095 943.937 0 -130.591 985.445 0 -211.218 1019.36 0 -291.195 1044.86 0 -370.485 1061.4 0 -447.643 1068.52 0 -519.135 1066.67 0 -584.799 1056.74 0 -644.102 1039.64 0 -695.032 1016.36 0 -737.398 987.948 0 -771.586 955.428 0 -799.925 919.571 0 -822.803 880.88 0 -840.072 839.844 0 -850.196 796.998 0 -852.765 752.931 0 -847.92 708.24 0 -838.741 663.431 0 -826.487 618.84 0 -811.157 574.781 0 -792.752 531.575 0 -771.271 489.555 0 -746.713 449.058 0 -720.007 410.379 0 -692.083 373.661 0 -662.941 339.008 0 -632.914 306.517 0 -602.534 276.245 0 -571.809 248.233 0 -541.053 222.509 0 -511.039 199 0 -481.801 177.576 0 -453.339 158.109 0 -425.654 140.47 0 -398.745 124.528 0 -372.673 110.157 0 -347.794 97.2377 0 -324.169 85.6639 0 -301.797 75.3292 0 -280.68 66.1273 0 -260.816 57.9519 0 -242.197 50.6967 0 -224.637 44.2666 0 -208.06 38.5878 0 -192.467 33.5893 0 -177.856 29.1997 0 -164.228 25.3479 0 -151.583 21.9626 0 -139.78 18.9789 0 -128.678 16.3566 0 -118.276 14.0617 0 -108.574 12.0604 0 -99.5733 10.3186 0 -91.2728 8.80258 0 -83.5958 7.47947 0 -76.3541 6.32708 0 -69.539 5.32857 0 -63.1506 4.46714 0 -57.1889 3.72601 0 -51.6538 3.08839 0 -46.5206 2.5377 0 -41.641 2.06224 0 -36.9902 1.65518 0 -32.5683 1.30992 0 -28.3751 1.01983 0 -24.4108 0.778314 0 -20.6705 0.578761 0 -17.0476 0.415954 0 -13.4986 0.287355 0 -10.0236 0.190737 0 -6.62248 0.123872 0 -3.29527 0.0845295 0 -0.0419644 0.0704827 0 -0.0961481 3.17364 0 50.761 4.18811 0 101.077 7.2497 0 150.851 12.3934 0 199.691 19.6629 0 246.969 29.1518 0 292.678 40.9716 0 336.412 55.238 0 377.182 72.0994 0 414.943 91.721 0 449.336 114.27 0 479.01 139.941 0 503.835 168.946 0 523.516 201.497 0 536.276 237.763 0 541.819 277.874 0 539.969 321.952 0 528.868 370.014 0 508.024 421.922 0 477.527 477.527 0 439.382 536.524 0 394.406 598.302 0 342.61 662.215 0 284.795 727.503 0 221.462 793.086 0 152.612 857.83 0 78.1336 920.396 0 -2.08219 978.629 0 -88.0356 1030.17 0 -177.53 1072.83 0 -267.069 1105.42 0 -356.607 1127.11 0 -444.171 1137.25 0 -524.939 1136.58 0 -598.692 1126.61 0 -664.972 1108.8 0 -722.057 1084.04 0 -769.784 1052.87 0 -808.459 1015.84 0 -839.93 974.442 0 -864.507 931.094 0 -882.181 888.228 0 -892.877 846.565 0 -896.573 804.459 0 -893.362 760.1 0 -885.277 712.778 0 -873.151 663.933 0 -856.988 615.247 0 -837.255 568.018 0 -814.247 522.477 0 -787.962 478.676 0 -759.35 436.692 0 -729.36 396.717 0 -697.992 358.973 0 -665.624 323.661 0 -632.857 290.868 0 -599.698 260.643 0 -566.519 233.017 0 -534.223 207.892 0 -502.851 185.1 0 -472.404 164.475 0 -442.881 145.848 0 -414.282 129.053 0 -386.662 113.923 0 -360.348 100.32 0 -335.393 88.1363 0 -311.799 77.2654 0 -289.565 67.6004 0 -268.692 59.035 0 -249.168 51.463 0 -230.789 44.7858 0 -213.47 38.92 0 -197.209 33.7836 0 -182.008 29.2947 0 -167.867 25.3717 0 -154.785 21.9326 0 -142.6 18.9036 0 -131.15 16.2426 0 -120.434 13.9158 0 -110.452 11.889 0 -101.205 10.1284 0 -92.6929 8.59979 0 -84.8333 7.27041 0 -77.4268 6.11712 0 -70.4644 5.12183 0 -63.9461 4.26648 0 -57.8719 3.53303 0 -52.2418 2.90342 0 -47.0297 2.35986 0 -42.0789 1.89018 0 -37.3634 1.48786 0 -32.8832 1.14662 0 -28.6383 0.860172 0 -24.6286 0.622249 0 -20.8492 0.426579 0 -17.1909 0.268015 0 -13.609 0.143589 0 -10.1035 0.0505822 0 -6.67433 -0.0137218 0 -3.32156 -0.0520409 0 -0.0451745 -0.0670928 0 -0.0934776 -23.4223 0 52.7021 -22.5008 0 104.993 -19.7176 0 156.779 -15.0343 0 207.697 -8.40344 0 257.17 0.276508 0 305.19 11.1268 0 351.37 24.2736 0 394.761 39.885 0 435.321 58.1507 0 472.703 79.2643 0 505.607 103.467 0 533.91 131.035 0 557.305 162.245 0 573.967 197.353 0 583.591 236.597 0 585.988 280.214 0 579.193 328.422 0 562.682 381.415 0 536.524 439.382 0 502.252 502.252 0 460.49 569.45 0 411.246 640.344 0 354.952 714.112 0 291.881 789.411 0 222.033 864.806 0 144.579 938.604 0 58.6902 1008.06 0 -35.6332 1070.16 0 -135.521 1122.12 0 -236.406 1162.43 0 -338.228 1190.08 0 -438.258 1204.24 0 -529.823 1205.91 0 -612.619 1197.07 0 -686.452 1179.62 0 -750.585 1154.6 0 -804.949 1122.48 0 -849.537 1083.74 0 -884.313 1040.09 0 -909.271 994.435 0 -924.778 949.704 0 -934.673 906.635 0 -939.978 862.942 0 -940.645 816.13 0 -935.632 765.188 0 -924.513 711.984 0 -907.31 658.714 0 -885.746 607.065 0 -860.901 557.311 0 -832.777 509.482 0 -802.194 463.651 0 -769.974 420.056 0 -736.118 378.977 0 -701.085 340.666 0 -665.611 305.212 0 -629.704 272.649 0 -593.796 242.991 0 -558.946 216.118 0 -525.2 191.843 0 -492.561 169.973 0 -461.031 150.31 0 -430.613 132.651 0 -401.351 116.791 0 -373.517 102.568 0 -347.155 89.8583 0 -322.266 78.5403 0 -298.845 68.4972 0 -276.891 59.6191 0 -256.395 51.7966 0 -237.136 44.9266 0 -219.022 38.9172 0 -202.054 33.6781 0 -186.232 29.119 0 -171.555 25.1495 0 -158.025 21.6792 0 -145.451 18.6272 0 -133.647 15.9496 0 -122.611 13.6119 0 -112.344 11.5795 0 -102.845 9.81802 0 -94.1155 8.29281 0 -86.0683 6.97051 0 -78.4933 5.82726 0 -71.381 4.84412 0 -64.7312 4.00222 0 -58.544 3.28267 0 -52.8194 2.66658 0 -47.5298 2.13534 0 -42.5093 1.67646 0 -37.7302 1.28363 0 -33.1925 0.95077 0 -28.8962 0.671828 0 -24.8413 0.440739 0 -21.0228 0.251447 0 -17.3292 0.0988582 0 -13.7149 -0.0202624 0 -10.1798 -0.108935 0 -6.72406 -0.170178 0 -3.34755 -0.207014 0 -0.0503213 -0.222461 0 -0.0887279 -51.6308 0 54.4448 -50.8134 0 108.514 -48.3458 0 162.119 -44.1843 0 214.929 -38.276 0 266.418 -30.5145 0 316.577 -20.774 0 365.043 -8.92198 0 410.921 5.23092 0 454.172 21.9035 0 494.469 41.3191 0 530.583 63.7588 0 562.396 89.5451 0 589.606 119.003 0 610.39 152.49 0 624.446 190.393 0 631.587 233.102 0 629.862 281.036 0 618.753 334.652 0 598.302 394.406 0 569.45 460.49 0 532.583 532.583 0 487.696 610.301 0 434.506 692.876 0 372.837 778.47 0 302.689 865.061 0 222.448 950.382 0 130.501 1031.17 0 26.8479 1103.92 0 -84.802 1165.4 0 -198.546 1213.92 0 -314.308 1248.37 0 -428.467 1267.89 0 -532.17 1273.58 0 -625.014 1267.63 0 -707.071 1252.15 0 -778.608 1228.71 0 -839.652 1198.45 0 -890.013 1162.52 0 -928.557 1121.99 0 -955.097 1077.84 0 -970.268 1031.06 0 -980.708 982.129 0 -988.183 930.853 0 -992.538 876.977 0 -990.346 820.724 0 -980.206 763.225 0 -962.154 705.722 0 -938.907 649.267 0 -912.175 594.402 0 -881.958 541.581 0 -849.046 491.221 0 -814.23 443.596 0 -777.512 398.941 0 -739.447 357.465 0 -700.927 319.215 0 -661.962 284.181 0 -623.041 252.337 0 -585.362 223.552 0 -548.98 197.637 0 -513.901 174.402 0 -480.151 153.629 0 -447.732 135.084 0 -416.681 118.531 0 -387.205 103.774 0 -359.339 90.6544 0 -333.083 79.0136 0 -308.413 68.7104 0 -285.323 59.6258 0 -263.803 51.6422 0 -243.618 44.6491 0 -224.672 38.5498 0 -206.966 33.2487 0 -190.498 28.6507 0 -175.269 24.6604 0 -161.279 21.1824 0 -148.31 18.1314 0 -136.145 15.4616 0 -124.784 13.1371 0 -114.227 11.1222 0 -104.474 9.38092 0 -95.5244 7.87752 0 -87.2881 6.57731 0 -79.5434 5.45588 0 -72.2805 4.4941 0 -65.4991 3.67289 0 -59.1995 2.97316 0 -53.3814 2.37581 0 -48.0158 1.86204 0 -42.9269 1.41927 0 -38.0854 1.04115 0 -33.4914 0.721619 0 -29.1449 0.454598 0 -25.0459 0.234021 0 -21.1892 0.0538246 0 -17.4612 -0.0910932 0 -13.8156 -0.203968 0 -10.2523 -0.28782 0 -6.77128 -0.34567 0 -3.37262 -0.380541 0 -0.0562753 -0.395452 0 -0.0789959 -81.4421 0 55.9644 -80.7398 0 111.591 -78.625 0 166.801 -75.0463 0 221.293 -69.944 0 274.588 -63.21 0 326.682 -54.7188 0 377.238 -44.3359 0 425.439 -31.849 0 471.248 -17.0057 0 514.359 0.450757 0 553.62 20.833 0 588.92 44.4937 0 619.974 71.7916 0 645.068 103.195 0 663.918 139.283 0 676.341 180.638 0 680.446 227.875 0 675.731 281.647 0 662.215 342.61 0 640.344 411.246 0 610.301 487.696 0 572.063 572.063 0 523.96 663.746 0 464.942 760.192 0 395.009 858.514 0 311.919 955.666 0 213.429 1047.94 0 99.5402 1131.48 0 -25.046 1202.72 0 -152.844 1259.94 0 -283.758 1302.06 0 -413.249 1328.24 0 -530.22 1339.59 0 -634.166 1338.24 0 -725.228 1326.33 0 -803.929 1306.28 0 -870.321 1280.69 0 -924.568 1252.01 0 -967.67 1219.86 0 -999.791 1180.95 0 -1021.35 1131.95 0 -1036.69 1072.83 0 -1046.97 1008.12 0 -1052.1 942.676 0 -1049.99 879.445 0 -1039.78 817.699 0 -1021.5 756.282 0 -997.456 694.621 0 -969.073 633.749 0 -936.356 574.975 0 -900.434 519.406 0 -862.436 467.337 0 -822.363 418.861 0 -780.856 374.052 0 -738.934 332.869 0 -696.612 295.231 0 -654.417 261.05 0 -613.638 230.188 0 -574.333 202.481 0 -536.523 177.762 0 -500.287 155.807 0 -465.632 136.356 0 -432.585 119.147 0 -401.306 103.942 0 -371.823 90.5262 0 -344.128 78.6857 0 -318.156 68.2401 0 -293.888 59.055 0 -271.312 50.9995 0 -250.176 43.9535 0 -230.375 37.8177 0 -211.909 32.4955 0 -194.779 27.89 0 -178.984 23.9044 0 -164.524 20.4421 0 -151.152 17.416 0 -138.621 14.7784 0 -126.93 12.4914 0 -116.081 10.5169 0 -106.071 8.81708 0 -96.9027 7.3539 0 -88.4791 6.0908 0 -80.5667 5.00299 0 -73.1549 4.07177 0 -66.2436 3.27849 0 -59.8329 2.60448 0 -53.9227 2.03111 0 -48.4823 1.53998 0 -43.3264 1.11861 0 -38.4241 0.760434 0 -33.7754 0.45916 0 -29.3804 0.208482 0 -25.239 0.00209707 0 -21.346 -0.166288 0 -17.5856 -0.301839 0 -13.9104 -0.407527 0 -10.3204 -0.486073 0 -6.81565 -0.540197 0 -3.39611 -0.572621 0 -0.0617798 -0.586065 0 -0.0631677 -112.095 0 57.2404 -111.515 0 114.182 -109.774 0 170.761 -106.813 0 226.705 -102.569 0 281.576 -96.9314 0 335.37 -89.7756 0 387.793 -80.9656 0 438.123 -70.2703 0 486.329 -57.4097 0 532.124 -42.0995 0 574.431 -23.9967 0 613.145 -2.71681 0 648.019 22.1332 0 677.567 51.119 0 701.54 84.9786 0 719.765 124.459 0 730.409 170.351 0 732.986 223.51 0 727.503 284.795 0 714.112 354.952 0 692.876 434.506 0 663.746 523.96 0 622.989 622.989 0 568.261 728.991 0 499.561 838.972 0 414.013 949.604 0 308.739 1056.21 0 183.74 1153.77 0 44.9172 1237.67 0 -98.3337 1305.62 0 -245.893 1356.2 0 -392.182 1388.3 0 -523.566 1403.63 0 -639.425 1405.37 0 -739.818 1396.7 0 -824.961 1380.6 0 -894.874 1359.9 0 -950.711 1337.25 0 -999.391 1311.19 0 -1042.07 1276.18 0 -1078.34 1226.58 0 -1104.03 1162 0 -1118.02 1089.31 0 -1120.49 1015.88 0 -1115.2 946.108 0 -1103.71 878.606 0 -1086.01 811.314 0 -1062.23 743.099 0 -1032.48 675.383 0 -996.74 610.022 0 -956.95 548.573 0 -915.034 491.379 0 -870.992 438.484 0 -825.535 389.903 0 -779.793 345.508 0 -733.779 305.117 0 -688.03 268.547 0 -643.856 235.628 0 -601.317 206.192 0 -560.457 180.069 0 -521.441 157.013 0 -484.286 136.723 0 -449.012 118.902 0 -415.748 103.275 0 -384.515 89.5916 0 -355.3 77.6042 0 -327.969 67.0986 0 -302.488 57.9078 0 -278.843 49.8688 0 -256.747 42.8397 0 -236.083 36.7211 0 -216.849 31.4183 0 -199.047 26.8367 0 -182.676 22.8816 0 -167.737 19.4583 0 -153.953 16.4811 0 -141.049 13.9002 0 -129.025 11.6748 0 -117.882 9.76379 0 -107.618 8.12649 0 -98.2338 6.72197 0 -89.6283 5.511 0 -81.5528 4.4686 0 -73.9961 3.57713 0 -66.9581 2.81901 0 -60.4388 2.17665 0 -54.4383 1.63248 0 -48.9242 1.16914 0 -43.7025 0.774469 0 -38.741 0.441472 0 -34.0397 0.163396 0 -29.5985 -0.0665202 0 -25.4175 -0.255034 0 -21.4912 -0.408892 0 -17.7011 -0.533379 0 -13.9987 -0.63094 0 -10.3839 -0.703694 0 -6.8568 -0.753759 0 -3.41736 -0.783255 0 -0.0655778 -0.7943 0 -0.0450713 -143.11 0 58.2637 -142.659 0 116.269 -141.301 0 173.97 -138.979 0 231.12 -135.624 0 287.324 -131.127 0 342.576 -125.359 0 396.628 -118.181 0 448.873 -109.352 0 499.281 -98.5754 0 547.591 -85.5517 0 592.811 -69.905 0 634.845 -51.2057 0 673.495 -29.0149 0 707.565 -2.70187 0 736.855 28.5558 0 761.203 65.5914 0 778.917 109.351 0 789.547 160.937 0 793.086 221.462 0 789.411 291.881 0 778.47 372.837 0 760.192 464.942 0 728.991 568.261 0 681.359 681.359 0 617.295 802.543 0 532.072 929.148 0 420.959 1054.61 0 283.958 1171.38 0 128.593 1272.48 0 -33.1559 1354.2 0 -201.136 1414 0 -367.954 1449.96 0 -515.539 1465.51 0 -643.069 1466.81 0 -751.114 1459.82 0 -841.806 1447.42 0 -915.35 1430.25 0 -973.75 1408.84 0 -1029.02 1381.86 0 -1083.17 1346.21 0 -1135.01 1298.72 0 -1172.27 1239.11 0 -1191.67 1170.98 0 -1193.61 1098.25 0 -1186.88 1023.7 0 -1175.05 947.955 0 -1158.12 871.392 0 -1134.42 794.683 0 -1102.93 719.322 0 -1063.65 646.946 0 -1019.36 578.952 0 -972.83 515.784 0 -924.074 457.647 0 -873.931 404.688 0 -823.746 356.714 0 -773.537 313.409 0 -723.823 274.463 0 -675.878 239.622 0 -629.76 208.656 0 -585.539 181.336 0 -543.482 157.353 0 -503.614 136.348 0 -465.946 117.964 0 -430.543 101.902 0 -397.417 87.9248 0 -366.551 75.7988 0 -337.771 65.2934 0 -311.032 56.1848 0 -286.318 48.2498 0 -263.272 41.3077 0 -241.749 35.2598 0 -221.75 30.0173 0 -203.275 25.491 0 -186.323 21.5919 0 -170.894 18.2311 0 -156.688 15.3268 0 -143.406 12.827 0 -131.045 10.6872 0 -119.608 8.86279 0 -109.093 7.30916 0 -99.5006 5.98172 0 -90.7221 4.8379 0 -82.4913 3.8527 0 -74.7959 3.01018 0 -67.6361 2.29445 0 -61.0117 1.68966 0 -54.9229 1.17992 0 -49.3361 0.749539 0 -44.05 0.386859 0 -39.0312 0.0842676 0 -34.2796 -0.165676 0 -29.7952 -0.370409 0 -25.5781 -0.537372 0 -21.6226 -0.673986 0 -17.8065 -0.785713 0 -14.0798 -0.874208 0 -10.4424 -0.940683 0 -6.89439 -0.986357 0 -3.43572 -1.01244 0 -0.0664123 -1.02016 0 -0.0293809 -174.488 0 59.027 -174.171 0 117.838 -173.208 0 176.403 -171.542 0 234.501 -169.11 0 291.783 -165.796 0 348.243 -161.468 0 403.68 -155.982 0 457.602 -149.093 0 509.985 -140.503 0 560.599 -129.906 0 608.57 -116.892 0 653.814 -100.973 0 696.18 -81.6528 0 734.76 -58.2676 0 769.401 -29.9858 0 799.972 4.03673 0 825.089 44.8756 0 844.384 93.9279 0 857.83 152.612 0 864.806 222.033 0 865.061 302.689 0 858.514 395.009 0 838.972 499.561 0 802.543 617.295 0 749.228 749.228 0 669.836 894.299 0 555.179 1043.14 0 405.256 1184.32 0 229.887 1307.17 0 44.7002 1405.67 0 -150.103 1475.45 0 -343.787 1513.24 0 -510.11 1525.24 0 -647.878 1522.56 0 -759.621 1515.7 0 -854.856 1506.76 0 -934.493 1491.76 0 -1000.33 1466.78 0 -1063.15 1431.86 0 -1124.76 1391.02 0 -1184 1348.39 0 -1228.91 1304.16 0 -1256.31 1253.15 0 -1266.48 1189.79 0 -1265.93 1112.22 0 -1257.31 1025.75 0 -1240.6 936.518 0 -1215.26 849.372 0 -1180.92 765.567 0 -1137.58 685.747 0 -1088.44 610.544 0 -1036.7 540.552 0 -982.344 476.352 0 -926.524 418.408 0 -871.053 366.487 0 -815.953 320.108 0 -761.714 278.799 0 -709.528 242.169 0 -659.451 209.873 0 -611.576 181.56 0 -566.257 156.827 0 -523.528 135.23 0 -483.374 116.331 0 -445.718 99.8217 0 -410.545 85.5257 0 -377.844 73.2695 0 -347.483 62.8247 0 -319.427 53.886 0 -293.655 46.1428 0 -269.687 39.3575 0 -247.328 33.434 0 -226.577 28.2923 0 -207.433 23.8528 0 -189.899 20.0354 0 -173.972 16.7603 0 -159.334 13.9528 0 -145.666 11.5587 0 -132.967 9.52874 0 -121.237 7.81391 0 -110.477 6.36509 0 -100.687 5.13315 0 -91.7475 4.0715 0 -83.3718 3.15529 0 -75.5463 2.37091 0 -68.2711 1.70483 0 -61.5462 1.14351 0 -55.3716 0.673429 0 -49.7128 0.281164 0 -44.3636 -0.044222 0 -39.2894 -0.31118 0 -34.4903 -0.528053 0 -29.9664 -0.703184 0 -25.7175 -0.844916 0 -21.738 -0.96157 0 -17.9005 -1.05884 0 -14.153 -1.13733 0 -10.4955 -1.19704 0 -6.92804 -1.23799 0 -3.45054 -1.26018 0 -0.0630266 -1.26364 0 -0.0181515 -205.655 0 59.5251 -205.47 0 118.877 -204.904 0 178.038 -203.902 0 236.818 -202.402 0 294.916 -200.286 0 352.326 -197.418 0 408.893 -193.653 0 464.236 -188.747 0 518.336 -182.406 0 571.004 -174.33 0 621.53 -164.079 0 669.844 -151.12 0 715.835 -134.911 0 758.822 -114.784 0 798.693 -89.9397 0 835.367 -59.5684 0 867.999 -22.5194 0 896.364 22.83 0 920.396 78.1336 0 938.604 144.579 0 950.382 222.448 0 955.666 311.919 0 949.604 414.013 0 929.148 532.072 0 894.299 669.836 0 828.011 828.011 0 713.241 995.159 0 549.987 1156.8 0 351.1 1299.41 0 137.03 1414.91 0 -91.9592 1497.21 0 -319.811 1541.75 0 -507.276 1557.26 0 -652.568 1559.31 0 -762.202 1562.53 0 -860.662 1567.85 0 -950.293 1566.38 0 -1031.12 1549.36 0 -1103.25 1516.73 0 -1166.73 1477.15 0 -1221.59 1439.47 0 -1268.4 1404.4 0 -1307.28 1361.43 0 -1337.97 1299.27 0 -1354.26 1213.53 0 -1353.62 1113.27 0 -1336.09 1009.09 0 -1306.4 909.105 0 -1267.51 814.495 0 -1219.42 725.274 0 -1165.07 641.574 0 -1107.4 564.016 0 -1046.4 493.347 0 -983.707 430.154 0 -921.922 374.123 0 -861.076 324.61 0 -801.616 280.981 0 -744.636 242.692 0 -690.186 209.242 0 -638.374 180.129 0 -589.603 154.835 0 -543.91 132.825 0 -501.239 113.576 0 -461.246 96.7639 0 -423.874 82.2704 0 -389.125 69.9819 0 -357.028 59.674 0 -327.591 50.9682 0 -300.783 43.4754 0 -275.934 36.9065 0 -252.768 31.1669 0 -231.286 26.1841 0 -211.488 21.8858 0 -193.373 18.1996 0 -176.942 15.053 0 -161.863 12.3772 0 -147.805 10.1163 0 -134.767 8.21815 0 -122.75 6.6304 0 -111.753 5.30075 0 -101.776 4.17691 0 -92.6914 3.20945 0 -84.1835 2.37395 0 -76.2383 1.65887 0 -68.8557 1.05278 0 -62.0357 0.544257 0 -55.7784 0.12186 0 -50.0489 -0.225787 0 -44.6381 -0.50888 0 -39.5111 -0.736428 0 -34.668 -0.917389 0 -30.1086 -1.06072 0 -25.8331 -1.17538 0 -21.8353 -1.27031 0 -17.9817 -1.35128 0 -14.2174 -1.41799 0 -10.5426 -1.46942 0 -6.95725 -1.50454 0 -3.46132 -1.52235 0 -0.0548266 -1.52183 0 -0.00296071 -236.034 0 59.7613 -235.975 0 119.389 -235.801 0 178.881 -235.456 0 238.078 -234.874 0 296.726 -233.941 0 354.822 -232.523 0 412.253 -230.477 0 468.745 -227.565 0 524.283 -223.501 0 578.73 -217.989 0 631.562 -210.587 0 682.727 -200.748 0 732.142 -187.922 0 779.306 -171.456 0 824.133 -150.599 0 866.607 -124.587 0 906.557 -92.2783 0 943.937 -52.0095 0 978.629 -2.08219 0 1008.06 58.6902 0 1031.17 130.501 0 1047.94 213.429 0 1056.21 308.739 0 1054.61 420.959 0 1043.14 555.179 0 995.159 713.241 0 884 884 0 709.667 1053.07 0 488.12 1206.89 0 244.767 1336.81 0 -20.0667 1435.95 0 -283.782 1499.14 0 -491.135 1535.99 0 -639.617 1563.75 0 -741.125 1598.49 0 -840.402 1639.96 0 -941.732 1676.07 0 -1042.87 1694.85 0 -1130.32 1692.03 0 -1201.85 1671.11 0 -1258.62 1635.86 0 -1312.84 1587.08 0 -1367.74 1521.47 0 -1422.46 1435.46 0 -1457.75 1329.49 0 -1465.74 1211.81 0 -1446.57 1091.52 0 -1411.08 975.819 0 -1366.07 866.483 0 -1311.55 764.377 0 -1250.34 670.265 0 -1185.24 584.51 0 -1116.26 507.379 0 -1045.52 439.022 0 -976.372 378.92 0 -908.873 326.311 0 -843.431 280.44 0 -781.055 240.611 0 -721.79 206.162 0 -665.742 176.428 0 -613.31 150.776 0 -564.532 128.591 0 -519.29 109.271 0 -476.888 92.4565 0 -437.209 78.035 0 -400.277 65.9015 0 -366.347 55.8228 0 -335.488 47.3883 0 -307.657 40.1754 0 -281.952 33.8722 0 -258.002 28.382 0 -235.808 23.6332 0 -215.368 19.5537 0 -196.684 16.072 0 -179.756 13.1161 0 -164.241 10.6175 0 -149.799 8.52086 0 -136.43 6.77421 0 -124.134 5.32548 0 -112.911 4.12265 0 -102.761 3.11366 0 -93.543 2.24942 0 -84.9143 1.50625 0 -76.8592 0.873594 0 -69.3775 0.340982 0 -62.4693 -0.102041 0 -56.1347 -0.465935 0 -50.3385 -0.761122 0 -44.8701 -0.99722 0 -39.6944 -1.18303 0 -34.8116 -1.32734 0 -30.2214 -1.4389 0 -25.9241 -1.52649 0 -21.913 -1.59886 0 -18.0477 -1.66154 0 -14.2706 -1.71387 0 -10.5817 -1.75446 0 -6.98088 -1.7819 0 -3.46829 -1.79481 0 -0.0438701 -1.79181 0 0.0272333 -265.628 0 59.7408 -265.686 0 119.379 -265.9 0 178.941 -266.205 0 238.295 -266.529 0 297.228 -266.762 0 355.737 -266.782 0 413.755 -266.453 0 471.109 -265.548 0 527.794 -263.787 0 583.719 -260.885 0 638.549 -256.415 0 692.252 -249.858 0 744.768 -240.685 0 795.735 -228.285 0 845.094 -211.964 0 892.892 -191.019 0 939.632 -164.401 0 985.445 -130.591 0 1030.17 -88.0356 0 1070.16 -35.6332 0 1103.92 26.8479 0 1131.48 99.5402 0 1153.77 183.74 0 1171.38 283.958 0 1184.32 405.256 0 1156.8 549.987 0 1053.07 709.667 0 873.101 873.101 0 635.233 1029.59 0 368.629 1171.36 0 73.6626 1291.68 0 -220.362 1385.42 0 -441.814 1461.45 0 -587.437 1535.87 0 -675.015 1623.6 0 -771.415 1723.07 0 -883.039 1820.84 0 -1006.36 1903.25 0 -1120.23 1957.74 0 -1221.11 1972.89 0 -1309.55 1937.57 0 -1391.26 1852.19 0 -1467.76 1733.25 0 -1538.18 1598.36 0 -1583.25 1460.12 0 -1595.1 1321.36 0 -1573.9 1183.8 0 -1532.94 1049.52 0 -1480.56 921.532 0 -1416.75 803.058 0 -1345.41 696.618 0 -1270.44 602.034 0 -1191.82 518.45 0 -1111.9 445.011 0 -1034.37 380.877 0 -959.292 325.21 0 -887.06 277.173 0 -818.646 235.927 0 -754.094 200.633 0 -693.491 170.456 0 -637.161 144.65 0 -585.135 122.528 0 -537.23 103.417 0 -492.35 86.8996 0 -450.313 72.8196 0 -411.165 61.0283 0 -375.381 51.2711 0 -343.09 43.1464 0 -314.238 36.243 0 -287.684 30.2545 0 -262.959 25.0794 0 -240.064 20.6395 0 -218.999 16.8566 0 -199.764 13.6526 0 -182.358 10.9494 0 -166.429 8.67373 0 -151.623 6.77235 0 -137.94 5.19693 0 -125.381 3.89917 0 -113.945 2.83076 0 -103.633 1.94339 0 -94.2917 1.1914 0 -85.5517 0.552203 0 -77.3956 0.0150798 0 -69.8234 -0.430579 0 -62.8352 -0.795386 0 -56.4309 -1.08996 0 -50.5752 -1.32484 0 -45.056 -1.50924 0 -39.8379 -1.651 0 -34.9208 -1.75789 0 -30.3049 -1.83771 0 -25.9901 -1.89823 0 -21.9696 -1.94722 0 -18.0963 -1.98963 0 -14.3099 -2.02498 0 -10.6103 -2.05216 0 -6.99764 -2.07006 0 -3.47182 -2.07758 0 -0.0328779 -2.07359 0 0.0782957 -294.094 0 59.4698 -294.268 0 118.854 -294.858 0 178.231 -295.792 0 237.487 -296.999 0 296.439 -298.375 0 355.086 -299.807 0 413.401 -301.172 0 471.321 -302.255 0 528.842 -302.792 0 585.92 -302.51 0 642.387 -301.023 0 698.227 -297.857 0 753.4 -292.535 0 807.67 -284.503 0 860.997 -273.13 0 913.482 -257.774 0 966.176 -237.548 0 1019.36 -211.218 0 1072.83 -177.53 0 1122.12 -135.521 0 1165.4 -84.802 0 1202.72 -25.046 0 1237.67 44.9172 0 1272.48 128.593 0 1307.17 229.887 0 1299.41 351.1 0 1206.89 488.12 0 1029.59 635.233 0 786.805 786.805 0 509.191 937.687 0 197.145 1082.9 0 -114.371 1218.6 0 -339.896 1350.71 0 -475.546 1490.17 0 -544.59 1646.96 0 -634.525 1816.85 0 -753.726 1985.42 0 -899.425 2137.78 0 -1055.01 2253.56 0 -1217.72 2306.89 0 -1384.57 2272.25 0 -1524.61 2149.8 0 -1629.59 1975.37 0 -1699.65 1787.27 0 -1737.63 1610.41 0 -1744.7 1443.53 0 -1720.98 1282.41 0 -1675.64 1125.02 0 -1614.44 975.422 0 -1537.39 838.732 0 -1451.36 718.856 0 -1363.23 614.885 0 -1272.99 524.703 0 -1182.74 446.319 0 -1095.78 378.47 0 -1012.17 320.157 0 -932.309 270.379 0 -857.198 228.116 0 -786.881 192.34 0 -721.402 162.035 0 -660.922 136.352 0 -605.455 114.567 0 -554.754 95.9657 0 -507.334 80.0641 0 -462.947 66.6092 0 -421.652 55.3564 0 -384.072 46.0174 0 -350.37 38.2424 0 -320.487 31.678 0 -293.07 26.0535 0 -267.567 21.259 0 -243.979 17.2031 0 -222.304 13.7944 0 -202.543 10.9415 0 -184.695 8.55306 0 -168.389 6.54598 0 -153.252 4.87077 0 -139.282 3.48631 0 -126.481 2.35146 0 -114.849 1.42511 0 -104.384 0.666111 0 -94.9271 0.0354021 0 -86.0829 -0.488202 0 -77.8339 -0.916671 0 -70.18 -1.2619 0 -63.1212 -1.53578 0 -56.6575 -1.7502 0 -50.753 -1.91694 0 -45.1925 -2.04494 0 -39.94 -2.14032 0 -34.9956 -2.20906 0 -30.3592 -2.25716 0 -26.0309 -2.29061 0 -22.0037 -2.3154 0 -18.1251 -2.33554 0 -14.3326 -2.35131 0 -10.6263 -2.36253 0 -7.00624 -2.36903 0 -3.47231 -2.37063 0 -0.0245706 -2.36717 0 0.125862 -320.89 0 58.9578 -321.191 0 117.845 -322.13 0 176.786 -323.653 0 235.687 -325.703 0 294.395 -328.182 0 352.909 -330.982 0 411.241 -333.982 0 469.424 -336.987 0 527.46 -339.761 0 585.341 -342.06 0 643.042 -343.544 0 700.56 -343.801 0 757.876 -342.416 0 814.874 -338.891 0 871.537 -332.653 0 927.996 -323.117 0 985.648 -309.586 0 1044.86 -291.195 0 1105.42 -267.069 0 1162.43 -236.406 0 1213.92 -198.546 0 1259.94 -152.844 0 1305.62 -98.3337 0 1354.2 -33.1559 0 1405.67 44.7002 0 1414.91 137.03 0 1336.81 244.767 0 1171.36 368.629 0 937.687 509.191 0 666.201 666.201 0 357.296 839.107 0 48.4618 1027.4 0 -168.658 1230.92 0 -289.899 1449.7 0 -342.8 1683.08 0 -430.912 1920.76 0 -564.149 2145.54 0 -741.044 2339.92 0 -952.796 2483.46 0 -1197.94 2552.74 0 -1468.89 2524.76 0 -1686.46 2400.42 0 -1829.61 2213.73 0 -1899.73 2001.08 0 -1927.93 1788.33 0 -1926.94 1580.87 0 -1896.81 1381.74 0 -1842.87 1194.1 0 -1768.46 1021.44 0 -1673.57 867.288 0 -1568.63 734.15 0 -1464.06 620.353 0 -1359.85 523.185 0 -1257.61 440.075 0 -1159.89 369.271 0 -1066.7 309.318 0 -978.451 258.777 0 -896.083 216.343 0 -819.64 180.78 0 -749.084 150.875 0 -684.269 125.713 0 -625.182 104.598 0 -571.525 86.8432 0 -521.514 71.9041 0 -474.85 59.3797 0 -431.592 48.8763 0 -392.355 40.0592 0 -357.302 32.676 0 -326.365 26.4805 0 -298.053 21.2691 0 -271.755 16.9208 0 -247.473 13.324 0 -225.205 10.3671 0 -204.952 7.93867 0 -186.713 5.92704 0 -170.085 4.23419 0 -154.661 2.81612 0 -140.441 1.64234 0 -127.425 0.682354 0 -115.615 -0.0943257 0 -105.008 -0.718188 0 -95.4385 -1.21859 0 -86.4956 -1.61496 0 -78.1608 -1.92166 0 -70.4341 -2.15298 0 -63.3155 -2.32322 0 -56.8051 -2.44668 0 -50.8658 -2.53743 0 -45.2762 -2.60433 0 -39.9995 -2.65099 0 -35.0356 -2.68083 0 -30.3845 -2.69725 0 -26.0462 -2.70363 0 -22.0137 -2.70339 0 -18.1315 -2.69928 0 -14.3361 -2.69287 0 -10.6273 -2.68557 0 -7.00537 -2.6788 0 -3.47015 -2.67399 0 -0.0216691 -2.67254 0 0.134627 -346.008 0 58.2161 -346.447 0 116.387 -347.709 0 174.648 -349.78 0 232.933 -352.633 0 291.137 -356.177 0 349.258 -360.298 0 407.339 -364.874 0 465.485 -369.734 0 523.701 -374.685 0 582.01 -379.523 0 640.505 -383.968 0 699.195 -387.68 0 758.083 -390.313 0 817.186 -391.434 0 876.507 -390.515 0 936.185 -387.027 0 997.687 -380.488 0 1061.4 -370.485 0 1127.11 -356.607 0 1190.08 -338.228 0 1248.37 -314.308 0 1302.06 -283.758 0 1356.2 -245.893 0 1414 -201.136 0 1475.45 -150.103 0 1497.21 -91.9592 0 1435.95 -20.0667 0 1291.68 73.6626 0 1082.9 197.145 0 839.107 357.296 0 560.666 560.666 0 282.075 812.168 0 87.6479 1102.44 0 -18.7822 1414.76 0 -67.0191 1732.15 0 -169.125 2034.8 0 -335.829 2300.89 0 -565.1 2508.92 0 -844.752 2646.2 0 -1172.76 2708.89 0 -1538.66 2693.62 0 -1833.28 2603.01 0 -2027.58 2447.9 0 -2123.41 2239.78 0 -2161.22 1994 0 -2157.57 1733.4 0 -2112.62 1481.71 0 -2038.36 1256.65 0 -1942.34 1059.49 0 -1824.57 888.673 0 -1697.47 742.463 0 -1573.46 618.403 0 -1452.55 513.859 0 -1335.99 426.243 0 -1225.74 353.248 0 -1121.85 292.668 0 -1024.56 242.351 0 -934.523 200.598 0 -851.754 165.947 0 -776.082 136.973 0 -706.849 112.731 0 -643.992 92.6199 0 -587.194 76.0481 0 -534.554 62.4188 0 -485.755 51.1309 0 -440.834 41.5878 0 -400.168 33.3966 0 -363.858 26.4472 0 -331.834 20.6504 0 -302.573 15.9013 0 -275.452 12.0648 0 -250.469 9.00214 0 -227.626 6.57477 0 -206.922 4.64405 0 -188.358 3.07134 0 -171.477 1.73838 0 -155.825 0.60841 0 -141.401 -0.334971 0 -128.205 -1.10815 0 -116.237 -1.72753 0 -105.497 -2.2095 0 -95.8155 -2.57056 0 -86.7771 -2.82808 0 -78.3627 -2.99988 0 -70.5724 -3.10381 0 -63.4062 -3.1577 0 -56.864 -3.17937 0 -50.9073 -3.1863 0 -45.3038 -3.18739 0 -40.0149 -3.18303 0 -35.0406 -3.17322 0 -30.3809 -3.15797 0 -26.0358 -3.13729 0 -21.9982 -3.11119 0 -18.1133 -3.08084 0 -14.3175 -3.04965 0 -10.611 -3.02127 0 -6.99375 -2.99938 0 -3.46571 -2.98764 0 -0.026894 -2.98971 0 0.0765419 -369.316 0 57.2563 -369.888 0 114.518 -371.453 0 171.86 -374.035 0 229.267 -377.645 0 286.71 -382.199 0 344.19 -387.575 0 401.764 -393.653 0 459.573 -400.292 0 517.624 -407.341 0 575.965 -414.645 0 634.785 -421.989 0 694.101 -429.109 0 753.941 -435.741 0 814.477 -441.513 0 875.739 -445.95 0 937.841 -448.576 0 1001.99 -449.128 0 1068.52 -447.643 0 1137.25 -444.171 0 1204.24 -438.258 0 1267.89 -428.467 0 1328.24 -413.249 0 1388.3 -392.182 0 1449.96 -367.954 0 1513.24 -343.787 0 1541.75 -319.811 0 1499.14 -283.782 0 1385.42 -220.362 0 1218.6 -114.371 0 1027.4 48.4618 0 812.168 282.075 0 597.251 597.251 0 442.129 977.292 0 349.504 1391.35 0 289.552 1808.46 0 150.129 2197.58 0 -79.5012 2527.63 0 -392.971 2768.49 0 -752.075 2912.14 0 -1150.44 2972.67 0 -1578.55 2964.92 0 -1936.84 2893.68 0 -2198.86 2749.87 0 -2365.15 2523.49 0 -2448.01 2222.6 0 -2452.45 1890.23 0 -2378.96 1573.43 0 -2265.41 1305.84 0 -2135.59 1083.98 0 -1989.5 898.052 0 -1837.95 739.575 0 -1691.79 605.443 0 -1551.02 493.89 0 -1417.05 402.95 0 -1292.19 329.509 0 -1176.45 270.033 0 -1069.73 221.14 0 -971.806 180.749 0 -882.656 147.455 0 -801.924 119.888 0 -728.251 97.1303 0 -661.509 78.5847 0 -601.399 63.6594 0 -546.133 51.6726 0 -495.414 41.8537 0 -449.228 33.4355 0 -407.435 25.9921 0 -369.995 19.5706 0 -336.846 14.2524 0 -306.569 10.0406 0 -278.585 6.78612 0 -252.895 4.32244 0 -229.497 2.48298 0 -208.391 1.10119 0 -189.579 0.0105066 0 -172.531 -0.928009 0 -156.72 -1.74287 0 -142.146 -2.43496 0 -128.808 -3.00518 0 -116.707 -3.45443 0 -105.842 -3.78361 0 -96.0477 -3.99506 0 -86.9155 -4.10379 0 -78.4272 -4.13133 0 -70.5828 -4.09925 0 -63.3824 -4.02912 0 -56.8258 -3.94254 0 -50.8718 -3.86055 0 -45.2719 -3.79211 0 -39.9847 -3.73406 0 -35.0101 -3.68273 0 -30.3483 -3.63446 0 -25.9991 -3.58557 0 -21.9558 -3.5324 0 -18.0682 -3.47441 0 -14.2747 -3.41701 0 -10.5754 -3.3663 0 -6.97025 -3.3284 0 -3.45929 -3.30941 0 -0.042511 -3.31544 0 -0.0131447 -390.485 0 56.0946 -391.152 0 112.253 -393.008 0 168.461 -396.081 0 224.758 -400.387 0 281.203 -405.852 0 337.799 -412.374 0 394.608 -419.848 0 451.785 -428.158 0 509.338 -437.184 0 567.334 -446.804 0 626.026 -456.857 0 685.438 -467.156 0 745.627 -477.509 0 806.93 -487.618 0 869.403 -497.082 0 933.116 -505.5 0 998.807 -512.757 0 1066.67 -519.135 0 1136.58 -524.939 0 1205.91 -529.823 0 1273.58 -532.17 0 1339.59 -530.22 0 1403.63 -523.566 0 1465.51 -515.539 0 1525.24 -510.11 0 1557.26 -507.276 0 1535.99 -491.135 0 1461.45 -441.814 0 1350.71 -339.896 0 1230.92 -168.658 0 1102.44 87.6479 0 977.292 442.129 0 884.89 884.89 0 826.564 1394.2 0 770.12 1946.98 0 594.497 2503.49 0 288.107 3011.95 0 -137.052 3421.08 0 -608.983 3697.65 0 -1115.69 3826.45 0 -1647.44 3793.51 0 -2102.7 3605.1 0 -2454.44 3295.58 0 -2701.93 2901.42 0 -2828.69 2462.38 0 -2827.97 2024.67 0 -2700.77 1635.19 0 -2523.91 1324.99 0 -2345.67 1081.24 0 -2166.05 883.604 0 -1988.86 715.167 0 -1817.94 572.689 0 -1653.29 456.349 0 -1497.81 365.621 0 -1356.12 295.873 0 -1228.26 240.983 0 -1113.1 195.238 0 -1007.79 156.475 0 -912.206 124.359 0 -825.957 98.5387 0 -747.574 78.2389 0 -676.917 62.3763 0 -613.683 49.8695 0 -556.058 39.8226 0 -503.74 31.5255 0 -456.65 24.2838 0 -413.991 17.7543 0 -375.548 12.0813 0 -341.268 7.44395 0 -309.948 3.90764 0 -281.095 1.31726 0 -254.71 -0.507719 0 -230.792 -1.74782 0 -209.342 -2.58355 0 -190.359 -3.19545 0 -173.226 -3.73211 0 -157.325 -4.21447 0 -142.654 -4.63155 0 -129.215 -4.97236 0 -117.007 -5.22594 0 -106.03 -5.38129 0 -96.1255 -5.42985 0 -86.9053 -5.38403 0 -78.3517 -5.26705 0 -70.4646 -5.1022 0 -63.244 -4.91278 0 -56.69 -4.72211 0 -50.7576 -4.55287 0 -45.1777 -4.41351 0 -39.9054 -4.2983 0 -34.9406 -4.20085 0 -30.2835 -4.11478 0 -25.9339 -4.03374 0 -21.8854 -3.95138 0 -17.9962 -3.86578 0 -14.208 -3.7836 0 -10.521 -3.71247 0 -6.93516 -3.66004 0 -3.45043 -3.63395 0 -0.0668249 -3.64184 0 -0.0665918 -409.5 0 54.7493 -410.222 0 109.601 -412.359 0 164.489 -415.903 0 219.49 -420.841 0 274.725 -427.12 0 330.197 -434.674 0 385.976 -443.435 0 442.234 -453.308 0 498.98 -464.189 0 556.288 -475.97 0 614.442 -488.539 0 673.469 -501.777 0 733.451 -515.562 0 794.882 -529.681 0 857.843 -543.827 0 922.355 -557.697 0 988.635 -571.248 0 1056.74 -584.799 0 1126.61 -598.692 0 1197.07 -612.619 0 1267.63 -625.014 0 1338.24 -634.166 0 1405.37 -639.425 0 1466.81 -643.069 0 1522.56 -647.878 0 1559.31 -652.568 0 1563.75 -639.617 0 1535.87 -587.437 0 1490.17 -475.546 0 1449.7 -289.899 0 1414.76 -18.7822 0 1391.35 349.504 0 1394.2 826.564 0 1423.95 1423.95 0 1436.64 2149.3 0 1266.82 2956.82 0 898.675 3762.29 0 346.386 4480.42 0 -304.913 5021.65 0 -1041.03 5292.16 0 -1842.44 5200.09 0 -2505.24 4752.38 0 -2975.19 4093.04 0 -3253.19 3375.79 0 -3359.04 2712.82 0 -3300.82 2135.52 0 -3080.03 1666.01 0 -2811.95 1313.35 0 -2569.01 1050.64 0 -2351.2 844.791 0 -2148.29 668.77 0 -1950.05 519.742 0 -1756.47 400.921 0 -1574.11 314.047 0 -1413.41 252.24 0 -1274.52 205.499 0 -1153.84 164.651 0 -1042.63 127.761 0 -940.482 96.6155 0 -847.439 72.8751 0 -763.665 56.0262 0 -689.175 43.9895 0 -623.542 34.6874 0 -564.201 26.8761 0 -510.726 20.1453 0 -462.986 14.1264 0 -419.627 8.67915 0 -380.288 3.98118 0 -344.926 0.232353 0 -312.599 -2.48742 0 -282.921 -4.33122 0 -255.892 -5.47891 0 -231.512 -6.11033 0 -209.781 -6.40534 0 -190.699 -6.54381 0 -173.55 -6.67243 0 -157.616 -6.80535 0 -142.899 -6.92356 0 -129.397 -7.00805 0 -117.111 -7.03982 0 -106.042 -6.99986 0 -96.0397 -6.87211 0 -86.7441 -6.66617 0 -78.1384 -6.40482 0 -70.2224 -6.11098 0 -62.9963 -5.80755 0 -56.46 -5.51744 0 -50.5648 -5.26291 0 -45.0186 -5.05139 0 -39.7727 -4.87549 0 -34.8271 -4.72717 0 -30.1818 -4.59841 0 -25.8367 -4.48115 0 -21.786 -4.36741 0 -17.8982 -4.25431 0 -14.1195 -4.14891 0 -10.4499 -4.05943 0 -6.88953 -3.99407 0 -3.43825 -3.96103 0 -0.0961007 -3.96853 0 -0.0221819 -426.311 0 53.2389 -427.063 0 106.575 -429.464 0 159.985 -433.446 0 213.547 -438.949 0 267.384 -445.947 0 321.497 -454.423 0 375.975 -464.359 0 431.036 -475.675 0 486.69 -488.266 0 543.008 -502.028 0 600.257 -516.892 0 658.461 -532.812 0 717.726 -549.743 0 778.676 -567.547 0 841.417 -586.001 0 905.929 -604.88 0 972.021 -624.162 0 1039.64 -644.102 0 1108.8 -664.972 0 1179.62 -686.452 0 1252.15 -707.071 0 1326.33 -725.228 0 1396.7 -739.818 0 1459.82 -751.114 0 1515.7 -759.621 0 1562.53 -762.202 0 1598.49 -741.125 0 1623.6 -675.015 0 1646.96 -544.59 0 1683.08 -342.8 0 1732.15 -67.0191 0 1808.46 289.552 0 1946.98 770.12 0 2149.3 1436.64 0 2344.22 2344.22 0 2264.06 3453.09 0 1883.21 4655.09 0 1208.44 5837.49 0 280.453 6816.99 0 -893.971 7339.74 0 -2266.32 7154.44 0 -3330 6263.9 0 -3950.25 5023.53 0 -4136.05 3813.56 0 -4084.55 2875.04 0 -3876.42 2178.75 0 -3513.35 1664.4 0 -3128.36 1279 0 -2805.02 989.691 0 -2543.31 767.054 0 -2313.04 586.367 0 -2084.04 441.705 0 -1856.3 331.839 0 -1642.09 254.498 0 -1460.96 201.322 0 -1313.15 161.745 0 -1191.04 126.135 0 -1075.98 93.0071 0 -967.131 65.0686 0 -865.603 44.8436 0 -775.587 31.8902 0 -697.483 23.6294 0 -630.558 17.4864 0 -570.408 12.0786 0 -516.299 7.21527 0 -468.076 2.76042 0 -424.114 -1.28573 0 -383.981 -4.73404 0 -347.645 -7.38242 0 -314.415 -9.14462 0 -284.007 -10.1593 0 -256.422 -10.5911 0 -231.658 -10.6046 0 -209.718 -10.3642 0 -190.6 -10.0346 0 -173.49 -9.74896 0 -157.575 -9.5155 0 -142.854 -9.31098 0 -129.328 -9.11223 0 -116.997 -8.89607 0 -105.86 -8.63931 0 -95.7813 -8.32184 0 -86.4296 -7.95019 0 -77.7896 -7.54465 0 -69.8613 -7.1256 0 -62.6446 -6.71343 0 -56.1395 -6.32853 0 -50.2937 -5.99067 0 -44.7921 -5.70573 0 -39.5824 -5.46563 0 -34.6646 -5.26172 0 -30.0386 -5.08533 0 -25.7044 -4.92779 0 -21.6567 -4.78049 0 -17.7753 -4.63999 0 -14.0111 -4.51294 0 -10.3641 -4.40716 0 -6.83438 -4.33046 0 -3.42187 -4.29065 0 -0.126587 -4.29553 0 0.0935614 -440.734 0 51.58 -441.544 0 103.221 -444.161 0 155.016 -448.501 0 207.01 -454.49 0 259.274 -462.124 0 311.81 -471.427 0 364.738 -482.409 0 418.357 -494.998 0 472.679 -509.078 0 527.753 -524.539 0 583.755 -541.377 0 640.702 -559.661 0 698.733 -579.456 0 758.671 -600.641 0 820.654 -622.914 0 884.62 -645.972 0 949.914 -669.845 0 1016.36 -695.032 0 1084.04 -722.057 0 1154.6 -750.585 0 1228.71 -778.608 0 1306.28 -803.929 0 1380.6 -824.961 0 1447.42 -841.806 0 1506.76 -854.856 0 1567.85 -860.662 0 1639.96 -840.402 0 1723.07 -771.415 0 1816.85 -634.525 0 1920.76 -430.912 0 2034.8 -169.125 0 2197.58 150.129 0 2503.49 594.497 0 2956.82 1266.82 0 3453.09 2264.06 0 3599.41 3599.41 0 3358.19 5225.69 0 2694.04 7082.3 0 1394.77 8831.07 0 -574.977 9856.23 0 -3094.7 9543.02 0 -4905.81 7870.34 0 -5673.55 5640.75 0 -5431.16 3714.39 0 -4909.3 2577.28 0 -4406.91 1988.77 0 -3924.26 1624.84 0 -3482.22 1252.34 0 -3093.93 889.021 0 -2759.38 595.639 0 -2462.19 415.252 0 -2186.01 320.17 0 -1930.82 265.018 0 -1702.25 210.55 0 -1509.28 153.315 0 -1352.01 102.821 0 -1222.38 67.4933 0 -1100.64 46.2007 0 -985.905 32.8884 0 -879.343 21.7609 0 -785.352 11.0876 0 -704.352 2.06744 0 -635.55 -4.0894 0 -574.18 -7.40568 0 -519.447 -9.13688 0 -471.135 -10.577 0 -426.97 -12.3369 0 -386.347 -14.0798 0 -349.249 -15.4004 0 -315.285 -16.0639 0 -284.294 -16.1671 0 -256.276 -15.8444 0 -231.231 -15.2305 0 -209.159 -14.4601 0 -190.061 -13.6677 0 -173.035 -12.9617 0 -157.179 -12.3449 0 -142.495 -11.7938 0 -128.981 -11.2849 0 -116.638 -10.7947 0 -105.466 -10.2996 0 -95.3409 -9.77902 0 -85.9594 -9.2361 0 -77.3078 -8.68653 0 -69.386 -8.14606 0 -62.1942 -7.63042 0 -55.7322 -7.15537 0 -49.9444 -6.73616 0 -44.4956 -6.37653 0 -39.3302 -6.06872 0 -34.448 -5.80448 0 -29.8492 -5.57555 0 -25.5336 -5.37367 0 -21.4964 -5.19062 0 -17.6284 -5.02282 0 -13.8847 -4.87569 0 -10.2655 -4.75567 0 -6.77075 -4.66923 0 -3.40042 -4.6228 0 -0.154532 -4.62284 0 0.190593 -452.749 0 49.788 -453.652 0 99.6143 -456.437 0 149.669 -461.049 0 199.957 -467.441 0 250.483 -475.633 0 301.246 -485.665 0 352.415 -497.565 0 404.395 -511.252 0 457.205 -526.592 0 510.838 -543.462 0 565.271 -561.943 0 620.501 -582.265 0 676.738 -604.643 0 735.237 -628.907 0 796.208 -654.501 0 859.501 -680.868 0 923.553 -708.139 0 987.948 -737.398 0 1052.87 -769.784 0 1122.48 -804.949 0 1198.45 -839.652 0 1280.69 -870.321 0 1359.9 -894.874 0 1430.25 -915.35 0 1491.76 -934.493 0 1566.38 -950.293 0 1676.07 -941.732 0 1820.84 -883.039 0 1985.42 -753.726 0 2145.54 -564.149 0 2300.89 -335.829 0 2527.63 -79.5012 0 3011.95 288.107 0 3762.29 898.675 0 4655.09 1883.21 0 5225.69 3358.19 0 5429.6 5429.6 0 5115.72 8175.61 0 3377.48 11039.7 0 63.7919 12830.8 0 -4555.71 12355 0 -7664.83 9545.91 0 -8514.56 5901.95 0 -7192.89 3030.4 0 -5635.43 1783.95 0 -4634.03 1549.73 0 -4183.63 1546.82 0 -3889.97 1236.28 0 -3505.39 747.731 0 -3029.89 325.305 0 -2562.07 150.378 0 -2200.52 153.374 0 -1945.24 201.981 0 -1758.17 184.458 0 -1578.72 109.195 0 -1406.1 28.0662 0 -1244.56 -12.4416 0 -1104.47 -13.2344 0 -986.308 0.378372 0 -887.309 4.32756 0 -797.097 -5.87851 0 -714.677 -20.6224 0 -640.224 -30.2655 0 -574.767 -31.8484 0 -518.481 -29.0904 0 -470.926 -25.9589 0 -427.529 -24.4932 0 -387.074 -24.0576 0 -349.564 -23.8215 0 -315.1 -23.2454 0 -283.723 -22.3544 0 -255.433 -21.2386 0 -230.229 -19.9881 0 -208.113 -18.693 0 -189.083 -17.4433 0 -172.171 -16.3107 0 -156.408 -15.2936 0 -141.794 -14.3721 0 -128.328 -13.5261 0 -116.011 -12.7357 0 -104.843 -11.9809 0 -94.7095 -11.2437 0 -85.3311 -10.5239 0 -76.6951 -9.83047 0 -68.8015 -9.17235 0 -61.6504 -8.55852 0 -55.2417 -7.99798 0 -49.5171 -7.49938 0 -44.1266 -7.0638 0 -39.0117 -6.68476 0 -34.1725 -6.35546 0 -29.6089 -6.06906 0 -25.3211 -5.81877 0 -21.3044 -5.5978 0 -17.4585 -5.40281 0 -13.7424 -5.23716 0 -10.1562 -5.10497 0 -6.6997 -5.01037 0 -3.37304 -4.95748 0 -0.176184 -4.95044 0 0.181325 -462.389 0 47.8789 -463.406 0 95.829 -466.314 0 144.032 -471.121 0 192.465 -477.841 0 241.094 -486.509 0 289.918 -497.168 0 339.157 -509.846 0 389.351 -524.451 0 440.524 -540.826 0 492.576 -558.837 0 545.137 -578.66 0 598.169 -600.696 0 652.019 -625.322 0 708.758 -652.277 0 768.732 -680.664 0 831.624 -709.58 0 894.148 -739.273 0 955.428 -771.586 0 1015.84 -808.459 0 1083.74 -849.537 0 1162.52 -890.013 0 1252.01 -924.568 0 1337.25 -950.711 0 1408.84 -973.75 0 1466.78 -1000.33 0 1549.36 -1031.12 0 1694.85 -1042.87 0 1903.25 -1006.36 0 2137.78 -899.425 0 2339.92 -741.044 0 2508.92 -565.1 0 2768.49 -392.971 0 3421.08 -137.052 0 4480.42 346.386 0 5837.49 1208.44 0 7082.3 2694.04 0 8175.61 5115.72 0 8741.75 8741.75 0 6526.75 12787.9 0 1154.94 15417.3 0 -6847.35 14785.6 0 -11982.8 10771.2 0 -12789.5 5643.84 0 -9453.49 1839.21 0 -6069.76 607.171 0 -4313.53 894.159 0 -4168.51 1382.53 0 -4363.97 1177.64 0 -4101.64 553.48 0 -3381.5 -15.8299 0 -2580.54 -175.144 0 -2075.74 -45.1895 0 -1867.11 134.335 0 -1813.01 162.316 0 -1688 62.9605 0 -1489.19 -57.9719 0 -1254.4 -105.597 0 -1076.11 -80.6838 0 -958.532 -33.2506 0 -888.219 -10.8113 0 -814.657 -21.3458 0 -733.008 -44.3423 0 -646.163 -59.2565 0 -571.472 -59.2679 0 -511.825 -51.2795 0 -466.292 -42.7133 0 -425.165 -37.4639 0 -385.86 -34.5313 0 -348.419 -32.5588 0 -313.755 -30.6289 0 -282.239 -28.6772 0 -253.873 -26.7373 0 -228.655 -24.8431 0 -206.587 -23.028 0 -187.667 -21.3257 0 -170.888 -19.7621 0 -155.241 -18.3317 0 -140.726 -17.021 0 -127.343 -15.8167 0 -115.092 -14.7055 0 -103.973 -13.674 0 -93.8783 -12.7099 0 -84.5425 -11.8091 0 -75.954 -10.9723 0 -68.1126 -10.1999 0 -61.0185 -9.49243 0 -54.6716 -8.85041 0 -49.0122 -8.27424 0 -43.6825 -7.76192 0 -38.6228 -7.30902 0 -33.8331 -6.911 0 -29.3134 -6.56333 0 -25.0636 -6.26148 0 -21.0796 -6.00093 0 -17.2667 -5.77891 0 -13.5861 -5.59606 0 -10.038 -5.45341 0 -6.62221 -5.35197 0 -3.33886 -5.29279 0 -0.187916 -5.27689 0 0.066975 -469.834 0 45.8759 -470.919 0 91.9061 -473.929 0 138.158 -478.911 0 184.605 -485.911 0 231.209 -494.967 0 277.967 -506.113 0 325.154 -519.373 0 373.436 -534.673 0 422.842 -551.888 0 473.163 -570.915 0 523.61 -591.944 0 574.106 -615.375 0 625.168 -641.588 0 679.886 -670.351 0 738.777 -700.825 0 801.319 -732.167 0 862.067 -764.618 0 919.571 -799.925 0 974.442 -839.93 0 1040.09 -884.313 0 1121.99 -928.557 0 1219.86 -967.67 0 1311.19 -999.391 0 1381.86 -1029.02 0 1431.86 -1063.15 0 1516.73 -1103.25 0 1692.03 -1130.32 0 1957.74 -1120.23 0 2253.56 -1055.01 0 2483.46 -952.796 0 2646.2 -844.752 0 2912.14 -752.075 0 3697.65 -608.983 0 5021.65 -304.913 0 6816.99 280.453 0 8831.07 1394.77 0 11039.7 3377.48 0 12787.9 6526.75 0 10145 10145 0 2456.01 12538.9 0 -9448.04 12006.9 0 -16887.1 8430.24 0 -17552.7 3886.66 0 -11749.4 606.635 0 -6178.04 -280.319 0 -3580.04 217.128 0 -3924.67 845.203 0 -4818.87 757.371 0 -4759.31 232.204 0 -3745.97 -259.062 0 -2527.8 -362.642 0 -1853.7 -194.557 0 -1723.67 11.7164 0 -1858.48 60.6793 0 -1813.59 -21.407 0 -1583.32 -128.013 0 -1251.74 -163.539 0 -1024.43 -128.462 0 -910.716 -72.7333 0 -882.458 -43.7856 0 -833.825 -49.3417 0 -754.682 -68.5053 0 -651.698 -80.3495 0 -564.873 -77.775 0 -500.873 -67.51 0 -458.125 -56.8086 0 -420.197 -49.5044 0 -382.718 -44.6845 0 -345.773 -41.0898 0 -311.223 -37.8535 0 -279.829 -34.8698 0 -251.592 -32.1209 0 -226.51 -29.5887 0 -204.584 -27.2551 0 -185.815 -25.1022 0 -169.185 -23.1136 0 -153.676 -21.2795 0 -139.288 -19.5918 0 -126.022 -18.0423 0 -113.878 -16.6229 0 -102.855 -15.3255 0 -92.8468 -14.142 0 -83.5946 -13.0649 0 -75.0862 -12.0871 0 -67.3215 -11.2013 0 -60.3007 -10.4003 0 -54.0236 -9.67703 0 -48.4306 -9.02429 0 -43.1638 -8.43721 0 -38.1634 -7.91306 0 -33.4294 -7.44922 0 -28.962 -7.04307 0 -24.761 -6.692 0 -20.8222 -6.39338 0 -17.0533 -6.14488 0 -13.4164 -5.94473 0 -9.91153 -5.79122 0 -6.53866 -5.68263 0 -3.29779 -5.61728 0 -0.188944 -5.59343 0 -0.0624373 -475.116 0 43.8103 -476.208 0 87.8547 -479.304 0 132.071 -484.45 0 176.442 -491.688 0 220.942 -501.043 0 265.571 -512.531 0 310.632 -526.166 0 356.868 -541.932 0 404.312 -559.797 0 452.675 -579.739 0 500.872 -601.864 0 548.798 -626.373 0 597.086 -653.456 0 649.543 -683.061 0 706.801 -714.888 0 768.201 -748.638 0 826.839 -784.4 0 880.88 -822.803 0 931.094 -864.507 0 994.435 -909.271 0 1077.84 -955.097 0 1180.95 -999.791 0 1276.18 -1042.07 0 1346.21 -1083.17 0 1391.02 -1124.76 0 1477.15 -1166.73 0 1671.11 -1201.85 0 1972.89 -1221.11 0 2306.89 -1217.72 0 2552.74 -1197.94 0 2708.89 -1172.76 0 2972.67 -1150.44 0 3826.45 -1115.69 0 5292.16 -1041.03 0 7339.74 -893.971 0 9856.23 -574.977 0 12830.8 63.7919 0 15417.3 1154.94 0 12538.9 2456.01 0 3349.51 3349.51 0 -11116.6 3214.31 0 -20056.3 2003.53 0 -20596.3 467.112 0 -13121 -589.678 0 -6085.03 -766.395 0 -2947.12 -448.845 0 -3666.62 -112.956 0 -5071.62 -77.7022 0 -5169.49 -228.441 0 -3960.23 -376.274 0 -2456.32 -379.005 0 -1670.2 -281.235 0 -1601.87 -174.267 0 -1874.82 -134.36 0 -1889.7 -149.91 0 -1638.8 -177.511 0 -1239.48 -178.194 0 -978.513 -151.955 0 -868.951 -118.859 0 -872.08 -97.9501 0 -842.353 -92.2039 0 -765.834 -93.0137 0 -651.902 -91.7592 0 -556.827 -85.3881 0 -489.988 -76.4161 0 -449.368 -67.5728 0 -413.899 -60.3239 0 -377.976 -54.381 0 -341.712 -49.3276 0 -307.56 -44.8591 0 -276.524 -40.8882 0 -248.602 -37.3527 0 -223.797 -34.1906 0 -202.106 -31.3395 0 -183.531 -28.7374 0 -167.072 -26.3315 0 -151.727 -24.1073 0 -137.498 -22.0597 0 -124.383 -20.1837 0 -112.384 -18.4742 0 -101.5 -16.9262 0 -91.6229 -15.5341 0 -82.4914 -14.2867 0 -74.0932 -13.1706 0 -66.4282 -12.1719 0 -59.4964 -11.2769 0 -53.2978 -10.4719 0 -47.7739 -9.74345 0 -42.5732 -9.08404 0 -37.637 -8.49214 0 -32.9653 -7.96647 0 -28.5583 -7.50574 0 -24.4157 -7.1087 0 -20.5335 -6.77404 0 -16.8186 -6.49967 0 -13.2328 -6.28188 0 -9.77618 -6.11677 0 -6.44873 -6.00044 0 -3.25045 -5.92902 0 -0.181329 -5.89861 0 -0.114387 -478.24 0 41.7134 -479.286 0 83.6828 -482.45 0 125.794 -487.743 0 168.04 -495.173 0 210.41 -504.737 0 252.904 -516.426 0 295.817 -530.239 0 339.866 -546.253 0 385.085 -564.578 0 431.188 -585.315 0 477.104 -608.408 0 522.731 -633.682 0 568.683 -660.979 0 618.653 -690.548 0 673.256 -723.042 0 731.869 -759.113 0 787.976 -798.573 0 839.844 -840.072 0 888.228 -882.181 0 949.704 -924.778 0 1031.06 -970.268 0 1131.95 -1021.35 0 1226.58 -1078.34 0 1298.72 -1135.01 0 1348.39 -1184 0 1439.47 -1221.59 0 1635.86 -1258.62 0 1937.57 -1309.55 0 2272.25 -1384.57 0 2524.76 -1468.89 0 2693.62 -1538.66 0 2964.92 -1578.55 0 3793.51 -1647.44 0 5200.09 -1842.44 0 7154.44 -2266.32 0 9543.02 -3094.7 0 12355 -4555.71 0 14785.6 -6847.35 0 12006.9 -9448.04 0 3214.31 -11116.6 0 -10606.4 -10606.4 0 -19158.6 -7834.25 0 -19703.7 -4331.7 0 -12607.6 -1742.59 0 -5920.21 -906.292 0 -2934.54 -1099.86 0 -3611.96 -1421.24 0 -4938.71 -1258.94 0 -5021.54 -804.236 0 -3860.44 -385.857 0 -2419.4 -250.211 0 -1662.42 -314.353 0 -1589.5 -413.001 0 -1842.22 -407.548 0 -1850.02 -315.15 0 -1605.6 -209.346 0 -1220.56 -156.099 0 -967.758 -154.764 0 -859.584 -170.4 0 -859.172 -169.819 0 -827.894 -147.467 0 -752.476 -117.704 0 -641.806 -94.9069 0 -549.21 -83.7188 0 -483.575 -79.0469 0 -442.995 -75.4327 0 -407.559 -70.0324 0 -371.97 -63.6296 0 -336.328 -57.2722 0 -302.824 -51.6457 0 -272.354 -46.7322 0 -244.919 -42.4328 0 -220.518 -38.6487 0 -199.152 -35.2811 0 -180.82 -32.2311 0 -164.56 -29.4156 0 -149.411 -26.8149 0 -135.372 -24.4247 0 -122.445 -22.2409 0 -110.628 -20.2595 0 -99.9212 -18.4763 0 -90.2147 -16.8861 0 -81.2371 -15.4747 0 -72.9764 -14.2229 0 -65.4323 -13.1117 0 -58.605 -12.1221 0 -52.4944 -11.235 0 -47.044 -10.4317 0 -41.9139 -9.70242 0 -37.0475 -9.04626 0 -32.4448 -8.46274 0 -28.1059 -7.95134 0 -24.0306 -7.51158 0 -20.2148 -7.14292 0 -16.5625 -6.84329 0 -13.0346 -6.60751 0 -9.63114 -6.43005 0 -6.3521 -6.3054 0 -3.19747 -6.22803 0 -0.167257 -6.19242 0 -0.0577812 -479.251 0 39.6071 -480.259 0 79.4179 -483.461 0 119.375 -488.841 0 159.476 -496.381 0 199.719 -506.059 0 240.103 -517.851 0 280.871 -531.75 0 322.614 -547.892 0 365.358 -566.486 0 408.914 -587.717 0 452.56 -611.428 0 496.229 -637.212 0 540.369 -664.694 0 587.674 -694.302 0 638.595 -727.267 0 692.73 -764.82 0 745.902 -806.631 0 796.998 -850.196 0 846.565 -892.877 0 906.635 -934.673 0 982.129 -980.708 0 1072.83 -1036.69 0 1162 -1104.03 0 1239.11 -1172.27 0 1304.16 -1228.91 0 1404.4 -1268.4 0 1587.08 -1312.84 0 1852.19 -1391.26 0 2149.8 -1524.61 0 2400.42 -1686.46 0 2603.01 -1833.28 0 2893.68 -1936.84 0 3605.1 -2102.7 0 4752.38 -2505.24 0 6263.9 -3330 0 7870.34 -4905.81 0 9545.91 -7664.83 0 10771.2 -11982.8 0 8430.24 -16887.1 0 2003.53 -20056.3 0 -7834.25 -19158.6 0 -14037 -14037 0 -14730.8 -7552.91 0 -10160.4 -2777.42 0 -5714.78 -1276.91 0 -3598.19 -1695.23 0 -3786.72 -2341.23 0 -4409.96 -2069.49 0 -4292.89 -1242.23 0 -3435.54 -479.891 0 -2423.81 -247.585 0 -1843.63 -389.271 0 -1695 -593.606 0 -1759.44 -599.556 0 -1689.15 -439.863 0 -1479.67 -253.601 0 -1195.65 -165.529 0 -995.103 -174.5 0 -885.21 -214.542 0 -844.086 -222.99 0 -789.444 -189.38 0 -713.403 -140.866 0 -620.971 -104.638 0 -542.183 -89.5982 0 -482.045 -86.3596 0 -439.343 -84.8476 0 -401.398 -79.7791 0 -364.838 -72.5207 0 -329.711 -64.9235 0 -297.073 -58.2134 0 -267.354 -52.4019 0 -240.556 -47.3611 0 -216.679 -42.9631 0 -195.721 -39.0798 0 -177.684 -35.5833 0 -161.661 -32.3661 0 -146.743 -29.4024 0 -132.931 -26.6868 0 -120.226 -24.2141 0 -108.626 -21.9788 0 -98.133 -19.9757 0 -88.6303 -18.1982 0 -79.8359 -16.6287 0 -71.7371 -15.244 0 -64.3337 -14.0208 0 -57.6258 -12.9361 0 -51.6134 -11.9664 0 -46.2425 -11.0891 0 -41.1889 -10.2924 0 -36.3987 -9.57543 0 -31.8719 -8.93804 0 -27.6085 -8.37987 0 -23.6084 -7.90063 0 -19.8672 -7.50002 0 -16.285 -7.17574 0 -12.8212 -6.92162 0 -9.47566 -6.73108 0 -6.24844 -6.59751 0 -3.13952 -6.5143 0 -0.148913 -6.47487 0 0.0532346 -478.162 0 37.5002 -479.157 0 75.1146 -482.363 0 112.897 -487.757 0 150.846 -495.314 0 188.963 -505.011 0 227.246 -516.822 0 265.868 -530.74 0 305.244 -546.919 0 345.393 -565.591 0 386.254 -586.964 0 427.593 -610.885 0 469.389 -636.94 0 511.872 -664.744 0 556.425 -694.718 0 603.278 -728.09 0 652.315 -766.089 0 702.308 -808.437 0 752.931 -852.765 0 804.459 -896.573 0 862.942 -939.978 0 930.853 -988.183 0 1008.12 -1046.97 0 1089.31 -1118.02 0 1170.98 -1191.67 0 1253.15 -1256.31 0 1361.43 -1307.28 0 1521.47 -1367.74 0 1733.25 -1467.76 0 1975.37 -1629.59 0 2213.73 -1829.61 0 2447.9 -2027.58 0 2749.87 -2198.86 0 3295.58 -2454.44 0 4093.04 -2975.19 0 5023.53 -3950.25 0 5640.75 -5673.55 0 5901.95 -8514.56 0 5643.84 -12789.5 0 3886.66 -17552.7 0 467.112 -20596.3 0 -4331.7 -19703.7 0 -7552.91 -14730.8 0 -8410.11 -8410.11 0 -6996.56 -3674.33 0 -5363.58 -2031.67 0 -4350.37 -2224.11 0 -3951.14 -2676.53 0 -3715.55 -2318.68 0 -3360.65 -1475.16 0 -2886.46 -709.462 0 -2411.7 -443.29 0 -2055.1 -531.351 0 -1816.66 -686.593 0 -1651.04 -668.011 0 -1486.07 -503.497 0 -1320.83 -318.277 0 -1162.16 -224.642 0 -1026.78 -221.167 0 -915.468 -247.874 0 -824.769 -247.779 0 -741.741 -211.094 0 -665.147 -162.047 0 -595.238 -124.902 0 -533.527 -107.502 0 -480.266 -101.268 0 -435.089 -97.0034 0 -394.156 -89.8696 0 -356.45 -81.0783 0 -321.954 -72.2815 0 -290.364 -64.562 0 -261.556 -57.8973 0 -235.528 -52.1377 0 -212.281 -47.1337 0 -191.815 -42.7358 0 -174.13 -38.7942 0 -158.384 -35.1829 0 -143.739 -31.8698 0 -130.192 -28.8461 0 -117.745 -26.1031 0 -106.397 -23.6321 0 -96.148 -21.4245 0 -86.878 -19.4702 0 -78.292 -17.7487 0 -70.3767 -16.2338 0 -63.1321 -14.8992 0 -56.5581 -13.7187 0 -50.6548 -12.666 0 -45.3711 -11.7156 0 -40.4014 -10.8538 0 -35.6946 -10.0796 0 -31.2507 -9.39236 0 -27.0698 -8.79132 0 -23.1518 -8.27587 0 -19.492 -7.84533 0 -15.9863 -7.49701 0 -12.5919 -7.22422 0 -9.30898 -7.01985 0 -6.13742 -6.87676 0 -3.07725 -6.78784 0 -0.128482 -6.74595 0 0.158415 -474.999 0 35.4007 -476.004 0 70.8294 -479.181 0 106.444 -484.517 0 142.246 -492.002 0 178.234 -501.622 0 214.408 -513.367 0 250.873 -527.24 0 287.884 -543.363 0 325.453 -561.925 0 363.623 -583.098 0 402.564 -606.83 0 442.293 -632.915 0 482.871 -661.158 0 524.674 -691.798 0 567.764 -725.503 0 612.229 -762.945 0 658.974 -804.089 0 708.24 -847.92 0 760.1 -893.362 0 816.13 -940.645 0 876.977 -992.538 0 942.676 -1052.1 0 1015.88 -1120.49 0 1098.25 -1193.61 0 1189.79 -1266.48 0 1299.27 -1337.97 0 1435.46 -1422.46 0 1598.36 -1538.18 0 1787.27 -1699.65 0 2001.08 -1899.73 0 2239.78 -2123.41 0 2523.49 -2365.15 0 2901.42 -2701.93 0 3375.79 -3253.19 0 3813.56 -4136.05 0 3714.39 -5431.16 0 3030.4 -7192.89 0 1839.21 -9453.49 0 606.635 -11749.4 0 -589.678 -13121 0 -1742.59 -12607.6 0 -2777.42 -10160.4 0 -3674.33 -6996.56 0 -4421.23 -4421.23 0 -4752.33 -3137.87 0 -4558.9 -2680.88 0 -3847.16 -2450.64 0 -3102.47 -2030.62 0 -2629.72 -1510.13 0 -2428.92 -1065.13 0 -2320.84 -825.376 0 -2126.26 -735.91 0 -1845.19 -695.587 0 -1543.41 -618.593 0 -1325.68 -508.64 0 -1193.33 -401.846 0 -1117.29 -330.495 0 -1026.5 -293.094 0 -917.717 -270.759 0 -799 -245.508 0 -700.617 -213.532 0 -625.469 -181.237 0 -570.885 -155.052 0 -520.861 -136.722 0 -472.726 -123.308 0 -426.657 -111.7 0 -384.471 -100.239 0 -346.653 -89.2818 0 -313.148 -79.3307 0 -282.758 -70.6779 0 -254.991 -63.2065 0 -229.848 -56.7526 0 -207.328 -51.1525 0 -187.432 -46.2424 0 -170.159 -41.8585 0 -154.743 -37.8619 0 -140.414 -34.2136 0 -127.174 -30.8995 0 -115.021 -27.9053 0 -103.956 -25.2169 0 -93.9797 -22.8203 0 -84.966 -20.7002 0 -76.6097 -18.8331 0 -68.8968 -17.1909 0 -61.8273 -15.7455 0 -55.4012 -14.469 0 -49.6185 -13.3331 0 -44.4316 -12.3105 0 -39.5543 -11.3863 0 -34.9388 -10.5584 0 -30.5852 -9.82525 0 -26.4934 -9.18524 0 -22.6636 -8.63682 0 -19.0907 -8.17842 0 -15.6663 -7.8067 0 -12.3462 -7.51496 0 -9.13033 -7.29606 0 -6.0187 -7.14291 0 -3.0113 -7.04839 0 -0.108144 -7.00539 0 0.219247 -470.306 0 33.3174 -471.322 0 66.6059 -474.451 0 100.085 -479.695 0 133.754 -487.058 0 167.613 -496.544 0 201.663 -508.156 0 235.962 -521.906 0 270.655 -537.882 0 305.748 -556.211 0 341.337 -577.016 0 377.78 -600.347 0 415.109 -626.202 0 453.327 -654.582 0 492.433 -685.565 0 532.43 -719.304 0 573.457 -755.958 0 616.993 -795.703 0 663.431 -838.741 0 712.778 -885.277 0 765.188 -935.632 0 820.724 -990.346 0 879.445 -1049.99 0 946.108 -1115.2 0 1023.7 -1186.88 0 1112.22 -1265.93 0 1213.53 -1354.26 0 1329.49 -1457.75 0 1460.12 -1583.25 0 1610.41 -1737.63 0 1788.33 -1927.93 0 1994 -2161.22 0 2222.6 -2448.01 0 2462.38 -2828.69 0 2712.82 -3359.04 0 2875.04 -4084.55 0 2577.28 -4909.3 0 1783.95 -5635.43 0 607.171 -6069.76 0 -280.319 -6178.04 0 -766.395 -6085.03 0 -906.292 -5920.21 0 -1276.91 -5714.78 0 -2031.67 -5363.58 0 -3137.87 -4752.33 0 -3875.98 -3875.98 0 -3951.66 -2941.64 0 -3372.16 -2180.68 0 -2704.69 -1735.62 0 -2305.53 -1503.46 0 -2174.7 -1339.18 0 -2127.61 -1130.97 0 -1979.69 -899.906 0 -1730.94 -700.312 0 -1450.75 -576.269 0 -1249.54 -512.151 0 -1128.75 -470.717 0 -1060.72 -418.373 0 -977.857 -353.541 0 -877.082 -291.126 0 -766.086 -245.216 0 -673.775 -216.974 0 -602.916 -198.243 0 -551.025 -180.877 0 -503.198 -161.646 0 -456.949 -142.235 0 -412.473 -124.524 0 -371.797 -109.456 0 -335.46 -96.6746 0 -303.402 -85.7297 0 -274.33 -76.2583 0 -247.712 -68.068 0 -223.549 -60.986 0 -201.841 -54.8396 0 -182.588 -49.4561 0 -165.79 -44.6626 0 -150.755 -40.3119 0 -136.791 -36.3583 0 -123.898 -32.7818 0 -112.075 -29.5622 0 -101.324 -26.6793 0 -91.643 -24.1131 0 -82.9049 -21.8428 0 -74.7957 -19.842 0 -67.3014 -18.0815 0 -60.4217 -16.5323 0 -54.1569 -15.1651 0 -48.5067 -13.9506 0 -43.427 -12.8603 0 -38.6514 -11.8783 0 -34.1355 -11.0012 0 -29.8794 -10.2265 0 -25.8831 -9.55146 0 -22.1465 -8.97337 0 -18.6646 -8.48957 0 -15.3256 -8.09605 0 -12.0839 -7.78626 0 -8.93945 -7.55332 0 -5.89222 -7.39038 0 -2.94223 -7.29057 0 -0.0894732 -7.24704 0 0.239429 -464.308 0 31.2611 -465.325 0 62.4635 -468.392 0 93.8466 -473.523 0 125.41 -480.735 0 157.155 -490.042 0 189.08 -501.46 0 221.219 -515.008 0 253.653 -530.744 0 286.387 -548.745 0 319.521 -569.089 0 353.44 -591.88 0 388.18 -617.238 0 423.748 -645.28 0 460.182 -676.029 0 497.49 -709.412 0 535.776 -745.362 0 576.129 -784.144 0 618.84 -826.487 0 663.933 -873.151 0 711.984 -924.513 0 763.225 -980.206 0 817.699 -1039.78 0 878.606 -1103.71 0 947.955 -1175.05 0 1025.75 -1257.31 0 1113.27 -1353.62 0 1211.81 -1465.74 0 1321.36 -1595.1 0 1443.53 -1744.7 0 1580.87 -1926.94 0 1733.4 -2157.57 0 1890.23 -2452.45 0 2024.67 -2827.97 0 2135.52 -3300.82 0 2178.75 -3876.42 0 1988.77 -4406.91 0 1549.73 -4634.03 0 894.159 -4313.53 0 217.128 -3580.04 0 -448.845 -2947.12 0 -1099.86 -2934.54 0 -1695.23 -3598.19 0 -2224.11 -4350.37 0 -2680.88 -4558.9 0 -2941.64 -3951.66 0 -2955.7 -2955.7 0 -2725.44 -2078.2 0 -2436.68 -1650.63 0 -2206.13 -1519.12 0 -2033.81 -1446.65 0 -1883.49 -1252.52 0 -1718.96 -981.186 0 -1540.2 -733.382 0 -1363.59 -592.164 0 -1215.16 -537.294 0 -1095.25 -511.145 0 -996.909 -461.799 0 -903.149 -387.478 0 -813.197 -312.22 0 -728.299 -258.786 0 -653.132 -229.717 0 -588.145 -212.985 0 -532.621 -196.563 0 -482.264 -175.887 0 -436.359 -153.86 0 -394.852 -133.672 0 -357.181 -116.935 0 -323.198 -103.07 0 -292.858 -91.3387 0 -265.193 -81.1793 0 -239.807 -72.3749 0 -216.702 -64.7482 0 -195.875 -58.1217 0 -177.329 -52.3181 0 -161.061 -47.16 0 -146.458 -42.4954 0 -132.902 -38.2728 0 -120.394 -34.4664 0 -108.934 -31.0498 0 -98.5216 -27.9973 0 -89.1569 -25.2826 0 -80.7098 -22.8794 0 -72.8624 -20.7592 0 -65.6003 -18.8921 0 -58.9233 -17.2483 0 -52.8316 -15.798 0 -47.325 -14.5115 0 -42.3626 -13.3594 0 -37.6978 -12.325 0 -33.2895 -11.4038 0 -29.1377 -10.592 0 -25.2424 -9.88582 0 -21.6036 -9.28136 0 -18.2161 -8.7748 0 -14.9658 -8.36146 0 -11.8061 -8.03503 0 -8.737 -7.789 0 -5.7584 -7.61688 0 -2.87035 -7.51217 0 -0.0728617 -7.46839 0 0.227507 -457.005 0 29.2426 -458.013 0 58.4185 -461.005 0 87.7551 -466.003 0 117.253 -473.032 0 146.911 -482.116 0 176.73 -493.279 0 206.732 -506.546 0 236.976 -521.949 0 267.462 -539.525 0 298.276 -559.316 0 329.733 -581.43 0 361.865 -606.027 0 394.705 -633.26 0 428.454 -663.202 0 463.145 -695.842 0 498.826 -731.168 0 535.994 -769.416 0 574.781 -811.157 0 615.247 -856.988 0 658.714 -907.31 0 705.722 -962.154 0 756.282 -1021.5 0 811.314 -1086.01 0 871.392 -1158.12 0 936.518 -1240.6 0 1009.09 -1336.09 0 1091.52 -1446.57 0 1183.8 -1573.9 0 1282.41 -1720.98 0 1381.74 -1896.81 0 1481.71 -2112.62 0 1573.43 -2378.96 0 1635.19 -2700.77 0 1666.01 -3080.03 0 1664.4 -3513.35 0 1624.84 -3924.26 0 1546.82 -4183.63 0 1382.53 -4168.51 0 845.203 -3924.67 0 -112.956 -3666.62 0 -1421.24 -3611.96 0 -2341.23 -3786.72 0 -2676.53 -3951.14 0 -2450.64 -3847.16 0 -2180.68 -3372.16 0 -2078.2 -2725.44 0 -2140.86 -2140.86 0 -2187.75 -1772.88 0 -2105.17 -1556.49 0 -1893.14 -1389.12 0 -1648.57 -1191.87 0 -1468.37 -980.457 0 -1352.52 -794.279 0 -1269.78 -665.458 0 -1170.39 -583.701 0 -1053.7 -523.363 0 -930.855 -461.207 0 -829.093 -395.145 0 -749.65 -333.976 0 -688.248 -286.008 0 -628.799 -251.617 0 -569.76 -225.459 0 -511.931 -202.201 0 -460.098 -179.549 0 -415.059 -158.249 0 -376.552 -139.17 0 -341.851 -122.683 0 -310.23 -108.469 0 -281.659 -96.1578 0 -255.464 -85.441 0 -231.371 -76.1273 0 -209.379 -68.039 0 -189.49 -60.9986 0 -171.702 -54.8284 0 -156.015 -49.3508 0 -141.889 -44.4125 0 -128.782 -39.9573 0 -116.694 -35.9532 0 -105.624 -32.3683 0 -95.5728 -29.1708 0 -86.5405 -26.3286 0 -78.3966 -23.8101 0 -70.8226 -21.5847 0 -63.8039 -19.6224 0 -57.3405 -17.8935 0 -51.4323 -16.3679 0 -46.0796 -15.0158 0 -41.2442 -13.8078 0 -36.6988 -12.7264 0 -32.4054 -11.7661 0 -28.3641 -10.9217 0 -24.5749 -10.1883 0 -21.0378 -9.5608 0 -17.7474 -9.03413 0 -14.5886 -8.60293 0 -11.514 -8.26126 0 -8.52373 -8.00309 0 -5.61772 -7.82241 0 -2.796 -7.7132 0 -0.0585681 -7.66943 0 0.192027 -448.396 0 27.2728 -449.386 0 54.4872 -452.289 0 81.8354 -457.134 0 109.317 -463.95 0 136.933 -472.767 0 164.683 -483.614 0 192.59 -496.52 0 220.715 -511.502 0 249.06 -528.573 0 277.684 -547.75 0 306.802 -569.131 0 336.437 -592.868 0 366.634 -619.118 0 397.671 -648.015 0 429.594 -679.677 0 462.424 -714.223 0 496.398 -751.83 0 531.575 -792.752 0 568.018 -837.255 0 607.065 -885.746 0 649.267 -938.907 0 694.621 -997.456 0 743.099 -1062.23 0 794.683 -1134.42 0 849.372 -1215.26 0 909.105 -1306.4 0 975.819 -1411.08 0 1049.52 -1532.94 0 1125.02 -1675.64 0 1194.1 -1842.87 0 1256.65 -2038.36 0 1305.84 -2265.41 0 1324.99 -2523.91 0 1313.35 -2811.95 0 1279 -3128.36 0 1252.34 -3482.22 0 1236.28 -3889.97 0 1177.64 -4363.97 0 757.371 -4818.87 0 -77.7022 -5071.62 0 -1258.94 -4938.71 0 -2069.49 -4409.96 0 -2318.68 -3715.55 0 -2030.62 -3102.47 0 -1735.62 -2704.69 0 -1650.63 -2436.68 0 -1772.88 -2187.75 0 -1886.31 -1886.31 0 -1855.22 -1568.86 0 -1679.59 -1290.37 0 -1463.4 -1091.17 0 -1310.63 -952.927 0 -1221.28 -842.658 0 -1162.5 -732.329 0 -1082.02 -622.83 0 -979.151 -525.52 0 -866.241 -450.373 0 -773.435 -395.146 0 -702.103 -351.31 0 -647.914 -310.728 0 -594.581 -271.303 0 -540.543 -235.291 0 -486.665 -204.958 0 -438.129 -180.605 0 -395.799 -160.57 0 -359.444 -143.121 0 -326.675 -127.242 0 -296.855 -112.913 0 -269.951 -100.187 0 -245.26 -89.0432 0 -222.496 -79.325 0 -201.657 -70.8586 0 -182.744 -63.4704 0 -165.756 -56.9871 0 -150.695 -51.235 0 -137.088 -46.0633 0 -124.465 -41.4116 0 -112.826 -37.2423 0 -102.171 -33.5176 0 -92.5002 -30.1998 0 -83.8131 -27.2513 0 -75.9811 -24.6349 0 -68.689 -22.3185 0 -61.9225 -20.2727 0 -55.6816 -18.4679 0 -49.9662 -16.8746 0 -44.7764 -15.4635 0 -40.0773 -14.2054 0 -35.6595 -13.0825 0 -31.4881 -12.0881 0 -27.563 -11.2156 0 -23.8844 -10.459 0 -20.4521 -9.8117 0 -17.2609 -9.26755 0 -14.1955 -8.82047 0 -11.2087 -8.46496 0 -8.30041 -8.19561 0 -5.47067 -8.00698 0 -2.71949 -7.89364 0 -0.0468503 -7.85017 0 0.141538 -438.481 0 25.3624 -439.444 0 50.6861 -442.246 0 76.1125 -446.916 0 101.642 -453.489 0 127.274 -461.994 0 153.009 -472.465 0 178.877 -484.931 0 204.954 -499.408 0 231.243 -515.902 0 257.776 -534.426 0 284.666 -555.064 0 311.925 -577.952 0 339.598 -603.228 0 367.957 -631.051 0 397.047 -661.601 0 426.889 -695.06 0 457.705 -731.579 0 489.555 -771.271 0 522.477 -814.247 0 557.311 -860.901 0 594.402 -912.175 0 633.749 -969.073 0 675.383 -1032.48 0 719.322 -1102.93 0 765.567 -1180.92 0 814.495 -1267.51 0 866.483 -1366.07 0 921.532 -1480.56 0 975.422 -1614.44 0 1021.44 -1768.46 0 1059.49 -1942.34 0 1083.98 -2135.59 0 1081.24 -2345.67 0 1050.64 -2569.01 0 989.691 -2805.02 0 889.021 -3093.93 0 747.731 -3505.39 0 553.48 -4101.64 0 232.204 -4759.31 0 -228.441 -5169.49 0 -804.236 -5021.54 0 -1242.23 -4292.89 0 -1475.16 -3360.65 0 -1510.13 -2629.72 0 -1503.46 -2305.53 0 -1519.12 -2206.13 0 -1556.49 -2105.17 0 -1568.86 -1855.22 0 -1526.89 -1526.89 0 -1430.58 -1228.16 0 -1314.58 -1039.74 0 -1213.56 -933.275 0 -1127.52 -853.174 0 -1049.66 -752.684 0 -969.138 -636.747 0 -885.828 -529.016 0 -803.086 -450.513 0 -729.125 -399.17 0 -664.32 -361.026 0 -607.534 -322.794 0 -554.502 -281.635 0 -504.815 -242.246 0 -458.544 -209.333 0 -416.117 -184.065 0 -377.603 -164.069 0 -342.946 -146.845 0 -311.528 -130.952 0 -283.186 -116.431 0 -257.879 -103.426 0 -234.699 -91.9861 0 -213.275 -81.9681 0 -193.607 -73.2068 0 -175.696 -65.5371 0 -159.54 -58.7941 0 -145.141 -52.8125 0 -132.091 -47.4476 0 -119.985 -42.6358 0 -108.822 -38.3336 0 -98.6028 -34.4976 0 -89.3267 -31.0844 0 -80.994 -28.0505 0 -73.479 -25.3537 0 -66.4745 -22.9606 0 -59.9665 -20.8427 0 -53.955 -18.9714 0 -48.4401 -17.3182 0 -43.4217 -15.8546 0 -38.8677 -14.5523 0 -34.5853 -13.3934 0 -30.5422 -12.3698 0 -26.7385 -11.4738 0 -23.1743 -10.6977 0 -19.8495 -10.034 0 -16.7588 -9.47505 0 -13.7884 -9.01406 0 -10.8914 -8.64613 0 -8.06781 -8.36655 0 -5.31773 -8.17058 0 -2.64111 -8.05351 0 -0.0379665 -8.01062 0 0.0845841 -427.261 0 23.5224 -428.187 0 47.0314 -430.873 0 70.6114 -435.35 0 94.2625 -441.647 0 117.985 -449.798 0 141.778 -459.831 0 165.678 -471.779 0 189.774 -485.665 0 214.069 -501.511 0 238.573 -519.343 0 263.32 -539.231 0 288.315 -561.279 0 313.595 -585.592 0 339.382 -612.311 0 365.715 -641.614 0 392.62 -673.678 0 420.376 -708.664 0 449.058 -746.713 0 478.676 -787.962 0 509.482 -832.777 0 541.581 -881.958 0 574.975 -936.356 0 610.022 -996.74 0 646.946 -1063.65 0 685.747 -1137.58 0 725.274 -1219.42 0 764.377 -1311.55 0 803.058 -1416.75 0 838.732 -1537.39 0 867.288 -1673.57 0 888.673 -1824.57 0 898.052 -1989.5 0 883.604 -2166.05 0 844.791 -2351.2 0 767.054 -2543.31 0 595.639 -2759.38 0 325.305 -3029.89 0 -15.8299 -3381.5 0 -259.062 -3745.97 0 -376.274 -3960.23 0 -385.857 -3860.44 0 -479.891 -3435.54 0 -709.462 -2886.46 0 -1065.13 -2428.92 0 -1339.18 -2174.7 0 -1446.65 -2033.81 0 -1389.12 -1893.14 0 -1290.37 -1679.59 0 -1228.16 -1430.58 0 -1202.5 -1202.5 0 -1179.5 -1037.58 0 -1125.31 -921.503 0 -1039.92 -825.825 0 -941.688 -726.522 0 -859.806 -625.454 0 -794.653 -533.849 0 -740.78 -461.628 0 -684.869 -407.218 0 -626.315 -363.127 0 -567.049 -322.207 0 -514.336 -282.613 0 -468.873 -246.323 0 -429.975 -215.327 0 -393.532 -189.929 0 -358.859 -168.748 0 -326.053 -150.342 0 -296.114 -133.814 0 -269.308 -119.02 0 -245.588 -105.875 0 -223.897 -94.2697 0 -203.802 -84.0567 0 -185.305 -75.0838 0 -168.406 -67.1988 0 -153.103 -60.2494 0 -139.397 -54.0833 0 -126.938 -48.5656 0 -115.377 -43.6299 0 -104.712 -39.2272 0 -94.9453 -35.3084 0 -86.0752 -31.8245 0 -78.1023 -28.7264 0 -70.906 -25.9666 0 -64.1918 -23.5111 0 -57.9463 -21.3326 0 -52.1694 -19.4042 0 -46.8612 -17.6987 0 -42.0216 -16.189 0 -37.621 -14.8485 0 -33.4813 -13.659 0 -29.5725 -12.6112 0 -25.8949 -11.6961 0 -22.4484 -10.9047 0 -19.2329 -10.2278 0 -16.2435 -9.65665 0 -13.3687 -9.18372 0 -10.5631 -8.80477 0 -7.82668 -8.5159 0 -5.15937 -8.31321 0 -2.5612 -8.1928 0 -0.0321747 -8.15075 0 0.0287715 -415.174 0 21.7622 -416.058 0 43.5369 -418.622 0 65.353 -422.893 0 87.2105 -428.901 0 109.109 -436.673 0 131.05 -446.237 0 153.067 -457.624 0 175.247 -470.869 0 197.594 -486.014 0 220.107 -503.1 0 242.781 -522.187 0 265.617 -543.344 0 288.642 -566.642 0 312.022 -592.19 0 335.786 -620.136 0 359.958 -650.626 0 384.799 -683.842 0 410.379 -720.007 0 436.692 -759.35 0 463.651 -802.194 0 491.221 -849.046 0 519.406 -900.434 0 548.573 -956.95 0 578.952 -1019.36 0 610.544 -1088.44 0 641.574 -1165.07 0 670.265 -1250.34 0 696.618 -1345.41 0 718.856 -1451.36 0 734.15 -1568.63 0 742.463 -1697.47 0 739.575 -1837.95 0 715.167 -1988.86 0 668.77 -2148.29 0 586.367 -2313.04 0 415.252 -2462.19 0 150.378 -2562.07 0 -175.144 -2580.54 0 -362.642 -2527.8 0 -379.005 -2456.32 0 -250.211 -2419.4 0 -247.585 -2423.81 0 -443.29 -2411.7 0 -825.376 -2320.84 0 -1130.97 -2127.61 0 -1252.52 -1883.49 0 -1191.87 -1648.57 0 -1091.17 -1463.4 0 -1039.74 -1314.58 0 -1037.58 -1179.5 0 -1041.17 -1041.17 0 -1007.02 -905.172 0 -935.107 -782.723 0 -846.629 -682.951 0 -775.299 -602.765 0 -721.551 -534.649 0 -679.058 -471.752 0 -632.354 -413.056 0 -580.736 -360.549 0 -526.536 -316.073 0 -478.525 -279.224 0 -437.54 -247.973 0 -402.849 -220.299 0 -370.052 -195.209 0 -338.415 -172.738 0 -308.059 -152.959 0 -280.246 -135.759 0 -255.311 -120.767 0 -233.21 -107.592 0 -212.963 -95.9227 0 -194.167 -85.6033 0 -176.824 -76.4956 0 -160.932 -68.4611 0 -146.493 -61.3618 0 -133.505 -55.0593 0 -121.667 -49.4294 0 -110.674 -44.4043 0 -100.526 -39.9301 0 -91.2239 -35.9529 0 -82.7674 -32.4189 0 -75.1565 -29.2744 0 -68.2777 -26.4673 0 -61.8539 -23.9633 0 -55.8725 -21.7367 0 -50.3335 -19.7619 0 -45.2369 -18.0134 0 -40.5826 -16.4658 0 -36.3432 -15.0938 0 -32.3527 -13.8794 0 -28.5837 -12.8122 0 -25.0362 -11.8819 0 -21.71 -11.0783 0 -18.6053 -10.3911 0 -15.7171 -9.81007 0 -12.9384 -9.32729 0 -10.2254 -8.93909 0 -7.57795 -8.64234 0 -4.99617 -8.4339 0 -2.48004 -8.31064 0 -0.0295453 -8.26942 0 -0.0220648 -402.66 0 20.0846 -403.5 0 40.206 -405.94 0 60.3421 -410.006 0 80.4928 -415.722 0 100.658 -423.115 0 120.838 -432.207 0 141.063 -443.027 0 161.406 -455.616 0 181.869 -470.024 0 202.45 -486.298 0 223.135 -504.489 0 243.924 -524.644 0 264.833 -546.813 0 285.97 -571.084 0 307.352 -597.588 0 328.997 -626.455 0 351.084 -657.868 0 373.661 -692.083 0 396.717 -729.36 0 420.056 -769.974 0 443.596 -814.23 0 467.337 -862.436 0 491.379 -915.034 0 515.784 -972.83 0 540.552 -1036.7 0 564.016 -1107.4 0 584.51 -1185.24 0 602.034 -1270.44 0 614.885 -1363.23 0 620.353 -1464.06 0 618.403 -1573.46 0 605.443 -1691.79 0 572.689 -1817.94 0 519.742 -1950.05 0 441.705 -2084.04 0 320.17 -2186.01 0 153.374 -2200.52 0 -45.1895 -2075.74 0 -194.557 -1853.7 0 -281.235 -1670.2 0 -314.353 -1662.42 0 -389.271 -1843.63 0 -531.351 -2055.1 0 -735.91 -2126.26 0 -899.906 -1979.69 0 -981.186 -1718.96 0 -980.457 -1468.37 0 -952.927 -1310.63 0 -933.275 -1213.56 0 -921.503 -1125.31 0 -905.172 -1007.02 0 -871.847 -871.847 0 -821.526 -745.979 0 -762.905 -651.08 0 -709.821 -582.495 0 -662.453 -526.041 0 -619.025 -468.917 0 -575.195 -410.454 0 -530.765 -356.23 0 -486.636 -311.501 0 -446.187 -276.459 0 -409.742 -247.645 0 -377.003 -221.608 0 -346.181 -196.919 0 -316.976 -174.173 0 -289.444 -154.042 0 -264.171 -136.722 0 -241.312 -121.755 0 -220.831 -108.635 0 -201.978 -96.9743 0 -184.445 -86.6209 0 -168.232 -77.4483 0 -153.339 -69.3301 0 -139.765 -62.1402 0 -127.512 -55.7522 0 -116.314 -50.0515 0 -105.905 -44.9696 0 -96.2866 -40.4494 0 -87.4581 -36.4341 0 -79.4197 -32.8666 0 -72.1713 -29.69 0 -65.6081 -26.8496 0 -59.4741 -24.3107 0 -53.7576 -22.049 0 -48.4586 -20.0402 0 -43.5771 -18.2598 0 -39.113 -16.6838 0 -35.0406 -15.288 0 -31.2048 -14.0547 0 -27.5797 -12.9725 0 -24.1654 -12.0304 0 -20.9617 -11.2172 0 -17.9688 -10.5218 0 -15.182 -9.93304 0 -12.4995 -9.44262 0 -9.87991 -9.0473 0 -7.32308 -8.74451 0 -4.82906 -8.53166 0 -2.39783 -8.40617 0 -0.0293983 -8.36546 0 -0.0650317 -389.719 0 18.4914 -390.512 0 37.0394 -392.827 0 55.5791 -396.687 0 74.1104 -402.112 0 92.6333 -409.123 0 111.148 -417.741 0 129.677 -427.99 0 148.275 -439.907 0 166.945 -453.54 0 185.685 -468.936 0 204.486 -486.137 0 223.349 -505.18 0 242.281 -526.105 0 261.323 -548.993 0 280.483 -573.97 0 299.77 -601.163 0 319.271 -630.743 0 339.008 -662.941 0 358.973 -697.992 0 378.977 -736.118 0 398.941 -777.512 0 418.861 -822.363 0 438.484 -870.992 0 457.647 -924.074 0 476.352 -982.344 0 493.347 -1046.4 0 507.379 -1116.26 0 518.45 -1191.82 0 524.703 -1272.99 0 523.185 -1359.85 0 513.859 -1452.55 0 493.89 -1551.02 0 456.349 -1653.29 0 400.921 -1756.47 0 331.839 -1856.3 0 265.018 -1930.82 0 201.981 -1945.24 0 134.335 -1867.11 0 11.7164 -1723.67 0 -174.267 -1601.87 0 -413.001 -1589.5 0 -593.606 -1695 0 -686.593 -1816.66 0 -695.587 -1845.19 0 -700.312 -1730.94 0 -733.382 -1540.2 0 -794.279 -1352.52 0 -842.658 -1221.28 0 -853.174 -1127.52 0 -825.825 -1039.92 0 -782.723 -935.107 0 -745.979 -821.526 0 -715.594 -715.594 0 -686.537 -630.909 0 -650.803 -564.643 0 -608.288 -508.025 0 -562.129 -453.124 0 -519.99 -399.411 0 -482.218 -350.171 0 -448.124 -308.49 0 -415.111 -274.316 0 -382.932 -245.339 0 -351.758 -219.254 0 -322.627 -195.059 0 -295.71 -173.054 0 -270.987 -153.59 0 -248.247 -136.701 0 -227.433 -121.984 0 -208.523 -109.003 0 -191.016 -97.4243 0 -174.707 -87.1094 0 -159.598 -77.9419 0 -145.687 -69.8057 0 -132.976 -62.5845 0 -121.463 -56.162 0 -110.915 -50.4318 0 -101.1 -45.3256 0 -92.017 -40.7852 0 -83.6661 -36.7519 0 -76.0474 -33.1674 0 -69.1608 -29.9732 0 -62.9112 -27.1134 0 -57.0659 -24.5534 0 -51.6143 -22.2697 0 -46.5563 -20.239 0 -41.8921 -18.4379 0 -37.6215 -16.843 0 -33.7203 -15.4311 0 -30.0427 -14.1848 0 -26.5644 -13.0922 0 -23.2855 -12.1416 0 -20.2058 -11.3214 0 -17.3255 -10.6199 0 -14.6402 -10.0256 0 -12.0543 -9.52971 0 -9.5288 -9.12941 0 -7.06372 -8.82243 0 -4.65903 -8.60651 0 -2.31475 -8.4794 0 -0.030866 -8.43885 0 -0.0972359 -376.351 0 16.9838 -377.094 0 34.0377 -379.284 0 51.0645 -382.938 0 68.0641 -388.07 0 85.0366 -394.699 0 101.982 -402.839 0 118.916 -412.511 0 135.877 -423.745 0 152.866 -436.582 0 169.883 -451.06 0 186.925 -467.218 0 203.993 -485.09 0 221.081 -504.712 0 238.164 -526.166 0 255.239 -549.576 0 272.306 -575.067 0 289.397 -602.788 0 306.517 -632.914 0 323.661 -665.624 0 340.666 -701.085 0 357.465 -739.447 0 374.052 -780.856 0 389.903 -825.535 0 404.688 -873.931 0 418.408 -926.524 0 430.154 -983.707 0 439.022 -1045.52 0 445.011 -1111.9 0 446.319 -1182.74 0 440.075 -1257.61 0 426.243 -1335.99 0 402.95 -1417.05 0 365.621 -1497.81 0 314.047 -1574.11 0 254.498 -1642.09 0 210.55 -1702.25 0 184.458 -1758.17 0 162.316 -1813.01 0 60.6793 -1858.48 0 -134.36 -1874.82 0 -407.548 -1842.22 0 -599.556 -1759.44 0 -668.011 -1651.04 0 -618.593 -1543.41 0 -576.269 -1450.75 0 -592.164 -1363.59 0 -665.458 -1269.78 0 -732.329 -1162.5 0 -752.684 -1049.66 0 -726.522 -941.688 0 -682.951 -846.629 0 -651.08 -762.905 0 -630.909 -686.537 0 -614.187 -614.187 0 -587.782 -546.249 0 -551.526 -484.471 0 -509.607 -430.368 0 -472.266 -383.443 0 -439.968 -342.16 0 -411.674 -305.036 0 -383.481 -271.418 0 -355.013 -241.255 0 -326.579 -214.501 0 -300.011 -190.947 0 -275.618 -170.222 0 -253.355 -151.947 0 -232.785 -135.786 0 -213.791 -121.461 0 -196.357 -108.697 0 -180.148 -97.2728 0 -165.025 -87.0687 0 -150.99 -77.9765 0 -138.041 -69.8879 0 -126.179 -62.6947 0 -115.404 -56.2888 0 -105.509 -50.5703 0 -96.2875 -45.4725 0 -87.7399 -40.9373 0 -79.8659 -36.9064 0 -72.6656 -33.3214 0 -66.139 -30.1241 0 -60.2008 -27.2588 0 -54.6427 -24.6913 0 -49.4553 -22.3988 0 -44.6385 -20.3585 0 -40.1923 -18.5476 0 -36.1167 -16.9434 0 -32.3889 -15.5232 0 -28.8715 -14.2699 0 -25.5417 -13.1712 0 -22.3994 -12.2155 0 -19.4447 -11.3909 0 -16.6775 -10.6855 0 -14.0939 -10.0877 0 -11.6049 -9.58857 0 -9.17405 -9.18542 0 -6.80147 -8.87608 0 -4.48711 -8.65842 0 -2.23098 -8.53031 0 -0.0330809 -8.48961 0 -0.115784 -362.555 0 15.5636 -363.248 0 31.2018 -365.311 0 46.799 -368.757 0 62.3551 -373.596 0 77.8701 -379.841 0 93.3441 -387.502 0 108.786 -396.592 0 124.218 -407.138 0 139.642 -419.177 0 155.057 -432.743 0 170.463 -447.87 0 185.859 -464.592 0 201.232 -482.945 0 216.489 -503.001 0 231.618 -524.872 0 246.617 -548.671 0 261.493 -574.515 0 276.245 -602.534 0 290.868 -632.857 0 305.212 -665.611 0 319.215 -700.927 0 332.869 -738.934 0 345.508 -779.793 0 356.714 -823.746 0 366.487 -871.053 0 374.123 -921.922 0 378.92 -976.372 0 380.877 -1034.37 0 378.47 -1095.78 0 369.271 -1159.89 0 353.248 -1225.74 0 329.509 -1292.19 0 295.873 -1356.12 0 252.24 -1413.41 0 201.322 -1460.96 0 153.315 -1509.28 0 109.195 -1578.72 0 62.9605 -1688 0 -21.407 -1813.59 0 -149.91 -1889.7 0 -315.15 -1850.02 0 -439.863 -1689.15 0 -503.497 -1486.07 0 -508.64 -1325.68 0 -512.151 -1249.54 0 -537.294 -1215.16 0 -583.701 -1170.39 0 -622.83 -1082.02 0 -636.747 -969.138 0 -625.454 -859.806 0 -602.765 -775.299 0 -582.495 -709.821 0 -564.643 -650.803 0 -546.249 -587.782 0 -522.596 -522.596 0 -493.624 -461.533 0 -461.46 -410.196 0 -431.305 -368.151 0 -403.397 -331.861 0 -377.359 -297.948 0 -351.784 -265.57 0 -326.536 -235.712 0 -301.773 -209.363 0 -278.45 -186.685 0 -256.725 -167.015 0 -236.582 -149.654 0 -217.84 -134.116 0 -200.452 -120.196 0 -184.407 -107.716 0 -169.448 -96.5197 0 -155.471 -86.499 0 -142.476 -77.552 0 -130.463 -69.5767 0 -119.431 -62.4709 0 -109.381 -56.1325 0 -100.131 -50.467 0 -91.4962 -45.4102 0 -83.4778 -40.9059 0 -76.0756 -36.8975 0 -69.2896 -33.3285 0 -63.1198 -30.1426 0 -57.4907 -27.2857 0 -52.218 -24.7244 0 -47.2933 -22.4362 0 -42.7167 -20.3986 0 -38.488 -18.589 0 -34.6074 -16.985 0 -31.0532 -15.5643 0 -27.6963 -14.3098 0 -24.5153 -13.2096 0 -21.51 -12.2521 0 -18.6806 -11.4256 0 -16.0269 -10.7186 0 -13.5453 -10.1193 0 -11.1535 -9.61919 0 -8.8177 -9.21532 0 -6.53797 -8.90547 0 -4.31431 -8.68742 0 -2.14671 -8.55891 0 -0.0351752 -8.51774 0 -0.117784 -348.332 0 14.2321 -348.971 0 28.5324 -350.907 0 42.7831 -354.145 0 56.9843 -358.691 0 71.1359 -364.55 0 85.238 -371.728 0 99.2924 -380.232 0 113.304 -390.087 0 127.272 -401.327 0 141.198 -413.985 0 155.081 -428.095 0 168.921 -443.691 0 182.695 -460.807 0 196.262 -479.503 0 209.6 -499.866 0 222.707 -521.979 0 235.585 -545.932 0 248.233 -571.809 0 260.643 -599.698 0 272.649 -629.704 0 284.181 -661.962 0 295.231 -696.612 0 305.117 -733.779 0 313.409 -773.537 0 320.108 -815.953 0 324.61 -861.076 0 326.311 -908.873 0 325.21 -959.292 0 320.157 -1012.17 0 309.318 -1066.7 0 292.668 -1121.85 0 270.033 -1176.45 0 240.983 -1228.26 0 205.499 -1274.52 0 161.745 -1313.15 0 102.821 -1352.01 0 28.0662 -1406.1 0 -57.9719 -1489.19 0 -128.013 -1583.32 0 -177.511 -1638.8 0 -209.346 -1605.6 0 -253.601 -1479.67 0 -318.277 -1320.83 0 -401.846 -1193.33 0 -470.717 -1128.75 0 -511.145 -1095.25 0 -523.363 -1053.7 0 -525.52 -979.151 0 -529.016 -885.828 0 -533.849 -794.653 0 -534.649 -721.551 0 -526.041 -662.453 0 -508.025 -608.288 0 -484.471 -551.526 0 -461.533 -493.624 0 -439.292 -439.292 0 -417.238 -392.729 0 -394.125 -353.606 0 -369.896 -319.269 0 -345.033 -287.186 0 -321.344 -256.744 0 -299.002 -228.713 0 -277.954 -203.864 0 -257.874 -182.3 0 -238.706 -163.45 0 -220.472 -146.72 0 -203.374 -131.692 0 -187.468 -118.191 0 -172.744 -106.061 0 -158.989 -95.1651 0 -146.116 -85.4001 0 -134.124 -76.6685 0 -123.015 -68.8722 0 -112.787 -61.913 0 -103.442 -55.6931 0 -94.8176 -50.1219 0 -86.7549 -45.1388 0 -79.2535 -40.6909 0 -72.3134 -36.7252 0 -65.9346 -33.1889 0 -60.1172 -30.0288 0 -54.7948 -27.1941 0 -49.8052 -24.6527 0 -45.1412 -22.382 0 -40.8027 -20.3593 0 -36.7897 -18.5621 0 -33.1021 -16.9678 0 -29.72 -15.5543 0 -26.5224 -14.3045 0 -23.4891 -13.2073 0 -20.6203 -12.2513 0 -17.9158 -11.4256 0 -15.3758 -10.7191 0 -12.9967 -10.1205 0 -10.7024 -9.62157 0 -8.46176 -9.21912 0 -6.27485 -8.91061 0 -4.14163 -8.69348 0 -2.06211 -8.56521 0 -0.0362813 -8.52323 0 -0.101004 -333.843 0 12.9904 -334.429 0 26.0297 -336.237 0 39.0169 -339.268 0 51.952 -343.521 0 64.8349 -348.997 0 77.6658 -355.694 0 90.4376 -363.616 0 103.133 -372.784 0 115.753 -383.234 0 128.295 -394.999 0 140.761 -408.113 0 153.15 -422.609 0 165.434 -438.524 0 177.447 -455.899 0 189.161 -474.786 0 200.576 -495.24 0 211.692 -517.311 0 222.509 -541.053 0 233.017 -566.519 0 242.991 -593.796 0 252.337 -623.041 0 261.05 -654.417 0 268.547 -688.03 0 274.463 -723.823 0 278.799 -761.714 0 280.981 -801.616 0 280.44 -843.431 0 277.173 -887.06 0 270.379 -932.309 0 258.777 -978.451 0 242.351 -1024.56 0 221.14 -1069.73 0 195.238 -1113.1 0 164.651 -1153.84 0 126.135 -1191.04 0 67.4933 -1222.38 0 -12.4416 -1244.56 0 -105.597 -1254.4 0 -163.539 -1251.74 0 -178.194 -1239.48 0 -156.099 -1220.56 0 -165.529 -1195.65 0 -224.642 -1162.16 0 -330.495 -1117.29 0 -418.373 -1060.72 0 -461.799 -996.909 0 -461.207 -930.855 0 -450.373 -866.241 0 -450.513 -803.086 0 -461.628 -740.78 0 -471.752 -679.058 0 -468.917 -619.025 0 -453.124 -562.129 0 -430.368 -509.607 0 -410.196 -461.46 0 -392.729 -417.238 0 -376.522 -376.522 0 -358.042 -339.113 0 -337.128 -304.931 0 -314.574 -273.891 0 -293.361 -245.842 0 -273.776 -220.584 0 -255.678 -197.916 0 -238.222 -177.619 0 -221.267 -159.459 0 -204.851 -143.2 0 -189.358 -128.63 0 -174.889 -115.571 0 -161.438 -103.848 0 -148.84 -93.3117 0 -137.027 -83.8602 0 -126 -75.3988 0 -115.757 -67.8325 0 -106.3 -61.0663 0 -97.6284 -55.005 0 -89.6046 -49.5614 0 -82.0914 -44.6793 0 -75.0889 -40.3102 0 -68.5969 -36.4057 0 -62.6156 -32.9173 0 -57.145 -29.7966 0 -52.1265 -26.997 0 -47.4174 -24.4875 0 -43.0111 -22.2453 0 -38.9077 -20.2478 0 -35.1071 -18.4722 0 -31.6094 -16.8957 0 -28.3959 -15.4959 0 -25.3546 -14.2563 0 -22.467 -13.1662 0 -19.7331 -12.2152 0 -17.1528 -11.393 0 -14.7262 -10.6891 0 -12.45 -10.0933 0 -10.2536 -9.59757 0 -8.10817 -9.19833 0 -6.01365 -8.89264 0 -3.97005 -8.67752 0 -1.97738 -8.55001 0 -0.0356311 -8.50711 0 -0.0689861 -319.479 0 11.836 -320.016 0 23.6913 -321.702 0 35.4969 -324.53 0 47.2527 -328.498 0 58.9588 -333.6 0 70.6152 -339.832 0 82.2048 -347.193 0 93.6861 -355.704 0 105.057 -365.397 0 116.318 -376.305 0 127.469 -388.461 0 138.509 -401.898 0 149.411 -416.648 0 160.003 -432.74 0 170.259 -450.2 0 180.177 -469.053 0 189.757 -489.324 0 199 -511.039 0 207.892 -534.223 0 216.118 -558.946 0 223.552 -585.362 0 230.188 -613.638 0 235.628 -643.856 0 239.622 -675.878 0 242.169 -709.528 0 242.692 -744.636 0 240.611 -781.055 0 235.927 -818.646 0 228.116 -857.198 0 216.343 -896.083 0 200.598 -934.523 0 180.749 -971.806 0 156.475 -1007.79 0 127.761 -1042.63 0 93.0071 -1075.98 0 46.2007 -1100.64 0 -13.2344 -1104.47 0 -80.6838 -1076.11 0 -128.462 -1024.43 0 -151.955 -978.513 0 -154.764 -967.758 0 -174.5 -995.103 0 -221.167 -1026.78 0 -293.094 -1026.5 0 -353.541 -977.857 0 -387.478 -903.149 0 -395.145 -829.093 0 -395.146 -773.435 0 -399.17 -729.125 0 -407.218 -684.869 0 -413.056 -632.354 0 -410.454 -575.195 0 -399.411 -519.99 0 -383.443 -472.266 0 -368.151 -431.305 0 -353.606 -394.125 0 -339.113 -358.042 0 -322.973 -322.973 0 -305.11 -290.18 0 -286.079 -260.85 0 -267.966 -235.069 0 -250.971 -212.123 0 -235.003 -191.299 0 -219.517 -172.225 0 -204.42 -154.872 0 -189.745 -139.226 0 -175.828 -125.206 0 -162.759 -112.644 0 -150.531 -101.362 0 -139.04 -91.2109 0 -128.241 -82.0944 0 -118.133 -73.9212 0 -108.719 -66.6004 0 -99.9957 -60.041 0 -91.9651 -54.1519 0 -84.5127 -48.8502 0 -77.5245 -44.0835 0 -71.0007 -39.8075 0 -64.9411 -35.978 0 -59.3458 -32.5504 0 -54.2147 -29.4806 0 -49.4962 -26.7256 0 -45.0635 -24.2559 0 -40.911 -22.0489 0 -37.0387 -20.082 0 -33.4465 -18.3325 0 -30.1345 -16.778 0 -27.0856 -15.3959 0 -24.1973 -14.1702 0 -21.4527 -13.0909 0 -18.8516 -12.1482 0 -16.3942 -11.3325 0 -14.0804 -10.634 0 -11.9072 -10.0429 0 -9.80873 -9.55175 0 -7.75806 -9.15666 0 -5.75519 -8.8544 0 -3.80011 -8.6417 0 -1.89282 -8.5153 0 -0.0333218 -8.47192 0 -0.0282434 -305.258 0 10.7645 -305.753 0 21.5132 -307.319 0 32.2177 -309.949 0 42.8782 -313.638 0 53.4946 -318.377 0 64.0669 -324.161 0 74.5676 -330.985 0 84.9297 -338.868 0 95.15 -347.839 0 105.229 -357.928 0 115.166 -369.166 0 124.961 -381.581 0 134.588 -395.205 0 143.889 -410.053 0 152.839 -426.132 0 161.437 -443.447 0 169.683 -462.001 0 177.576 -481.801 0 185.1 -502.851 0 191.843 -525.2 0 197.637 -548.98 0 202.481 -574.333 0 206.192 -601.317 0 208.656 -629.76 0 209.873 -659.451 0 209.242 -690.186 0 206.162 -721.79 0 200.633 -754.094 0 192.34 -786.881 0 180.78 -819.64 0 165.947 -851.754 0 147.455 -882.656 0 124.359 -912.206 0 96.6155 -940.482 0 65.0686 -967.131 0 32.8884 -985.905 0 0.378372 -986.308 0 -33.2506 -958.532 0 -72.7333 -910.716 0 -118.859 -868.951 0 -170.4 -859.584 0 -214.542 -885.21 0 -247.874 -915.468 0 -270.759 -917.717 0 -291.126 -877.082 0 -312.22 -813.197 0 -333.976 -749.65 0 -351.31 -702.103 0 -361.026 -664.32 0 -363.127 -626.315 0 -360.549 -580.736 0 -356.23 -530.765 0 -350.171 -482.218 0 -342.16 -439.968 0 -331.861 -403.397 0 -319.269 -369.896 0 -304.931 -337.128 0 -290.18 -305.11 0 -275.077 -275.077 0 -259.759 -248.191 0 -244.736 -224.525 0 -230.057 -203.368 0 -215.733 -184.005 0 -201.821 -166.098 0 -188.33 -149.682 0 -175.28 -134.805 0 -162.859 -121.435 0 -151.116 -109.423 0 -140.051 -98.6139 0 -129.611 -88.8739 0 -119.774 -80.1124 0 -110.541 -72.2437 0 -101.912 -65.1822 0 -93.8862 -58.8421 0 -86.4645 -53.1378 0 -79.5555 -47.9911 0 -73.0682 -43.3537 0 -67.0028 -39.1849 0 -61.359 -35.4439 0 -56.1371 -32.0899 0 -51.3369 -29.0822 0 -46.9123 -26.3814 0 -42.7506 -23.9593 0 -38.8467 -21.7937 0 -35.2005 -19.8626 0 -31.812 -18.1438 0 -28.6813 -16.615 0 -25.7929 -15.2545 0 -23.0541 -14.0465 0 -20.4495 -12.9816 0 -17.979 -12.0507 0 -15.6427 -11.2445 0 -13.4406 -10.5538 0 -11.3699 -9.96954 0 -9.3688 -9.4843 0 -7.41215 -9.09426 0 -5.49994 -8.79602 0 -3.63216 -8.58613 0 -1.80881 -8.46119 0 -0.0298963 -8.41777 0 0.0146871 -291.181 0 9.77133 -291.638 0 19.4911 -293.089 0 29.174 -295.526 0 38.8199 -298.942 0 48.429 -303.33 0 58.0012 -308.681 0 67.4992 -314.991 0 76.8318 -322.275 0 85.9947 -330.559 0 94.9881 -339.867 0 103.812 -350.225 0 112.466 -361.659 0 120.928 -374.194 0 129.064 -387.838 0 136.849 -402.583 0 144.285 -418.421 0 151.372 -435.342 0 158.109 -453.339 0 164.475 -472.404 0 169.973 -492.561 0 174.402 -513.901 0 177.762 -536.523 0 180.069 -560.457 0 181.336 -585.539 0 181.56 -611.576 0 180.129 -638.374 0 176.428 -665.742 0 170.456 -693.491 0 162.035 -721.402 0 150.875 -749.084 0 136.973 -776.082 0 119.888 -801.924 0 98.5387 -825.957 0 72.8751 -847.439 0 44.8436 -865.603 0 21.7609 -879.343 0 4.32756 -887.309 0 -10.8113 -888.219 0 -43.7856 -882.458 0 -97.9501 -872.08 0 -169.819 -859.172 0 -222.99 -844.086 0 -247.779 -824.769 0 -245.508 -799 0 -245.216 -766.086 0 -258.786 -728.299 0 -286.008 -688.248 0 -310.728 -647.914 0 -322.794 -607.534 0 -322.207 -567.049 0 -316.073 -526.536 0 -311.501 -486.636 0 -308.49 -448.124 0 -305.036 -411.674 0 -297.948 -377.359 0 -287.186 -345.033 0 -273.891 -314.574 0 -260.85 -286.079 0 -248.191 -259.759 0 -235.801 -235.801 0 -223.259 -214.093 0 -210.524 -194.303 0 -197.676 -176.102 0 -185.195 -159.32 0 -173.16 -143.941 0 -161.579 -129.96 0 -150.52 -117.321 0 -140.002 -105.909 0 -130.025 -95.6052 0 -120.574 -86.3009 0 -111.645 -77.9144 0 -103.237 -70.3665 0 -95.3498 -63.578 0 -87.984 -57.4698 0 -81.1394 -51.9626 0 -74.7467 -46.9842 0 -68.7366 -42.49 0 -63.109 -38.4422 0 -57.8641 -34.8034 0 -53.0017 -31.5357 0 -48.5219 -28.6015 0 -44.3835 -25.9643 0 -40.4856 -23.5975 0 -36.8237 -21.4798 0 -33.3977 -19.5897 0 -30.2077 -17.9059 0 -27.2536 -16.4069 0 -24.5217 -15.0717 0 -21.9288 -13.8852 0 -19.4611 -12.8384 0 -17.1186 -11.9226 0 -14.9013 -11.1289 0 -12.8093 -10.4487 0 -10.8398 -9.87313 0 -8.93497 -9.39522 0 -7.07116 -9.01116 0 -5.24835 -8.71749 0 -3.46654 -8.51081 0 -1.72572 -8.38767 0 -0.0259013 -8.34465 0 0.0532678 -277.247 0 8.85206 -277.672 0 17.621 -279.012 0 26.3602 -281.261 0 35.0695 -284.411 0 43.749 -288.457 0 52.3987 -293.392 0 60.9729 -299.212 0 69.36 -305.927 0 77.5549 -313.557 0 85.5577 -322.121 0 93.3682 -331.64 0 100.987 -342.132 0 108.395 -353.616 0 115.484 -366.094 0 122.236 -379.552 0 128.651 -393.975 0 134.729 -409.347 0 140.47 -425.654 0 145.848 -442.881 0 150.31 -461.031 0 153.629 -480.151 0 155.807 -500.287 0 157.013 -521.441 0 157.353 -543.482 0 156.827 -566.257 0 154.835 -589.603 0 150.776 -613.31 0 144.65 -637.161 0 136.352 -660.922 0 125.713 -684.269 0 112.731 -706.849 0 97.1303 -728.251 0 78.2389 -747.574 0 56.0262 -763.665 0 31.8902 -775.587 0 11.0876 -785.352 0 -5.87851 -797.097 0 -21.3458 -814.657 0 -49.3417 -833.825 0 -92.2039 -842.353 0 -147.467 -827.894 0 -189.38 -789.444 0 -211.094 -741.741 0 -213.532 -700.617 0 -216.974 -673.775 0 -229.717 -653.132 0 -251.617 -628.799 0 -271.303 -594.581 0 -281.635 -554.502 0 -282.613 -514.336 0 -279.224 -478.525 0 -276.459 -446.187 0 -274.316 -415.111 0 -271.418 -383.481 0 -265.57 -351.784 0 -256.744 -321.344 0 -245.842 -293.361 0 -235.069 -267.966 0 -224.525 -244.736 0 -214.093 -223.259 0 -203.326 -203.326 0 -192.184 -184.876 0 -180.764 -167.85 0 -169.66 -152.191 0 -158.971 -137.848 0 -148.699 -124.769 0 -138.857 -112.885 0 -129.451 -102.105 0 -120.481 -92.3355 0 -111.954 -83.4917 0 -103.872 -75.5002 0 -96.2359 -68.2893 0 -89.0457 -61.7878 0 -82.3013 -55.9239 0 -76.0026 -50.6263 0 -70.0999 -45.8295 0 -64.5435 -41.4923 0 -59.3334 -37.5796 0 -54.4695 -34.0565 0 -49.9518 -30.8878 0 -45.7804 -28.0385 0 -41.9184 -25.4744 0 -38.2756 -23.1708 0 -34.8478 -21.1071 0 -31.6352 -19.2632 0 -28.6377 -17.6188 0 -25.8553 -16.1536 0 -23.2757 -14.8475 0 -20.825 -13.6863 0 -18.4909 -12.6612 0 -16.2735 -11.7639 0 -14.1727 -10.9858 0 -12.1885 -10.3185 0 -10.3185 -9.75371 0 -8.50835 -9.28453 0 -6.7358 -8.90733 0 -5.00088 -8.61883 0 -3.30359 -8.41573 0 -1.64392 -8.29474 0 -0.0218832 -8.25258 0 0.0809615 -263.456 0 8.00224 -263.855 0 15.8989 -265.088 0 23.771 -267.152 0 31.6186 -270.044 0 39.4415 -273.759 0 47.2399 -278.294 0 54.9621 -283.646 0 62.4821 -289.822 0 69.7942 -296.833 0 76.8984 -304.692 0 83.7947 -313.41 0 90.4831 -322.999 0 96.9493 -333.47 0 103.108 -344.822 0 108.946 -357.04 0 114.461 -370.11 0 119.656 -384.017 0 124.528 -398.745 0 129.053 -414.282 0 132.651 -430.613 0 135.084 -447.732 0 136.356 -465.632 0 136.723 -484.286 0 136.348 -503.614 0 135.23 -523.528 0 132.825 -543.91 0 128.591 -564.532 0 122.528 -585.135 0 114.567 -605.455 0 104.598 -625.182 0 92.6199 -643.992 0 78.5847 -661.509 0 62.3763 -676.917 0 43.9895 -689.175 0 23.6294 -697.483 0 2.06744 -704.352 0 -20.6224 -714.677 0 -44.3423 -733.008 0 -68.5053 -754.682 0 -93.0137 -765.834 0 -117.704 -752.476 0 -140.866 -713.403 0 -162.047 -665.147 0 -181.237 -625.469 0 -198.243 -602.916 0 -212.985 -588.145 0 -225.459 -569.76 0 -235.291 -540.543 0 -242.246 -504.815 0 -246.323 -468.873 0 -247.973 -437.54 0 -247.645 -409.742 0 -245.339 -382.932 0 -241.255 -355.013 0 -235.712 -326.536 0 -228.713 -299.002 0 -220.584 -273.776 0 -212.123 -250.971 0 -203.368 -230.057 0 -194.303 -210.524 0 -184.876 -192.184 0 -175.084 -175.084 0 -165.015 -159.273 0 -155.208 -144.742 0 -145.752 -131.422 0 -136.647 -119.242 0 -127.895 -108.129 0 -119.494 -98.0087 0 -111.447 -88.8049 0 -103.77 -80.4465 0 -96.4724 -72.8699 0 -89.5532 -66.0124 0 -83.0125 -59.8115 0 -76.8504 -54.2045 0 -71.0669 -49.1289 0 -65.6289 -44.5269 0 -60.5031 -40.3606 0 -55.6896 -36.5971 0 -51.1884 -33.2033 0 -46.9994 -30.1463 0 -43.1227 -27.3931 0 -39.5255 -24.9118 0 -36.1274 -22.6789 0 -32.9248 -20.6757 0 -29.9177 -18.8832 0 -27.1062 -17.2826 0 -24.4901 -15.8551 0 -22.0587 -14.582 0 -19.7465 -13.4498 0 -17.5426 -12.4501 0 -15.447 -11.5746 0 -13.4597 -10.8151 0 -11.5808 -10.1634 0 -9.80779 -9.61128 0 -8.09006 -9.15221 0 -6.40679 -8.78279 0 -4.75799 -8.50002 0 -3.14366 -8.30089 0 -1.56379 -8.1824 0 -0.0183888 -8.14153 0 0.0914749 -249.842 0 7.21742 -250.218 0 14.3206 -251.349 0 21.4009 -253.235 0 28.4584 -255.876 0 35.4931 -259.272 0 42.5051 -263.424 0 49.44 -268.332 0 56.1658 -273.998 0 62.6763 -280.425 0 68.9717 -287.616 0 75.0517 -295.574 0 80.9166 -304.301 0 86.5544 -313.801 0 91.8943 -324.07 0 96.9245 -335.1 0 101.645 -346.883 0 106.056 -359.41 0 110.157 -372.673 0 113.923 -386.662 0 116.791 -401.351 0 118.531 -416.681 0 119.147 -432.585 0 118.902 -449.012 0 117.964 -465.946 0 116.331 -483.374 0 113.576 -501.239 0 109.271 -519.29 0 103.417 -537.23 0 95.9657 -554.754 0 86.8432 -571.525 0 76.0481 -587.194 0 63.6594 -601.399 0 49.8695 -613.683 0 34.6874 -623.542 0 17.4864 -630.558 0 -4.0894 -635.55 0 -30.2655 -640.224 0 -59.2565 -646.163 0 -80.3495 -651.698 0 -91.7592 -651.902 0 -94.9069 -641.806 0 -104.638 -620.971 0 -124.902 -595.238 0 -155.052 -570.885 0 -180.877 -551.025 0 -196.563 -532.621 0 -202.201 -511.931 0 -204.958 -486.665 0 -209.333 -458.544 0 -215.327 -429.975 0 -220.299 -402.849 0 -221.608 -377.003 0 -219.254 -351.758 0 -214.501 -326.579 0 -209.363 -301.773 0 -203.864 -277.954 0 -197.916 -255.678 0 -191.299 -235.003 0 -184.005 -215.733 0 -176.102 -197.676 0 -167.85 -180.764 0 -159.273 -165.015 0 -150.448 -150.448 0 -141.828 -137.039 0 -133.49 -124.724 0 -125.432 -113.434 0 -117.656 -103.102 0 -110.161 -93.6627 0 -102.949 -85.0474 0 -96.046 -77.1938 0 -89.464 -70.048 0 -83.203 -63.5573 0 -77.2627 -57.6687 0 -71.6434 -52.3295 0 -66.3449 -47.4867 0 -61.3469 -43.0911 0 -56.629 -39.1078 0 -52.1913 -35.5055 0 -48.0338 -32.2529 0 -44.1564 -29.3187 0 -40.5592 -26.6717 0 -37.2132 -24.2815 0 -34.048 -22.1264 0 -31.0602 -20.1894 0 -28.25 -18.4531 0 -25.6172 -16.9005 0 -23.162 -15.5144 0 -20.8746 -14.2778 0 -18.697 -13.1781 0 -16.6196 -12.207 0 -14.6423 -11.3564 0 -12.7652 -10.6183 0 -10.9882 -9.98448 0 -9.30925 -9.44691 0 -7.68122 -8.99924 0 -6.08485 -8.63847 0 -4.52014 -8.36201 0 -2.98709 -8.16725 0 -1.48569 -8.05157 0 -0.0159465 -8.01238 0 0.0841334 -236.603 0 6.49409 -236.957 0 12.8793 -237.992 0 19.2397 -239.71 0 25.5754 -242.116 0 31.8863 -245.212 0 38.1725 -249.003 0 44.3806 -253.492 0 50.3803 -258.676 0 56.1658 -264.55 0 61.737 -271.111 0 67.0939 -278.353 0 72.2366 -286.273 0 77.1538 -294.866 0 81.7783 -304.128 0 86.0989 -314.055 0 90.1157 -324.644 0 93.8286 -335.891 0 97.2377 -347.794 0 100.32 -360.348 0 102.568 -373.517 0 103.774 -387.205 0 103.942 -401.306 0 103.275 -415.748 0 101.902 -430.543 0 99.8217 -445.718 0 96.7639 -461.246 0 92.4565 -476.888 0 86.8996 -492.35 0 80.0641 -507.334 0 71.9041 -521.514 0 62.4188 -534.554 0 51.6726 -546.133 0 39.8226 -556.058 0 26.8761 -564.201 0 12.0786 -570.408 0 -7.40568 -574.18 0 -31.8484 -574.767 0 -59.2679 -571.472 0 -77.775 -564.873 0 -85.3881 -556.827 0 -83.7188 -549.21 0 -89.5982 -542.183 0 -107.502 -533.527 0 -136.722 -520.861 0 -161.646 -503.198 0 -175.887 -482.264 0 -179.549 -460.098 0 -180.605 -438.129 0 -184.065 -416.117 0 -189.929 -393.532 0 -195.209 -370.052 0 -196.919 -346.181 0 -195.059 -322.627 0 -190.947 -300.011 0 -186.685 -278.45 0 -182.3 -257.874 0 -177.619 -238.222 0 -172.225 -219.517 0 -166.098 -201.821 0 -159.32 -185.195 0 -152.191 -169.66 0 -144.742 -155.208 0 -137.039 -141.828 0 -129.487 -129.487 0 -122.152 -118.125 0 -115.035 -107.682 0 -108.135 -98.0976 0 -101.453 -89.3127 0 -94.9901 -81.2669 0 -88.7843 -73.9052 0 -82.851 -67.1823 0 -77.1902 -61.0542 0 -71.8019 -55.4768 0 -66.6861 -50.4058 0 -61.8428 -45.7973 0 -57.2606 -41.6096 0 -52.9281 -37.8106 0 -48.8453 -34.3709 0 -45.0123 -31.2609 0 -41.4289 -28.4511 0 -38.0953 -25.912 0 -34.9866 -23.615 0 -32.0417 -21.5401 0 -29.258 -19.6717 0 -26.6354 -17.9941 0 -24.1739 -16.492 0 -21.8736 -15.1495 0 -19.7259 -13.9514 0 -17.6789 -12.8858 0 -15.724 -11.9447 0 -13.8613 -11.1202 0 -12.0907 -10.4043 0 -10.4123 -9.78919 0 -8.82405 -9.26694 0 -7.28273 -8.83144 0 -5.77065 -8.48003 0 -4.2878 -8.21045 0 -2.83419 -8.02046 0 -1.40981 -7.90781 0 -0.0146699 -7.87023 0 0.0638805 -223.774 0 5.82959 -224.104 0 11.566 -225.047 0 17.273 -226.61 0 22.9507 -228.798 0 28.5991 -231.616 0 34.2182 -235.069 0 39.758 -239.163 0 45.0964 -243.891 0 50.228 -249.245 0 55.1528 -255.214 0 59.8706 -261.788 0 64.3816 -268.957 0 68.6739 -276.711 0 72.676 -285.045 0 76.376 -293.958 0 79.774 -303.451 0 82.87 -313.521 0 85.6639 -324.169 0 88.1363 -335.393 0 89.8583 -347.155 0 90.6544 -359.339 0 90.5262 -371.823 0 89.5916 -384.515 0 87.9248 -397.417 0 85.5257 -410.545 0 82.2704 -423.874 0 78.035 -437.209 0 72.8196 -450.313 0 66.6092 -462.947 0 59.3797 -474.85 0 51.1309 -485.755 0 41.8537 -495.414 0 31.5255 -503.74 0 20.1453 -510.726 0 7.21527 -516.299 0 -9.13688 -519.447 0 -29.0904 -518.481 0 -51.2795 -511.825 0 -67.51 -500.873 0 -76.4161 -489.988 0 -79.0469 -483.575 0 -86.3596 -482.045 0 -101.268 -480.266 0 -123.308 -472.726 0 -142.235 -456.949 0 -153.86 -436.359 0 -158.249 -415.059 0 -160.57 -395.799 0 -164.069 -377.603 0 -168.748 -358.859 0 -172.738 -338.415 0 -174.173 -316.976 0 -173.054 -295.71 0 -170.222 -275.618 0 -167.015 -256.725 0 -163.45 -238.706 0 -159.459 -221.267 0 -154.872 -204.42 0 -149.682 -188.33 0 -143.941 -173.16 0 -137.848 -158.971 0 -131.422 -145.752 0 -124.724 -133.49 0 -118.125 -122.152 0 -111.687 -111.687 0 -105.41 -102.042 0 -99.2949 -93.1634 0 -93.3407 -84.9996 0 -87.5498 -77.4974 0 -81.9712 -70.6093 0 -76.6247 -64.2973 0 -71.5105 -58.5248 0 -66.6284 -53.2551 0 -61.9785 -48.4514 0 -57.5609 -44.0771 0 -53.3699 -40.097 0 -49.4 -36.4819 0 -45.6513 -33.2042 0 -42.1238 -30.2365 0 -38.8174 -27.551 0 -35.7321 -25.1202 0 -32.847 -22.9174 0 -30.1104 -20.9242 0 -27.5202 -19.1265 0 -25.0762 -17.5098 0 -22.7785 -16.0602 0 -20.627 -14.7634 0 -18.6141 -13.6054 0 -16.6933 -12.5753 0 -14.8569 -11.6652 0 -13.1048 -10.8675 0 -11.437 -10.1746 0 -9.85367 -9.57876 0 -8.35286 -9.07245 0 -6.89528 -8.64979 0 -5.46483 -8.30839 0 -4.0615 -8.04629 0 -2.68529 -7.86149 0 -1.33621 -7.75203 0 -0.0142576 -7.71592 0 0.0359042 -211.352 0 5.22131 -211.657 0 10.3714 -212.517 0 15.4861 -213.936 0 20.5654 -215.923 0 25.6094 -218.482 0 30.6181 -221.621 0 35.5465 -225.345 0 40.285 -229.646 0 44.8285 -234.51 0 49.1772 -239.925 0 53.3309 -245.876 0 57.2897 -252.35 0 61.0402 -259.334 0 64.502 -266.821 0 67.6619 -274.81 0 70.5197 -283.303 0 73.0755 -292.298 0 75.3292 -301.797 0 77.2654 -311.799 0 78.5403 -322.266 0 79.0136 -333.083 0 78.6857 -344.128 0 77.6042 -355.3 0 75.7988 -366.551 0 73.2695 -377.844 0 69.9819 -389.125 0 65.9015 -400.277 0 61.0283 -411.165 0 55.3564 -421.652 0 48.8763 -431.592 0 41.5878 -440.834 0 33.4355 -449.228 0 24.2838 -456.65 0 14.1264 -462.986 0 2.76042 -468.076 0 -10.577 -471.135 0 -25.9589 -470.926 0 -42.7133 -466.292 0 -56.8086 -458.125 0 -67.5728 -449.368 0 -75.4327 -442.995 0 -84.8476 -439.343 0 -97.0034 -435.089 0 -111.7 -426.657 0 -124.524 -412.473 0 -133.672 -394.852 0 -139.17 -376.552 0 -143.121 -359.444 0 -146.845 -342.946 0 -150.342 -326.053 0 -152.959 -308.059 0 -154.042 -289.444 0 -153.59 -270.987 0 -151.947 -253.355 0 -149.654 -236.582 0 -146.72 -220.472 0 -143.2 -204.851 0 -139.226 -189.745 0 -134.805 -175.28 0 -129.96 -161.579 0 -124.769 -148.699 0 -119.242 -136.647 0 -113.434 -125.432 0 -107.682 -115.035 0 -102.042 -105.41 0 -96.5138 -96.5138 0 -91.0981 -88.2999 0 -85.7946 -80.7233 0 -80.6059 -73.7389 0 -75.5915 -67.306 0 -70.7757 -61.393 0 -66.1586 -55.9691 0 -61.7401 -51.0037 0 -57.5203 -46.4663 0 -53.499 -42.3261 0 -49.6744 -38.5533 0 -46.0444 -35.1216 0 -42.6089 -32.0056 0 -39.3681 -29.1797 0 -36.3219 -26.6184 0 -33.4703 -24.2964 0 -30.7958 -22.1889 0 -28.256 -20.279 0 -25.849 -18.5538 0 -23.5746 -17.0002 0 -21.433 -15.6053 0 -19.424 -14.3562 0 -17.5408 -13.24 0 -15.7415 -12.2465 0 -14.019 -11.3684 0 -12.3735 -10.5984 0 -10.8048 -9.92906 0 -9.31292 -9.35317 0 -7.89636 -8.86343 0 -6.51956 -8.45429 0 -5.16802 -8.12357 0 -3.84173 -7.86951 0 -2.5407 -7.69032 0 -1.26492 -7.58424 0 -0.0143903 -7.54947 0 0.00539251 -199.34 0 4.66666 -199.619 0 9.28628 -200.399 0 13.8642 -201.688 0 18.4005 -203.49 0 22.8952 -205.812 0 27.3482 -208.66 0 31.7205 -212.038 0 35.9168 -215.938 0 39.9328 -220.345 0 43.7684 -225.244 0 47.4238 -230.619 0 50.8988 -236.454 0 54.1783 -242.736 0 57.1713 -249.455 0 59.8627 -256.611 0 62.2525 -264.201 0 64.3407 -272.224 0 66.1273 -280.68 0 67.6004 -289.565 0 68.4972 -298.845 0 68.7104 -308.413 0 68.2401 -318.156 0 67.0986 -327.969 0 65.2934 -337.771 0 62.8247 -347.483 0 59.674 -357.028 0 55.8228 -366.347 0 51.2711 -375.381 0 46.0174 -384.072 0 40.0592 -392.355 0 33.3966 -400.168 0 25.9921 -407.435 0 17.7543 -413.991 0 8.67915 -419.627 0 -1.28573 -424.114 0 -12.3369 -426.97 0 -24.4932 -427.529 0 -37.4639 -425.165 0 -49.5044 -420.197 0 -60.3239 -413.899 0 -70.0324 -407.559 0 -79.7791 -401.398 0 -89.8696 -394.156 0 -100.239 -384.471 0 -109.456 -371.797 0 -116.935 -357.181 0 -122.683 -341.851 0 -127.242 -326.675 0 -130.952 -311.528 0 -133.814 -296.114 0 -135.759 -280.246 0 -136.722 -264.171 0 -136.701 -248.247 0 -135.786 -232.785 0 -134.116 -217.84 0 -131.692 -203.374 0 -128.63 -189.358 0 -125.206 -175.828 0 -121.435 -162.859 0 -117.321 -150.52 0 -112.885 -138.857 0 -108.129 -127.895 0 -103.102 -117.656 0 -98.0976 -108.135 0 -93.1634 -99.2949 0 -88.2999 -91.0981 0 -83.507 -83.507 0 -78.7848 -76.484 0 -74.1364 -69.9915 0 -69.6304 -63.9955 0 -65.2949 -58.4694 0 -61.1298 -53.3871 0 -57.1351 -48.7227 0 -53.3109 -44.4504 0 -49.6572 -40.5441 0 -46.1738 -36.9785 0 -42.8606 -33.7298 0 -39.7177 -30.7749 0 -36.745 -28.0905 0 -33.9426 -25.6535 0 -31.3104 -23.4405 0 -28.8344 -21.4293 0 -26.4802 -19.6043 0 -24.2464 -17.9536 0 -22.1328 -16.4652 0 -20.1395 -15.1272 0 -18.2665 -13.9278 0 -16.5075 -12.855 0 -14.8246 -11.8996 0 -13.2114 -11.0545 0 -11.6681 -10.3129 0 -10.1945 -9.66782 0 -8.79066 -9.11244 0 -7.45518 -8.63988 0 -6.15624 -8.24493 0 -4.88086 -7.92556 0 -3.62901 -7.68013 0 -2.40071 -7.50697 0 -1.19596 -7.40443 0 -0.0147484 -7.37086 0 -0.0224668 -187.736 0 4.16303 -187.988 0 8.30145 -188.696 0 12.3928 -189.865 0 16.4371 -191.499 0 20.4342 -193.604 0 24.3843 -196.184 0 28.2542 -199.242 0 31.9627 -202.769 0 35.5063 -206.751 0 38.8848 -211.171 0 42.0983 -216.016 0 45.1468 -221.269 0 48.0136 -226.917 0 50.5985 -232.949 0 52.8848 -239.36 0 54.8724 -246.145 0 56.5615 -253.298 0 57.9519 -260.816 0 59.035 -268.692 0 59.6191 -276.891 0 59.6258 -285.323 0 59.055 -293.888 0 57.9078 -302.488 0 56.1848 -311.032 0 53.886 -319.427 0 50.9682 -327.591 0 47.3883 -335.488 0 43.1464 -343.09 0 38.2424 -350.37 0 32.676 -357.302 0 26.4472 -363.858 0 19.5706 -369.995 0 12.0813 -375.548 0 3.98118 -380.288 0 -4.73404 -383.981 0 -14.0798 -386.347 0 -24.0576 -387.074 0 -34.5313 -385.86 0 -44.6845 -382.718 0 -54.381 -377.976 0 -63.6296 -371.97 0 -72.5207 -364.838 0 -81.0783 -356.45 0 -89.2818 -346.653 0 -96.6746 -335.46 0 -103.07 -323.198 0 -108.469 -310.23 0 -112.913 -296.855 0 -116.431 -283.186 0 -119.02 -269.308 0 -120.767 -255.311 0 -121.755 -241.312 0 -121.984 -227.433 0 -121.461 -213.791 0 -120.196 -200.452 0 -118.191 -187.468 0 -115.571 -174.889 0 -112.644 -162.759 0 -109.423 -151.116 0 -105.909 -140.002 0 -102.105 -129.451 0 -98.0087 -119.494 0 -93.6627 -110.161 0 -89.3127 -101.453 0 -84.9996 -93.3407 0 -80.7233 -85.7946 0 -76.484 -78.7848 0 -72.2816 -72.2816 0 -68.1195 -66.2551 0 -64.073 -60.6777 0 -60.1728 -55.5264 0 -56.419 -50.7787 0 -52.8114 -46.412 0 -49.3502 -42.4037 0 -46.0353 -38.7313 0 -42.8677 -35.3726 0 -39.8483 -32.3065 0 -36.9772 -29.5122 0 -34.2543 -26.969 0 -31.6797 -24.656 0 -29.2533 -22.5527 0 -26.964 -20.6387 0 -24.7849 -18.9002 0 -22.7145 -17.3259 0 -20.753 -15.9048 0 -18.9002 -14.6259 0 -17.1564 -13.4782 0 -15.5156 -12.4506 0 -13.9437 -11.5345 0 -12.4349 -10.7234 0 -10.9893 -10.011 0 -9.6068 -9.39083 0 -8.28746 -8.85655 0 -7.02998 -8.4018 0 -5.80602 -8.02172 0 -4.60398 -7.71437 0 -3.42385 -7.47813 0 -2.26565 -7.31142 0 -1.12937 -7.21261 0 -0.0150125 -7.1801 0 -0.0425057 -176.542 0 3.70781 -176.765 0 7.40767 -177.407 0 11.0571 -178.469 0 14.656 -179.953 0 18.2046 -181.861 0 21.7026 -184.196 0 25.122 -186.958 0 28.3937 -190.139 0 31.5145 -193.726 0 34.4845 -197.706 0 37.3036 -202.066 0 39.9719 -206.794 0 42.4719 -211.875 0 44.6985 -217.298 0 46.6343 -223.053 0 48.2792 -229.128 0 49.6334 -235.513 0 50.6967 -242.197 0 51.463 -249.168 0 51.7966 -256.395 0 51.6422 -263.803 0 50.9995 -271.312 0 49.8688 -278.843 0 48.2498 -286.318 0 46.1428 -293.655 0 43.4754 -300.783 0 40.1754 -307.657 0 36.243 -314.238 0 31.678 -320.487 0 26.4805 -326.365 0 20.6504 -331.834 0 14.2524 -336.846 0 7.44395 -341.268 0 0.232353 -344.926 0 -7.38242 -347.645 0 -15.4004 -349.249 0 -23.8215 -349.564 0 -32.5588 -348.419 0 -41.0898 -345.773 0 -49.3276 -341.712 0 -57.2722 -336.328 0 -64.9235 -329.711 0 -72.2815 -321.954 0 -79.3307 -313.148 0 -85.7297 -303.402 0 -91.3387 -292.858 0 -96.1578 -281.659 0 -100.187 -269.951 0 -103.426 -257.879 0 -105.875 -245.588 0 -107.592 -233.21 0 -108.635 -220.831 0 -109.003 -208.523 0 -108.697 -196.357 0 -107.716 -184.407 0 -106.061 -172.744 0 -103.848 -161.438 0 -101.362 -150.531 0 -98.6139 -140.051 0 -95.6052 -130.025 0 -92.3355 -120.481 0 -88.8049 -111.447 0 -85.0474 -102.949 0 -81.2669 -94.9901 0 -77.4974 -87.5498 0 -73.7389 -80.6059 0 -69.9915 -74.1364 0 -66.2551 -68.1195 0 -62.5333 -62.5333 0 -58.9043 -57.3561 0 -55.4003 -52.5676 0 -52.0212 -48.1471 0 -48.767 -44.0743 0 -45.6377 -40.3287 0 -42.6333 -36.8897 0 -39.7557 -33.7374 0 -37.007 -30.8532 0 -34.387 -28.2189 0 -31.8957 -25.8164 0 -29.5333 -23.6274 0 -27.2996 -21.6339 0 -25.1861 -19.8183 0 -23.1716 -18.1676 0 -21.2554 -16.6716 0 -19.4372 -15.3198 0 -17.7172 -14.1021 0 -16.0954 -13.0079 0 -14.5666 -12.0271 0 -13.0999 -11.1516 0 -11.6903 -10.3755 0 -10.3378 -9.69307 0 -9.04235 -9.09844 0 -7.80394 -8.58584 0 -6.62143 -8.1495 0 -5.46957 -7.78494 0 -4.33801 -7.49024 0 -3.22677 -7.26376 0 -2.13583 -7.10389 0 -1.06519 -7.00899 0 -0.0148645 -6.97741 0 -0.0519791 -165.786 0 3.29805 -165.983 0 6.5969 -166.563 0 9.84459 -167.525 0 13.0411 -168.87 0 16.1865 -170.597 0 19.2806 -172.704 0 22.299 -175.193 0 25.181 -178.053 0 27.9241 -181.276 0 30.5283 -184.85 0 32.9934 -188.764 0 35.3195 -193.007 0 37.4894 -197.57 0 39.3993 -202.437 0 41.032 -207.593 0 42.3874 -213.023 0 43.4656 -218.71 0 44.2666 -224.637 0 44.7858 -230.789 0 44.9266 -237.136 0 44.6491 -243.618 0 43.9535 -250.176 0 42.8397 -256.747 0 41.3077 -263.272 0 39.3575 -269.687 0 36.9065 -275.934 0 33.8722 -281.952 0 30.2545 -287.684 0 26.0535 -293.07 0 21.2691 -298.053 0 15.9013 -302.573 0 10.0406 -306.569 0 3.90764 -309.948 0 -2.48742 -312.599 0 -9.14462 -314.415 0 -16.0639 -315.285 0 -23.2454 -315.1 0 -30.6289 -313.755 0 -37.8535 -311.223 0 -44.8591 -307.56 0 -51.6457 -302.824 0 -58.2134 -297.073 0 -64.562 -290.364 0 -70.6779 -282.758 0 -76.2583 -274.33 0 -81.1793 -265.193 0 -85.441 -255.464 0 -89.0432 -245.26 0 -91.9861 -234.699 0 -94.2697 -223.897 0 -95.9227 -212.963 0 -96.9743 -201.978 0 -97.4243 -191.016 0 -97.2728 -180.148 0 -96.5197 -169.448 0 -95.1651 -158.989 0 -93.3117 -148.84 0 -91.2109 -139.04 0 -88.8739 -129.611 0 -86.3009 -120.574 0 -83.4917 -111.954 0 -80.4465 -103.77 0 -77.1938 -96.046 0 -73.9052 -88.7843 0 -70.6093 -81.9712 0 -67.306 -75.5915 0 -63.9955 -69.6304 0 -60.6777 -64.073 0 -57.3561 -58.9043 0 -54.1082 -54.1082 0 -50.9655 -49.6661 0 -47.9282 -45.5595 0 -44.9962 -41.7695 0 -42.1695 -38.2774 0 -39.4481 -35.0646 0 -36.8353 -32.1128 0 -34.3343 -29.4057 0 -31.9452 -26.9276 0 -29.668 -24.6629 0 -27.5026 -22.5958 0 -25.4491 -20.7105 0 -23.5007 -18.9918 0 -21.6413 -17.4281 0 -19.8699 -16.0097 0 -18.1867 -14.7268 0 -16.5916 -13.5699 0 -15.0847 -12.5292 0 -13.6613 -11.5952 0 -12.294 -10.7603 0 -10.9783 -10.0194 0 -9.71415 -9.36702 0 -8.50154 -8.7981 0 -7.34049 -8.30737 0 -6.22995 -7.88959 0 -5.14733 -7.54069 0 -4.08336 -7.25875 0 -3.03807 -7.04213 0 -2.01143 -6.88917 0 -1.00345 -6.79821 0 -0.0141391 -6.76761 0 -0.0528471 -155.48 0 2.93016 -155.653 0 5.86346 -156.175 0 8.74704 -157.045 0 11.5809 -158.26 0 14.3651 -159.817 0 17.0995 -161.715 0 19.7619 -163.95 0 22.2976 -166.515 0 24.7043 -169.402 0 26.9819 -172.602 0 29.1303 -176.105 0 31.1496 -179.902 0 33.0236 -183.984 0 34.6547 -188.337 0 36.0267 -192.941 0 37.1396 -197.776 0 37.9933 -202.823 0 38.5878 -208.06 0 38.92 -213.47 0 38.9172 -219.022 0 38.5498 -224.672 0 37.8177 -230.375 0 36.7211 -236.083 0 35.2598 -241.749 0 33.434 -247.328 0 31.1669 -252.768 0 28.382 -258.002 0 25.0794 -262.959 0 21.259 -267.567 0 16.9208 -271.755 0 12.0648 -275.452 0 6.78612 -278.585 0 1.31726 -281.095 0 -4.33122 -282.921 0 -10.1593 -284.007 0 -16.1671 -284.294 0 -22.3544 -283.723 0 -28.6772 -282.239 0 -34.8698 -279.829 0 -40.8882 -276.524 0 -46.7322 -272.354 0 -52.4019 -267.354 0 -57.8973 -261.556 0 -63.2065 -254.991 0 -68.068 -247.712 0 -72.3749 -239.807 0 -76.1273 -231.371 0 -79.325 -222.496 0 -81.9681 -213.275 0 -84.0567 -203.802 0 -85.6033 -194.167 0 -86.6209 -184.445 0 -87.1094 -174.707 0 -87.0687 -165.025 0 -86.499 -155.471 0 -85.4001 -146.116 0 -83.8602 -137.027 0 -82.0944 -128.241 0 -80.1124 -119.774 0 -77.9144 -111.645 0 -75.5002 -103.872 0 -72.8699 -96.4724 0 -70.048 -89.464 0 -67.1823 -82.851 0 -64.2973 -76.6247 0 -61.393 -70.7757 0 -58.4694 -65.2949 0 -55.5264 -60.1728 0 -52.5676 -55.4003 0 -49.6661 -50.9655 0 -46.8522 -46.8522 0 -44.1257 -43.0433 0 -41.4868 -39.5221 0 -38.9353 -36.2714 0 -36.4713 -33.2744 0 -34.0996 -30.5148 0 -31.8252 -27.9784 0 -29.648 -25.6516 0 -27.568 -23.5209 0 -25.5852 -21.5726 0 -23.6997 -19.7931 0 -21.9062 -18.1693 0 -20.1921 -16.6906 0 -18.5568 -15.348 0 -17.0002 -14.1326 0 -15.5225 -13.0353 0 -14.1235 -12.0471 0 -12.7993 -11.1591 0 -11.5257 -10.3645 0 -10.2987 -9.65837 0 -9.1183 -9.03608 0 -7.98444 -8.49287 0 -6.89717 -8.02402 0 -5.85554 -7.62481 0 -4.83925 -7.29149 0 -3.83997 -7.0222 0 -2.8577 -6.81532 0 -1.89244 -6.66919 0 -0.944198 -6.58218 0 -0.0129676 -6.55265 0 -0.0476102 -145.622 0 2.6005 -145.774 0 5.2019 -146.244 0 7.75662 -147.028 0 10.2646 -148.122 0 12.7259 -149.523 0 15.1406 -151.226 0 17.4877 -153.229 0 19.7164 -155.525 0 21.8243 -158.105 0 23.8116 -160.962 0 25.6781 -164.089 0 27.4239 -167.478 0 29.0343 -171.119 0 30.4213 -175 0 31.5703 -179.097 0 32.4813 -183.388 0 33.1543 -187.852 0 33.5893 -192.467 0 33.7836 -197.209 0 33.6781 -202.054 0 33.2487 -206.966 0 32.4955 -211.909 0 31.4183 -216.849 0 30.0173 -221.75 0 28.2923 -226.577 0 26.1841 -231.286 0 23.6332 -235.808 0 20.6395 -240.064 0 17.2031 -243.979 0 13.324 -247.473 0 9.00214 -250.469 0 4.32244 -252.895 0 -0.507719 -254.71 0 -5.47891 -255.892 0 -10.5911 -256.422 0 -15.8444 -256.276 0 -21.2386 -255.433 0 -26.7373 -253.873 0 -32.1209 -251.592 0 -37.3527 -248.602 0 -42.4328 -244.919 0 -47.3611 -240.556 0 -52.1377 -235.528 0 -56.7526 -229.848 0 -60.986 -223.549 0 -64.7482 -216.702 0 -68.039 -209.379 0 -70.8586 -201.657 0 -73.2068 -193.607 0 -75.0838 -185.305 0 -76.4956 -176.824 0 -77.4483 -168.232 0 -77.9419 -159.598 0 -77.9765 -150.99 0 -77.552 -142.476 0 -76.6685 -134.124 0 -75.3988 -126 0 -73.9212 -118.133 0 -72.2437 -110.541 0 -70.3665 -103.237 0 -68.2893 -96.2359 0 -66.0124 -89.5532 0 -63.5573 -83.203 0 -61.0542 -77.1902 0 -58.5248 -71.5105 0 -55.9691 -66.1586 0 -53.3871 -61.1298 0 -50.7787 -56.419 0 -48.1471 -52.0212 0 -45.5595 -47.9282 0 -43.0433 -44.1257 0 -40.5987 -40.5987 0 -38.2255 -37.332 0 -35.9238 -34.3105 0 -33.6936 -31.5193 0 -31.5414 -28.9437 0 -29.4738 -26.5715 0 -27.4908 -24.3909 0 -25.5923 -22.3903 0 -23.7785 -20.5578 0 -22.0492 -18.8817 0 -20.4005 -17.3506 0 -18.8224 -15.955 0 -17.3144 -14.6866 0 -15.8765 -13.5371 0 -14.5088 -12.4981 0 -13.2111 -11.5615 0 -11.9802 -10.7189 0 -10.7948 -9.96404 0 -9.65145 -9.29259 0 -8.55022 -8.70026 0 -7.49106 -8.18275 0 -6.47399 -7.7358 0 -5.49816 -7.35513 0 -4.54524 -7.03732 0 -3.60771 -6.78059 0 -2.68557 -6.58333 0 -1.77882 -6.44397 0 -0.887473 -6.36091 0 -0.0115157 -6.33255 0 -0.0387694 -136.213 0 2.30538 -136.348 0 4.60681 -136.77 0 6.86552 -137.474 0 9.08151 -138.457 0 11.2548 -139.713 0 13.3853 -141.239 0 15.4533 -143.031 0 17.4101 -145.081 0 19.2536 -147.384 0 20.9837 -149.932 0 22.6004 -152.718 0 24.1038 -155.734 0 25.4811 -158.975 0 26.6556 -162.424 0 27.6148 -166.06 0 28.3585 -169.859 0 28.8868 -173.798 0 29.1997 -177.856 0 29.2947 -182.008 0 29.119 -186.232 0 28.6507 -190.498 0 27.89 -194.779 0 26.8367 -199.047 0 25.491 -203.275 0 23.8528 -207.433 0 21.8858 -211.488 0 19.5537 -215.368 0 16.8566 -218.999 0 13.7944 -222.304 0 10.3671 -225.205 0 6.57477 -227.626 0 2.48298 -229.497 0 -1.74782 -230.792 0 -6.11033 -231.512 0 -10.6046 -231.658 0 -15.2305 -231.231 0 -19.9881 -230.229 0 -24.8431 -228.655 0 -29.5887 -226.51 0 -34.1906 -223.797 0 -38.6487 -220.518 0 -42.9631 -216.679 0 -47.1337 -212.281 0 -51.1525 -207.328 0 -54.8396 -201.841 0 -58.1217 -195.875 0 -60.9986 -189.49 0 -63.4704 -182.744 0 -65.5371 -175.696 0 -67.1988 -168.406 0 -68.4611 -160.932 0 -69.3301 -153.339 0 -69.8057 -145.687 0 -69.8879 -138.041 0 -69.5767 -130.463 0 -68.8722 -123.015 0 -67.8325 -115.757 0 -66.6004 -108.719 0 -65.1822 -101.912 0 -63.578 -95.3498 0 -61.7878 -89.0457 0 -59.8115 -83.0125 0 -57.6687 -77.2627 0 -55.4768 -71.8019 0 -53.2551 -66.6284 0 -51.0037 -61.7401 0 -48.7227 -57.1351 0 -46.412 -52.8114 0 -44.0743 -48.767 0 -41.7695 -44.9962 0 -39.5221 -41.4868 0 -37.332 -38.2255 0 -35.1992 -35.1992 0 -33.1239 -32.3948 0 -31.1058 -29.799 0 -29.1533 -27.3993 0 -27.2744 -25.1848 0 -25.4692 -23.1455 0 -23.7376 -21.2711 0 -22.0797 -19.5515 0 -20.4954 -17.9764 0 -18.9816 -16.5358 0 -17.5302 -15.2213 0 -16.1411 -14.0254 0 -14.8141 -12.9403 0 -13.5493 -11.9585 0 -12.3467 -11.0724 0 -11.2032 -10.2745 0 -10.1008 -9.55905 0 -9.03632 -8.92201 0 -8.00987 -8.35954 0 -7.02142 -7.86774 0 -6.07097 -7.44271 0 -5.15777 -7.08058 0 -4.2652 -6.7782 0 -3.38647 -6.5339 0 -2.52158 -6.34617 0 -1.67053 -6.2135 0 -0.83332 -6.13438 0 -0.00994898 -6.1073 0 -0.0288251 -127.254 0 2.04115 -127.375 0 4.07274 -127.753 0 6.06594 -128.384 0 8.02075 -129.264 0 9.93717 -130.389 0 11.8152 -131.754 0 13.6357 -133.355 0 15.3518 -135.186 0 16.9614 -137.239 0 18.4644 -139.51 0 19.861 -141.989 0 21.151 -144.672 0 22.3238 -147.551 0 23.3144 -150.611 0 24.1121 -153.83 0 24.7169 -157.188 0 25.1289 -160.661 0 25.3479 -164.228 0 25.3717 -167.867 0 25.1495 -171.555 0 24.6604 -175.269 0 23.9044 -178.984 0 22.8816 -182.676 0 21.5919 -186.323 0 20.0354 -189.899 0 18.1996 -193.373 0 16.072 -196.684 0 13.6526 -199.764 0 10.9415 -202.543 0 7.93867 -204.952 0 4.64405 -206.922 0 1.10119 -208.391 0 -2.58355 -209.342 0 -6.40534 -209.781 0 -10.3642 -209.718 0 -14.4601 -209.159 0 -18.693 -208.113 0 -23.028 -206.587 0 -27.2551 -204.584 0 -31.3395 -202.106 0 -35.2811 -199.152 0 -39.0798 -195.721 0 -42.7358 -191.815 0 -46.2424 -187.432 0 -49.4561 -182.588 0 -52.3181 -177.329 0 -54.8284 -171.702 0 -56.9871 -165.756 0 -58.7941 -159.54 0 -60.2494 -153.103 0 -61.3618 -146.493 0 -62.1402 -139.765 0 -62.5845 -132.976 0 -62.6947 -126.179 0 -62.4709 -119.431 0 -61.913 -112.787 0 -61.0663 -106.3 0 -60.041 -99.9957 0 -58.8421 -93.8862 0 -57.4698 -87.984 0 -55.9239 -82.3013 0 -54.2045 -76.8504 0 -52.3295 -71.6434 0 -50.4058 -66.6861 0 -48.4514 -61.9785 0 -46.4663 -57.5203 0 -44.4504 -53.3109 0 -42.4037 -49.3502 0 -40.3287 -45.6377 0 -38.2774 -42.1695 0 -36.2714 -38.9353 0 -34.3105 -35.9238 0 -32.3948 -33.1239 0 -30.5243 -30.5243 0 -28.6989 -28.1138 0 -26.9281 -25.8816 0 -25.2215 -23.8185 0 -23.579 -21.9154 0 -22.0006 -20.1634 0 -20.4862 -18.5536 0 -19.036 -17.077 0 -17.6473 -15.7249 0 -16.3139 -14.4896 0 -15.0353 -13.3644 0 -13.8117 -12.3423 0 -12.6431 -11.4164 0 -11.5293 -10.5799 0 -10.468 -9.82604 0 -9.44344 -9.14948 0 -8.45319 -8.54664 0 -7.49723 -8.01394 0 -6.57554 -7.54784 0 -5.68813 -7.14475 0 -4.83431 -6.80114 0 -3.99903 -6.51412 0 -3.17614 -6.28215 0 -2.36564 -6.10384 0 -1.56752 -5.97779 0 -0.781783 -5.9026 0 -0.00843299 -5.8769 0 -0.0202782 -118.744 0 1.80415 -118.853 0 3.59427 -119.192 0 5.35007 -119.757 0 7.07157 -120.544 0 8.75875 -121.55 0 10.4116 -122.77 0 12.0118 -124.201 0 13.5143 -125.837 0 14.9171 -127.671 0 16.2202 -129.696 0 17.4236 -131.905 0 18.5272 -134.291 0 19.5222 -136.846 0 20.3542 -139.559 0 21.0142 -142.408 0 21.5023 -145.375 0 21.8184 -148.44 0 21.9626 -151.583 0 21.9326 -154.785 0 21.6792 -158.025 0 21.1824 -161.279 0 20.4421 -164.524 0 19.4583 -167.737 0 18.2311 -170.894 0 16.7603 -173.972 0 15.053 -176.942 0 13.1161 -179.756 0 10.9494 -182.358 0 8.55306 -184.695 0 5.92704 -186.713 0 3.07134 -188.358 0 0.0105066 -189.579 0 -3.19545 -190.359 0 -6.54381 -190.699 0 -10.0346 -190.6 0 -13.6677 -190.061 0 -17.4433 -189.083 0 -21.3257 -187.667 0 -25.1022 -185.815 0 -28.7374 -183.531 0 -32.2311 -180.82 0 -35.5833 -177.684 0 -38.7942 -174.13 0 -41.8585 -170.159 0 -44.6626 -165.79 0 -47.16 -161.061 0 -49.3508 -156.015 0 -51.235 -150.695 0 -52.8125 -145.141 0 -54.0833 -139.397 0 -55.0593 -133.505 0 -55.7522 -127.512 0 -56.162 -121.463 0 -56.2888 -115.404 0 -56.1325 -109.381 0 -55.6931 -103.442 0 -55.005 -97.6284 0 -54.1519 -91.9651 0 -53.1378 -86.4645 0 -51.9626 -81.1394 0 -50.6263 -76.0026 0 -49.1289 -71.0669 0 -47.4867 -66.3449 0 -45.7973 -61.8428 0 -44.0771 -57.5609 0 -42.3261 -53.499 0 -40.5441 -49.6572 0 -38.7313 -46.0353 0 -36.8897 -42.6333 0 -35.0646 -39.4481 0 -33.2744 -36.4713 0 -31.5193 -33.6936 0 -29.799 -31.1058 0 -28.1138 -28.6989 0 -26.4635 -26.4635 0 -24.8586 -24.3908 0 -23.3093 -22.4724 0 -21.8157 -20.7006 0 -20.3777 -19.0671 0 -18.9954 -17.5642 0 -17.6688 -16.1837 0 -16.3958 -14.9178 0 -15.1714 -13.7598 0 -13.9955 -12.7036 0 -12.868 -11.743 0 -11.7889 -10.8718 0 -10.7583 -10.084 0 -9.77383 -9.37341 0 -8.82245 -8.73535 0 -7.90192 -8.16646 0 -7.01225 -7.66346 0 -6.15343 -7.22304 0 -5.32547 -6.84192 0 -4.52774 -6.51682 0 -3.74664 -6.24509 0 -2.97661 -6.02534 0 -2.21765 -5.85633 0 -1.46974 -5.73682 0 -0.732907 -5.66558 0 -0.00713332 -5.64135 0 -0.0150672 -110.648 0 1.59105 -110.748 0 3.16621 -111.051 0 4.7104 -111.555 0 6.22362 -112.257 0 7.70589 -113.155 0 9.15718 -114.244 0 10.5602 -115.522 0 11.8726 -116.983 0 13.0924 -118.619 0 14.2196 -120.424 0 15.2542 -122.39 0 16.1963 -124.509 0 17.0382 -126.774 0 17.7339 -129.174 0 18.2759 -131.691 0 18.664 -134.309 0 18.8983 -137.011 0 18.9789 -139.78 0 18.9036 -142.6 0 18.6272 -145.451 0 18.1314 -148.31 0 17.416 -151.152 0 16.4811 -153.953 0 15.3268 -156.688 0 13.9528 -159.334 0 12.3772 -161.863 0 10.6175 -164.241 0 8.67373 -166.429 0 6.54598 -168.389 0 4.23419 -170.085 0 1.73838 -171.477 0 -0.928009 -172.531 0 -3.73211 -173.226 0 -6.67243 -173.55 0 -9.74896 -173.49 0 -12.9617 -173.035 0 -16.3107 -172.171 0 -19.7621 -170.888 0 -23.1136 -169.185 0 -26.3315 -167.072 0 -29.4156 -164.56 0 -32.3661 -161.661 0 -35.1829 -158.384 0 -37.8619 -154.743 0 -40.3119 -150.755 0 -42.4954 -146.458 0 -44.4125 -141.889 0 -46.0633 -137.088 0 -47.4476 -132.091 0 -48.5656 -126.938 0 -49.4294 -121.667 0 -50.0515 -116.314 0 -50.4318 -110.915 0 -50.5703 -105.509 0 -50.467 -100.131 0 -50.1219 -94.8176 0 -49.5614 -89.6046 0 -48.8502 -84.5127 0 -47.9911 -79.5555 0 -46.9842 -74.7467 0 -45.8295 -70.0999 0 -44.5269 -65.6289 0 -43.0911 -61.3469 0 -41.6096 -57.2606 0 -40.097 -53.3699 0 -38.5533 -49.6744 0 -36.9785 -46.1738 0 -35.3726 -42.8677 0 -33.7374 -39.7557 0 -32.1128 -36.8353 0 -30.5148 -34.0996 0 -28.9437 -31.5414 0 -27.3993 -29.1533 0 -25.8816 -26.9281 0 -24.3908 -24.8586 0 -22.9373 -22.9373 0 -21.5319 -21.1572 0 -20.1746 -19.511 0 -18.8654 -17.9915 0 -17.6043 -16.5915 0 -16.3912 -15.3039 0 -15.2247 -14.1215 0 -14.101 -13.0384 0 -13.0199 -12.0491 0 -11.9815 -11.1481 0 -10.9857 -10.3302 0 -10.0325 -9.5898 0 -9.12017 -8.92154 0 -8.23735 -8.32118 0 -7.38222 -7.78564 0 -6.55476 -7.31184 0 -5.755 -6.89675 0 -4.98291 -6.53731 0 -4.23795 -6.23047 0 -3.5079 -5.9738 0 -2.78775 -5.76609 0 -2.0775 -5.60625 0 -1.37715 -5.49319 0 -0.686713 -5.42583 0 -0.00617477 -5.40309 0 -0.0128829 -102.932 0 1.3999 -103.022 0 2.78437 -103.292 0 4.14053 -103.741 0 5.46838 -104.366 0 6.76791 -105.164 0 8.03913 -106.133 0 9.26604 -107.27 0 10.4096 -108.57 0 11.4679 -110.025 0 12.441 -111.627 0 13.329 -113.37 0 14.1318 -115.245 0 14.8428 -117.246 0 15.4222 -119.361 0 15.8632 -121.576 0 16.1659 -123.877 0 16.3304 -126.249 0 16.3566 -128.678 0 16.2426 -131.15 0 15.9496 -133.647 0 15.4616 -136.145 0 14.7784 -138.621 0 13.9002 -141.049 0 12.827 -143.406 0 11.5587 -145.666 0 10.1163 -147.805 0 8.52086 -149.799 0 6.77235 -151.623 0 4.87077 -153.252 0 2.81612 -154.661 0 0.60841 -155.825 0 -1.74287 -156.72 0 -4.21447 -157.325 0 -6.80535 -157.616 0 -9.5155 -157.575 0 -12.3449 -157.179 0 -15.2936 -156.408 0 -18.3317 -155.241 0 -21.2795 -153.676 0 -24.1073 -151.727 0 -26.8149 -149.411 0 -29.4024 -146.743 0 -31.8698 -143.739 0 -34.2136 -140.414 0 -36.3583 -136.791 0 -38.2728 -132.902 0 -39.9573 -128.782 0 -41.4116 -124.465 0 -42.6358 -119.985 0 -43.6299 -115.377 0 -44.4043 -110.674 0 -44.9696 -105.905 0 -45.3256 -101.1 0 -45.4725 -96.2875 0 -45.4102 -91.4962 0 -45.1388 -86.7549 0 -44.6793 -82.0914 0 -44.0835 -77.5245 0 -43.3537 -73.0682 0 -42.49 -68.7366 0 -41.4923 -64.5435 0 -40.3606 -60.5031 0 -39.1078 -56.629 0 -37.8106 -52.9281 0 -36.4819 -49.4 0 -35.1216 -46.0444 0 -33.7298 -42.8606 0 -32.3065 -39.8483 0 -30.8532 -37.007 0 -29.4057 -34.3343 0 -27.9784 -31.8252 0 -26.5715 -29.4738 0 -25.1848 -27.2744 0 -23.8185 -25.2215 0 -22.4724 -23.3093 0 -21.1572 -21.5319 0 -19.8832 -19.8832 0 -18.6504 -18.3566 0 -17.459 -16.9456 0 -16.3087 -15.644 0 -15.1998 -14.4451 0 -14.131 -13.3427 0 -13.0999 -12.3315 0 -12.1064 -11.4067 0 -11.1503 -10.5635 0 -10.2319 -9.79702 0 -9.3509 -9.10256 0 -8.50588 -8.47533 0 -7.6872 -7.91154 0 -6.89328 -7.40832 0 -6.12411 -6.96287 0 -5.37969 -6.57236 0 -4.66001 -6.23399 0 -3.9646 -5.94494 0 -3.28253 -5.70299 0 -2.60935 -5.50706 0 -1.94506 -5.3562 0 -1.28966 -5.24947 0 -0.643144 -5.18591 0 -0.005519 -5.16458 0 -0.0128539 -95.5948 0 1.22908 -95.6759 0 2.44483 -95.9165 0 3.63438 -96.3147 0 4.79773 -96.8685 0 5.9349 -97.5761 0 7.04587 -98.4356 0 8.11615 -99.4446 0 9.1103 -100.597 0 10.0267 -101.887 0 10.8654 -103.305 0 11.6264 -104.846 0 12.3096 -106.5 0 12.9091 -108.261 0 13.3896 -110.12 0 13.7451 -112.063 0 13.9756 -114.078 0 14.0812 -116.153 0 14.0617 -118.276 0 13.9158 -120.434 0 13.6119 -122.611 0 13.1371 -124.784 0 12.4914 -126.93 0 11.6748 -129.025 0 10.6872 -131.045 0 9.52874 -132.967 0 8.21815 -134.767 0 6.77421 -136.43 0 5.19693 -137.94 0 3.48631 -139.282 0 1.64234 -140.441 0 -0.334971 -141.401 0 -2.43496 -142.146 0 -4.63155 -142.654 0 -6.92356 -142.899 0 -9.31098 -142.854 0 -11.7938 -142.495 0 -14.3721 -141.794 0 -17.021 -140.726 0 -19.5918 -139.288 0 -22.0597 -137.498 0 -24.4247 -135.372 0 -26.6868 -132.931 0 -28.8461 -130.192 0 -30.8995 -127.174 0 -32.7818 -123.898 0 -34.4664 -120.394 0 -35.9532 -116.694 0 -37.2423 -112.826 0 -38.3336 -108.822 0 -39.2272 -104.712 0 -39.9301 -100.526 0 -40.4494 -96.2866 0 -40.7852 -92.017 0 -40.9373 -87.7399 0 -40.9059 -83.4778 0 -40.6909 -79.2535 0 -40.3102 -75.0889 0 -39.8075 -71.0007 0 -39.1849 -67.0028 0 -38.4422 -63.109 0 -37.5796 -59.3334 0 -36.5971 -55.6896 0 -35.5055 -52.1913 0 -34.3709 -48.8453 0 -33.2042 -45.6513 0 -32.0056 -42.6089 0 -30.7749 -39.7177 0 -29.5122 -36.9772 0 -28.2189 -34.387 0 -26.9276 -31.9452 0 -25.6516 -29.648 0 -24.3909 -27.4908 0 -23.1455 -25.4692 0 -21.9154 -23.579 0 -20.7006 -21.8157 0 -19.511 -20.1746 0 -18.3566 -18.6504 0 -17.2373 -17.2373 0 -16.1533 -15.9296 0 -15.1044 -14.7215 0 -14.0908 -13.6074 0 -13.1117 -12.5816 0 -12.1657 -11.6394 0 -11.2527 -10.7766 0 -10.3727 -9.98897 0 -9.52584 -9.27227 0 -8.71195 -8.62227 0 -7.92973 -8.03478 0 -7.17092 -7.5064 0 -6.43417 -7.03451 0 -5.71948 -6.61653 0 -5.02683 -6.24987 0 -4.35624 -5.93196 0 -3.70726 -5.66023 0 -3.07023 -5.43264 0 -2.44121 -5.24823 0 -1.82018 -5.10618 0 -1.20715 -5.00565 0 -0.602118 -4.94581 0 -0.00508693 -4.92581 0 -0.0141088 -88.6371 0 1.07698 -88.7097 0 2.14363 -88.9231 0 3.18583 -89.2758 0 4.2036 -89.7661 0 5.19693 -90.3924 0 6.16581 -91.1531 0 7.09732 -92.0461 0 7.95982 -93.0661 0 8.75187 -94.2059 0 9.47348 -95.4584 0 10.1246 -96.8165 0 10.7054 -98.2729 0 11.2103 -99.8205 0 11.6071 -101.45 0 11.8906 -103.151 0 12.0606 -104.913 0 12.1172 -106.724 0 12.0604 -108.574 0 11.889 -110.452 0 11.5795 -112.344 0 11.1222 -114.227 0 10.5169 -116.081 0 9.76379 -117.882 0 8.86279 -119.608 0 7.81391 -121.237 0 6.6304 -122.75 0 5.32548 -124.134 0 3.89917 -125.381 0 2.35146 -126.481 0 0.682354 -127.425 0 -1.10815 -128.205 0 -3.00518 -128.808 0 -4.97236 -129.215 0 -7.00805 -129.397 0 -9.11223 -129.328 0 -11.2849 -128.981 0 -13.5261 -128.328 0 -15.8167 -127.343 0 -18.0423 -126.022 0 -20.1837 -124.383 0 -22.2409 -122.445 0 -24.2141 -120.226 0 -26.1031 -117.745 0 -27.9053 -115.021 0 -29.5622 -112.075 0 -31.0498 -108.934 0 -32.3683 -105.624 0 -33.5176 -102.171 0 -34.4976 -98.6028 0 -35.3084 -94.9453 0 -35.9529 -91.2239 0 -36.4341 -87.4581 0 -36.7519 -83.6661 0 -36.9064 -79.8659 0 -36.8975 -76.0756 0 -36.7252 -72.3134 0 -36.4057 -68.5969 0 -35.978 -64.9411 0 -35.4439 -61.359 0 -34.8034 -57.8641 0 -34.0565 -54.4695 0 -33.2033 -51.1884 0 -32.2529 -48.0338 0 -31.2609 -45.0123 0 -30.2365 -42.1238 0 -29.1797 -39.3681 0 -28.0905 -36.745 0 -26.969 -34.2543 0 -25.8164 -31.8957 0 -24.6629 -29.668 0 -23.5209 -27.568 0 -22.3903 -25.5923 0 -21.2711 -23.7376 0 -20.1634 -22.0006 0 -19.0671 -20.3777 0 -17.9915 -18.8654 0 -16.9456 -17.459 0 -15.9296 -16.1533 0 -14.9434 -14.9434 0 -13.987 -13.8242 0 -13.0604 -12.7907 0 -12.1634 -11.838 0 -11.2955 -10.9619 0 -10.4566 -10.1587 0 -9.6468 -9.42462 0 -8.86604 -8.75594 0 -8.11433 -8.14894 0 -7.3905 -7.5999 0 -6.68743 -7.10578 0 -6.00395 -6.6642 0 -5.34006 -6.27282 0 -4.69576 -5.92928 0 -4.07105 -5.63124 0 -3.46553 -5.37634 0 -2.87071 -5.16276 0 -2.2831 -4.98962 0 -1.70271 -4.8562 0 -1.12953 -4.76175 0 -0.563556 -4.70552 0 -0.00479943 -4.68679 0 -0.0157763 -82.0588 0 0.941975 -82.1232 0 1.87684 -82.3123 0 2.78881 -82.6245 0 3.67788 -83.0584 0 4.54407 -83.6124 0 5.38737 -84.2851 0 6.19635 -85.0746 0 6.9431 -85.9757 0 7.62635 -86.982 0 8.24609 -88.0865 0 8.80233 -89.2828 0 9.29507 -90.5639 0 9.71935 -91.9233 0 10.0455 -93.3525 0 10.2684 -94.842 0 10.3883 -96.3818 0 10.405 -97.9622 0 10.3186 -99.5733 0 10.1284 -101.205 0 9.81802 -102.845 0 9.38092 -104.474 0 8.81708 -106.071 0 8.12649 -107.618 0 7.30916 -109.093 0 6.36509 -110.477 0 5.30075 -111.753 0 4.12265 -112.911 0 2.83076 -113.945 0 1.42511 -114.849 0 -0.0943257 -115.615 0 -1.72753 -116.237 0 -3.45443 -116.707 0 -5.22594 -117.007 0 -7.03982 -117.111 0 -8.89607 -116.997 0 -10.7947 -116.638 0 -12.7357 -116.011 0 -14.7055 -115.092 0 -16.6229 -113.878 0 -18.4742 -112.384 0 -20.2595 -110.628 0 -21.9788 -108.626 0 -23.6321 -106.397 0 -25.2169 -103.956 0 -26.6793 -101.324 0 -27.9973 -98.5216 0 -29.1708 -95.5728 0 -30.1998 -92.5002 0 -31.0844 -89.3267 0 -31.8245 -86.0752 0 -32.4189 -82.7674 0 -32.8666 -79.4197 0 -33.1674 -76.0474 0 -33.3214 -72.6656 0 -33.3285 -69.2896 0 -33.1889 -65.9346 0 -32.9173 -62.6156 0 -32.5504 -59.3458 0 -32.0899 -56.1371 0 -31.5357 -53.0017 0 -30.8878 -49.9518 0 -30.1463 -46.9994 0 -29.3187 -44.1564 0 -28.4511 -41.4289 0 -27.551 -38.8174 0 -26.6184 -36.3219 0 -25.6535 -33.9426 0 -24.656 -31.6797 0 -23.6274 -29.5333 0 -22.5958 -27.5026 0 -21.5726 -25.5852 0 -20.5578 -23.7785 0 -19.5515 -22.0797 0 -18.5536 -20.4862 0 -17.5642 -18.9954 0 -16.5915 -17.6043 0 -15.644 -16.3087 0 -14.7215 -15.1044 0 -13.8242 -13.987 0 -12.952 -12.952 0 -12.1049 -11.9951 0 -11.283 -11.112 0 -10.4867 -10.2991 0 -9.71588 -9.55301 0 -8.97061 -8.87043 0 -8.25087 -8.24805 0 -7.55666 -7.68256 0 -6.88697 -7.17067 0 -6.23565 -6.70967 0 -5.60169 -6.29741 0 -4.98507 -5.93175 0 -4.38581 -5.6106 0 -3.8039 -5.33181 0 -3.239 -5.09328 0 -2.68366 -4.89334 0 -2.13483 -4.73122 0 -1.5925 -4.60625 0 -1.05669 -4.51775 0 -0.527377 -4.46506 0 -0.00457742 -4.4475 0 -0.016985 -75.8599 0 0.822455 -75.9165 0 1.64051 -76.084 0 2.43719 -76.3608 0 3.21249 -76.7454 0 3.96641 -77.2361 0 4.69895 -77.8316 0 5.40005 -78.5299 0 6.04517 -79.3263 0 6.63317 -80.2149 0 7.16406 -81.1896 0 7.63784 -82.2444 0 8.05451 -83.3731 0 8.4095 -84.5698 0 8.67541 -85.8267 0 8.84768 -87.1346 0 8.92629 -88.4845 0 8.91126 -89.8669 0 8.80258 -91.2728 0 8.59979 -92.6929 0 8.29281 -94.1155 0 7.87752 -95.5244 0 7.3539 -96.9027 0 6.72197 -98.2338 0 5.98172 -99.5006 0 5.13315 -100.687 0 4.17691 -101.776 0 3.11366 -102.761 0 1.94339 -103.633 0 0.666111 -104.384 0 -0.718188 -105.008 0 -2.2095 -105.497 0 -3.78361 -105.842 0 -5.38129 -106.03 0 -6.99986 -106.042 0 -8.63931 -105.86 0 -10.2996 -105.466 0 -11.9809 -104.843 0 -13.674 -103.973 0 -15.3255 -102.855 0 -16.9262 -101.5 0 -18.4763 -99.9212 0 -19.9757 -98.133 0 -21.4245 -96.148 0 -22.8203 -93.9797 0 -24.1131 -91.643 0 -25.2826 -89.1569 0 -26.3286 -86.5405 0 -27.2513 -83.8131 0 -28.0505 -80.994 0 -28.7264 -78.1023 0 -29.2744 -75.1565 0 -29.69 -72.1713 0 -29.9732 -69.1608 0 -30.1241 -66.139 0 -30.1426 -63.1198 0 -30.0288 -60.1172 0 -29.7966 -57.145 0 -29.4806 -54.2147 0 -29.0822 -51.3369 0 -28.6015 -48.5219 0 -28.0385 -45.7804 0 -27.3931 -43.1227 0 -26.6717 -40.5592 0 -25.912 -38.0953 0 -25.1202 -35.7321 0 -24.2964 -33.4703 0 -23.4405 -31.3104 0 -22.5527 -29.2533 0 -21.6339 -27.2996 0 -20.7105 -25.4491 0 -19.7931 -23.6997 0 -18.8817 -22.0492 0 -17.9764 -20.4954 0 -17.077 -19.036 0 -16.1837 -17.6688 0 -15.3039 -16.3912 0 -14.4451 -15.1998 0 -13.6074 -14.0908 0 -12.7907 -13.0604 0 -11.9951 -12.1049 0 -11.2206 -11.2206 0 -10.4674 -10.4037 0 -9.73665 -9.65097 0 -9.02828 -8.95954 0 -8.34231 -8.3264 0 -7.67874 -7.74859 0 -7.03758 -7.22314 0 -6.41793 -6.74711 0 -5.81451 -6.31808 0 -5.22643 -5.93411 0 -4.6537 -5.59332 0 -4.0963 -5.29381 0 -3.55425 -5.03368 0 -3.02725 -4.81104 0 -2.50878 -4.62439 0 -1.99616 -4.47303 0 -1.48941 -4.35633 0 -0.988527 -4.27367 0 -0.493503 -4.22442 0 -0.00434178 -4.20796 0 -0.0169537 -70.0096 0 0.716833 -70.0589 0 1.43086 -70.2073 0 2.12512 -70.4529 0 2.79962 -70.7943 0 3.45436 -71.2296 0 4.08934 -71.7571 0 4.69564 -72.375 0 5.25149 -73.079 0 5.75589 -73.864 0 6.20885 -74.7246 0 6.61036 -75.6555 0 6.96042 -76.6514 0 7.2549 -77.7071 0 7.46895 -78.8153 0 7.59843 -79.9672 0 7.64335 -81.1539 0 7.60369 -82.3664 0 7.47947 -83.5958 0 7.27041 -84.8333 0 6.97051 -86.0683 0 6.57731 -87.2881 0 6.0908 -88.4791 0 5.511 -89.6283 0 4.8379 -90.7221 0 4.0715 -91.7475 0 3.20945 -92.6914 0 2.24942 -93.543 0 1.1914 -94.2917 0 0.0354021 -94.9271 0 -1.21859 -95.4385 0 -2.57056 -95.8155 0 -3.99506 -96.0477 0 -5.42985 -96.1255 0 -6.87211 -96.0397 0 -8.32184 -95.7813 0 -9.77902 -95.3409 0 -11.2437 -94.7095 0 -12.7099 -93.8783 0 -14.142 -92.8468 0 -15.5341 -91.6229 0 -16.8861 -90.2147 0 -18.1982 -88.6303 0 -19.4702 -86.878 0 -20.7002 -84.966 0 -21.8428 -82.9049 0 -22.8794 -80.7098 0 -23.8101 -78.3966 0 -24.6349 -75.9811 0 -25.3537 -73.479 0 -25.9666 -70.906 0 -26.4673 -68.2777 0 -26.8496 -65.6081 0 -27.1134 -62.9112 0 -27.2588 -60.2008 0 -27.2857 -57.4907 0 -27.1941 -54.7948 0 -26.997 -52.1265 0 -26.7256 -49.4962 0 -26.3814 -46.9123 0 -25.9643 -44.3835 0 -25.4744 -41.9184 0 -24.9118 -39.5255 0 -24.2815 -37.2132 0 -23.615 -34.9866 0 -22.9174 -32.847 0 -22.1889 -30.7958 0 -21.4293 -28.8344 0 -20.6387 -26.964 0 -19.8183 -25.1861 0 -18.9918 -23.5007 0 -18.1693 -21.9062 0 -17.3506 -20.4005 0 -16.5358 -18.9816 0 -15.7249 -17.6473 0 -14.9178 -16.3958 0 -14.1215 -15.2247 0 -13.3427 -14.131 0 -12.5816 -13.1117 0 -11.838 -12.1634 0 -11.112 -11.283 0 -10.4037 -10.4674 0 -9.71341 -9.71341 0 -9.04269 -9.01816 0 -8.39156 -8.379 0 -7.76002 -7.79327 0 -7.14806 -7.25829 0 -6.55569 -6.77138 0 -5.98216 -6.32991 0 -5.42293 -5.9317 0 -4.87726 -5.57504 0 -4.34514 -5.25825 0 -3.82658 -4.97966 0 -3.32158 -4.73759 0 -2.82987 -4.53036 0 -2.34575 -4.35663 0 -1.86689 -4.21574 0 -1.39329 -4.10711 0 -0.924943 -4.03013 0 -0.461854 -3.98423 0 -0.00402154 -3.96882 0 -0.015686 -64.4324 0 0.623784 -64.4753 0 1.24522 -64.6062 0 1.84863 -64.8233 0 2.434 -65.125 0 3.00134 -65.5094 0 3.55064 -65.9748 0 4.07391 -66.5192 0 4.55157 -67.1389 0 4.98272 -67.8294 0 5.36738 -68.5859 0 5.70553 -69.4039 0 5.99718 -70.2787 0 6.23866 -71.2057 0 6.40799 -72.1782 0 6.50149 -73.1879 0 6.51918 -74.2261 0 6.46104 -75.2843 0 6.32708 -76.3541 0 6.11712 -77.4268 0 5.82726 -78.4933 0 5.45588 -79.5434 0 5.00299 -80.5667 0 4.4686 -81.5528 0 3.8527 -82.4913 0 3.15529 -83.3718 0 2.37395 -84.1835 0 1.50625 -84.9143 0 0.552203 -85.5517 0 -0.488202 -86.0829 0 -1.61496 -86.4956 0 -2.82808 -86.7771 0 -4.10379 -86.9155 0 -5.38403 -86.9053 0 -6.66617 -86.7441 0 -7.95019 -86.4296 0 -9.2361 -85.9594 0 -10.5239 -85.3311 0 -11.8091 -84.5425 0 -13.0649 -83.5946 0 -14.2867 -82.4914 0 -15.4747 -81.2371 0 -16.6287 -79.8359 0 -17.7487 -78.292 0 -18.8331 -76.6097 0 -19.842 -74.7957 0 -20.7592 -72.8624 0 -21.5847 -70.8226 0 -22.3185 -68.689 0 -22.9606 -66.4745 0 -23.5111 -64.1918 0 -23.9633 -61.8539 0 -24.3107 -59.4741 0 -24.5534 -57.0659 0 -24.6913 -54.6427 0 -24.7244 -52.218 0 -24.6527 -49.8052 0 -24.4875 -47.4174 0 -24.2559 -45.0635 0 -23.9593 -42.7506 0 -23.5975 -40.4856 0 -23.1708 -38.2756 0 -22.6789 -36.1274 0 -22.1264 -34.048 0 -21.5401 -32.0417 0 -20.9242 -30.1104 0 -20.279 -28.256 0 -19.6043 -26.4802 0 -18.9002 -24.7849 0 -18.1676 -23.1716 0 -17.4281 -21.6413 0 -16.6906 -20.1921 0 -15.955 -18.8224 0 -15.2213 -17.5302 0 -14.4896 -16.3139 0 -13.7598 -15.1714 0 -13.0384 -14.101 0 -12.3315 -13.0999 0 -11.6394 -12.1657 0 -10.9619 -11.2955 0 -10.2991 -10.4867 0 -9.65097 -9.73665 0 -9.01816 -9.04269 0 -8.40234 -8.40234 0 -7.80357 -7.81318 0 -7.22185 -7.27284 0 -6.6572 -6.77892 0 -6.10959 -6.32902 0 -5.57841 -5.92078 0 -5.05984 -5.55224 0 -4.55325 -5.22191 0 -4.05863 -4.92831 0 -3.57599 -4.66995 0 -3.10533 -4.44535 0 -2.64641 -4.25303 0 -2.19423 -4.09179 0 -1.74673 -3.96103 0 -1.30392 -3.8602 0 -0.865803 -3.78873 0 -0.432367 -3.74608 0 -0.00361659 -3.73169 0 -0.0135896 -59.1251 0 0.542118 -59.1623 0 1.08156 -59.2773 0 1.60474 -59.4684 0 2.11165 -59.7338 0 2.6023 -60.0718 0 3.07668 -60.4807 0 3.52751 -60.9584 0 3.93698 -61.5017 0 4.30427 -62.1065 0 4.62939 -62.7688 0 4.91234 -63.4844 0 5.15311 -64.2495 0 5.34854 -65.0597 0 5.47961 -65.9091 0 5.54315 -66.7898 0 5.53915 -67.6937 0 5.46762 -68.6128 0 5.32857 -69.539 0 5.12183 -70.4644 0 4.84412 -71.381 0 4.4941 -72.2805 0 4.07177 -73.1549 0 3.57713 -73.9961 0 3.01018 -74.7959 0 2.37091 -75.5463 0 1.65887 -76.2383 0 0.873594 -76.8592 0 0.0150798 -77.3956 0 -0.916671 -77.8339 0 -1.92166 -78.1608 0 -2.99988 -78.3627 0 -4.13133 -78.4272 0 -5.26705 -78.3517 0 -6.40482 -78.1384 0 -7.54465 -77.7896 0 -8.68653 -77.3078 0 -9.83047 -76.6951 0 -10.9723 -75.954 0 -12.0871 -75.0862 0 -13.1706 -74.0932 0 -14.2229 -72.9764 0 -15.244 -71.7371 0 -16.2338 -70.3767 0 -17.1909 -68.8968 0 -18.0815 -67.3014 0 -18.8921 -65.6003 0 -19.6224 -63.8039 0 -20.2727 -61.9225 0 -20.8427 -59.9665 0 -21.3326 -57.9463 0 -21.7367 -55.8725 0 -22.049 -53.7576 0 -22.2697 -51.6143 0 -22.3988 -49.4553 0 -22.4362 -47.2933 0 -22.382 -45.1412 0 -22.2453 -43.0111 0 -22.0489 -40.911 0 -21.7937 -38.8467 0 -21.4798 -36.8237 0 -21.1071 -34.8478 0 -20.6757 -32.9248 0 -20.1894 -31.0602 0 -19.6717 -29.258 0 -19.1265 -27.5202 0 -18.5538 -25.849 0 -17.9536 -24.2464 0 -17.3259 -22.7145 0 -16.6716 -21.2554 0 -16.0097 -19.8699 0 -15.348 -18.5568 0 -14.6866 -17.3144 0 -14.0254 -16.1411 0 -13.3644 -15.0353 0 -12.7036 -13.9955 0 -12.0491 -13.0199 0 -11.4067 -12.1064 0 -10.7766 -11.2527 0 -10.1587 -10.4566 0 -9.55301 -9.71588 0 -8.95954 -9.02828 0 -8.379 -8.39156 0 -7.81318 -7.80357 0 -7.26216 -7.26216 0 -6.72593 -6.76521 0 -6.20449 -6.31058 0 -5.69785 -5.89614 0 -5.20547 -5.51978 0 -4.72421 -5.17979 0 -4.25352 -4.87482 0 -3.79342 -4.60358 0 -3.3439 -4.36475 0 -2.90496 -4.15704 0 -2.47641 -3.97913 0 -2.05381 -3.82996 0 -1.63538 -3.70898 0 -1.22109 -3.61567 0 -0.81096 -3.54952 0 -0.404984 -3.51001 0 -0.00316326 -3.49665 0 -0.0110755 -54.0876 0 0.470647 -54.1198 0 0.937838 -54.2206 0 1.3905 -54.3881 0 1.82862 -54.6208 0 2.25222 -54.9169 0 2.66128 -55.2748 0 3.04911 -55.6926 0 3.39932 -56.1673 0 3.71118 -56.6954 0 3.98467 -57.2732 0 4.21981 -57.8972 0 4.41659 -58.5637 0 4.57233 -59.2692 0 4.67093 -60.008 0 4.70971 -60.773 0 4.68867 -61.5566 0 4.60782 -62.3516 0 4.46714 -63.1506 0 4.26648 -63.9461 0 4.00222 -64.7312 0 3.67289 -65.4991 0 3.27849 -66.2436 0 2.81901 -66.9581 0 2.29445 -67.6361 0 1.70483 -68.2711 0 1.05278 -68.8557 0 0.340982 -69.3775 0 -0.430579 -69.8234 0 -1.2619 -70.18 0 -2.15298 -70.4341 0 -3.10381 -70.5724 0 -4.09925 -70.5828 0 -5.1022 -70.4646 0 -6.11098 -70.2224 0 -7.1256 -69.8613 0 -8.14606 -69.386 0 -9.17235 -68.8015 0 -10.1999 -68.1126 0 -11.2013 -67.3215 0 -12.1719 -66.4282 0 -13.1117 -65.4323 0 -14.0208 -64.3337 0 -14.8992 -63.1321 0 -15.7455 -61.8273 0 -16.5323 -60.4217 0 -17.2483 -58.9233 0 -17.8935 -57.3405 0 -18.4679 -55.6816 0 -18.9714 -53.955 0 -19.4042 -52.1694 0 -19.7619 -50.3335 0 -20.0402 -48.4586 0 -20.239 -46.5563 0 -20.3585 -44.6385 0 -20.3986 -42.7167 0 -20.3593 -40.8027 0 -20.2478 -38.9077 0 -20.082 -37.0387 0 -19.8626 -35.2005 0 -19.5897 -33.3977 0 -19.2632 -31.6352 0 -18.8832 -29.9177 0 -18.4531 -28.25 0 -17.9941 -26.6354 0 -17.5098 -25.0762 0 -17.0002 -23.5746 0 -16.4652 -22.1328 0 -15.9048 -20.753 0 -15.3198 -19.4372 0 -14.7268 -18.1867 0 -14.1326 -17.0002 0 -13.5371 -15.8765 0 -12.9403 -14.8141 0 -12.3423 -13.8117 0 -11.743 -12.868 0 -11.1481 -11.9815 0 -10.5635 -11.1503 0 -9.98897 -10.3727 0 -9.42462 -9.6468 0 -8.87043 -8.97061 0 -8.3264 -8.34231 0 -7.79327 -7.76002 0 -7.27284 -7.22185 0 -6.76521 -6.72593 0 -6.27036 -6.27036 0 -5.78829 -5.85325 0 -5.31902 -5.47274 0 -4.8621 -5.12694 0 -4.41496 -4.81434 0 -3.97718 -4.53376 0 -3.54875 -4.28406 0 -3.12968 -4.06408 0 -2.71995 -3.87266 0 -2.3194 -3.70866 0 -1.92412 -3.57114 0 -1.53251 -3.45959 0 -1.14455 -3.37353 0 -0.76027 -3.31251 0 -0.379651 -3.27605 0 -0.00269822 -3.2637 0 -0.00855464 -49.3198 0 0.408181 -49.348 0 0.812011 -49.436 0 1.20293 -49.5826 0 1.58095 -49.7859 0 1.94606 -50.0447 0 2.29826 -50.3572 0 2.63135 -50.7218 0 2.93018 -51.1358 0 3.19406 -51.5961 0 3.42299 -52.0993 0 3.61696 -52.6422 0 3.77598 -53.2215 0 3.89781 -53.8341 0 3.96907 -54.4749 0 3.98751 -55.1374 0 3.95315 -55.815 0 3.86599 -56.501 0 3.72601 -57.1889 0 3.53303 -57.8719 0 3.28267 -58.544 0 2.97316 -59.1995 0 2.60448 -59.8329 0 2.17665 -60.4388 0 1.68966 -61.0117 0 1.14351 -61.5462 0 0.544257 -62.0357 0 -0.102041 -62.4693 0 -0.795386 -62.8352 0 -1.53578 -63.1212 0 -2.32322 -63.3155 0 -3.1577 -63.4062 0 -4.02912 -63.3824 0 -4.91278 -63.244 0 -5.80755 -62.9963 0 -6.71343 -62.6446 0 -7.63042 -62.1942 0 -8.55852 -61.6504 0 -9.49243 -61.0185 0 -10.4003 -60.3007 0 -11.2769 -59.4964 0 -12.1221 -58.605 0 -12.9361 -57.6258 0 -13.7187 -56.5581 0 -14.469 -55.4012 0 -15.1651 -54.1569 0 -15.798 -52.8316 0 -16.3679 -51.4323 0 -16.8746 -49.9662 0 -17.3182 -48.4401 0 -17.6987 -46.8612 0 -18.0134 -45.2369 0 -18.2598 -43.5771 0 -18.4379 -41.8921 0 -18.5476 -40.1923 0 -18.589 -38.488 0 -18.5621 -36.7897 0 -18.4722 -35.1071 0 -18.3325 -33.4465 0 -18.1438 -31.812 0 -17.9059 -30.2077 0 -17.6188 -28.6377 0 -17.2826 -27.1062 0 -16.9005 -25.6172 0 -16.492 -24.1739 0 -16.0602 -22.7785 0 -15.6053 -21.433 0 -15.1272 -20.1395 0 -14.6259 -18.9002 0 -14.1021 -17.7172 0 -13.5699 -16.5916 0 -13.0353 -15.5225 0 -12.4981 -14.5088 0 -11.9585 -13.5493 0 -11.4164 -12.6431 0 -10.8718 -11.7889 0 -10.3302 -10.9857 0 -9.79702 -10.2319 0 -9.27227 -9.52584 0 -8.75594 -8.86604 0 -8.24805 -8.25087 0 -7.74859 -7.67874 0 -7.25829 -7.14806 0 -6.77892 -6.6572 0 -6.31058 -6.20449 0 -5.85325 -5.78829 0 -5.40695 -5.40695 0 -4.97167 -5.05881 0 -4.54706 -4.74224 0 -4.13106 -4.45589 0 -3.72333 -4.19873 0 -3.32387 -3.96975 0 -2.93268 -3.76792 0 -2.54975 -3.59222 0 -2.17494 -3.44163 0 -1.80476 -3.31533 0 -1.43781 -3.21285 0 -1.07409 -3.13378 0 -0.713587 -3.07769 0 -0.35631 -3.04418 0 -0.00225811 -3.03283 0 -0.00643815 -44.8219 0 0.353532 -44.8467 0 0.702041 -44.9237 0 1.03909 -45.0517 0 1.36467 -45.2292 0 1.67879 -45.455 0 1.98145 -45.7278 0 2.26692 -46.046 0 2.52116 -46.4072 0 2.74356 -46.8085 0 2.9341 -47.2469 0 3.09279 -47.7193 0 3.21963 -48.2229 0 3.31277 -48.7545 0 3.36113 -49.3097 0 3.36288 -49.8831 0 3.318 -50.4687 0 3.22651 -51.0608 0 3.08839 -51.6538 0 2.90342 -52.2418 0 2.66658 -52.8194 0 2.37581 -53.3814 0 2.03111 -53.9227 0 1.63248 -54.4383 0 1.17992 -54.9229 0 0.673429 -55.3716 0 0.12186 -55.7784 0 -0.465935 -56.1347 0 -1.08996 -56.4309 0 -1.7502 -56.6575 0 -2.44668 -56.8051 0 -3.17937 -56.864 0 -3.94254 -56.8258 0 -4.72211 -56.69 0 -5.51744 -56.46 0 -6.32853 -56.1395 0 -7.15537 -55.7322 0 -7.99798 -55.2417 0 -8.85041 -54.6716 0 -9.67703 -54.0236 0 -10.4719 -53.2978 0 -11.235 -52.4944 0 -11.9664 -51.6134 0 -12.666 -50.6548 0 -13.3331 -49.6185 0 -13.9506 -48.5067 0 -14.5115 -47.325 0 -15.0158 -46.0796 0 -15.4635 -44.7764 0 -15.8546 -43.4217 0 -16.189 -42.0216 0 -16.4658 -40.5826 0 -16.6838 -39.113 0 -16.843 -37.6215 0 -16.9434 -36.1167 0 -16.985 -34.6074 0 -16.9678 -33.1021 0 -16.8957 -31.6094 0 -16.778 -30.1345 0 -16.615 -28.6813 0 -16.4069 -27.2536 0 -16.1536 -25.8553 0 -15.8551 -24.4901 0 -15.5144 -23.162 0 -15.1495 -21.8736 0 -14.7634 -20.627 0 -14.3562 -19.424 0 -13.9278 -18.2665 0 -13.4782 -17.1564 0 -13.0079 -16.0954 0 -12.5292 -15.0847 0 -12.0471 -14.1235 0 -11.5615 -13.2111 0 -11.0724 -12.3467 0 -10.5799 -11.5293 0 -10.084 -10.7583 0 -9.5898 -10.0325 0 -9.10256 -9.3509 0 -8.62227 -8.71195 0 -8.14894 -8.11433 0 -7.68256 -7.55666 0 -7.22314 -7.03758 0 -6.77138 -6.55569 0 -6.32902 -6.10959 0 -5.89614 -5.69785 0 -5.47274 -5.31902 0 -5.05881 -4.97167 0 -4.65436 -4.65436 0 -4.25912 -4.36568 0 -3.87145 -4.10444 0 -3.49109 -3.86974 0 -3.11803 -3.66065 0 -2.75228 -3.47628 0 -2.39383 -3.31571 0 -2.04254 -3.17804 0 -1.69535 -3.06253 0 -1.35099 -2.96877 0 -1.00946 -2.89641 0 -0.670766 -2.84508 0 -0.334906 -2.81441 0 -0.00187958 -2.80404 0 -0.00512267 -40.5796 0 0.305527 -40.6017 0 0.605909 -40.6692 0 0.896023 -40.781 0 1.17587 -40.9359 0 1.44545 -41.133 0 1.70476 -41.3712 0 1.94854 -41.6493 0 2.16395 -41.9651 0 2.35041 -42.3157 0 2.50791 -42.6984 0 2.63646 -43.1102 0 2.73605 -43.5485 0 2.80513 -44.0103 0 2.83439 -44.4918 0 2.82227 -44.9884 0 2.76879 -45.4952 0 2.67393 -46.0075 0 2.5377 -46.5206 0 2.35986 -47.0297 0 2.13534 -47.5298 0 1.86204 -48.0158 0 1.53998 -48.4823 0 1.16914 -48.9242 0 0.749539 -49.3361 0 0.281164 -49.7128 0 -0.225787 -50.0489 0 -0.761122 -50.3385 0 -1.32484 -50.5752 0 -1.91694 -50.753 0 -2.53743 -50.8658 0 -3.1863 -50.9073 0 -3.86055 -50.8718 0 -4.55287 -50.7576 0 -5.26291 -50.5648 0 -5.99067 -50.2937 0 -6.73616 -49.9444 0 -7.49938 -49.5171 0 -8.27424 -49.0122 0 -9.02429 -48.4306 0 -9.74345 -47.7739 0 -10.4317 -47.044 0 -11.0891 -46.2425 0 -11.7156 -45.3711 0 -12.3105 -44.4316 0 -12.8603 -43.427 0 -13.3594 -42.3626 0 -13.8078 -41.2442 0 -14.2054 -40.0773 0 -14.5523 -38.8677 0 -14.8485 -37.621 0 -15.0938 -36.3432 0 -15.288 -35.0406 0 -15.4311 -33.7203 0 -15.5232 -32.3889 0 -15.5643 -31.0532 0 -15.5543 -29.72 0 -15.4959 -28.3959 0 -15.3959 -27.0856 0 -15.2545 -25.7929 0 -15.0717 -24.5217 0 -14.8475 -23.2757 0 -14.582 -22.0587 0 -14.2778 -20.8746 0 -13.9514 -19.7259 0 -13.6054 -18.6141 0 -13.24 -17.5408 0 -12.855 -16.5075 0 -12.4506 -15.5156 0 -12.0271 -14.5666 0 -11.5952 -13.6613 0 -11.1591 -12.7993 0 -10.7189 -11.9802 0 -10.2745 -11.2032 0 -9.82604 -10.468 0 -9.37341 -9.77383 0 -8.92154 -9.12017 0 -8.47533 -8.50588 0 -8.03478 -7.92973 0 -7.5999 -7.3905 0 -7.17067 -6.88697 0 -6.74711 -6.41793 0 -6.32991 -5.98216 0 -5.92078 -5.57841 0 -5.51978 -5.20547 0 -5.12694 -4.8621 0 -4.74224 -4.54706 0 -4.36568 -4.25912 0 -3.99705 -3.99705 0 -3.63508 -3.75984 0 -3.27956 -3.54665 0 -2.93047 -3.35666 0 -2.58783 -3.18908 0 -2.25163 -3.04307 0 -1.92176 -2.91783 0 -1.59549 -2.8127 0 -1.27172 -2.72733 0 -0.950441 -2.66143 0 -0.631663 -2.61467 0 -0.315382 -2.58675 0 -0.00159794 -2.57736 0 -0.00467519 -36.5076 0 0.263377 -36.5273 0 0.522096 -36.5861 0 0.771482 -36.683 0 1.01153 -36.8174 0 1.24225 -36.9884 0 1.46364 -37.1951 0 1.67094 -37.4366 0 1.85253 -37.7109 0 2.0079 -38.0153 0 2.13704 -38.3472 0 2.23995 -38.704 0 2.31664 -39.083 0 2.36574 -39.4816 0 2.37914 -39.8964 0 2.35549 -40.3237 0 2.29479 -40.7595 0 2.19704 -41.1999 0 2.06224 -41.641 0 1.89018 -42.0789 0 1.67646 -42.5093 0 1.41927 -42.9269 0 1.11861 -43.3264 0 0.774469 -43.7025 0 0.386859 -44.05 0 -0.044222 -44.3636 0 -0.50888 -44.6381 0 -0.99722 -44.8701 0 -1.50924 -45.056 0 -2.04494 -45.1925 0 -2.60433 -45.2762 0 -3.18739 -45.3038 0 -3.79211 -45.2719 0 -4.41351 -45.1777 0 -5.05139 -45.0186 0 -5.70573 -44.7921 0 -6.37653 -44.4956 0 -7.0638 -44.1266 0 -7.76192 -43.6825 0 -8.43721 -43.1638 0 -9.08404 -42.5732 0 -9.70242 -41.9139 0 -10.2924 -41.1889 0 -10.8538 -40.4014 0 -11.3863 -39.5543 0 -11.8783 -38.6514 0 -12.325 -37.6978 0 -12.7264 -36.6988 0 -13.0825 -35.6595 0 -13.3934 -34.5853 0 -13.659 -33.4813 0 -13.8794 -32.3527 0 -14.0547 -31.2048 0 -14.1848 -30.0427 0 -14.2699 -28.8715 0 -14.3098 -27.6963 0 -14.3045 -26.5224 0 -14.2563 -25.3546 0 -14.1702 -24.1973 0 -14.0465 -23.0541 0 -13.8852 -21.9288 0 -13.6863 -20.825 0 -13.4498 -19.7465 0 -13.1781 -18.697 0 -12.8858 -17.6789 0 -12.5753 -16.6933 0 -12.2465 -15.7415 0 -11.8996 -14.8246 0 -11.5345 -13.9437 0 -11.1516 -13.0999 0 -10.7603 -12.294 0 -10.3645 -11.5257 0 -9.96404 -10.7948 0 -9.55905 -10.1008 0 -9.14948 -9.44344 0 -8.73535 -8.82245 0 -8.32118 -8.23735 0 -7.91154 -7.6872 0 -7.5064 -7.17092 0 -7.10578 -6.68743 0 -6.70967 -6.23565 0 -6.31808 -5.81451 0 -5.9317 -5.42293 0 -5.55224 -5.05984 0 -5.17979 -4.72421 0 -4.81434 -4.41496 0 -4.45589 -4.13106 0 -4.10444 -3.87145 0 -3.75984 -3.63508 0 -3.42107 -3.42107 0 -3.08797 -3.22867 0 -2.76054 -3.05717 0 -2.43879 -2.90583 0 -2.12271 -2.77393 0 -1.81219 -2.66074 0 -1.50486 -2.56568 0 -1.19975 -2.48846 0 -0.896845 -2.42882 0 -0.596156 -2.38651 0 -0.29768 -2.36125 0 -0.00141775 -2.3528 0 -0.00483304 -32.5919 0 0.226677 -32.6092 0 0.449582 -32.6599 0 0.66388 -32.7434 0 0.869573 -32.859 0 1.06666 -33.0061 0 1.25514 -33.184 0 1.43077 -33.3921 0 1.58317 -33.6283 0 1.71186 -33.8903 0 1.81686 -34.1758 0 1.89815 -34.4822 0 1.95574 -34.8073 0 1.9884 -35.1484 0 1.98877 -35.5029 0 1.95564 -35.8675 0 1.889 -36.2391 0 1.78884 -36.6144 0 1.65518 -36.9902 0 1.48786 -37.3634 0 1.28363 -37.7302 0 1.04115 -38.0854 0 0.760434 -38.4241 0 0.441472 -38.741 0 0.0842676 -39.0312 0 -0.31118 -39.2894 0 -0.736428 -39.5111 0 -1.18303 -39.6944 0 -1.651 -39.8379 0 -2.14032 -39.94 0 -2.65099 -39.9995 0 -3.18303 -40.0149 0 -3.73406 -39.9847 0 -4.2983 -39.9054 0 -4.87549 -39.7727 0 -5.46563 -39.5824 0 -6.06872 -39.3302 0 -6.68476 -39.0117 0 -7.30902 -38.6228 0 -7.91306 -38.1634 0 -8.49214 -37.637 0 -9.04626 -37.0475 0 -9.57543 -36.3987 0 -10.0796 -35.6946 0 -10.5584 -34.9388 0 -11.0012 -34.1355 0 -11.4038 -33.2895 0 -11.7661 -32.4054 0 -12.0881 -31.4881 0 -12.3698 -30.5422 0 -12.6112 -29.5725 0 -12.8122 -28.5837 0 -12.9725 -27.5797 0 -13.0922 -26.5644 0 -13.1712 -25.5417 0 -13.2096 -24.5153 0 -13.2073 -23.4891 0 -13.1662 -22.467 0 -13.0909 -21.4527 0 -12.9816 -20.4495 0 -12.8384 -19.4611 0 -12.6612 -18.4909 0 -12.4501 -17.5426 0 -12.207 -16.6196 0 -11.9447 -15.724 0 -11.6652 -14.8569 0 -11.3684 -14.019 0 -11.0545 -13.2114 0 -10.7234 -12.4349 0 -10.3755 -11.6903 0 -10.0194 -10.9783 0 -9.65837 -10.2987 0 -9.29259 -9.65145 0 -8.92201 -9.03632 0 -8.54664 -8.45319 0 -8.16646 -7.90192 0 -7.78564 -7.38222 0 -7.40832 -6.89328 0 -7.03451 -6.43417 0 -6.6642 -6.00395 0 -6.29741 -5.60169 0 -5.93411 -5.22643 0 -5.57504 -4.87726 0 -5.22191 -4.55325 0 -4.87482 -4.25352 0 -4.53376 -3.97718 0 -4.19873 -3.72333 0 -3.86974 -3.49109 0 -3.54665 -3.27956 0 -3.22867 -3.08797 0 -2.91568 -2.91568 0 -2.60768 -2.76206 0 -2.30467 -2.62644 0 -2.00665 -2.50821 0 -1.71352 -2.40671 0 -1.42321 -2.32143 0 -1.13488 -2.25214 0 -0.848527 -2.1986 0 -0.564147 -2.16061 0 -0.281742 -2.13795 0 -0.00131282 -2.13039 0 -0.00531919 -28.8324 0 0.195038 -28.8474 0 0.387366 -28.8907 0 0.571664 -28.962 0 0.747933 -29.0607 0 0.916172 -29.1862 0 1.07638 -29.338 0 1.2248 -29.5156 0 1.35222 -29.7172 0 1.45823 -29.9408 0 1.54284 -30.184 0 1.60603 -30.4449 0 1.64781 -30.7212 0 1.66703 -31.0108 0 1.6568 -31.3112 0 1.61598 -31.6197 0 1.54456 -31.9339 0 1.44254 -32.251 0 1.30992 -32.5683 0 1.14662 -32.8832 0 0.95077 -33.1925 0 0.721619 -33.4914 0 0.45916 -33.7754 0 0.163396 -34.0397 0 -0.165676 -34.2796 0 -0.528053 -34.4903 0 -0.917389 -34.668 0 -1.32734 -34.8116 0 -1.75789 -34.9208 0 -2.20906 -34.9956 0 -2.68083 -35.0356 0 -3.17322 -35.0406 0 -3.68273 -35.0101 0 -4.20085 -34.9406 0 -4.72717 -34.8271 0 -5.26172 -34.6646 0 -5.80448 -34.448 0 -6.35546 -34.1725 0 -6.911 -33.8331 0 -7.44922 -33.4294 0 -7.96647 -32.9653 0 -8.46274 -32.4448 0 -8.93804 -31.8719 0 -9.39236 -31.2507 0 -9.82525 -30.5852 0 -10.2265 -29.8794 0 -10.592 -29.1377 0 -10.9217 -28.3641 0 -11.2156 -27.563 0 -11.4738 -26.7385 0 -11.6961 -25.8949 0 -11.8819 -25.0362 0 -12.0304 -24.1654 0 -12.1416 -23.2855 0 -12.2155 -22.3994 0 -12.2521 -21.51 0 -12.2513 -20.6203 0 -12.2152 -19.7331 0 -12.1482 -18.8516 0 -12.0507 -17.979 0 -11.9226 -17.1186 0 -11.7639 -16.2735 0 -11.5746 -15.447 0 -11.3564 -14.6423 0 -11.1202 -13.8613 0 -10.8675 -13.1048 0 -10.5984 -12.3735 0 -10.3129 -11.6681 0 -10.011 -10.9893 0 -9.69307 -10.3378 0 -9.36702 -9.71415 0 -9.03608 -9.1183 0 -8.70026 -8.55022 0 -8.35954 -8.00987 0 -8.01394 -7.49723 0 -7.66346 -7.01225 0 -7.31184 -6.55476 0 -6.96287 -6.12411 0 -6.61653 -5.71948 0 -6.27282 -5.34006 0 -5.93175 -4.98507 0 -5.59332 -4.6537 0 -5.25825 -4.34514 0 -4.92831 -4.05863 0 -4.60358 -3.79342 0 -4.28406 -3.54875 0 -3.96975 -3.32387 0 -3.66065 -3.11803 0 -3.35666 -2.93047 0 -3.05717 -2.76054 0 -2.76206 -2.60768 0 -2.47133 -2.47133 0 -2.185 -2.35093 0 -1.90305 -2.24592 0 -1.62541 -2.15574 0 -1.35028 -2.07996 0 -1.07693 -2.01836 0 -0.805345 -1.97076 0 -0.53554 -1.93698 0 -0.26751 -1.91682 0 -0.00125561 -1.91012 0 -0.00585665 -25.2292 0 0.168072 -25.2418 0 0.33445 -25.2785 0 0.49328 -25.3389 0 0.64456 -25.4224 0 0.788291 -25.5286 0 0.924472 -25.657 0 1.04977 -25.8072 0 1.15606 -25.9777 0 1.24295 -26.1666 0 1.31046 -26.372 0 1.35858 -26.592 0 1.38732 -26.8249 0 1.39556 -27.0687 0 1.37675 -27.3212 0 1.32976 -27.5804 0 1.25462 -27.844 0 1.15131 -28.1096 0 1.01983 -28.3751 0 0.860172 -28.6383 0 0.671828 -28.8962 0 0.454598 -29.1449 0 0.208482 -29.3804 0 -0.0665202 -29.5985 0 -0.370409 -29.7952 0 -0.703184 -29.9664 0 -1.06072 -30.1086 0 -1.4389 -30.2214 0 -1.83771 -30.3049 0 -2.25716 -30.3592 0 -2.69725 -30.3845 0 -3.15797 -30.3809 0 -3.63446 -30.3483 0 -4.11478 -30.2835 0 -4.59841 -30.1818 0 -5.08533 -30.0386 0 -5.57555 -29.8492 0 -6.06906 -29.6089 0 -6.56333 -29.3134 0 -7.04307 -28.962 0 -7.50574 -28.5583 0 -7.95134 -28.1059 0 -8.37987 -27.6085 0 -8.79132 -27.0698 0 -9.18524 -26.4934 0 -9.55146 -25.8831 0 -9.88582 -25.2424 0 -10.1883 -24.5749 0 -10.459 -23.8844 0 -10.6977 -23.1743 0 -10.9047 -22.4484 0 -11.0783 -21.71 0 -11.2172 -20.9617 0 -11.3214 -20.2058 0 -11.3909 -19.4447 0 -11.4256 -18.6806 0 -11.4256 -17.9158 0 -11.393 -17.1528 0 -11.3325 -16.3942 0 -11.2445 -15.6427 0 -11.1289 -14.9013 0 -10.9858 -14.1727 0 -10.8151 -13.4597 0 -10.6183 -12.7652 0 -10.4043 -12.0907 0 -10.1746 -11.437 0 -9.92906 -10.8048 0 -9.66782 -10.1945 0 -9.39083 -9.6068 0 -9.09844 -9.04235 0 -8.7981 -8.50154 0 -8.49287 -7.98444 0 -8.18275 -7.49106 0 -7.86774 -7.02142 0 -7.54784 -6.57554 0 -7.22304 -6.15343 0 -6.89675 -5.755 0 -6.57236 -5.37969 0 -6.24987 -5.02683 0 -5.92928 -4.69576 0 -5.6106 -4.38581 0 -5.29381 -4.0963 0 -4.97966 -3.82658 0 -4.66995 -3.57599 0 -4.36475 -3.3439 0 -4.06408 -3.12968 0 -3.76792 -2.93268 0 -3.47628 -2.75228 0 -3.18908 -2.58783 0 -2.90583 -2.43879 0 -2.62644 -2.30467 0 -2.35093 -2.185 0 -2.07929 -2.07929 0 -1.81151 -1.98706 0 -1.54754 -1.90785 0 -1.28581 -1.84127 0 -1.02568 -1.78714 0 -0.767155 -1.7453 0 -0.510238 -1.7156 0 -0.254926 -1.69788 0 -0.00121858 -1.69199 0 -0.00616839 -21.7821 0 0.145388 -21.7926 0 0.289835 -21.8233 0 0.427172 -21.874 0 0.5574 -21.9442 0 0.680518 -22.0333 0 0.796526 -22.1411 0 0.902454 -22.267 0 0.991045 -22.4097 0 1.06197 -22.5678 0 1.11522 -22.7396 0 1.15081 -22.9236 0 1.16872 -23.1183 0 1.16792 -23.3221 0 1.14211 -23.5331 0 1.09025 -23.7496 0 1.01233 -23.9693 0 0.908349 -24.1904 0 0.778314 -24.4108 0 0.622249 -24.6286 0 0.440739 -24.8413 0 0.234021 -25.0459 0 0.00209707 -25.239 0 -0.255034 -25.4175 0 -0.537372 -25.5781 0 -0.844916 -25.7175 0 -1.17538 -25.8331 0 -1.52649 -25.9241 0 -1.89823 -25.9901 0 -2.29061 -26.0309 0 -2.70363 -26.0462 0 -3.13729 -26.0358 0 -3.58557 -25.9991 0 -4.03374 -25.9339 0 -4.48115 -25.8367 0 -4.92779 -25.7044 0 -5.37367 -25.5336 0 -5.81877 -25.3211 0 -6.26148 -25.0636 0 -6.692 -24.761 0 -7.1087 -24.4157 0 -7.51158 -24.0306 0 -7.90063 -23.6084 0 -8.27587 -23.1518 0 -8.63682 -22.6636 0 -8.97337 -22.1465 0 -9.28136 -21.6036 0 -9.5608 -21.0378 0 -9.8117 -20.4521 0 -10.034 -19.8495 0 -10.2278 -19.2329 0 -10.3911 -18.6053 0 -10.5218 -17.9688 0 -10.6199 -17.3255 0 -10.6855 -16.6775 0 -10.7186 -16.0269 0 -10.7191 -15.3758 0 -10.6891 -14.7262 0 -10.634 -14.0804 0 -10.5538 -13.4406 0 -10.4487 -12.8093 0 -10.3185 -12.1885 0 -10.1634 -11.5808 0 -9.98448 -10.9882 0 -9.78919 -10.4123 0 -9.57876 -9.85367 0 -9.35317 -9.31292 0 -9.11244 -8.79066 0 -8.85655 -8.28746 0 -8.58584 -7.80394 0 -8.30737 -7.34049 0 -8.02402 -6.89717 0 -7.7358 -6.47399 0 -7.44271 -6.07097 0 -7.14475 -5.68813 0 -6.84192 -5.32547 0 -6.53731 -4.98291 0 -6.23399 -4.66001 0 -5.93196 -4.35624 0 -5.63124 -4.07105 0 -5.33181 -3.8039 0 -5.03368 -3.55425 0 -4.73759 -3.32158 0 -4.44535 -3.10533 0 -4.15704 -2.90496 0 -3.87266 -2.71995 0 -3.59222 -2.54975 0 -3.31571 -2.39383 0 -3.04307 -2.25163 0 -2.77393 -2.12271 0 -2.50821 -2.00665 0 -2.24592 -1.90305 0 -1.98706 -1.81151 0 -1.73164 -1.73164 0 -1.47958 -1.66302 0 -1.22953 -1.60535 0 -0.980945 -1.55846 0 -0.733815 -1.52222 0 -0.488143 -1.49649 0 -0.24393 -1.48113 0 -0.00117421 -1.476 0 -0.00597907 -18.4881 0 0.1266 -18.4964 0 0.252523 -18.5219 0 0.371791 -18.5642 0 0.484403 -18.6228 0 0.59036 -18.6971 0 0.689661 -18.7869 0 0.779599 -18.8914 0 0.853551 -19.0098 0 0.911217 -19.1407 0 0.952597 -19.2832 0 0.977691 -19.4358 0 0.986498 -19.5975 0 0.97804 -19.7669 0 0.946436 -19.9427 0 0.890705 -20.1228 0 0.81085 -20.3053 0 0.706868 -20.4885 0 0.578761 -20.6705 0 0.426579 -20.8492 0 0.251447 -21.0228 0 0.0538246 -21.1892 0 -0.166288 -21.346 0 -0.408892 -21.4912 0 -0.673986 -21.6226 0 -0.96157 -21.738 0 -1.27031 -21.8353 0 -1.59886 -21.913 0 -1.94722 -21.9696 0 -2.3154 -22.0037 0 -2.70339 -22.0137 0 -3.11119 -21.9982 0 -3.5324 -21.9558 0 -3.95138 -21.8854 0 -4.36741 -21.786 0 -4.78049 -21.6567 0 -5.19062 -21.4964 0 -5.5978 -21.3044 0 -6.00093 -21.0796 0 -6.39338 -20.8222 0 -6.77404 -20.5335 0 -7.14292 -20.2148 0 -7.50002 -19.8672 0 -7.84533 -19.492 0 -8.17842 -19.0907 0 -8.48957 -18.6646 0 -8.7748 -18.2161 0 -9.03413 -17.7474 0 -9.26755 -17.2609 0 -9.47505 -16.7588 0 -9.65665 -16.2435 0 -9.81007 -15.7171 0 -9.93304 -15.182 0 -10.0256 -14.6402 0 -10.0877 -14.0939 0 -10.1193 -13.5453 0 -10.1205 -12.9967 0 -10.0933 -12.45 0 -10.0429 -11.9072 0 -9.96954 -11.3699 0 -9.87313 -10.8398 0 -9.75371 -10.3185 0 -9.61128 -9.80779 0 -9.44691 -9.30925 0 -9.26694 -8.82405 0 -9.07245 -8.35286 0 -8.86343 -7.89636 0 -8.63988 -7.45518 0 -8.4018 -7.02998 0 -8.1495 -6.62143 0 -7.88959 -6.22995 0 -7.62481 -5.85554 0 -7.35513 -5.49816 0 -7.08058 -5.15777 0 -6.80114 -4.83431 0 -6.51682 -4.52774 0 -6.23047 -4.23795 0 -5.94494 -3.9646 0 -5.66023 -3.70726 0 -5.37634 -3.46553 0 -5.09328 -3.239 0 -4.81104 -3.02725 0 -4.53036 -2.82987 0 -4.25303 -2.64641 0 -3.97913 -2.47641 0 -3.70866 -2.3194 0 -3.44163 -2.17494 0 -3.17804 -2.04254 0 -2.91783 -1.92176 0 -2.66074 -1.81219 0 -2.40671 -1.71352 0 -2.15574 -1.62541 0 -1.90785 -1.54754 0 -1.66302 -1.47958 0 -1.4212 -1.4212 0 -1.1812 -1.37215 0 -0.94253 -1.33229 0 -0.705182 -1.30147 0 -0.46916 -1.27959 0 -0.234465 -1.26651 0 -0.00109512 -1.26211 0 -0.00521465 -15.277 0 0.111347 -15.2834 0 0.221742 -15.304 0 0.325968 -15.3385 0 0.424026 -15.3863 0 0.515916 -15.4469 0 0.601639 -15.5198 0 0.67864 -15.6046 0 0.740682 -15.7004 0 0.787481 -15.8065 0 0.819036 -15.9218 0 0.835347 -16.0454 0 0.836415 -16.1766 0 0.821357 -16.3144 0 0.78488 -16.4574 0 0.726101 -16.604 0 0.64502 -16.7524 0 0.541638 -16.9008 0 0.415954 -17.0476 0 0.268015 -17.1909 0 0.0988582 -17.3292 0 -0.0910932 -17.4612 0 -0.301839 -17.5856 0 -0.533379 -17.7011 0 -0.785713 -17.8065 0 -1.05884 -17.9005 0 -1.35128 -17.9817 0 -1.66154 -18.0477 0 -1.98963 -18.0963 0 -2.33554 -18.1251 0 -2.69928 -18.1315 0 -3.08084 -18.1133 0 -3.47441 -18.0682 0 -3.86578 -17.9962 0 -4.25431 -17.8982 0 -4.63999 -17.7753 0 -5.02282 -17.6284 0 -5.40281 -17.4585 0 -5.77891 -17.2667 0 -6.14488 -17.0533 0 -6.49967 -16.8186 0 -6.84329 -16.5625 0 -7.17574 -16.285 0 -7.49701 -15.9863 0 -7.8067 -15.6663 0 -8.09605 -15.3256 0 -8.36146 -14.9658 0 -8.60293 -14.5886 0 -8.82047 -14.1955 0 -9.01406 -13.7884 0 -9.18372 -13.3687 0 -9.32729 -12.9384 0 -9.44262 -12.4995 0 -9.52971 -12.0543 0 -9.58857 -11.6049 0 -9.61919 -11.1535 0 -9.62157 -10.7024 0 -9.59757 -10.2536 0 -9.55175 -9.80873 0 -9.4843 -9.3688 0 -9.39522 -8.93497 0 -9.28453 -8.50835 0 -9.15221 -8.09006 0 -8.99924 -7.68122 0 -8.83144 -7.28273 0 -8.64979 -6.89528 0 -8.45429 -6.51956 0 -8.24493 -6.15624 0 -8.02172 -5.80602 0 -7.78494 -5.46957 0 -7.54069 -5.14733 0 -7.29149 -4.83925 0 -7.03732 -4.54524 0 -6.7782 -4.2652 0 -6.51412 -3.99903 0 -6.24509 -3.74664 0 -5.9738 -3.5079 0 -5.70299 -3.28253 0 -5.43264 -3.07023 0 -5.16276 -2.87071 0 -4.89334 -2.68366 0 -4.62439 -2.50878 0 -4.35663 -2.34575 0 -4.09179 -2.19423 0 -3.82996 -2.05381 0 -3.57114 -1.92412 0 -3.31533 -1.80476 0 -3.06253 -1.69535 0 -2.8127 -1.59549 0 -2.56568 -1.50486 0 -2.32143 -1.42321 0 -2.07996 -1.35028 0 -1.84127 -1.28581 0 -1.60535 -1.22953 0 -1.37215 -1.1812 0 -1.14061 -1.14061 0 -0.910269 -1.10762 0 -0.681136 -1.08213 0 -0.453209 -1.06403 0 -0.226488 -1.05319 0 -0.00097296 -1.04952 0 -0.0041921 -12.1202 0 0.0993326 -12.125 0 0.197158 -12.141 0 0.289283 -12.168 0 0.375709 -12.2053 0 0.456435 -12.2527 0 0.531462 -12.3096 0 0.598319 -12.3756 0 0.65097 -12.4501 0 0.689139 -12.5325 0 0.712826 -12.6222 0 0.722033 -12.7184 0 0.716758 -12.8206 0 0.696227 -12.928 0 0.655798 -13.0397 0 0.594696 -13.154 0 0.512922 -13.2697 0 0.410475 -13.385 0 0.287355 -13.4986 0 0.143589 -13.609 0 -0.0202624 -13.7149 0 -0.203968 -13.8156 0 -0.407527 -13.9104 0 -0.63094 -13.9987 0 -0.874208 -14.0798 0 -1.13733 -14.153 0 -1.41799 -14.2174 0 -1.71387 -14.2706 0 -2.02498 -14.3099 0 -2.35131 -14.3326 0 -2.69287 -14.3361 0 -3.04965 -14.3175 0 -3.41701 -14.2747 0 -3.7836 -14.208 0 -4.14891 -14.1195 0 -4.51294 -14.0111 0 -4.87569 -13.8847 0 -5.23716 -13.7424 0 -5.59606 -13.5861 0 -5.94473 -13.4164 0 -6.28188 -13.2328 0 -6.60751 -13.0346 0 -6.92162 -12.8212 0 -7.22422 -12.5919 0 -7.51496 -12.3462 0 -7.78626 -12.0839 0 -8.03503 -11.8061 0 -8.26126 -11.514 0 -8.46496 -11.2087 0 -8.64613 -10.8914 0 -8.80477 -10.5631 0 -8.93909 -10.2254 0 -9.0473 -9.87991 0 -9.12941 -9.5288 0 -9.18542 -9.17405 0 -9.21532 -8.8177 0 -9.21912 -8.46176 0 -9.19833 -8.10817 0 -9.15666 -7.75806 0 -9.09426 -7.41215 0 -9.01116 -7.07116 0 -8.90733 -6.7358 0 -8.78279 -6.40679 0 -8.63847 -6.08485 0 -8.48003 -5.77065 0 -8.30839 -5.46483 0 -8.12357 -5.16802 0 -7.92556 -4.88086 0 -7.71437 -4.60398 0 -7.49024 -4.33801 0 -7.25875 -4.08336 0 -7.0222 -3.83997 0 -6.78059 -3.60771 0 -6.5339 -3.38647 0 -6.28215 -3.17614 0 -6.02534 -2.97661 0 -5.76609 -2.78775 0 -5.50706 -2.60935 0 -5.24823 -2.44121 0 -4.98962 -2.2831 0 -4.73122 -2.13483 0 -4.47303 -1.99616 0 -4.21574 -1.86689 0 -3.96103 -1.74673 0 -3.70898 -1.63538 0 -3.45959 -1.53251 0 -3.21285 -1.43781 0 -2.96877 -1.35099 0 -2.72733 -1.27172 0 -2.48846 -1.19975 0 -2.25214 -1.13488 0 -2.01836 -1.07693 0 -1.78714 -1.02568 0 -1.55846 -0.980945 0 -1.33229 -0.94253 0 -1.10762 -0.910269 0 -0.884061 -0.884061 0 -0.661601 -0.863811 0 -0.440244 -0.849425 0 -0.219989 -0.84081 0 -0.000836349 -0.83787 0 -0.00327331 -9.01759 0 0.0902622 -9.02109 0 0.178487 -9.03287 0 0.261401 -9.05259 0 0.339005 -9.07994 0 0.411298 -9.11458 0 0.47828 -9.15618 0 0.537527 -9.2044 0 0.583109 -9.25882 0 0.614757 -9.31898 0 0.632472 -9.38442 0 0.636254 -9.45468 0 0.626101 -9.52929 0 0.601339 -9.60777 0 0.557908 -9.68933 0 0.495133 -9.77284 0 0.413012 -9.85715 0 0.311547 -9.94112 0 0.190737 -10.0236 0 0.0505822 -10.1035 0 -0.108935 -10.1798 0 -0.28782 -10.2523 0 -0.486073 -10.3204 0 -0.703694 -10.3839 0 -0.940683 -10.4424 0 -1.19704 -10.4955 0 -1.46942 -10.5426 0 -1.75446 -10.5817 0 -2.05216 -10.6103 0 -2.36253 -10.6263 0 -2.68557 -10.6273 0 -3.02127 -10.611 0 -3.3663 -10.5754 0 -3.71247 -10.521 0 -4.05943 -10.4499 0 -4.40716 -10.3641 0 -4.75567 -10.2655 0 -5.10497 -10.1562 0 -5.45341 -10.038 0 -5.79122 -9.91153 0 -6.11677 -9.77618 0 -6.43005 -9.63114 0 -6.73108 -9.47566 0 -7.01985 -9.30898 0 -7.29606 -9.13033 0 -7.55332 -8.93945 0 -7.789 -8.737 0 -8.00309 -8.52373 0 -8.19561 -8.30041 0 -8.36655 -8.06781 0 -8.5159 -7.82668 0 -8.64234 -7.57795 0 -8.74451 -7.32308 0 -8.82243 -7.06372 0 -8.87608 -6.80147 0 -8.90547 -6.53797 0 -8.91061 -6.27485 0 -8.89264 -6.01365 0 -8.8544 -5.75519 0 -8.79602 -5.49994 0 -8.71749 -5.24835 0 -8.61883 -5.00088 0 -8.50002 -4.75799 0 -8.36201 -4.52014 0 -8.21045 -4.2878 0 -8.04629 -4.0615 0 -7.86951 -3.84173 0 -7.68013 -3.62901 0 -7.47813 -3.42385 0 -7.26376 -3.22677 0 -7.04213 -3.03807 0 -6.81532 -2.8577 0 -6.58333 -2.68557 0 -6.34617 -2.52158 0 -6.10384 -2.36564 0 -5.85633 -2.21765 0 -5.60625 -2.0775 0 -5.3562 -1.94506 0 -5.10618 -1.82018 0 -4.8562 -1.70271 0 -4.60625 -1.5925 0 -4.35633 -1.48941 0 -4.10711 -1.39329 0 -3.8602 -1.30392 0 -3.61567 -1.22109 0 -3.37353 -1.14455 0 -3.13378 -1.07409 0 -2.89641 -1.00946 0 -2.66143 -0.950441 0 -2.42882 -0.896845 0 -2.1986 -0.848527 0 -1.97076 -0.805345 0 -1.7453 -0.767155 0 -1.52222 -0.733815 0 -1.30147 -0.705182 0 -1.08213 -0.681136 0 -0.863811 -0.661601 0 -0.646508 -0.646508 0 -0.430225 -0.635787 0 -0.214962 -0.629366 0 -0.000718153 -0.627176 0 -0.00282016 -5.96922 0 0.0838438 -5.97178 0 0.165446 -5.97954 0 0.241987 -5.99236 0 0.313466 -6.01008 0 0.379884 -6.03252 0 0.441241 -6.05954 0 0.495152 -6.09096 0 0.535795 -6.12649 0 0.562903 -6.16579 0 0.576476 -6.20852 0 0.576516 -6.25431 0 0.563021 -6.30283 0 0.53538 -6.35372 0 0.489927 -6.40647 0 0.426049 -6.4604 0 0.343748 -6.51484 0 0.243022 -6.56909 0 0.123872 -6.62248 0 -0.0137218 -6.67433 0 -0.170178 -6.72406 0 -0.34567 -6.77128 0 -0.540197 -6.81565 0 -0.753759 -6.8568 0 -0.986357 -6.89439 0 -1.23799 -6.92804 0 -1.50454 -6.95725 0 -1.7819 -6.98088 0 -2.07006 -6.99764 0 -2.36903 -7.00624 0 -2.6788 -7.00537 0 -2.99938 -6.99375 0 -3.3284 -6.97025 0 -3.66004 -6.93516 0 -3.99407 -6.88953 0 -4.33046 -6.83438 0 -4.66923 -6.77075 0 -5.01037 -6.6997 0 -5.35197 -6.62221 0 -5.68263 -6.53866 0 -6.00044 -6.44873 0 -6.3054 -6.3521 0 -6.59751 -6.24844 0 -6.87676 -6.13742 0 -7.14291 -6.0187 0 -7.39038 -5.89222 0 -7.61688 -5.7584 0 -7.82241 -5.61772 0 -8.00698 -5.47067 0 -8.17058 -5.31773 0 -8.31321 -5.15937 0 -8.4339 -4.99617 0 -8.53166 -4.82906 0 -8.60651 -4.65903 0 -8.65842 -4.48711 0 -8.68742 -4.31431 0 -8.69348 -4.14163 0 -8.67752 -3.97005 0 -8.6417 -3.80011 0 -8.58613 -3.63216 0 -8.51081 -3.46654 0 -8.41573 -3.30359 0 -8.30089 -3.14366 0 -8.16725 -2.98709 0 -8.02046 -2.83419 0 -7.86149 -2.68529 0 -7.69032 -2.5407 0 -7.50697 -2.40071 0 -7.31142 -2.26565 0 -7.10389 -2.13583 0 -6.88917 -2.01143 0 -6.66919 -1.89244 0 -6.44397 -1.77882 0 -6.2135 -1.67053 0 -5.97779 -1.56752 0 -5.73682 -1.46974 0 -5.49319 -1.37715 0 -5.24947 -1.28966 0 -5.00565 -1.20715 0 -4.76175 -1.12953 0 -4.51775 -1.05669 0 -4.27367 -0.988527 0 -4.03013 -0.924943 0 -3.78873 -0.865803 0 -3.54952 -0.81096 0 -3.31251 -0.76027 0 -3.07769 -0.713587 0 -2.84508 -0.670766 0 -2.61467 -0.631663 0 -2.38651 -0.596156 0 -2.16061 -0.564147 0 -1.93698 -0.53554 0 -1.7156 -0.510238 0 -1.49649 -0.488143 0 -1.27959 -0.46916 0 -1.06403 -0.453209 0 -0.849425 -0.440244 0 -0.635787 -0.430225 0 -0.423111 -0.423111 0 -0.2114 -0.418861 0 -0.000651237 -0.417433 0 -0.00319454 -2.97509 0 0.0797847 -2.97703 0 0.157751 -2.98107 0 0.230705 -2.98728 0 0.298647 -2.99574 0 0.361575 -3.00653 0 0.419491 -3.01969 0 0.470087 -3.0353 0 0.507723 -3.05316 0 0.53214 -3.07297 0 0.543341 -3.09445 0 0.541325 -3.11728 0 0.526091 -3.14118 0 0.497041 -3.16584 0 0.450573 -3.19107 0 0.386088 -3.21674 0 0.303585 -3.24274 0 0.203066 -3.26895 0 0.0845295 -3.29527 0 -0.0520409 -3.32156 0 -0.207014 -3.34755 0 -0.380541 -3.37262 0 -0.572621 -3.39611 0 -0.783255 -3.41736 0 -1.01244 -3.43572 0 -1.26018 -3.45054 0 -1.52235 -3.46132 0 -1.79481 -3.46829 0 -2.07758 -3.47182 0 -2.37063 -3.47231 0 -2.67399 -3.47015 0 -2.98764 -3.46571 0 -3.30941 -3.45929 0 -3.63395 -3.45043 0 -3.96103 -3.43825 0 -4.29065 -3.42187 0 -4.6228 -3.40042 0 -4.95748 -3.37304 0 -5.29279 -3.33886 0 -5.61728 -3.29779 0 -5.92902 -3.25045 0 -6.22803 -3.19747 0 -6.5143 -3.13952 0 -6.78784 -3.07725 0 -7.04839 -3.0113 0 -7.29057 -2.94223 0 -7.51217 -2.87035 0 -7.7132 -2.796 0 -7.89364 -2.71949 0 -8.05351 -2.64111 0 -8.1928 -2.5612 0 -8.31064 -2.48004 0 -8.40617 -2.39783 0 -8.4794 -2.31475 0 -8.53031 -2.23098 0 -8.55891 -2.14671 0 -8.56521 -2.06211 0 -8.55001 -1.97738 0 -8.5153 -1.89282 0 -8.46119 -1.80881 0 -8.38767 -1.72572 0 -8.29474 -1.64392 0 -8.1824 -1.56379 0 -8.05157 -1.48569 0 -7.90781 -1.40981 0 -7.75203 -1.33621 0 -7.58424 -1.26492 0 -7.40443 -1.19596 0 -7.21261 -1.12937 0 -7.00899 -1.06519 0 -6.79821 -1.00345 0 -6.58218 -0.944198 0 -6.36091 -0.887473 0 -6.13438 -0.83332 0 -5.9026 -0.781783 0 -5.66558 -0.732907 0 -5.42583 -0.686713 0 -5.18591 -0.643144 0 -4.94581 -0.602118 0 -4.70552 -0.563556 0 -4.46506 -0.527377 0 -4.22442 -0.493503 0 -3.98423 -0.461854 0 -3.74608 -0.432367 0 -3.51001 -0.404984 0 -3.27605 -0.379651 0 -3.04418 -0.35631 0 -2.81441 -0.334906 0 -2.58675 -0.315382 0 -2.36125 -0.29768 0 -2.13795 -0.281742 0 -1.91682 -0.26751 0 -1.69788 -0.254926 0 -1.48113 -0.24393 0 -1.26651 -0.234465 0 -1.05319 -0.226488 0 -0.84081 -0.219989 0 -0.629366 -0.214962 0 -0.418861 -0.2114 0 -0.209295 -0.209295 0 -0.000668464 -0.208642 0 -0.00475835 -0.0351992 0 0.0777923 -0.0368368 0 0.155119 -0.037433 0 0.227221 -0.0373497 0 0.294098 -0.0369492 0 0.355752 -0.0365935 0 0.412181 -0.0366448 0 0.461222 -0.0374176 0 0.497588 -0.038812 0 0.521037 -0.0405149 0 0.53157 -0.0422114 0 0.529187 -0.0435865 0 0.513888 -0.0443254 0 0.485008 -0.0441312 0 0.438563 -0.0431255 0 0.373887 -0.041848 0 0.290982 -0.0408567 0 0.189847 -0.0407096 0 0.0704827 -0.0419644 0 -0.0670928 -0.0451745 0 -0.222461 -0.0503213 0 -0.395452 -0.0562753 0 -0.586065 -0.0617798 0 -0.7943 -0.0655778 0 -1.02016 -0.0664123 0 -1.26364 -0.0630266 0 -1.52183 -0.0548266 0 -1.79181 -0.0438701 0 -2.07359 -0.0328779 0 -2.36717 -0.0245706 0 -2.67254 -0.0216691 0 -2.98971 -0.026894 0 -3.31544 -0.042511 0 -3.64184 -0.0668249 0 -3.96853 -0.0961007 0 -4.29553 -0.126587 0 -4.62284 -0.154532 0 -4.95044 -0.176184 0 -5.27689 -0.187916 0 -5.59343 -0.188944 0 -5.89861 -0.181329 0 -6.19242 -0.167257 0 -6.47487 -0.148913 0 -6.74595 -0.128482 0 -7.00539 -0.108144 0 -7.24704 -0.0894732 0 -7.46839 -0.0728617 0 -7.66943 -0.0585681 0 -7.85017 -0.0468503 0 -8.01062 -0.0379665 0 -8.15075 -0.0321747 0 -8.26942 -0.0295453 0 -8.36546 -0.0293983 0 -8.43885 -0.030866 0 -8.48961 -0.0330809 0 -8.51774 -0.0351752 0 -8.52323 -0.0362813 0 -8.50711 -0.0356311 0 -8.47192 -0.0333218 0 -8.41777 -0.0298963 0 -8.34465 -0.0259013 0 -8.25258 -0.0218832 0 -8.14153 -0.0183888 0 -8.01238 -0.0159465 0 -7.87023 -0.0146699 0 -7.71592 -0.0142576 0 -7.54947 -0.0143903 0 -7.37086 -0.0147484 0 -7.1801 -0.0150125 0 -6.97741 -0.0148645 0 -6.76761 -0.0141391 0 -6.55265 -0.0129676 0 -6.33255 -0.0115157 0 -6.1073 -0.00994898 0 -5.8769 -0.00843299 0 -5.64135 -0.00713332 0 -5.40309 -0.00617477 0 -5.16458 -0.005519 0 -4.92581 -0.00508693 0 -4.68679 -0.00479943 0 -4.4475 -0.00457742 0 -4.20796 -0.00434178 0 -3.96882 -0.00402154 0 -3.73169 -0.00361659 0 -3.49665 -0.00316326 0 -3.2637 -0.00269822 0 -3.03283 -0.00225811 0 -2.80404 -0.00187958 0 -2.57736 -0.00159794 0 -2.3528 -0.00141775 0 -2.13039 -0.00131282 0 -1.91012 -0.00125561 0 -1.69199 -0.00121858 0 -1.476 -0.00117421 0 -1.26211 -0.00109512 0 -1.04952 -0.00097296 0 -0.83787 -0.000836349 0 -0.627176 -0.000718153 0 -0.417433 -0.000651237 0 -0.208642 -0.000668464 0 -0.000802701 -0.000802701 0 </DataArray> 
</PointData> 
<Points> 
<DataArray type="Float32" NumberOfComponents="3"> 
0 0 0 0.1 0 0 0.2 0 0 0.3 0 0 0.4 0 0 0.5 0 0 0.6 0 0 0.7 0 0 0.8 0 0 0.9 0 0 1 0 0 1.1 0 0 1.2 0 0 1.3 0 0 1.4 0 0 1.5 0 0 1.6 0 0 1.7 0 0 1.8 0 0 1.9 0 0 2 0 0 2.1 0 0 2.2 0 0 2.3 0 0 2.4 0 0 2.5 0 0 2.6 0 0 2.7 0 0 2.8 0 0 2.9 0 0 3 0 0 3.1 0 0 3.2 0 0 3.3 0 0 3.4 0 0 3.5 0 0 3.6 0 0 3.7 0 0 3.8 0 0 3.9 0 0 4 0 0 4.1 0 0 4.2 0 0 4.3 0 0 4.4 0 0 4.5 0 0 4.6 0 0 4.7 0 0 4.8 0 0 4.9 0 0 5 0 0 5.1 0 0 5.2 0 0 5.3 0 0 5.4 0 0 5.5 0 0 5.6 0 0 5.7 0 0 5.8 0 0 5.9 0 0 6 0 0 6.1 0 0 6.2 0 0 6.3 0 0 6.4 0 0 6.5 0 0 6.6 0 0 6.7 0 0 6.8 0 0 6.9 0 0 7 0 0 7.1 0 0 7.2 0 0 7.3 0 0 7.4 0 0 7.5 0 0 7.6 0 0 7.7 0 0 7.8 0 0 7.9 0 0 8 0 0 8.1 0 0 8.2 0 0 8.3 0 0 8.4 0 0 8.5 0 0 8.6 0 0 8.7 0 0 8.8 0 0 8.9 0 0 9 0 0 9.1 0 0 9.2 0 0 9.3 0 0 9.4 0 0 9.5 0 0 9.6 0 0 9.7 0 0 9.8 0 0 9.9 0 0 10 0 0 0 0.1 0 0.1 0.1 0 0.2 0.1 0 0.3 0.1 0 0.4 0.1 0 0.5 0.1 0 0.6 0.1 0 0.7 0.1 0 0.8 0.1 0 0.9 0.1 0 1 0.1 0 1.1 0.1 0 1.2 0.1 0 1.3 0.1 0 1.4 0.1 0 1.5 0.1 0 1.6 0.1 0 1.7 0.1 0 1.8 0.1 0 1.9 0.1 0 2 0.1 0 2.1 0.1 0 2.2 0.1 0 2.3 0.1 0 2.4 0.1 0 2.5 0.1 0 2.6 0.1 0 2.7 0.1 0 2.8 0.1 0 2.9 0.1 0 3 0.1 0 3.1 0.1 0 3.2 0.1 0 3.3 0.1 0 3.4 0.1 0 3.5 0.1 0 3.6 0.1 0 3.7 0.1 0 3.8 0.1 0 3.9 0.1 0 4 0.1 0 4.1 0.1 0 4.2 0.1 0 4.3 0.1 0 4.4 0.1 0 4.5 0.1 0 4.6 0.1 0 4.7 0.1 0 4.8 0.1 0 4.9 0.1 0 5 0.1 0 5.1 0.1 0 5.2 0.1 0 5.3 0.1 0 5.4 0.1 0 5.5 0.1 0 5.6 0.1 0 5.7 0.1 0 5.8 0.1 0 5.9 0.1 0 6 0.1 0 6.1 0.1 0 6.2 0.1 0 6.3 0.1 0 6.4 0.1 0 6.5 0.1 0 6.6 0.1 0 6.7 0.1 0 6.8 0.1 0 6.9 0.1 0 7 0.1 0 7.1 0.1 0 7.2 0.1 0 7.3 0.1 0 7.4 0.1 0 7.5 0.1 0 7.6 0.1 0 7.7 0.1 0 7.8 0.1 0 7.9 0.1 0 8 0.1 0 8.1 0.1 0 8.2 0.1 0 8.3 0.1 0 8.4 0.1 0 8.5 0.1 0 8.6 0.1 0 8.7 0.1 0 8.8 0.1 0 8.9 0.1 0 9 0.1 0 9.1 0.1 0 9.2 0.1 0 9.3 0.1 0 9.4 0.1 0 9.5 0.1 0 9.6 0.1 0 9.7 0.1 0 9.8 0.1 0 9.9 0.1 0 10 0.1 0 0 0.2 0 0.1 0.2 0 0.2 0.2 0 0.3 0.2 0 0.4 0.2 0 0.5 0.2 0 0.6 0.2 0 0.7 0.2 0 0.8 0.2 0 0.9 0.2 0 1 0.2 0 1.1 0.2 0 1.2 0.2 0 1.3 0.2 0 1.4 0.2 0 1.5 0.2 0 1.6 0.2 0 1.7 0.2 0 1.8 0.2 0 1.9 0.2 0 2 0.2 0 2.1 0.2 0 2.2 0.2 0 2.3 0.2 0 2.4 0.2 0 2.5 0.2 0 2.6 0.2 0 2.7 0.2 0 2.8 0.2 0 2.9 0.2 0 3 0.2 0 3.1 0.2 0 3.2 0.2 0 3.3 0.2 0 3.4 0.2 0 3.5 0.2 0 3.6 0.2 0 3.7 0.2 0 3.8 0.2 0 3.9 0.2 0 4 0.2 0 4.1 0.2 0 4.2 0.2 0 4.3 0.2 0 4.4 0.2 0 4.5 0.2 0 4.6 0.2 0 4.7 0.2 0 4.8 0.2 0 4.9 0.2 0 5 0.2 0 5.1 0.2 0 5.2 0.2 0 5.3 0.2 0 5.4 0.2 0 5.5 0.2 0 5.6 0.2 0 5.7 0.2 0 5.8 0.2 0 5.9 0.2 0 6 0.2 0 6.1 0.2 0 6.2 0.2 0 6.3 0.2 0 6.4 0.2 0 6.5 0.2 0 6.6 0.2 0 6.7 0.2 0 6.8 0.2 0 6.9 0.2 0 7 0.2 0 7.1 0.2 0 7.2 0.2 0 7.3 0.2 0 7.4 0.2 0 7.5 0.2 0 7.6 0.2 0 7.7 0.2 0 7.8 0.2 0 7.9 0.2 0 8 0.2 0 8.1 0.2 0 8.2 0.2 0 8.3 0.2 0 8.4 0.2 0 8.5 0.2 0 8.6 0.2 0 8.7 0.2 0 8.8 0.2 0 8.9 0.2 0 9 0.2 0 9.1 0.2 0 9.2 0.2 0 9.3 0.2 0 9.4 0.2 0 9.5 0.2 0 9.6 0.2 0 9.7 0.2 0 9.8 0.2 0 9.9 0.2 0 10 0.2 0 0 0.3 0 0.1 0.3 0 0.2 0.3 0 0.3 0.3 0 0.4 0.3 0 0.5 0.3 0 0.6 0.3 0 0.7 0.3 0 0.8 0.3 0 0.9 0.3 0 1 0.3 0 1.1 0.3 0 1.2 0.3 0 1.3 0.3 0 1.4 0.3 0 1.5 0.3 0 1.6 0.3 0 1.7 0.3 0 1.8 0.3 0 1.9 0.3 0 2 0.3 0 2.1 0.3 0 2.2 0.3 0 2.3 0.3 0 2.4 0.3 0 2.5 0.3 0 2.6 0.3 0 2.7 0.3 0 2.8 0.3 0 2.9 0.3 0 3 0.3 0 3.1 0.3 0 3.2 0.3 0 3.3 0.3 0 3.4 0.3 0 3.5 0.3 0 3.6 0.3 0 3.7 0.3 0 3.8 0.3 0 3.9 0.3 0 4 0.3 0 4.1 0.3 0 4.2 0.3 0 4.3 0.3 0 4.4 0.3 0 4.5 0.3 0 4.6 0.3 0 4.7 0.3 0 4.8 0.3 0 4.9 0.3 0 5 0.3 0 5.1 0.3 0 5.2 0.3 0 5.3 0.3 0 5.4 0.3 0 5.5 0.3 0 5.6 0.3 0 5.7 0.3 0 5.8 0.3 0 5.9 0.3 0 6 0.3 0 6.1 0.3 0 6.2 0.3 0 6.3 0.3 0 6.4 0.3 0 6.5 0.3 0 6.6 0.3 0 6.7 0.3 0 6.8 0.3 0 6.9 0.3 0 7 0.3 0 7.1 0.3 0 7.2 0.3 0 7.3 0.3 0 7.4 0.3 0 7.5 0.3 0 7.6 0.3 0 7.7 0.3 0 7.8 0.3 0 7.9 0.3 0 8 0.3 0 8.1 0.3 0 8.2 0.3 0 8.3 0.3 0 8.4 0.3 0 8.5 0.3 0 8.6 0.3 0 8.7 0.3 0 8.8 0.3 0 8.9 0.3 0 9 0.3 0 9.1 0.3 0 9.2 0.3 0 9.3 0.3 0 9.4 0.3 0 9.5 0.3 0 9.6 0.3 0 9.7 0.3 0 9.8 0.3 0 9.9 0.3 0 10 0.3 0 0 0.4 0 0.1 0.4 0 0.2 0.4 0 0.3 0.4 0 0.4 0.4 0 0.5 0.4 0 0.6 0.4 0 0.7 0.4 0 0.8 0.4 0 0.9 0.4 0 1 0.4 0 1.1 0.4 0 1.2 0.4 0 1.3 0.4 0 1.4 0.4 0 1.5 0.4 0 1.6 0.4 0 1.7 0.4 0 1.8 0.4 0 1.9 0.4 0 2 0.4 0 2.1 0.4 0 2.2 0.4 0 2.3 0.4 0 2.4 0.4 0 2.5 0.4 0 2.6 0.4 0 2.7 0.4 0 2.8 0.4 0 2.9 0.4 0 3 0.4 0 3.1 0.4 0 3.2 0.4 0 3.3 0.4 0 3.4 0.4 0 3.5 0.4 0 3.6 0.4 0 3.7 0.4 0 3.8 0.4 0 3.9 0.4 0 4 0.4 0 4.1 0.4 0 4.2 0.4 0 4.3 0.4 0 4.4 0.4 0 4.5 0.4 0 4.6 0.4 0 4.7 0.4 0 4.8 0.4 0 4.9 0.4 0 5 0.4 0 5.1 0.4 0 5.2 0.4 0 5.3 0.4 0 5.4 0.4 0 5.5 0.4 0 5.6 0.4 0 5.7 0.4 0 5.8 0.4 0 5.9 0.4 0 6 0.4 0 6.1 0.4 0 6.2 0.4 0 6.3 0.4 0 6.4 0.4 0 6.5 0.4 0 6.6 0.4 0 6.7 0.4 0 6.8 0.4 0 6.9 0.4 0 7 0.4 0 7.1 0.4 0 7.2 0.4 0 7.3 0.4 0 7.4 0.4 0 7.5 0.4 0 7.6 0.4 0 7.7 0.4 0 7.8 0.4 0 7.9 0.4 0 8 0.4 0 8.1 0.4 0 8.2 0.4 0 8.3 0.4 0 8.4 0.4 0 8.5 0.4 0 8.6 0.4 0 8.7 0.4 0 8.8 0.4 0 8.9 0.4 0 9 0.4 0 9.1 0.4 0 9.2 0.4 0 9.3 0.4 0 9.4 0.4 0 9.5 0.4 0 9.6 0.4 0 9.7 0.4 0 9.8 0.4 0 9.9 0.4 0 10 0.4 0 0 0.5 0 0.1 0.5 0 0.2 0.5 0 0.3 0.5 0 0.4 0.5 0 0.5 0.5 0 0.6 0.5 0 0.7 0.5 0 0.8 0.5 0 0.9 0.5 0 1 0.5 0 1.1 0.5 0 1.2 0.5 0 1.3 0.5 0 1.4 0.5 0 1.5 0.5 0 1.6 0.5 0 1.7 0.5 0 1.8 0.5 0 1.9 0.5 0 2 0.5 0 2.1 0.5 0 2.2 0.5 0 2.3 0.5 0 2.4 0.5 0 2.5 0.5 0 2.6 0.5 0 2.7 0.5 0 2.8 0.5 0 2.9 0.5 0 3 0.5 0 3.1 0.5 0 3.2 0.5 0 3.3 0.5 0 3.4 0.5 0 3.5 0.5 0 3.6 0.5 0 3.7 0.5 0 3.8 0.5 0 3.9 0.5 0 4 0.5 0 4.1 0.5 0 4.2 0.5 0 4.3 0.5 0 4.4 0.5 0 4.5 0.5 0 4.6 0.5 0 4.7 0.5 0 4.8 0.5 0 4.9 0.5 0 5 0.5 0 5.1 0.5 0 5.2 0.5 0 5.3 0.5 0 5.4 0.5 0 5.5 0.5 0 5.6 0.5 0 5.7 0.5 0 5.8 0.5 0 5.9 0.5 0 6 0.5 0 6.1 0.5 0 6.2 0.5 0 6.3 0.5 0 6.4 0.5 0 6.5 0.5 0 6.6 0.5 0 6.7 0.5 0 6.8 0.5 0 6.9 0.5 0 7 0.5 0 7.1 0.5 0 7.2 0.5 0 7.3 0.5 0 7.4 0.5 0 7.5 0.5 0 7.6 0.5 0 7.7 0.5 0 7.8 0.5 0 7.9 0.5 0 8 0.5 0 8.1 0.5 0 8.2 0.5 0 8.3 0.5 0 8.4 0.5 0 8.5 0.5 0 8.6 0.5 0 8.7 0.5 0 8.8 0.5 0 8.9 0.5 0 9 0.5 0 9.1 0.5 0 9.2 0.5 0 9.3 0.5 0 9.4 0.5 0 9.5 0.5 0 9.6 0.5 0 9.7 0.5 0 9.8 0.5 0 9.9 0.5 0 10 0.5 0 0 0.6 0 0.1 0.6 0 0.2 0.6 0 0.3 0.6 0 0.4 0.6 0 0.5 0.6 0 0.6 0.6 0 0.7 0.6 0 0.8 0.6 0 0.9 0.6 0 1 0.6 0 1.1 0.6 0 1.2 0.6 0 1.3 0.6 0 1.4 0.6 0 1.5 0.6 0 1.6 0.6 0 1.7 0.6 0 1.8 0.6 0 1.9 0.6 0 2 0.6 0 2.1 0.6 0 2.2 0.6 0 2.3 0.6 0 2.4 0.6 0 2.5 0.6 0 2.6 0.6 0 2.7 0.6 0 2.8 0.6 0 2.9 0.6 0 3 0.6 0 3.1 0.6 0 3.2 0.6 0 3.3 0.6 0 3.4 0.6 0 3.5 0.6 0 3.6 0.6 0 3.7 0.6 0 3.8 0.6 0 3.9 0.6 0 4 0.6 0 4.1 0.6 0 4.2 0.6 0 4.3 0.6 0 4.4 0.6 0 4.5 0.6 0 4.6 0.6 0 4.7 0.6 0 4.8 0.6 0 4.9 0.6 0 5 0.6 0 5.1 0.6 0 5.2 0.6 0 5.3 0.6 0 5.4 0.6 0 5.5 0.6 0 5.6 0.6 0 5.7 0.6 0 5.8 0.6 0 5.9 0.6 0 6 0.6 0 6.1 0.6 0 6.2 0.6 0 6.3 0.6 0 6.4 0.6 0 6.5 0.6 0 6.6 0.6 0 6.7 0.6 0 6.8 0.6 0 6.9 0.6 0 7 0.6 0 7.1 0.6 0 7.2 0.6 0 7.3 0.6 0 7.4 0.6 0 7.5 0.6 0 7.6 0.6 0 7.7 0.6 0 7.8 0.6 0 7.9 0.6 0 8 0.6 0 8.1 0.6 0 8.2 0.6 0 8.3 0.6 0 8.4 0.6 0 8.5 0.6 0 8.6 0.6 0 8.7 0.6 0 8.8 0.6 0 8.9 0.6 0 9 0.6 0 9.1 0.6 0 9.2 0.6 0 9.3 0.6 0 9.4 0.6 0 9.5 0.6 0 9.6 0.6 0 9.7 0.6 0 9.8 0.6 0 9.9 0.6 0 10 0.6 0 0 0.7 0 0.1 0.7 0 0.2 0.7 0 0.3 0.7 0 0.4 0.7 0 0.5 0.7 0 0.6 0.7 0 0.7 0.7 0 0.8 0.7 0 0.9 0.7 0 1 0.7 0 1.1 0.7 0 1.2 0.7 0 1.3 0.7 0 1.4 0.7 0 1.5 0.7 0 1.6 0.7 0 1.7 0.7 0 1.8 0.7 0 1.9 0.7 0 2 0.7 0 2.1 0.7 0 2.2 0.7 0 2.3 0.7 0 2.4 0.7 0 2.5 0.7 0 2.6 0.7 0 2.7 0.7 0 2.8 0.7 0 2.9 0.7 0 3 0.7 0 3.1 0.7 0 3.2 0.7 0 3.3 0.7 0 3.4 0.7 0 3.5 0.7 0 3.6 0.7 0 3.7 0.7 0 3.8 0.7 0 3.9 0.7 0 4 0.7 0 4.1 0.7 0 4.2 0.7 0 4.3 0.7 0 4.4 0.7 0 4.5 0.7 0 4.6 0.7 0 4.7 0.7 0 4.8 0.7 0 4.9 0.7 0 5 0.7 0 5.1 0.7 0 5.2 0.7 0 5.3 0.7 0 5.4 0.7 0 5.5 0.7 0 5.6 0.7 0 5.7 0.7 0 5.8 0.7 0 5.9 0.7 0 6 0.7 0 6.1 0.7 0 6.2 0.7 0 6.3 0.7 0 6.4 0.7 0 6.5 0.7 0 6.6 0.7 0 6.7 0.7 0 6.8 0.7 0 6.9 0.7 0 7 0.7 0 7.1 0.7 0 7.2 0.7 0 7.3 0.7 0 7.4 0.7 0 7.5 0.7 0 7.6 0.7 0 7.7 0.7 0 7.8 0.7 0 7.9 0.7 0 8 0.7 0 8.1 0.7 0 8.2 0.7 0 8.3 0.7 0 8.4 0.7 0 8.5 0.7 0 8.6 0.7 0 8.7 0.7 0 8.8 0.7 0 8.9 0.7 0 9 0.7 0 9.1 0.7 0 9.2 0.7 0 9.3 0.7 0 9.4 0.7 0 9.5 0.7 0 9.6 0.7 0 9.7 0.7 0 9.8 0.7 0 9.9 0.7 0 10 0.7 0 0 0.8 0 0.1 0.8 0 0.2 0.8 0 0.3 0.8 0 0.4 0.8 0 0.5 0.8 0 0.6 0.8 0 0.7 0.8 0 0.8 0.8 0 0.9 0.8 0 1 0.8 0 1.1 0.8 0 1.2 0.8 0 1.3 0.8 0 1.4 0.8 0 1.5 0.8 0 1.6 0.8 0 1.7 0.8 0 1.8 0.8 0 1.9 0.8 0 2 0.8 0 2.1 0.8 0 2.2 0.8 0 2.3 0.8 0 2.4 0.8 0 2.5 0.8 0 2.6 0.8 0 2.7 0.8 0 2.8 0.8 0 2.9 0.8 0 3 0.8 0 3.1 0.8 0 3.2 0.8 0 3.3 0.8 0 3.4 0.8 0 3.5 0.8 0 3.6 0.8 0 3.7 0.8 0 3.8 0.8 0 3.9 0.8 0 4 0.8 0 4.1 0.8 0 4.2 0.8 0 4.3 0.8 0 4.4 0.8 0 4.5 0.8 0 4.6 0.8 0 4.7 0.8 0 4.8 0.8 0 4.9 0.8 0 5 0.8 0 5.1 0.8 0 5.2 0.8 0 5.3 0.8 0 5.4 0.8 0 5.5 0.8 0 5.6 0.8 0 5.7 0.8 0 5.8 0.8 0 5.9 0.8 0 6 0.8 0 6.1 0.8 0 6.2 0.8 0 6.3 0.8 0 6.4 0.8 0 6.5 0.8 0 6.6 0.8 0 6.7 0.8 0 6.8 0.8 0 6.9 0.8 0 7 0.8 0 7.1 0.8 0 7.2 0.8 0 7.3 0.8 0 7.4 0.8 0 7.5 0.8 0 7.6 0.8 0 7.7 0.8 0 7.8 0.8 0 7.9 0.8 0 8 0.8 0 8.1 0.8 0 8.2 0.8 0 8.3 0.8 0 8.4 0.8 0 8.5 0.8 0 8.6 0.8 0 8.7 0.8 0 8.8 0.8 0 8.9 0.8 0 9 0.8 0 9.1 0.8 0 9.2 0.8 0 9.3 0.8 0 9.4 0.8 0 9.5 0.8 0 9.6 0.8 0 9.7 0.8 0 9.8 0.8 0 9.9 0.8 0 10 0.8 0 0 0.9 0 0.1 0.9 0 0.2 0.9 0 0.3 0.9 0 0.4 0.9 0 0.5 0.9 0 0.6 0.9 0 0.7 0.9 0 0.8 0.9 0 0.9 0.9 0 1 0.9 0 1.1 0.9 0 1.2 0.9 0 1.3 0.9 0 1.4 0.9 0 1.5 0.9 0 1.6 0.9 0 1.7 0.9 0 1.8 0.9 0 1.9 0.9 0 2 0.9 0 2.1 0.9 0 2.2 0.9 0 2.3 0.9 0 2.4 0.9 0 2.5 0.9 0 2.6 0.9 0 2.7 0.9 0 2.8 0.9 0 2.9 0.9 0 3 0.9 0 3.1 0.9 0 3.2 0.9 0 3.3 0.9 0 3.4 0.9 0 3.5 0.9 0 3.6 0.9 0 3.7 0.9 0 3.8 0.9 0 3.9 0.9 0 4 0.9 0 4.1 0.9 0 4.2 0.9 0 4.3 0.9 0 4.4 0.9 0 4.5 0.9 0 4.6 0.9 0 4.7 0.9 0 4.8 0.9 0 4.9 0.9 0 5 0.9 0 5.1 0.9 0 5.2 0.9 0 5.3 0.9 0 5.4 0.9 0 5.5 0.9 0 5.6 0.9 0 5.7 0.9 0 5.8 0.9 0 5.9 0.9 0 6 0.9 0 6.1 0.9 0 6.2 0.9 0 6.3 0.9 0 6.4 0.9 0 6.5 0.9 0 6.6 0.9 0 6.7 0.9 0 6.8 0.9 0 6.9 0.9 0 7 0.9 0 7.1 0.9 0 7.2 0.9 0 7.3 0.9 0 7.4 0.9 0 7.5 0.9 0 7.6 0.9 0 7.7 0.9 0 7.8 0.9 0 7.9 0.9 0 8 0.9 0 8.1 0.9 0 8.2 0.9 0 8.3 0.9 0 8.4 0.9 0 8.5 0.9 0 8.6 0.9 0 8.7 0.9 0 8.8 0.9 0 8.9 0.9 0 9 0.9 0 9.1 0.9 0 9.2 0.9 0 9.3 0.9 0 9.4 0.9 0 9.5 0.9 0 9.6 0.9 0 9.7 0.9 0 9.8 0.9 0 9.9 0.9 0 10 0.9 0 0 1 0 0.1 1 0 0.2 1 0 0.3 1 0 0.4 1 0 0.5 1 0 0.6 1 0 0.7 1 0 0.8 1 0 0.9 1 0 1 1 0 1.1 1 0 1.2 1 0 1.3 1 0 1.4 1 0 1.5 1 0 1.6 1 0 1.7 1 0 1.8 1 0 1.9 1 0 2 1 0 2.1 1 0 2.2 1 0 2.3 1 0 2.4 1 0 2.5 1 0 2.6 1 0 2.7 1 0 2.8 1 0 2.9 1 0 3 1 0 3.1 1 0 3.2 1 0 3.3 1 0 3.4 1 0 3.5 1 0 3.6 1 0 3.7 1 0 3.8 1 0 3.9 1 0 4 1 0 4.1 1 0 4.2 1 0 4.3 1 0 4.4 1 0 4.5 1 0 4.6 1 0 4.7 1 0 4.8 1 0 4.9 1 0 5 1 0 5.1 1 0 5.2 1 0 5.3 1 0 5.4 1 0 5.5 1 0 5.6 1 0 5.7 1 0 5.8 1 0 5.9 1 0 6 1 0 6.1 1 0 6.2 1 0 6.3 1 0 6.4 1 0 6.5 1 0 6.6 1 0 6.7 1 0 6.8 1 0 6.9 1 0 7 1 0 7.1 1 0 7.2 1 0 7.3 1 0 7.4 1 0 7.5 1 0 7.6 1 0 7.7 1 0 7.8 1 0 7.9 1 0 8 1 0 8.1 1 0 8.2 1 0 8.3 1 0 8.4 1 0 8.5 1 0 8.6 1 0 8.7 1 0 8.8 1 0 8.9 1 0 9 1 0 9.1 1 0 9.2 1 0 9.3 1 0 9.4 1 0 9.5 1 0 9.6 1 0 9.7 1 0 9.8 1 0 9.9 1 0 10 1 0 0 1.1 0 0.1 1.1 0 0.2 1.1 0 0.3 1.1 0 0.4 1.1 0 0.5 1.1 0 0.6 1.1 0 0.7 1.1 0 0.8 1.1 0 0.9 1.1 0 1 1.1 0 1.1 1.1 0 1.2 1.1 0 1.3 1.1 0 1.4 1.1 0 1.5 1.1 0 1.6 1.1 0 1.7 1.1 0 1.8 1.1 0 1.9 1.1 0 2 1.1 0 2.1 1.1 0 2.2 1.1 0 2.3 1.1 0 2.4 1.1 0 2.5 1.1 0 2.6 1.1 0 2.7 1.1 0 2.8 1.1 0 2.9 1.1 0 3 1.1 0 3.1 1.1 0 3.2 1.1 0 3.3 1.1 0 3.4 1.1 0 3.5 1.1 0 3.6 1.1 0 3.7 1.1 0 3.8 1.1 0 3.9 1.1 0 4 1.1 0 4.1 1.1 0 4.2 1.1 0 4.3 1.1 0 4.4 1.1 0 4.5 1.1 0 4.6 1.1 0 4.7 1.1 0 4.8 1.1 0 4.9 1.1 0 5 1.1 0 5.1 1.1 0 5.2 1.1 0 5.3 1.1 0 5.4 1.1 0 5.5 1.1 0 5.6 1.1 0 5.7 1.1 0 5.8 1.1 0 5.9 1.1 0 6 1.1 0 6.1 1.1 0 6.2 1.1 0 6.3 1.1 0 6.4 1.1 0 6.5 1.1 0 6.6 1.1 0 6.7 1.1 0 6.8 1.1 0 6.9 1.1 0 7 1.1 0 7.1 1.1 0 7.2 1.1 0 7.3 1.1 0 7.4 1.1 0 7.5 1.1 0 7.6 1.1 0 7.7 1.1 0 7.8 1.1 0 7.9 1.1 0 8 1.1 0 8.1 1.1 0 8.2 1.1 0 8.3 1.1 0 8.4 1.1 0 8.5 1.1 0 8.6 1.1 0 8.7 1.1 0 8.8 1.1 0 8.9 1.1 0 9 1.1 0 9.1 1.1 0 9.2 1.1 0 9.3 1.1 0 9.4 1.1 0 9.5 1.1 0 9.6 1.1 0 9.7 1.1 0 9.8 1.1 0 9.9 1.1 0 10 1.1 0 0 1.2 0 0.1 1.2 0 0.2 1.2 0 0.3 1.2 0 0.4 1.2 0 0.5 1.2 0 0.6 1.2 0 0.7 1.2 0 0.8 1.2 0 0.9 1.2 0 1 1.2 0 1.1 1.2 0 1.2 1.2 0 1.3 1.2 0 1.4 1.2 0 1.5 1.2 0 1.6 1.2 0 1.7 1.2 0 1.8 1.2 0 1.9 1.2 0 2 1.2 0 2.1 1.2 0 2.2 1.2 0 2.3 1.2 0 2.4 1.2 0 2.5 1.2 0 2.6 1.2 0 2.7 1.2 0 2.8 1.2 0 2.9 1.2 0 3 1.2 0 3.1 1.2 0 3.2 1.2 0 3.3 1.2 0 3.4 1.2 0 3.5 1.2 0 3.6 1.2 0 3.7 1.2 0 3.8 1.2 0 3.9 1.2 0 4 1.2 0 4.1 1.2 0 4.2 1.2 0 4.3 1.2 0 4.4 1.2 0 4.5 1.2 0 4.6 1.2 0 4.7 1.2 0 4.8 1.2 0 4.9 1.2 0 5 1.2 0 5.1 1.2 0 5.2 1.2 0 5.3 1.2 0 5.4 1.2 0 5.5 1.2 0 5.6 1.2 0 5.7 1.2 0 5.8 1.2 0 5.9 1.2 0 6 1.2 0 6.1 1.2 0 6.2 1.2 0 6.3 1.2 0 6.4 1.2 0 6.5 1.2 0 6.6 1.2 0 6.7 1.2 0 6.8 1.2 0 6.9 1.2 0 7 1.2 0 7.1 1.2 0 7.2 1.2 0 7.3 1.2 0 7.4 1.2 0 7.5 1.2 0 7.6 1.2 0 7.7 1.2 0 7.8 1.2 0 7.9 1.2 0 8 1.2 0 8.1 1.2 0 8.2 1.2 0 8.3 1.2 0 8.4 1.2 0 8.5 1.2 0 8.6 1.2 0 8.7 1.2 0 8.8 1.2 0 8.9 1.2 0 9 1.2 0 9.1 1.2 0 9.2 1.2 0 9.3 1.2 0 9.4 1.2 0 9.5 1.2 0 9.6 1.2 0 9.7 1.2 0 9.8 1.2 0 9.9 1.2 0 10 1.2 0 0 1.3 0 0.1 1.3 0 0.2 1.3 0 0.3 1.3 0 0.4 1.3 0 0.5 1.3 0 0.6 1.3 0 0.7 1.3 0 0.8 1.3 0 0.9 1.3 0 1 1.3 0 1.1 1.3 0 1.2 1.3 0 1.3 1.3 0 1.4 1.3 0 1.5 1.3 0 1.6 1.3 0 1.7 1.3 0 1.8 1.3 0 1.9 1.3 0 2 1.3 0 2.1 1.3 0 2.2 1.3 0 2.3 1.3 0 2.4 1.3 0 2.5 1.3 0 2.6 1.3 0 2.7 1.3 0 2.8 1.3 0 2.9 1.3 0 3 1.3 0 3.1 1.3 0 3.2 1.3 0 3.3 1.3 0 3.4 1.3 0 3.5 1.3 0 3.6 1.3 0 3.7 1.3 0 3.8 1.3 0 3.9 1.3 0 4 1.3 0 4.1 1.3 0 4.2 1.3 0 4.3 1.3 0 4.4 1.3 0 4.5 1.3 0 4.6 1.3 0 4.7 1.3 0 4.8 1.3 0 4.9 1.3 0 5 1.3 0 5.1 1.3 0 5.2 1.3 0 5.3 1.3 0 5.4 1.3 0 5.5 1.3 0 5.6 1.3 0 5.7 1.3 0 5.8 1.3 0 5.9 1.3 0 6 1.3 0 6.1 1.3 0 6.2 1.3 0 6.3 1.3 0 6.4 1.3 0 6.5 1.3 0 6.6 1.3 0 6.7 1.3 0 6.8 1.3 0 6.9 1.3 0 7 1.3 0 7.1 1.3 0 7.2 1.3 0 7.3 1.3 0 7.4 1.3 0 7.5 1.3 0 7.6 1.3 0 7.7 1.3 0 7.8 1.3 0 7.9 1.3 0 8 1.3 0 8.1 1.3 0 8.2 1.3 0 8.3 1.3 0 8.4 1.3 0 8.5 1.3 0 8.6 1.3 0 8.7 1.3 0 8.8 1.3 0 8.9 1.3 0 9 1.3 0 9.1 1.3 0 9.2 1.3 0 9.3 1.3 0 9.4 1.3 0 9.5 1.3 0 9.6 1.3 0 9.7 1.3 0 9.8 1.3 0 9.9 1.3 0 10 1.3 0 0 1.4 0 0.1 1.4 0 0.2 1.4 0 0.3 1.4 0 0.4 1.4 0 0.5 1.4 0 0.6 1.4 0 0.7 1.4 0 0.8 1.4 0 0.9 1.4 0 1 1.4 0 1.1 1.4 0 1.2 1.4 0 1.3 1.4 0 1.4 1.4 0 1.5 1.4 0 1.6 1.4 0 1.7 1.4 0 1.8 1.4 0 1.9 1.4 0 2 1.4 0 2.1 1.4 0 2.2 1.4 0 2.3 1.4 0 2.4 1.4 0 2.5 1.4 0 2.6 1.4 0 2.7 1.4 0 2.8 1.4 0 2.9 1.4 0 3 1.4 0 3.1 1.4 0 3.2 1.4 0 3.3 1.4 0 3.4 1.4 0 3.5 1.4 0 3.6 1.4 0 3.7 1.4 0 3.8 1.4 0 3.9 1.4 0 4 1.4 0 4.1 1.4 0 4.2 1.4 0 4.3 1.4 0 4.4 1.4 0 4.5 1.4 0 4.6 1.4 0 4.7 1.4 0 4.8 1.4 0 4.9 1.4 0 5 1.4 0 5.1 1.4 0 5.2 1.4 0 5.3 1.4 0 5.4 1.4 0 5.5 1.4 0 5.6 1.4 0 5.7 1.4 0 5.8 1.4 0 5.9 1.4 0 6 1.4 0 6.1 1.4 0 6.2 1.4 0 6.3 1.4 0 6.4 1.4 0 6.5 1.4 0 6.6 1.4 0 6.7 1.4 0 6.8 1.4 0 6.9 1.4 0 7 1.4 0 7.1 1.4 0 7.2 1.4 0 7.3 1.4 0 7.4 1.4 0 7.5 1.4 0 7.6 1.4 0 7.7 1.4 0 7.8 1.4 0 7.9 1.4 0 8 1.4 0 8.1 1.4 0 8.2 1.4 0 8.3 1.4 0 8.4 1.4 0 8.5 1.4 0 8.6 1.4 0 8.7 1.4 0 8.8 1.4 0 8.9 1.4 0 9 1.4 0 9.1 1.4 0 9.2 1.4 0 9.3 1.4 0 9.4 1.4 0 9.5 1.4 0 9.6 1.4 0 9.7 1.4 0 9.8 1.4 0 9.9 1.4 0 10 1.4 0 0 1.5 0 0.1 1.5 0 0.2 1.5 0 0.3 1.5 0 0.4 1.5 0 0.5 1.5 0 0.6 1.5 0 0.7 1.5 0 0.8 1.5 0 0.9 1.5 0 1 1.5 0 1.1 1.5 0 1.2 1.5 0 1.3 1.5 0 1.4 1.5 0 1.5 1.5 0 1.6 1.5 0 1.7 1.5 0 1.8 1.5 0 1.9 1.5 0 2 1.5 0 2.1 1.5 0 2.2 1.5 0 2.3 1.5 0 2.4 1.5 0 2.5 1.5 0 2.6 1.5 0 2.7 1.5 0 2.8 1.5 0 2.9 1.5 0 3 1.5 0 3.1 1.5 0 3.2 1.5 0 3.3 1.5 0 3.4 1.5 0 3.5 1.5 0 3.6 1.5 0 3.7 1.5 0 3.8 1.5 0 3.9 1.5 0 4 1.5 0 4.1 1.5 0 4.2 1.5 0 4.3 1.5 0 4.4 1.5 0 4.5 1.5 0 4.6 1.5 0 4.7 1.5 0 4.8 1.5 0 4.9 1.5 0 5 1.5 0 5.1 1.5 0 5.2 1.5 0 5.3 1.5 0 5.4 1.5 0 5.5 1.5 0 5.6 1.5 0 5.7 1.5 0 5.8 1.5 0 5.9 1.5 0 6 1.5 0 6.1 1.5 0 6.2 1.5 0 6.3 1.5 0 6.4 1.5 0 6.5 1.5 0 6.6 1.5 0 6.7 1.5 0 6.8 1.5 0 6.9 1.5 0 7 1.5 0 7.1 1.5 0 7.2 1.5 0 7.3 1.5 0 7.4 1.5 0 7.5 1.5 0 7.6 1.5 0 7.7 1.5 0 7.8 1.5 0 7.9 1.5 0 8 1.5 0 8.1 1.5 0 8.2 1.5 0 8.3 1.5 0 8.4 1.5 0 8.5 1.5 0 8.6 1.5 0 8.7 1.5 0 8.8 1.5 0 8.9 1.5 0 9 1.5 0 9.1 1.5 0 9.2 1.5 0 9.3 1.5 0 9.4 1.5 0 9.5 1.5 0 9.6 1.5 0 9.7 1.5 0 9.8 1.5 0 9.9 1.5 0 10 1.5 0 0 1.6 0 0.1 1.6 0 0.2 1.6 0 0.3 1.6 0 0.4 1.6 0 0.5 1.6 0 0.6 1.6 0 0.7 1.6 0 0.8 1.6 0 0.9 1.6 0 1 1.6 0 1.1 1.6 0 1.2 1.6 0 1.3 1.6 0 1.4 1.6 0 1.5 1.6 0 1.6 1.6 0 1.7 1.6 0 1.8 1.6 0 1.9 1.6 0 2 1.6 0 2.1 1.6 0 2.2 1.6 0 2.3 1.6 0 2.4 1.6 0 2.5 1.6 0 2.6 1.6 0 2.7 1.6 0 2.8 1.6 0 2.9 1.6 0 3 1.6 0 3.1 1.6 0 3.2 1.6 0 3.3 1.6 0 3.4 1.6 0 3.5 1.6 0 3.6 1.6 0 3.7 1.6 0 3.8 1.6 0 3.9 1.6 0 4 1.6 0 4.1 1.6 0 4.2 1.6 0 4.3 1.6 0 4.4 1.6 0 4.5 1.6 0 4.6 1.6 0 4.7 1.6 0 4.8 1.6 0 4.9 1.6 0 5 1.6 0 5.1 1.6 0 5.2 1.6 0 5.3 1.6 0 5.4 1.6 0 5.5 1.6 0 5.6 1.6 0 5.7 1.6 0 5.8 1.6 0 5.9 1.6 0 6 1.6 0 6.1 1.6 0 6.2 1.6 0 6.3 1.6 0 6.4 1.6 0 6.5 1.6 0 6.6 1.6 0 6.7 1.6 0 6.8 1.6 0 6.9 1.6 0 7 1.6 0 7.1 1.6 0 7.2 1.6 0 7.3 1.6 0 7.4 1.6 0 7.5 1.6 0 7.6 1.6 0 7.7 1.6 0 7.8 1.6 0 7.9 1.6 0 8 1.6 0 8.1 1.6 0 8.2 1.6 0 8.3 1.6 0 8.4 1.6 0 8.5 1.6 0 8.6 1.6 0 8.7 1.6 0 8.8 1.6 0 8.9 1.6 0 9 1.6 0 9.1 1.6 0 9.2 1.6 0 9.3 1.6 0 9.4 1.6 0 9.5 1.6 0 9.6 1.6 0 9.7 1.6 0 9.8 1.6 0 9.9 1.6 0 10 1.6 0 0 1.7 0 0.1 1.7 0 0.2 1.7 0 0.3 1.7 0 0.4 1.7 0 0.5 1.7 0 0.6 1.7 0 0.7 1.7 0 0.8 1.7 0 0.9 1.7 0 1 1.7 0 1.1 1.7 0 1.2 1.7 0 1.3 1.7 0 1.4 1.7 0 1.5 1.7 0 1.6 1.7 0 1.7 1.7 0 1.8 1.7 0 1.9 1.7 0 2 1.7 0 2.1 1.7 0 2.2 1.7 0 2.3 1.7 0 2.4 1.7 0 2.5 1.7 0 2.6 1.7 0 2.7 1.7 0 2.8 1.7 0 2.9 1.7 0 3 1.7 0 3.1 1.7 0 3.2 1.7 0 3.3 1.7 0 3.4 1.7 0 3.5 1.7 0 3.6 1.7 0 3.7 1.7 0 3.8 1.7 0 3.9 1.7 0 4 1.7 0 4.1 1.7 0 4.2 1.7 0 4.3 1.7 0 4.4 1.7 0 4.5 1.7 0 4.6 1.7 0 4.7 1.7 0 4.8 1.7 0 4.9 1.7 0 5 1.7 0 5.1 1.7 0 5.2 1.7 0 5.3 1.7 0 5.4 1.7 0 5.5 1.7 0 5.6 1.7 0 5.7 1.7 0 5.8 1.7 0 5.9 1.7 0 6 1.7 0 6.1 1.7 0 6.2 1.7 0 6.3 1.7 0 6.4 1.7 0 6.5 1.7 0 6.6 1.7 0 6.7 1.7 0 6.8 1.7 0 6.9 1.7 0 7 1.7 0 7.1 1.7 0 7.2 1.7 0 7.3 1.7 0 7.4 1.7 0 7.5 1.7 0 7.6 1.7 0 7.7 1.7 0 7.8 1.7 0 7.9 1.7 0 8 1.7 0 8.1 1.7 0 8.2 1.7 0 8.3 1.7 0 8.4 1.7 0 8.5 1.7 0 8.6 1.7 0 8.7 1.7 0 8.8 1.7 0 8.9 1.7 0 9 1.7 0 9.1 1.7 0 9.2 1.7 0 9.3 1.7 0 9.4 1.7 0 9.5 1.7 0 9.6 1.7 0 9.7 1.7 0 9.8 1.7 0 9.9 1.7 0 10 1.7 0 0 1.8 0 0.1 1.8 0 0.2 1.8 0 0.3 1.8 0 0.4 1.8 0 0.5 1.8 0 0.6 1.8 0 0.7 1.8 0 0.8 1.8 0 0.9 1.8 0 1 1.8 0 1.1 1.8 0 1.2 1.8 0 1.3 1.8 0 1.4 1.8 0 1.5 1.8 0 1.6 1.8 0 1.7 1.8 0 1.8 1.8 0 1.9 1.8 0 2 1.8 0 2.1 1.8 0 2.2 1.8 0 2.3 1.8 0 2.4 1.8 0 2.5 1.8 0 2.6 1.8 0 2.7 1.8 0 2.8 1.8 0 2.9 1.8 0 3 1.8 0 3.1 1.8 0 3.2 1.8 0 3.3 1.8 0 3.4 1.8 0 3.5 1.8 0 3.6 1.8 0 3.7 1.8 0 3.8 1.8 0 3.9 1.8 0 4 1.8 0 4.1 1.8 0 4.2 1.8 0 4.3 1.8 0 4.4 1.8 0 4.5 1.8 0 4.6 1.8 0 4.7 1.8 0 4.8 1.8 0 4.9 1.8 0 5 1.8 0 5.1 1.8 0 5.2 1.8 0 5.3 1.8 0 5.4 1.8 0 5.5 1.8 0 5.6 1.8 0 5.7 1.8 0 5.8 1.8 0 5.9 1.8 0 6 1.8 0 6.1 1.8 0 6.2 1.8 0 6.3 1.8 0 6.4 1.8 0 6.5 1.8 0 6.6 1.8 0 6.7 1.8 0 6.8 1.8 0 6.9 1.8 0 7 1.8 0 7.1 1.8 0 7.2 1.8 0 7.3 1.8 0 7.4 1.8 0 7.5 1.8 0 7.6 1.8 0 7.7 1.8 0 7.8 1.8 0 7.9 1.8 0 8 1.8 0 8.1 1.8 0 8.2 1.8 0 8.3 1.8 0 8.4 1.8 0 8.5 1.8 0 8.6 1.8 0 8.7 1.8 0 8.8 1.8 0 8.9 1.8 0 9 1.8 0 9.1 1.8 0 9.2 1.8 0 9.3 1.8 0 9.4 1.8 0 9.5 1.8 0 9.6 1.8 0 9.7 1.8 0 9.8 1.8 0 9.9 1.8 0 10 1.8 0 0 1.9 0 0.1 1.9 0 0.2 1.9 0 0.3 1.9 0 0.4 1.9 0 0.5 1.9 0 0.6 1.9 0 0.7 1.9 0 0.8 1.9 0 0.9 1.9 0 1 1.9 0 1.1 1.9 0 1.2 1.9 0 1.3 1.9 0 1.4 1.9 0 1.5 1.9 0 1.6 1.9 0 1.7 1.9 0 1.8 1.9 0 1.9 1.9 0 2 1.9 0 2.1 1.9 0 2.2 1.9 0 2.3 1.9 0 2.4 1.9 0 2.5 1.9 0 2.6 1.9 0 2.7 1.9 0 2.8 1.9 0 2.9 1.9 0 3 1.9 0 3.1 1.9 0 3.2 1.9 0 3.3 1.9 0 3.4 1.9 0 3.5 1.9 0 3.6 1.9 0 3.7 1.9 0 3.8 1.9 0 3.9 1.9 0 4 1.9 0 4.1 1.9 0 4.2 1.9 0 4.3 1.9 0 4.4 1.9 0 4.5 1.9 0 4.6 1.9 0 4.7 1.9 0 4.8 1.9 0 4.9 1.9 0 5 1.9 0 5.1 1.9 0 5.2 1.9 0 5.3 1.9 0 5.4 1.9 0 5.5 1.9 0 5.6 1.9 0 5.7 1.9 0 5.8 1.9 0 5.9 1.9 0 6 1.9 0 6.1 1.9 0 6.2 1.9 0 6.3 1.9 0 6.4 1.9 0 6.5 1.9 0 6.6 1.9 0 6.7 1.9 0 6.8 1.9 0 6.9 1.9 0 7 1.9 0 7.1 1.9 0 7.2 1.9 0 7.3 1.9 0 7.4 1.9 0 7.5 1.9 0 7.6 1.9 0 7.7 1.9 0 7.8 1.9 0 7.9 1.9 0 8 1.9 0 8.1 1.9 0 8.2 1.9 0 8.3 1.9 0 8.4 1.9 0 8.5 1.9 0 8.6 1.9 0 8.7 1.9 0 8.8 1.9 0 8.9 1.9 0 9 1.9 0 9.1 1.9 0 9.2 1.9 0 9.3 1.9 0 9.4 1.9 0 9.5 1.9 0 9.6 1.9 0 9.7 1.9 0 9.8 1.9 0 9.9 1.9 0 10 1.9 0 0 2 0 0.1 2 0 0.2 2 0 0.3 2 0 0.4 2 0 0.5 2 0 0.6 2 0 0.7 2 0 0.8 2 0 0.9 2 0 1 2 0 1.1 2 0 1.2 2 0 1.3 2 0 1.4 2 0 1.5 2 0 1.6 2 0 1.7 2 0 1.8 2 0 1.9 2 0 2 2 0 2.1 2 0 2.2 2 0 2.3 2 0 2.4 2 0 2.5 2 0 2.6 2 0 2.7 2 0 2.8 2 0 2.9 2 0 3 2 0 3.1 2 0 3.2 2 0 3.3 2 0 3.4 2 0 3.5 2 0 3.6 2 0 3.7 2 0 3.8 2 0 3.9 2 0 4 2 0 4.1 2 0 4.2 2 0 4.3 2 0 4.4 2 0 4.5 2 0 4.6 2 0 4.7 2 0 4.8 2 0 4.9 2 0 5 2 0 5.1 2 0 5.2 2 0 5.3 2 0 5.4 2 0 5.5 2 0 5.6 2 0 5.7 2 0 5.8 2 0 5.9 2 0 6 2 0 6.1 2 0 6.2 2 0 6.3 2 0 6.4 2 0 6.5 2 0 6.6 2 0 6.7 2 0 6.8 2 0 6.9 2 0 7 2 0 7.1 2 0 7.2 2 0 7.3 2 0 7.4 2 0 7.5 2 0 7.6 2 0 7.7 2 0 7.8 2 0 7.9 2 0 8 2 0 8.1 2 0 8.2 2 0 8.3 2 0 8.4 2 0 8.5 2 0 8.6 2 0 8.7 2 0 8.8 2 0 8.9 2 0 9 2 0 9.1 2 0 9.2 2 0 9.3 2 0 9.4 2 0 9.5 2 0 9.6 2 0 9.7 2 0 9.8 2 0 9.9 2 0 10 2 0 0 2.1 0 0.1 2.1 0 0.2 2.1 0 0.3 2.1 0 0.4 2.1 0 0.5 2.1 0 0.6 2.1 0 0.7 2.1 0 0.8 2.1 0 0.9 2.1 0 1 2.1 0 1.1 2.1 0 1.2 2.1 0 1.3 2.1 0 1.4 2.1 0 1.5 2.1 0 1.6 2.1 0 1.7 2.1 0 1.8 2.1 0 1.9 2.1 0 2 2.1 0 2.1 2.1 0 2.2 2.1 0 2.3 2.1 0 2.4 2.1 0 2.5 2.1 0 2.6 2.1 0 2.7 2.1 0 2.8 2.1 0 2.9 2.1 0 3 2.1 0 3.1 2.1 0 3.2 2.1 0 3.3 2.1 0 3.4 2.1 0 3.5 2.1 0 3.6 2.1 0 3.7 2.1 0 3.8 2.1 0 3.9 2.1 0 4 2.1 0 4.1 2.1 0 4.2 2.1 0 4.3 2.1 0 4.4 2.1 0 4.5 2.1 0 4.6 2.1 0 4.7 2.1 0 4.8 2.1 0 4.9 2.1 0 5 2.1 0 5.1 2.1 0 5.2 2.1 0 5.3 2.1 0 5.4 2.1 0 5.5 2.1 0 5.6 2.1 0 5.7 2.1 0 5.8 2.1 0 5.9 2.1 0 6 2.1 0 6.1 2.1 0 6.2 2.1 0 6.3 2.1 0 6.4 2.1 0 6.5 2.1 0 6.6 2.1 0 6.7 2.1 0 6.8 2.1 0 6.9 2.1 0 7 2.1 0 7.1 2.1 0 7.2 2.1 0 7.3 2.1 0 7.4 2.1 0 7.5 2.1 0 7.6 2.1 0 7.7 2.1 0 7.8 2.1 0 7.9 2.1 0 8 2.1 0 8.1 2.1 0 8.2 2.1 0 8.3 2.1 0 8.4 2.1 0 8.5 2.1 0 8.6 2.1 0 8.7 2.1 0 8.8 2.1 0 8.9 2.1 0 9 2.1 0 9.1 2.1 0 9.2 2.1 0 9.3 2.1 0 9.4 2.1 0 9.5 2.1 0 9.6 2.1 0 9.7 2.1 0 9.8 2.1 0 9.9 2.1 0 10 2.1 0 0 2.2 0 0.1 2.2 0 0.2 2.2 0 0.3 2.2 0 0.4 2.2 0 0.5 2.2 0 0.6 2.2 0 0.7 2.2 0 0.8 2.2 0 0.9 2.2 0 1 2.2 0 1.1 2.2 0 1.2 2.2 0 1.3 2.2 0 1.4 2.2 0 1.5 2.2 0 1.6 2.2 0 1.7 2.2 0 1.8 2.2 0 1.9 2.2 0 2 2.2 0 2.1 2.2 0 2.2 2.2 0 2.3 2.2 0 2.4 2.2 0 2.5 2.2 0 2.6 2.2 0 2.7 2.2 0 2.8 2.2 0 2.9 2.2 0 3 2.2 0 3.1 2.2 0 3.2 2.2 0 3.3 2.2 0 3.4 2.2 0 3.5 2.2 0 3.6 2.2 0 3.7 2.2 0 3.8 2.2 0 3.9 2.2 0 4 2.2 0 4.1 2.2 0 4.2 2.2 0 4.3 2.2 0 4.4 2.2 0 4.5 2.2 0 4.6 2.2 0 4.7 2.2 0 4.8 2.2 0 4.9 2.2 0 5 2.2 0 5.1 2.2 0 5.2 2.2 0 5.3 2.2 0 5.4 2.2 0 5.5 2.2 0 5.6 2.2 0 5.7 2.2 0 5.8 2.2 0 5.9 2.2 0 6 2.2 0 6.1 2.2 0 6.2 2.2 0 6.3 2.2 0 6.4 2.2 0 6.5 2.2 0 6.6 2.2 0 6.7 2.2 0 6.8 2.2 0 6.9 2.2 0 7 2.2 0 7.1 2.2 0 7.2 2.2 0 7.3 2.2 0 7.4 2.2 0 7.5 2.2 0 7.6 2.2 0 7.7 2.2 0 7.8 2.2 0 7.9 2.2 0 8 2.2 0 8.1 2.2 0 8.2 2.2 0 8.3 2.2 0 8.4 2.2 0 8.5 2.2 0 8.6 2.2 0 8.7 2.2 0 8.8 2.2 0 8.9 2.2 0 9 2.2 0 9.1 2.2 0 9.2 2.2 0 9.3 2.2 0 9.4 2.2 0 9.5 2.2 0 9.6 2.2 0 9.7 2.2 0 9.8 2.2 0 9.9 2.2 0 10 2.2 0 0 2.3 0 0.1 2.3 0 0.2 2.3 0 0.3 2.3 0 0.4 2.3 0 0.5 2.3 0 0.6 2.3 0 0.7 2.3 0 0.8 2.3 0 0.9 2.3 0 1 2.3 0 1.1 2.3 0 1.2 2.3 0 1.3 2.3 0 1.4 2.3 0 1.5 2.3 0 1.6 2.3 0 1.7 2.3 0 1.8 2.3 0 1.9 2.3 0 2 2.3 0 2.1 2.3 0 2.2 2.3 0 2.3 2.3 0 2.4 2.3 0 2.5 2.3 0 2.6 2.3 0 2.7 2.3 0 2.8 2.3 0 2.9 2.3 0 3 2.3 0 3.1 2.3 0 3.2 2.3 0 3.3 2.3 0 3.4 2.3 0 3.5 2.3 0 3.6 2.3 0 3.7 2.3 0 3.8 2.3 0 3.9 2.3 0 4 2.3 0 4.1 2.3 0 4.2 2.3 0 4.3 2.3 0 4.4 2.3 0 4.5 2.3 0 4.6 2.3 0 4.7 2.3 0 4.8 2.3 0 4.9 2.3 0 5 2.3 0 5.1 2.3 0 5.2 2.3 0 5.3 2.3 0 5.4 2.3 0 5.5 2.3 0 5.6 2.3 0 5.7 2.3 0 5.8 2.3 0 5.9 2.3 0 6 2.3 0 6.1 2.3 0 6.2 2.3 0 6.3 2.3 0 6.4 2.3 0 6.5 2.3 0 6.6 2.3 0 6.7 2.3 0 6.8 2.3 0 6.9 2.3 0 7 2.3 0 7.1 2.3 0 7.2 2.3 0 7.3 2.3 0 7.4 2.3 0 7.5 2.3 0 7.6 2.3 0 7.7 2.3 0 7.8 2.3 0 7.9 2.3 0 8 2.3 0 8.1 2.3 0 8.2 2.3 0 8.3 2.3 0 8.4 2.3 0 8.5 2.3 0 8.6 2.3 0 8.7 2.3 0 8.8 2.3 0 8.9 2.3 0 9 2.3 0 9.1 2.3 0 9.2 2.3 0 9.3 2.3 0 9.4 2.3 0 9.5 2.3 0 9.6 2.3 0 9.7 2.3 0 9.8 2.3 0 9.9 2.3 0 10 2.3 0 0 2.4 0 0.1 2.4 0 0.2 2.4 0 0.3 2.4 0 0.4 2.4 0 0.5 2.4 0 0.6 2.4 0 0.7 2.4 0 0.8 2.4 0 0.9 2.4 0 1 2.4 0 1.1 2.4 0 1.2 2.4 0 1.3 2.4 0 1.4 2.4 0 1.5 2.4 0 1.6 2.4 0 1.7 2.4 0 1.8 2.4 0 1.9 2.4 0 2 2.4 0 2.1 2.4 0 2.2 2.4 0 2.3 2.4 0 2.4 2.4 0 2.5 2.4 0 2.6 2.4 0 2.7 2.4 0 2.8 2.4 0 2.9 2.4 0 3 2.4 0 3.1 2.4 0 3.2 2.4 0 3.3 2.4 0 3.4 2.4 0 3.5 2.4 0 3.6 2.4 0 3.7 2.4 0 3.8 2.4 0 3.9 2.4 0 4 2.4 0 4.1 2.4 0 4.2 2.4 0 4.3 2.4 0 4.4 2.4 0 4.5 2.4 0 4.6 2.4 0 4.7 2.4 0 4.8 2.4 0 4.9 2.4 0 5 2.4 0 5.1 2.4 0 5.2 2.4 0 5.3 2.4 0 5.4 2.4 0 5.5 2.4 0 5.6 2.4 0 5.7 2.4 0 5.8 2.4 0 5.9 2.4 0 6 2.4 0 6.1 2.4 0 6.2 2.4 0 6.3 2.4 0 6.4 2.4 0 6.5 2.4 0 6.6 2.4 0 6.7 2.4 0 6.8 2.4 0 6.9 2.4 0 7 2.4 0 7.1 2.4 0 7.2 2.4 0 7.3 2.4 0 7.4 2.4 0 7.5 2.4 0 7.6 2.4 0 7.7 2.4 0 7.8 2.4 0 7.9 2.4 0 8 2.4 0 8.1 2.4 0 8.2 2.4 0 8.3 2.4 0 8.4 2.4 0 8.5 2.4 0 8.6 2.4 0 8.7 2.4 0 8.8 2.4 0 8.9 2.4 0 9 2.4 0 9.1 2.4 0 9.2 2.4 0 9.3 2.4 0 9.4 2.4 0 9.5 2.4 0 9.6 2.4 0 9.7 2.4 0 9.8 2.4 0 9.9 2.4 0 10 2.4 0 0 2.5 0 0.1 2.5 0 0.2 2.5 0 0.3 2.5 0 0.4 2.5 0 0.5 2.5 0 0.6 2.5 0 0.7 2.5 0 0.8 2.5 0 0.9 2.5 0 1 2.5 0 1.1 2.5 0 1.2 2.5 0 1.3 2.5 0 1.4 2.5 0 1.5 2.5 0 1.6 2.5 0 1.7 2.5 0 1.8 2.5 0 1.9 2.5 0 2 2.5 0 2.1 2.5 0 2.2 2.5 0 2.3 2.5 0 2.4 2.5 0 2.5 2.5 0 2.6 2.5 0 2.7 2.5 0 2.8 2.5 0 2.9 2.5 0 3 2.5 0 3.1 2.5 0 3.2 2.5 0 3.3 2.5 0 3.4 2.5 0 3.5 2.5 0 3.6 2.5 0 3.7 2.5 0 3.8 2.5 0 3.9 2.5 0 4 2.5 0 4.1 2.5 0 4.2 2.5 0 4.3 2.5 0 4.4 2.5 0 4.5 2.5 0 4.6 2.5 0 4.7 2.5 0 4.8 2.5 0 4.9 2.5 0 5 2.5 0 5.1 2.5 0 5.2 2.5 0 5.3 2.5 0 5.4 2.5 0 5.5 2.5 0 5.6 2.5 0 5.7 2.5 0 5.8 2.5 0 5.9 2.5 0 6 2.5 0 6.1 2.5 0 6.2 2.5 0 6.3 2.5 0 6.4 2.5 0 6.5 2.5 0 6.6 2.5 0 6.7 2.5 0 6.8 2.5 0 6.9 2.5 0 7 2.5 0 7.1 2.5 0 7.2 2.5 0 7.3 2.5 0 7.4 2.5 0 7.5 2.5 0 7.6 2.5 0 7.7 2.5 0 7.8 2.5 0 7.9 2.5 0 8 2.5 0 8.1 2.5 0 8.2 2.5 0 8.3 2.5 0 8.4 2.5 0 8.5 2.5 0 8.6 2.5 0 8.7 2.5 0 8.8 2.5 0 8.9 2.5 0 9 2.5 0 9.1 2.5 0 9.2 2.5 0 9.3 2.5 0 9.4 2.5 0 9.5 2.5 0 9.6 2.5 0 9.7 2.5 0 9.8 2.5 0 9.9 2.5 0 10 2.5 0 0 2.6 0 0.1 2.6 0 0.2 2.6 0 0.3 2.6 0 0.4 2.6 0 0.5 2.6 0 0.6 2.6 0 0.7 2.6 0 0.8 2.6 0 0.9 2.6 0 1 2.6 0 1.1 2.6 0 1.2 2.6 0 1.3 2.6 0 1.4 2.6 0 1.5 2.6 0 1.6 2.6 0 1.7 2.6 0 1.8 2.6 0 1.9 2.6 0 2 2.6 0 2.1 2.6 0 2.2 2.6 0 2.3 2.6 0 2.4 2.6 0 2.5 2.6 0 2.6 2.6 0 2.7 2.6 0 2.8 2.6 0 2.9 2.6 0 3 2.6 0 3.1 2.6 0 3.2 2.6 0 3.3 2.6 0 3.4 2.6 0 3.5 2.6 0 3.6 2.6 0 3.7 2.6 0 3.8 2.6 0 3.9 2.6 0 4 2.6 0 4.1 2.6 0 4.2 2.6 0 4.3 2.6 0 4.4 2.6 0 4.5 2.6 0 4.6 2.6 0 4.7 2.6 0 4.8 2.6 0 4.9 2.6 0 5 2.6 0 5.1 2.6 0 5.2 2.6 0 5.3 2.6 0 5.4 2.6 0 5.5 2.6 0 5.6 2.6 0 5.7 2.6 0 5.8 2.6 0 5.9 2.6 0 6 2.6 0 6.1 2.6 0 6.2 2.6 0 6.3 2.6 0 6.4 2.6 0 6.5 2.6 0 6.6 2.6 0 6.7 2.6 0 6.8 2.6 0 6.9 2.6 0 7 2.6 0 7.1 2.6 0 7.2 2.6 0 7.3 2.6 0 7.4 2.6 0 7.5 2.6 0 7.6 2.6 0 7.7 2.6 0 7.8 2.6 0 7.9 2.6 0 8 2.6 0 8.1 2.6 0 8.2 2.6 0 8.3 2.6 0 8.4 2.6 0 8.5 2.6 0 8.6 2.6 0 8.7 2.6 0 8.8 2.6 0 8.9 2.6 0 9 2.6 0 9.1 2.6 0 9.2 2.6 0 9.3 2.6 0 9.4 2.6 0 9.5 2.6 0 9.6 2.6 0 9.7 2.6 0 9.8 2.6 0 9.9 2.6 0 10 2.6 0 0 2.7 0 0.1 2.7 0 0.2 2.7 0 0.3 2.7 0 0.4 2.7 0 0.5 2.7 0 0.6 2.7 0 0.7 2.7 0 0.8 2.7 0 0.9 2.7 0 1 2.7 0 1.1 2.7 0 1.2 2.7 0 1.3 2.7 0 1.4 2.7 0 1.5 2.7 0 1.6 2.7 0 1.7 2.7 0 1.8 2.7 0 1.9 2.7 0 2 2.7 0 2.1 2.7 0 2.2 2.7 0 2.3 2.7 0 2.4 2.7 0 2.5 2.7 0 2.6 2.7 0 2.7 2.7 0 2.8 2.7 0 2.9 2.7 0 3 2.7 0 3.1 2.7 0 3.2 2.7 0 3.3 2.7 0 3.4 2.7 0 3.5 2.7 0 3.6 2.7 0 3.7 2.7 0 3.8 2.7 0 3.9 2.7 0 4 2.7 0 4.1 2.7 0 4.2 2.7 0 4.3 2.7 0 4.4 2.7 0 4.5 2.7 0 4.6 2.7 0 4.7 2.7 0 4.8 2.7 0 4.9 2.7 0 5 2.7 0 5.1 2.7 0 5.2 2.7 0 5.3 2.7 0 5.4 2.7 0 5.5 2.7 0 5.6 2.7 0 5.7 2.7 0 5.8 2.7 0 5.9 2.7 0 6 2.7 0 6.1 2.7 0 6.2 2.7 0 6.3 2.7 0 6.4 2.7 0 6.5 2.7 0 6.6 2.7 0 6.7 2.7 0 6.8 2.7 0 6.9 2.7 0 7 2.7 0 7.1 2.7 0 7.2 2.7 0 7.3 2.7 0 7.4 2.7 0 7.5 2.7 0 7.6 2.7 0 7.7 2.7 0 7.8 2.7 0 7.9 2.7 0 8 2.7 0 8.1 2.7 0 8.2 2.7 0 8.3 2.7 0 8.4 2.7 0 8.5 2.7 0 8.6 2.7 0 8.7 2.7 0 8.8 2.7 0 8.9 2.7 0 9 2.7 0 9.1 2.7 0 9.2 2.7 0 9.3 2.7 0 9.4 2.7 0 9.5 2.7 0 9.6 2.7 0 9.7 2.7 0 9.8 2.7 0 9.9 2.7 0 10 2.7 0 0 2.8 0 0.1 2.8 0 0.2 2.8 0 0.3 2.8 0 0.4 2.8 0 0.5 2.8 0 0.6 2.8 0 0.7 2.8 0 0.8 2.8 0 0.9 2.8 0 1 2.8 0 1.1 2.8 0 1.2 2.8 0 1.3 2.8 0 1.4 2.8 0 1.5 2.8 0 1.6 2.8 0 1.7 2.8 0 1.8 2.8 0 1.9 2.8 0 2 2.8 0 2.1 2.8 0 2.2 2.8 0 2.3 2.8 0 2.4 2.8 0 2.5 2.8 0 2.6 2.8 0 2.7 2.8 0 2.8 2.8 0 2.9 2.8 0 3 2.8 0 3.1 2.8 0 3.2 2.8 0 3.3 2.8 0 3.4 2.8 0 3.5 2.8 0 3.6 2.8 0 3.7 2.8 0 3.8 2.8 0 3.9 2.8 0 4 2.8 0 4.1 2.8 0 4.2 2.8 0 4.3 2.8 0 4.4 2.8 0 4.5 2.8 0 4.6 2.8 0 4.7 2.8 0 4.8 2.8 0 4.9 2.8 0 5 2.8 0 5.1 2.8 0 5.2 2.8 0 5.3 2.8 0 5.4 2.8 0 5.5 2.8 0 5.6 2.8 0 5.7 2.8 0 5.8 2.8 0 5.9 2.8 0 6 2.8 0 6.1 2.8 0 6.2 2.8 0 6.3 2.8 0 6.4 2.8 0 6.5 2.8 0 6.6 2.8 0 6.7 2.8 0 6.8 2.8 0 6.9 2.8 0 7 2.8 0 7.1 2.8 0 7.2 2.8 0 7.3 2.8 0 7.4 2.8 0 7.5 2.8 0 7.6 2.8 0 7.7 2.8 0 7.8 2.8 0 7.9 2.8 0 8 2.8 0 8.1 2.8 0 8.2 2.8 0 8.3 2.8 0 8.4 2.8 0 8.5 2.8 0 8.6 2.8 0 8.7 2.8 0 8.8 2.8 0 8.9 2.8 0 9 2.8 0 9.1 2.8 0 9.2 2.8 0 9.3 2.8 0 9.4 2.8 0 9.5 2.8 0 9.6 2.8 0 9.7 2.8 0 9.8 2.8 0 9.9 2.8 0 10 2.8 0 0 2.9 0 0.1 2.9 0 0.2 2.9 0 0.3 2.9 0 0.4 2.9 0 0.5 2.9 0 0.6 2.9 0 0.7 2.9 0 0.8 2.9 0 0.9 2.9 0 1 2.9 0 1.1 2.9 0 1.2 2.9 0 1.3 2.9 0 1.4 2.9 0 1.5 2.9 0 1.6 2.9 0 1.7 2.9 0 1.8 2.9 0 1.9 2.9 0 2 2.9 0 2.1 2.9 0 2.2 2.9 0 2.3 2.9 0 2.4 2.9 0 2.5 2.9 0 2.6 2.9 0 2.7 2.9 0 2.8 2.9 0 2.9 2.9 0 3 2.9 0 3.1 2.9 0 3.2 2.9 0 3.3 2.9 0 3.4 2.9 0 3.5 2.9 0 3.6 2.9 0 3.7 2.9 0 3.8 2.9 0 3.9 2.9 0 4 2.9 0 4.1 2.9 0 4.2 2.9 0 4.3 2.9 0 4.4 2.9 0 4.5 2.9 0 4.6 2.9 0 4.7 2.9 0 4.8 2.9 0 4.9 2.9 0 5 2.9 0 5.1 2.9 0 5.2 2.9 0 5.3 2.9 0 5.4 2.9 0 5.5 2.9 0 5.6 2.9 0 5.7 2.9 0 5.8 2.9 0 5.9 2.9 0 6 2.9 0 6.1 2.9 0 6.2 2.9 0 6.3 2.9 0 6.4 2.9 0 6.5 2.9 0 6.6 2.9 0 6.7 2.9 0 6.8 2.9 0 6.9 2.9 0 7 2.9 0 7.1 2.9 0 7.2 2.9 0 7.3 2.9 0 7.4 2.9 0 7.5 2.9 0 7.6 2.9 0 7.7 2.9 0 7.8 2.9 0 7.9 2.9 0 8 2.9 0 8.1 2.9 0 8.2 2.9 0 8.3 2.9 0 8.4 2.9 0 8.5 2.9 0 8.6 2.9 0 8.7 2.9 0 8.8 2.9 0 8.9 2.9 0 9 2.9 0 9.1 2.9 0 9.2 2.9 0 9.3 2.9 0 9.4 2.9 0 9.5 2.9 0 9.6 2.9 0 9.7 2.9 0 9.8 2.9 0 9.9 2.9 0 10 2.9 0 0 3 0 0.1 3 0 0.2 3 0 0.3 3 0 0.4 3 0 0.5 3 0 0.6 3 0 0.7 3 0 0.8 3 0 0.9 3 0 1 3 0 1.1 3 0 1.2 3 0 1.3 3 0 1.4 3 0 1.5 3 0 1.6 3 0 1.7 3 0 1.8 3 0 1.9 3 0 2 3 0 2.1 3 0 2.2 3 0 2.3 3 0 2.4 3 0 2.5 3 0 2.6 3 0 2.7 3 0 2.8 3 0 2.9 3 0 3 3 0 3.1 3 0 3.2 3 0 3.3 3 0 3.4 3 0 3.5 3 0 3.6 3 0 3.7 3 0 3.8 3 0 3.9 3 0 4 3 0 4.1 3 0 4.2 3 0 4.3 3 0 4.4 3 0 4.5 3 0 4.6 3 0 4.7 3 0 4.8 3 0 4.9 3 0 5 3 0 5.1 3 0 5.2 3 0 5.3 3 0 5.4 3 0 5.5 3 0 5.6 3 0 5.7 3 0 5.8 3 0 5.9 3 0 6 3 0 6.1 3 0 6.2 3 0 6.3 3 0 6.4 3 0 6.5 3 0 6.6 3 0 6.7 3 0 6.8 3 0 6.9 3 0 7 3 0 7.1 3 0 7.2 3 0 7.3 3 0 7.4 3 0 7.5 3 0 7.6 3 0 7.7 3 0 7.8 3 0 7.9 3 0 8 3 0 8.1 3 0 8.2 3 0 8.3 3 0 8.4 3 0 8.5 3 0 8.6 3 0 8.7 3 0 8.8 3 0 8.9 3 0 9 3 0 9.1 3 0 9.2 3 0 9.3 3 0 9.4 3 0 9.5 3 0 9.6 3 0 9.7 3 0 9.8 3 0 9.9 3 0 10 3 0 0 3.1 0 0.1 3.1 0 0.2 3.1 0 0.3 3.1 0 0.4 3.1 0 0.5 3.1 0 0.6 3.1 0 0.7 3.1 0 0.8 3.1 0 0.9 3.1 0 1 3.1 0 1.1 3.1 0 1.2 3.1 0 1.3 3.1 0 1.4 3.1 0 1.5 3.1 0 1.6 3.1 0 1.7 3.1 0 1.8 3.1 0 1.9 3.1 0 2 3.1 0 2.1 3.1 0 2.2 3.1 0 2.3 3.1 0 2.4 3.1 0 2.5 3.1 0 2.6 3.1 0 2.7 3.1 0 2.8 3.1 0 2.9 3.1 0 3 3.1 0 3.1 3.1 0 3.2 3.1 0 3.3 3.1 0 3.4 3.1 0 3.5 3.1 0 3.6 3.1 0 3.7 3.1 0 3.8 3.1 0 3.9 3.1 0 4 3.1 0 4.1 3.1 0 4.2 3.1 0 4.3 3.1 0 4.4 3.1 0 4.5 3.1 0 4.6 3.1 0 4.7 3.1 0 4.8 3.1 0 4.9 3.1 0 5 3.1 0 5.1 3.1 0 5.2 3.1 0 5.3 3.1 0 5.4 3.1 0 5.5 3.1 0 5.6 3.1 0 5.7 3.1 0 5.8 3.1 0 5.9 3.1 0 6 3.1 0 6.1 3.1 0 6.2 3.1 0 6.3 3.1 0 6.4 3.1 0 6.5 3.1 0 6.6 3.1 0 6.7 3.1 0 6.8 3.1 0 6.9 3.1 0 7 3.1 0 7.1 3.1 0 7.2 3.1 0 7.3 3.1 0 7.4 3.1 0 7.5 3.1 0 7.6 3.1 0 7.7 3.1 0 7.8 3.1 0 7.9 3.1 0 8 3.1 0 8.1 3.1 0 8.2 3.1 0 8.3 3.1 0 8.4 3.1 0 8.5 3.1 0 8.6 3.1 0 8.7 3.1 0 8.8 3.1 0 8.9 3.1 0 9 3.1 0 9.1 3.1 0 9.2 3.1 0 9.3 3.1 0 9.4 3.1 0 9.5 3.1 0 9.6 3.1 0 9.7 3.1 0 9.8 3.1 0 9.9 3.1 0 10 3.1 0 0 3.2 0 0.1 3.2 0 0.2 3.2 0 0.3 3.2 0 0.4 3.2 0 0.5 3.2 0 0.6 3.2 0 0.7 3.2 0 0.8 3.2 0 0.9 3.2 0 1 3.2 0 1.1 3.2 0 1.2 3.2 0 1.3 3.2 0 1.4 3.2 0 1.5 3.2 0 1.6 3.2 0 1.7 3.2 0 1.8 3.2 0 1.9 3.2 0 2 3.2 0 2.1 3.2 0 2.2 3.2 0 2.3 3.2 0 2.4 3.2 0 2.5 3.2 0 2.6 3.2 0 2.7 3.2 0 2.8 3.2 0 2.9 3.2 0 3 3.2 0 3.1 3.2 0 3.2 3.2 0 3.3 3.2 0 3.4 3.2 0 3.5 3.2 0 3.6 3.2 0 3.7 3.2 0 3.8 3.2 0 3.9 3.2 0 4 3.2 0 4.1 3.2 0 4.2 3.2 0 4.3 3.2 0 4.4 3.2 0 4.5 3.2 0 4.6 3.2 0 4.7 3.2 0 4.8 3.2 0 4.9 3.2 0 5 3.2 0 5.1 3.2 0 5.2 3.2 0 5.3 3.2 0 5.4 3.2 0 5.5 3.2 0 5.6 3.2 0 5.7 3.2 0 5.8 3.2 0 5.9 3.2 0 6 3.2 0 6.1 3.2 0 6.2 3.2 0 6.3 3.2 0 6.4 3.2 0 6.5 3.2 0 6.6 3.2 0 6.7 3.2 0 6.8 3.2 0 6.9 3.2 0 7 3.2 0 7.1 3.2 0 7.2 3.2 0 7.3 3.2 0 7.4 3.2 0 7.5 3.2 0 7.6 3.2 0 7.7 3.2 0 7.8 3.2 0 7.9 3.2 0 8 3.2 0 8.1 3.2 0 8.2 3.2 0 8.3 3.2 0 8.4 3.2 0 8.5 3.2 0 8.6 3.2 0 8.7 3.2 0 8.8 3.2 0 8.9 3.2 0 9 3.2 0 9.1 3.2 0 9.2 3.2 0 9.3 3.2 0 9.4 3.2 0 9.5 3.2 0 9.6 3.2 0 9.7 3.2 0 9.8 3.2 0 9.9 3.2 0 10 3.2 0 0 3.3 0 0.1 3.3 0 0.2 3.3 0 0.3 3.3 0 0.4 3.3 0 0.5 3.3 0 0.6 3.3 0 0.7 3.3 0 0.8 3.3 0 0.9 3.3 0 1 3.3 0 1.1 3.3 0 1.2 3.3 0 1.3 3.3 0 1.4 3.3 0 1.5 3.3 0 1.6 3.3 0 1.7 3.3 0 1.8 3.3 0 1.9 3.3 0 2 3.3 0 2.1 3.3 0 2.2 3.3 0 2.3 3.3 0 2.4 3.3 0 2.5 3.3 0 2.6 3.3 0 2.7 3.3 0 2.8 3.3 0 2.9 3.3 0 3 3.3 0 3.1 3.3 0 3.2 3.3 0 3.3 3.3 0 3.4 3.3 0 3.5 3.3 0 3.6 3.3 0 3.7 3.3 0 3.8 3.3 0 3.9 3.3 0 4 3.3 0 4.1 3.3 0 4.2 3.3 0 4.3 3.3 0 4.4 3.3 0 4.5 3.3 0 4.6 3.3 0 4.7 3.3 0 4.8 3.3 0 4.9 3.3 0 5 3.3 0 5.1 3.3 0 5.2 3.3 0 5.3 3.3 0 5.4 3.3 0 5.5 3.3 0 5.6 3.3 0 5.7 3.3 0 5.8 3.3 0 5.9 3.3 0 6 3.3 0 6.1 3.3 0 6.2 3.3 0 6.3 3.3 0 6.4 3.3 0 6.5 3.3 0 6.6 3.3 0 6.7 3.3 0 6.8 3.3 0 6.9 3.3 0 7 3.3 0 7.1 3.3 0 7.2 3.3 0 7.3 3.3 0 7.4 3.3 0 7.5 3.3 0 7.6 3.3 0 7.7 3.3 0 7.8 3.3 0 7.9 3.3 0 8 3.3 0 8.1 3.3 0 8.2 3.3 0 8.3 3.3 0 8.4 3.3 0 8.5 3.3 0 8.6 3.3 0 8.7 3.3 0 8.8 3.3 0 8.9 3.3 0 9 3.3 0 9.1 3.3 0 9.2 3.3 0 9.3 3.3 0 9.4 3.3 0 9.5 3.3 0 9.6 3.3 0 9.7 3.3 0 9.8 3.3 0 9.9 3.3 0 10 3.3 0 0 3.4 0 0.1 3.4 0 0.2 3.4 0 0.3 3.4 0 0.4 3.4 0 0.5 3.4 0 0.6 3.4 0 0.7 3.4 0 0.8 3.4 0 0.9 3.4 0 1 3.4 0 1.1 3.4 0 1.2 3.4 0 1.3 3.4 0 1.4 3.4 0 1.5 3.4 0 1.6 3.4 0 1.7 3.4 0 1.8 3.4 0 1.9 3.4 0 2 3.4 0 2.1 3.4 0 2.2 3.4 0 2.3 3.4 0 2.4 3.4 0 2.5 3.4 0 2.6 3.4 0 2.7 3.4 0 2.8 3.4 0 2.9 3.4 0 3 3.4 0 3.1 3.4 0 3.2 3.4 0 3.3 3.4 0 3.4 3.4 0 3.5 3.4 0 3.6 3.4 0 3.7 3.4 0 3.8 3.4 0 3.9 3.4 0 4 3.4 0 4.1 3.4 0 4.2 3.4 0 4.3 3.4 0 4.4 3.4 0 4.5 3.4 0 4.6 3.4 0 4.7 3.4 0 4.8 3.4 0 4.9 3.4 0 5 3.4 0 5.1 3.4 0 5.2 3.4 0 5.3 3.4 0 5.4 3.4 0 5.5 3.4 0 5.6 3.4 0 5.7 3.4 0 5.8 3.4 0 5.9 3.4 0 6 3.4 0 6.1 3.4 0 6.2 3.4 0 6.3 3.4 0 6.4 3.4 0 6.5 3.4 0 6.6 3.4 0 6.7 3.4 0 6.8 3.4 0 6.9 3.4 0 7 3.4 0 7.1 3.4 0 7.2 3.4 0 7.3 3.4 0 7.4 3.4 0 7.5 3.4 0 7.6 3.4 0 7.7 3.4 0 7.8 3.4 0 7.9 3.4 0 8 3.4 0 8.1 3.4 0 8.2 3.4 0 8.3 3.4 0 8.4 3.4 0 8.5 3.4 0 8.6 3.4 0 8.7 3.4 0 8.8 3.4 0 8.9 3.4 0 9 3.4 0 9.1 3.4 0 9.2 3.4 0 9.3 3.4 0 9.4 3.4 0 9.5 3.4 0 9.6 3.4 0 9.7 3.4 0 9.8 3.4 0 9.9 3.4 0 10 3.4 0 0 3.5 0 0.1 3.5 0 0.2 3.5 0 0.3 3.5 0 0.4 3.5 0 0.5 3.5 0 0.6 3.5 0 0.7 3.5 0 0.8 3.5 0 0.9 3.5 0 1 3.5 0 1.1 3.5 0 1.2 3.5 0 1.3 3.5 0 1.4 3.5 0 1.5 3.5 0 1.6 3.5 0 1.7 3.5 0 1.8 3.5 0 1.9 3.5 0 2 3.5 0 2.1 3.5 0 2.2 3.5 0 2.3 3.5 0 2.4 3.5 0 2.5 3.5 0 2.6 3.5 0 2.7 3.5 0 2.8 3.5 0 2.9 3.5 0 3 3.5 0 3.1 3.5 0 3.2 3.5 0 3.3 3.5 0 3.4 3.5 0 3.5 3.5 0 3.6 3.5 0 3.7 3.5 0 3.8 3.5 0 3.9 3.5 0 4 3.5 0 4.1 3.5 0 4.2 3.5 0 4.3 3.5 0 4.4 3.5 0 4.5 3.5 0 4.6 3.5 0 4.7 3.5 0 4.8 3.5 0 4.9 3.5 0 5 3.5 0 5.1 3.5 0 5.2 3.5 0 5.3 3.5 0 5.4 3.5 0 5.5 3.5 0 5.6 3.5 0 5.7 3.5 0 5.8 3.5 0 5.9 3.5 0 6 3.5 0 6.1 3.5 0 6.2 3.5 0 6.3 3.5 0 6.4 3.5 0 6.5 3.5 0 6.6 3.5 0 6.7 3.5 0 6.8 3.5 0 6.9 3.5 0 7 3.5 0 7.1 3.5 0 7.2 3.5 0 7.3 3.5 0 7.4 3.5 0 7.5 3.5 0 7.6 3.5 0 7.7 3.5 0 7.8 3.5 0 7.9 3.5 0 8 3.5 0 8.1 3.5 0 8.2 3.5 0 8.3 3.5 0 8.4 3.5 0 8.5 3.5 0 8.6 3.5 0 8.7 3.5 0 8.8 3.5 0 8.9 3.5 0 9 3.5 0 9.1 3.5 0 9.2 3.5 0 9.3 3.5 0 9.4 3.5 0 9.5 3.5 0 9.6 3.5 0 9.7 3.5 0 9.8 3.5 0 9.9 3.5 0 10 3.5 0 0 3.6 0 0.1 3.6 0 0.2 3.6 0 0.3 3.6 0 0.4 3.6 0 0.5 3.6 0 0.6 3.6 0 0.7 3.6 0 0.8 3.6 0 0.9 3.6 0 1 3.6 0 1.1 3.6 0 1.2 3.6 0 1.3 3.6 0 1.4 3.6 0 1.5 3.6 0 1.6 3.6 0 1.7 3.6 0 1.8 3.6 0 1.9 3.6 0 2 3.6 0 2.1 3.6 0 2.2 3.6 0 2.3 3.6 0 2.4 3.6 0 2.5 3.6 0 2.6 3.6 0 2.7 3.6 0 2.8 3.6 0 2.9 3.6 0 3 3.6 0 3.1 3.6 0 3.2 3.6 0 3.3 3.6 0 3.4 3.6 0 3.5 3.6 0 3.6 3.6 0 3.7 3.6 0 3.8 3.6 0 3.9 3.6 0 4 3.6 0 4.1 3.6 0 4.2 3.6 0 4.3 3.6 0 4.4 3.6 0 4.5 3.6 0 4.6 3.6 0 4.7 3.6 0 4.8 3.6 0 4.9 3.6 0 5 3.6 0 5.1 3.6 0 5.2 3.6 0 5.3 3.6 0 5.4 3.6 0 5.5 3.6 0 5.6 3.6 0 5.7 3.6 0 5.8 3.6 0 5.9 3.6 0 6 3.6 0 6.1 3.6 0 6.2 3.6 0 6.3 3.6 0 6.4 3.6 0 6.5 3.6 0 6.6 3.6 0 6.7 3.6 0 6.8 3.6 0 6.9 3.6 0 7 3.6 0 7.1 3.6 0 7.2 3.6 0 7.3 3.6 0 7.4 3.6 0 7.5 3.6 0 7.6 3.6 0 7.7 3.6 0 7.8 3.6 0 7.9 3.6 0 8 3.6 0 8.1 3.6 0 8.2 3.6 0 8.3 3.6 0 8.4 3.6 0 8.5 3.6 0 8.6 3.6 0 8.7 3.6 0 8.8 3.6 0 8.9 3.6 0 9 3.6 0 9.1 3.6 0 9.2 3.6 0 9.3 3.6 0 9.4 3.6 0 9.5 3.6 0 9.6 3.6 0 9.7 3.6 0 9.8 3.6 0 9.9 3.6 0 10 3.6 0 0 3.7 0 0.1 3.7 0 0.2 3.7 0 0.3 3.7 0 0.4 3.7 0 0.5 3.7 0 0.6 3.7 0 0.7 3.7 0 0.8 3.7 0 0.9 3.7 0 1 3.7 0 1.1 3.7 0 1.2 3.7 0 1.3 3.7 0 1.4 3.7 0 1.5 3.7 0 1.6 3.7 0 1.7 3.7 0 1.8 3.7 0 1.9 3.7 0 2 3.7 0 2.1 3.7 0 2.2 3.7 0 2.3 3.7 0 2.4 3.7 0 2.5 3.7 0 2.6 3.7 0 2.7 3.7 0 2.8 3.7 0 2.9 3.7 0 3 3.7 0 3.1 3.7 0 3.2 3.7 0 3.3 3.7 0 3.4 3.7 0 3.5 3.7 0 3.6 3.7 0 3.7 3.7 0 3.8 3.7 0 3.9 3.7 0 4 3.7 0 4.1 3.7 0 4.2 3.7 0 4.3 3.7 0 4.4 3.7 0 4.5 3.7 0 4.6 3.7 0 4.7 3.7 0 4.8 3.7 0 4.9 3.7 0 5 3.7 0 5.1 3.7 0 5.2 3.7 0 5.3 3.7 0 5.4 3.7 0 5.5 3.7 0 5.6 3.7 0 5.7 3.7 0 5.8 3.7 0 5.9 3.7 0 6 3.7 0 6.1 3.7 0 6.2 3.7 0 6.3 3.7 0 6.4 3.7 0 6.5 3.7 0 6.6 3.7 0 6.7 3.7 0 6.8 3.7 0 6.9 3.7 0 7 3.7 0 7.1 3.7 0 7.2 3.7 0 7.3 3.7 0 7.4 3.7 0 7.5 3.7 0 7.6 3.7 0 7.7 3.7 0 7.8 3.7 0 7.9 3.7 0 8 3.7 0 8.1 3.7 0 8.2 3.7 0 8.3 3.7 0 8.4 3.7 0 8.5 3.7 0 8.6 3.7 0 8.7 3.7 0 8.8 3.7 0 8.9 3.7 0 9 3.7 0 9.1 3.7 0 9.2 3.7 0 9.3 3.7 0 9.4 3.7 0 9.5 3.7 0 9.6 3.7 0 9.7 3.7 0 9.8 3.7 0 9.9 3.7 0 10 3.7 0 0 3.8 0 0.1 3.8 0 0.2 3.8 0 0.3 3.8 0 0.4 3.8 0 0.5 3.8 0 0.6 3.8 0 0.7 3.8 0 0.8 3.8 0 0.9 3.8 0 1 3.8 0 1.1 3.8 0 1.2 3.8 0 1.3 3.8 0 1.4 3.8 0 1.5 3.8 0 1.6 3.8 0 1.7 3.8 0 1.8 3.8 0 1.9 3.8 0 2 3.8 0 2.1 3.8 0 2.2 3.8 0 2.3 3.8 0 2.4 3.8 0 2.5 3.8 0 2.6 3.8 0 2.7 3.8 0 2.8 3.8 0 2.9 3.8 0 3 3.8 0 3.1 3.8 0 3.2 3.8 0 3.3 3.8 0 3.4 3.8 0 3.5 3.8 0 3.6 3.8 0 3.7 3.8 0 3.8 3.8 0 3.9 3.8 0 4 3.8 0 4.1 3.8 0 4.2 3.8 0 4.3 3.8 0 4.4 3.8 0 4.5 3.8 0 4.6 3.8 0 4.7 3.8 0 4.8 3.8 0 4.9 3.8 0 5 3.8 0 5.1 3.8 0 5.2 3.8 0 5.3 3.8 0 5.4 3.8 0 5.5 3.8 0 5.6 3.8 0 5.7 3.8 0 5.8 3.8 0 5.9 3.8 0 6 3.8 0 6.1 3.8 0 6.2 3.8 0 6.3 3.8 0 6.4 3.8 0 6.5 3.8 0 6.6 3.8 0 6.7 3.8 0 6.8 3.8 0 6.9 3.8 0 7 3.8 0 7.1 3.8 0 7.2 3.8 0 7.3 3.8 0 7.4 3.8 0 7.5 3.8 0 7.6 3.8 0 7.7 3.8 0 7.8 3.8 0 7.9 3.8 0 8 3.8 0 8.1 3.8 0 8.2 3.8 0 8.3 3.8 0 8.4 3.8 0 8.5 3.8 0 8.6 3.8 0 8.7 3.8 0 8.8 3.8 0 8.9 3.8 0 9 3.8 0 9.1 3.8 0 9.2 3.8 0 9.3 3.8 0 9.4 3.8 0 9.5 3.8 0 9.6 3.8 0 9.7 3.8 0 9.8 3.8 0 9.9 3.8 0 10 3.8 0 0 3.9 0 0.1 3.9 0 0.2 3.9 0 0.3 3.9 0 0.4 3.9 0 0.5 3.9 0 0.6 3.9 0 0.7 3.9 0 0.8 3.9 0 0.9 3.9 0 1 3.9 0 1.1 3.9 0 1.2 3.9 0 1.3 3.9 0 1.4 3.9 0 1.5 3.9 0 1.6 3.9 0 1.7 3.9 0 1.8 3.9 0 1.9 3.9 0 2 3.9 0 2.1 3.9 0 2.2 3.9 0 2.3 3.9 0 2.4 3.9 0 2.5 3.9 0 2.6 3.9 0 2.7 3.9 0 2.8 3.9 0 2.9 3.9 0 3 3.9 0 3.1 3.9 0 3.2 3.9 0 3.3 3.9 0 3.4 3.9 0 3.5 3.9 0 3.6 3.9 0 3.7 3.9 0 3.8 3.9 0 3.9 3.9 0 4 3.9 0 4.1 3.9 0 4.2 3.9 0 4.3 3.9 0 4.4 3.9 0 4.5 3.9 0 4.6 3.9 0 4.7 3.9 0 4.8 3.9 0 4.9 3.9 0 5 3.9 0 5.1 3.9 0 5.2 3.9 0 5.3 3.9 0 5.4 3.9 0 5.5 3.9 0 5.6 3.9 0 5.7 3.9 0 5.8 3.9 0 5.9 3.9 0 6 3.9 0 6.1 3.9 0 6.2 3.9 0 6.3 3.9 0 6.4 3.9 0 6.5 3.9 0 6.6 3.9 0 6.7 3.9 0 6.8 3.9 0 6.9 3.9 0 7 3.9 0 7.1 3.9 0 7.2 3.9 0 7.3 3.9 0 7.4 3.9 0 7.5 3.9 0 7.6 3.9 0 7.7 3.9 0 7.8 3.9 0 7.9 3.9 0 8 3.9 0 8.1 3.9 0 8.2 3.9 0 8.3 3.9 0 8.4 3.9 0 8.5 3.9 0 8.6 3.9 0 8.7 3.9 0 8.8 3.9 0 8.9 3.9 0 9 3.9 0 9.1 3.9 0 9.2 3.9 0 9.3 3.9 0 9.4 3.9 0 9.5 3.9 0 9.6 3.9 0 9.7 3.9 0 9.8 3.9 0 9.9 3.9 0 10 3.9 0 0 4 0 0.1 4 0 0.2 4 0 0.3 4 0 0.4 4 0 0.5 4 0 0.6 4 0 0.7 4 0 0.8 4 0 0.9 4 0 1 4 0 1.1 4 0 1.2 4 0 1.3 4 0 1.4 4 0 1.5 4 0 1.6 4 0 1.7 4 0 1.8 4 0 1.9 4 0 2 4 0 2.1 4 0 2.2 4 0 2.3 4 0 2.4 4 0 2.5 4 0 2.6 4 0 2.7 4 0 2.8 4 0 2.9 4 0 3 4 0 3.1 4 0 3.2 4 0 3.3 4 0 3.4 4 0 3.5 4 0 3.6 4 0 3.7 4 0 3.8 4 0 3.9 4 0 4 4 0 4.1 4 0 4.2 4 0 4.3 4 0 4.4 4 0 4.5 4 0 4.6 4 0 4.7 4 0 4.8 4 0 4.9 4 0 5 4 0 5.1 4 0 5.2 4 0 5.3 4 0 5.4 4 0 5.5 4 0 5.6 4 0 5.7 4 0 5.8 4 0 5.9 4 0 6 4 0 6.1 4 0 6.2 4 0 6.3 4 0 6.4 4 0 6.5 4 0 6.6 4 0 6.7 4 0 6.8 4 0 6.9 4 0 7 4 0 7.1 4 0 7.2 4 0 7.3 4 0 7.4 4 0 7.5 4 0 7.6 4 0 7.7 4 0 7.8 4 0 7.9 4 0 8 4 0 8.1 4 0 8.2 4 0 8.3 4 0 8.4 4 0 8.5 4 0 8.6 4 0 8.7 4 0 8.8 4 0 8.9 4 0 9 4 0 9.1 4 0 9.2 4 0 9.3 4 0 9.4 4 0 9.5 4 0 9.6 4 0 9.7 4 0 9.8 4 0 9.9 4 0 10 4 0 0 4.1 0 0.1 4.1 0 0.2 4.1 0 0.3 4.1 0 0.4 4.1 0 0.5 4.1 0 0.6 4.1 0 0.7 4.1 0 0.8 4.1 0 0.9 4.1 0 1 4.1 0 1.1 4.1 0 1.2 4.1 0 1.3 4.1 0 1.4 4.1 0 1.5 4.1 0 1.6 4.1 0 1.7 4.1 0 1.8 4.1 0 1.9 4.1 0 2 4.1 0 2.1 4.1 0 2.2 4.1 0 2.3 4.1 0 2.4 4.1 0 2.5 4.1 0 2.6 4.1 0 2.7 4.1 0 2.8 4.1 0 2.9 4.1 0 3 4.1 0 3.1 4.1 0 3.2 4.1 0 3.3 4.1 0 3.4 4.1 0 3.5 4.1 0 3.6 4.1 0 3.7 4.1 0 3.8 4.1 0 3.9 4.1 0 4 4.1 0 4.1 4.1 0 4.2 4.1 0 4.3 4.1 0 4.4 4.1 0 4.5 4.1 0 4.6 4.1 0 4.7 4.1 0 4.8 4.1 0 4.9 4.1 0 5 4.1 0 5.1 4.1 0 5.2 4.1 0 5.3 4.1 0 5.4 4.1 0 5.5 4.1 0 5.6 4.1 0 5.7 4.1 0 5.8 4.1 0 5.9 4.1 0 6 4.1 0 6.1 4.1 0 6.2 4.1 0 6.3 4.1 0 6.4 4.1 0 6.5 4.1 0 6.6 4.1 0 6.7 4.1 0 6.8 4.1 0 6.9 4.1 0 7 4.1 0 7.1 4.1 0 7.2 4.1 0 7.3 4.1 0 7.4 4.1 0 7.5 4.1 0 7.6 4.1 0 7.7 4.1 0 7.8 4.1 0 7.9 4.1 0 8 4.1 0 8.1 4.1 0 8.2 4.1 0 8.3 4.1 0 8.4 4.1 0 8.5 4.1 0 8.6 4.1 0 8.7 4.1 0 8.8 4.1 0 8.9 4.1 0 9 4.1 0 9.1 4.1 0 9.2 4.1 0 9.3 4.1 0 9.4 4.1 0 9.5 4.1 0 9.6 4.1 0 9.7 4.1 0 9.8 4.1 0 9.9 4.1 0 10 4.1 0 0 4.2 0 0.1 4.2 0 0.2 4.2 0 0.3 4.2 0 0.4 4.2 0 0.5 4.2 0 0.6 4.2 0 0.7 4.2 0 0.8 4.2 0 0.9 4.2 0 1 4.2 0 1.1 4.2 0 1.2 4.2 0 1.3 4.2 0 1.4 4.2 0 1.5 4.2 0 1.6 4.2 0 1.7 4.2 0 1.8 4.2 0 1.9 4.2 0 2 4.2 0 2.1 4.2 0 2.2 4.2 0 2.3 4.2 0 2.4 4.2 0 2.5 4.2 0 2.6 4.2 0 2.7 4.2 0 2.8 4.2 0 2.9 4.2 0 3 4.2 0 3.1 4.2 0 3.2 4.2 0 3.3 4.2 0 3.4 4.2 0 3.5 4.2 0 3.6 4.2 0 3.7 4.2 0 3.8 4.2 0 3.9 4.2 0 4 4.2 0 4.1 4.2 0 4.2 4.2 0 4.3 4.2 0 4.4 4.2 0 4.5 4.2 0 4.6 4.2 0 4.7 4.2 0 4.8 4.2 0 4.9 4.2 0 5 4.2 0 5.1 4.2 0 5.2 4.2 0 5.3 4.2 0 5.4 4.2 0 5.5 4.2 0 5.6 4.2 0 5.7 4.2 0 5.8 4.2 0 5.9 4.2 0 6 4.2 0 6.1 4.2 0 6.2 4.2 0 6.3 4.2 0 6.4 4.2 0 6.5 4.2 0 6.6 4.2 0 6.7 4.2 0 6.8 4.2 0 6.9 4.2 0 7 4.2 0 7.1 4.2 0 7.2 4.2 0 7.3 4.2 0 7.4 4.2 0 7.5 4.2 0 7.6 4.2 0 7.7 4.2 0 7.8 4.2 0 7.9 4.2 0 8 4.2 0 8.1 4.2 0 8.2 4.2 0 8.3 4.2 0 8.4 4.2 0 8.5 4.2 0 8.6 4.2 0 8.7 4.2 0 8.8 4.2 0 8.9 4.2 0 9 4.2 0 9.1 4.2 0 9.2 4.2 0 9.3 4.2 0 9.4 4.2 0 9.5 4.2 0 9.6 4.2 0 9.7 4.2 0 9.8 4.2 0 9.9 4.2 0 10 4.2 0 0 4.3 0 0.1 4.3 0 0.2 4.3 0 0.3 4.3 0 0.4 4.3 0 0.5 4.3 0 0.6 4.3 0 0.7 4.3 0 0.8 4.3 0 0.9 4.3 0 1 4.3 0 1.1 4.3 0 1.2 4.3 0 1.3 4.3 0 1.4 4.3 0 1.5 4.3 0 1.6 4.3 0 1.7 4.3 0 1.8 4.3 0 1.9 4.3 0 2 4.3 0 2.1 4.3 0 2.2 4.3 0 2.3 4.3 0 2.4 4.3 0 2.5 4.3 0 2.6 4.3 0 2.7 4.3 0 2.8 4.3 0 2.9 4.3 0 3 4.3 0 3.1 4.3 0 3.2 4.3 0 3.3 4.3 0 3.4 4.3 0 3.5 4.3 0 3.6 4.3 0 3.7 4.3 0 3.8 4.3 0 3.9 4.3 0 4 4.3 0 4.1 4.3 0 4.2 4.3 0 4.3 4.3 0 4.4 4.3 0 4.5 4.3 0 4.6 4.3 0 4.7 4.3 0 4.8 4.3 0 4.9 4.3 0 5 4.3 0 5.1 4.3 0 5.2 4.3 0 5.3 4.3 0 5.4 4.3 0 5.5 4.3 0 5.6 4.3 0 5.7 4.3 0 5.8 4.3 0 5.9 4.3 0 6 4.3 0 6.1 4.3 0 6.2 4.3 0 6.3 4.3 0 6.4 4.3 0 6.5 4.3 0 6.6 4.3 0 6.7 4.3 0 6.8 4.3 0 6.9 4.3 0 7 4.3 0 7.1 4.3 0 7.2 4.3 0 7.3 4.3 0 7.4 4.3 0 7.5 4.3 0 7.6 4.3 0 7.7 4.3 0 7.8 4.3 0 7.9 4.3 0 8 4.3 0 8.1 4.3 0 8.2 4.3 0 8.3 4.3 0 8.4 4.3 0 8.5 4.3 0 8.6 4.3 0 8.7 4.3 0 8.8 4.3 0 8.9 4.3 0 9 4.3 0 9.1 4.3 0 9.2 4.3 0 9.3 4.3 0 9.4 4.3 0 9.5 4.3 0 9.6 4.3 0 9.7 4.3 0 9.8 4.3 0 9.9 4.3 0 10 4.3 0 0 4.4 0 0.1 4.4 0 0.2 4.4 0 0.3 4.4 0 0.4 4.4 0 0.5 4.4 0 0.6 4.4 0 0.7 4.4 0 0.8 4.4 0 0.9 4.4 0 1 4.4 0 1.1 4.4 0 1.2 4.4 0 1.3 4.4 0 1.4 4.4 0 1.5 4.4 0 1.6 4.4 0 1.7 4.4 0 1.8 4.4 0 1.9 4.4 0 2 4.4 0 2.1 4.4 0 2.2 4.4 0 2.3 4.4 0 2.4 4.4 0 2.5 4.4 0 2.6 4.4 0 2.7 4.4 0 2.8 4.4 0 2.9 4.4 0 3 4.4 0 3.1 4.4 0 3.2 4.4 0 3.3 4.4 0 3.4 4.4 0 3.5 4.4 0 3.6 4.4 0 3.7 4.4 0 3.8 4.4 0 3.9 4.4 0 4 4.4 0 4.1 4.4 0 4.2 4.4 0 4.3 4.4 0 4.4 4.4 0 4.5 4.4 0 4.6 4.4 0 4.7 4.4 0 4.8 4.4 0 4.9 4.4 0 5 4.4 0 5.1 4.4 0 5.2 4.4 0 5.3 4.4 0 5.4 4.4 0 5.5 4.4 0 5.6 4.4 0 5.7 4.4 0 5.8 4.4 0 5.9 4.4 0 6 4.4 0 6.1 4.4 0 6.2 4.4 0 6.3 4.4 0 6.4 4.4 0 6.5 4.4 0 6.6 4.4 0 6.7 4.4 0 6.8 4.4 0 6.9 4.4 0 7 4.4 0 7.1 4.4 0 7.2 4.4 0 7.3 4.4 0 7.4 4.4 0 7.5 4.4 0 7.6 4.4 0 7.7 4.4 0 7.8 4.4 0 7.9 4.4 0 8 4.4 0 8.1 4.4 0 8.2 4.4 0 8.3 4.4 0 8.4 4.4 0 8.5 4.4 0 8.6 4.4 0 8.7 4.4 0 8.8 4.4 0 8.9 4.4 0 9 4.4 0 9.1 4.4 0 9.2 4.4 0 9.3 4.4 0 9.4 4.4 0 9.5 4.4 0 9.6 4.4 0 9.7 4.4 0 9.8 4.4 0 9.9 4.4 0 10 4.4 0 0 4.5 0 0.1 4.5 0 0.2 4.5 0 0.3 4.5 0 0.4 4.5 0 0.5 4.5 0 0.6 4.5 0 0.7 4.5 0 0.8 4.5 0 0.9 4.5 0 1 4.5 0 1.1 4.5 0 1.2 4.5 0 1.3 4.5 0 1.4 4.5 0 1.5 4.5 0 1.6 4.5 0 1.7 4.5 0 1.8 4.5 0 1.9 4.5 0 2 4.5 0 2.1 4.5 0 2.2 4.5 0 2.3 4.5 0 2.4 4.5 0 2.5 4.5 0 2.6 4.5 0 2.7 4.5 0 2.8 4.5 0 2.9 4.5 0 3 4.5 0 3.1 4.5 0 3.2 4.5 0 3.3 4.5 0 3.4 4.5 0 3.5 4.5 0 3.6 4.5 0 3.7 4.5 0 3.8 4.5 0 3.9 4.5 0 4 4.5 0 4.1 4.5 0 4.2 4.5 0 4.3 4.5 0 4.4 4.5 0 4.5 4.5 0 4.6 4.5 0 4.7 4.5 0 4.8 4.5 0 4.9 4.5 0 5 4.5 0 5.1 4.5 0 5.2 4.5 0 5.3 4.5 0 5.4 4.5 0 5.5 4.5 0 5.6 4.5 0 5.7 4.5 0 5.8 4.5 0 5.9 4.5 0 6 4.5 0 6.1 4.5 0 6.2 4.5 0 6.3 4.5 0 6.4 4.5 0 6.5 4.5 0 6.6 4.5 0 6.7 4.5 0 6.8 4.5 0 6.9 4.5 0 7 4.5 0 7.1 4.5 0 7.2 4.5 0 7.3 4.5 0 7.4 4.5 0 7.5 4.5 0 7.6 4.5 0 7.7 4.5 0 7.8 4.5 0 7.9 4.5 0 8 4.5 0 8.1 4.5 0 8.2 4.5 0 8.3 4.5 0 8.4 4.5 0 8.5 4.5 0 8.6 4.5 0 8.7 4.5 0 8.8 4.5 0 8.9 4.5 0 9 4.5 0 9.1 4.5 0 9.2 4.5 0 9.3 4.5 0 9.4 4.5 0 9.5 4.5 0 9.6 4.5 0 9.7 4.5 0 9.8 4.5 0 9.9 4.5 0 10 4.5 0 0 4.6 0 0.1 4.6 0 0.2 4.6 0 0.3 4.6 0 0.4 4.6 0 0.5 4.6 0 0.6 4.6 0 0.7 4.6 0 0.8 4.6 0 0.9 4.6 0 1 4.6 0 1.1 4.6 0 1.2 4.6 0 1.3 4.6 0 1.4 4.6 0 1.5 4.6 0 1.6 4.6 0 1.7 4.6 0 1.8 4.6 0 1.9 4.6 0 2 4.6 0 2.1 4.6 0 2.2 4.6 0 2.3 4.6 0 2.4 4.6 0 2.5 4.6 0 2.6 4.6 0 2.7 4.6 0 2.8 4.6 0 2.9 4.6 0 3 4.6 0 3.1 4.6 0 3.2 4.6 0 3.3 4.6 0 3.4 4.6 0 3.5 4.6 0 3.6 4.6 0 3.7 4.6 0 3.8 4.6 0 3.9 4.6 0 4 4.6 0 4.1 4.6 0 4.2 4.6 0 4.3 4.6 0 4.4 4.6 0 4.5 4.6 0 4.6 4.6 0 4.7 4.6 0 4.8 4.6 0 4.9 4.6 0 5 4.6 0 5.1 4.6 0 5.2 4.6 0 5.3 4.6 0 5.4 4.6 0 5.5 4.6 0 5.6 4.6 0 5.7 4.6 0 5.8 4.6 0 5.9 4.6 0 6 4.6 0 6.1 4.6 0 6.2 4.6 0 6.3 4.6 0 6.4 4.6 0 6.5 4.6 0 6.6 4.6 0 6.7 4.6 0 6.8 4.6 0 6.9 4.6 0 7 4.6 0 7.1 4.6 0 7.2 4.6 0 7.3 4.6 0 7.4 4.6 0 7.5 4.6 0 7.6 4.6 0 7.7 4.6 0 7.8 4.6 0 7.9 4.6 0 8 4.6 0 8.1 4.6 0 8.2 4.6 0 8.3 4.6 0 8.4 4.6 0 8.5 4.6 0 8.6 4.6 0 8.7 4.6 0 8.8 4.6 0 8.9 4.6 0 9 4.6 0 9.1 4.6 0 9.2 4.6 0 9.3 4.6 0 9.4 4.6 0 9.5 4.6 0 9.6 4.6 0 9.7 4.6 0 9.8 4.6 0 9.9 4.6 0 10 4.6 0 0 4.7 0 0.1 4.7 0 0.2 4.7 0 0.3 4.7 0 0.4 4.7 0 0.5 4.7 0 0.6 4.7 0 0.7 4.7 0 0.8 4.7 0 0.9 4.7 0 1 4.7 0 1.1 4.7 0 1.2 4.7 0 1.3 4.7 0 1.4 4.7 0 1.5 4.7 0 1.6 4.7 0 1.7 4.7 0 1.8 4.7 0 1.9 4.7 0 2 4.7 0 2.1 4.7 0 2.2 4.7 0 2.3 4.7 0 2.4 4.7 0 2.5 4.7 0 2.6 4.7 0 2.7 4.7 0 2.8 4.7 0 2.9 4.7 0 3 4.7 0 3.1 4.7 0 3.2 4.7 0 3.3 4.7 0 3.4 4.7 0 3.5 4.7 0 3.6 4.7 0 3.7 4.7 0 3.8 4.7 0 3.9 4.7 0 4 4.7 0 4.1 4.7 0 4.2 4.7 0 4.3 4.7 0 4.4 4.7 0 4.5 4.7 0 4.6 4.7 0 4.7 4.7 0 4.8 4.7 0 4.9 4.7 0 5 4.7 0 5.1 4.7 0 5.2 4.7 0 5.3 4.7 0 5.4 4.7 0 5.5 4.7 0 5.6 4.7 0 5.7 4.7 0 5.8 4.7 0 5.9 4.7 0 6 4.7 0 6.1 4.7 0 6.2 4.7 0 6.3 4.7 0 6.4 4.7 0 6.5 4.7 0 6.6 4.7 0 6.7 4.7 0 6.8 4.7 0 6.9 4.7 0 7 4.7 0 7.1 4.7 0 7.2 4.7 0 7.3 4.7 0 7.4 4.7 0 7.5 4.7 0 7.6 4.7 0 7.7 4.7 0 7.8 4.7 0 7.9 4.7 0 8 4.7 0 8.1 4.7 0 8.2 4.7 0 8.3 4.7 0 8.4 4.7 0 8.5 4.7 0 8.6 4.7 0 8.7 4.7 0 8.8 4.7 0 8.9 4.7 0 9 4.7 0 9.1 4.7 0 9.2 4.7 0 9.3 4.7 0 9.4 4.7 0 9.5 4.7 0 9.6 4.7 0 9.7 4.7 0 9.8 4.7 0 9.9 4.7 0 10 4.7 0 0 4.8 0 0.1 4.8 0 0.2 4.8 0 0.3 4.8 0 0.4 4.8 0 0.5 4.8 0 0.6 4.8 0 0.7 4.8 0 0.8 4.8 0 0.9 4.8 0 1 4.8 0 1.1 4.8 0 1.2 4.8 0 1.3 4.8 0 1.4 4.8 0 1.5 4.8 0 1.6 4.8 0 1.7 4.8 0 1.8 4.8 0 1.9 4.8 0 2 4.8 0 2.1 4.8 0 2.2 4.8 0 2.3 4.8 0 2.4 4.8 0 2.5 4.8 0 2.6 4.8 0 2.7 4.8 0 2.8 4.8 0 2.9 4.8 0 3 4.8 0 3.1 4.8 0 3.2 4.8 0 3.3 4.8 0 3.4 4.8 0 3.5 4.8 0 3.6 4.8 0 3.7 4.8 0 3.8 4.8 0 3.9 4.8 0 4 4.8 0 4.1 4.8 0 4.2 4.8 0 4.3 4.8 0 4.4 4.8 0 4.5 4.8 0 4.6 4.8 0 4.7 4.8 0 4.8 4.8 0 4.9 4.8 0 5 4.8 0 5.1 4.8 0 5.2 4.8 0 5.3 4.8 0 5.4 4.8 0 5.5 4.8 0 5.6 4.8 0 5.7 4.8 0 5.8 4.8 0 5.9 4.8 0 6 4.8 0 6.1 4.8 0 6.2 4.8 0 6.3 4.8 0 6.4 4.8 0 6.5 4.8 0 6.6 4.8 0 6.7 4.8 0 6.8 4.8 0 6.9 4.8 0 7 4.8 0 7.1 4.8 0 7.2 4.8 0 7.3 4.8 0 7.4 4.8 0 7.5 4.8 0 7.6 4.8 0 7.7 4.8 0 7.8 4.8 0 7.9 4.8 0 8 4.8 0 8.1 4.8 0 8.2 4.8 0 8.3 4.8 0 8.4 4.8 0 8.5 4.8 0 8.6 4.8 0 8.7 4.8 0 8.8 4.8 0 8.9 4.8 0 9 4.8 0 9.1 4.8 0 9.2 4.8 0 9.3 4.8 0 9.4 4.8 0 9.5 4.8 0 9.6 4.8 0 9.7 4.8 0 9.8 4.8 0 9.9 4.8 0 10 4.8 0 0 4.9 0 0.1 4.9 0 0.2 4.9 0 0.3 4.9 0 0.4 4.9 0 0.5 4.9 0 0.6 4.9 0 0.7 4.9 0 0.8 4.9 0 0.9 4.9 0 1 4.9 0 1.1 4.9 0 1.2 4.9 0 1.3 4.9 0 1.4 4.9 0 1.5 4.9 0 1.6 4.9 0 1.7 4.9 0 1.8 4.9 0 1.9 4.9 0 2 4.9 0 2.1 4.9 0 2.2 4.9 0 2.3 4.9 0 2.4 4.9 0 2.5 4.9 0 2.6 4.9 0 2.7 4.9 0 2.8 4.9 0 2.9 4.9 0 3 4.9 0 3.1 4.9 0 3.2 4.9 0 3.3 4.9 0 3.4 4.9 0 3.5 4.9 0 3.6 4.9 0 3.7 4.9 0 3.8 4.9 0 3.9 4.9 0 4 4.9 0 4.1 4.9 0 4.2 4.9 0 4.3 4.9 0 4.4 4.9 0 4.5 4.9 0 4.6 4.9 0 4.7 4.9 0 4.8 4.9 0 4.9 4.9 0 5 4.9 0 5.1 4.9 0 5.2 4.9 0 5.3 4.9 0 5.4 4.9 0 5.5 4.9 0 5.6 4.9 0 5.7 4.9 0 5.8 4.9 0 5.9 4.9 0 6 4.9 0 6.1 4.9 0 6.2 4.9 0 6.3 4.9 0 6.4 4.9 0 6.5 4.9 0 6.6 4.9 0 6.7 4.9 0 6.8 4.9 0 6.9 4.9 0 7 4.9 0 7.1 4.9 0 7.2 4.9 0 7.3 4.9 0 7.4 4.9 0 7.5 4.9 0 7.6 4.9 0 7.7 4.9 0 7.8 4.9 0 7.9 4.9 0 8 4.9 0 8.1 4.9 0 8.2 4.9 0 8.3 4.9 0 8.4 4.9 0 8.5 4.9 0 8.6 4.9 0 8.7 4.9 0 8.8 4.9 0 8.9 4.9 0 9 4.9 0 9.1 4.9 0 9.2 4.9 0 9.3 4.9 0 9.4 4.9 0 9.5 4.9 0 9.6 4.9 0 9.7 4.9 0 9.8 4.9 0 9.9 4.9 0 10 4.9 0 0 5 0 0.1 5 0 0.2 5 0 0.3 5 0 0.4 5 0 0.5 5 0 0.6 5 0 0.7 5 0 0.8 5 0 0.9 5 0 1 5 0 1.1 5 0 1.2 5 0 1.3 5 0 1.4 5 0 1.5 5 0 1.6 5 0 1.7 5 0 1.8 5 0 1.9 5 0 2 5 0 2.1 5 0 2.2 5 0 2.3 5 0 2.4 5 0 2.5 5 0 2.6 5 0 2.7 5 0 2.8 5 0 2.9 5 0 3 5 0 3.1 5 0 3.2 5 0 3.3 5 0 3.4 5 0 3.5 5 0 3.6 5 0 3.7 5 0 3.8 5 0 3.9 5 0 4 5 0 4.1 5 0 4.2 5 0 4.3 5 0 4.4 5 0 4.5 5 0 4.6 5 0 4.7 5 0 4.8 5 0 4.9 5 0 5 5 0 5.1 5 0 5.2 5 0 5.3 5 0 5.4 5 0 5.5 5 0 5.6 5 0 5.7 5 0 5.8 5 0 5.9 5 0 6 5 0 6.1 5 0 6.2 5 0 6.3 5 0 6.4 5 0 6.5 5 0 6.6 5 0 6.7 5 0 6.8 5 0 6.9 5 0 7 5 0 7.1 5 0 7.2 5 0 7.3 5 0 7.4 5 0 7.5 5 0 7.6 5 0 7.7 5 0 7.8 5 0 7.9 5 0 8 5 0 8.1 5 0 8.2 5 0 8.3 5 0 8.4 5 0 8.5 5 0 8.6 5 0 8.7 5 0 8.8 5 0 8.9 5 0 9 5 0 9.1 5 0 9.2 5 0 9.3 5 0 9.4 5 0 9.5 5 0 9.6 5 0 9.7 5 0 9.8 5 0 9.9 5 0 10 5 0 0 5.1 0 0.1 5.1 0 0.2 5.1 0 0.3 5.1 0 0.4 5.1 0 0.5 5.1 0 0.6 5.1 0 0.7 5.1 0 0.8 5.1 0 0.9 5.1 0 1 5.1 0 1.1 5.1 0 1.2 5.1 0 1.3 5.1 0 1.4 5.1 0 1.5 5.1 0 1.6 5.1 0 1.7 5.1 0 1.8 5.1 0 1.9 5.1 0 2 5.1 0 2.1 5.1 0 2.2 5.1 0 2.3 5.1 0 2.4 5.1 0 2.5 5.1 0 2.6 5.1 0 2.7 5.1 0 2.8 5.1 0 2.9 5.1 0 3 5.1 0 3.1 5.1 0 3.2 5.1 0 3.3 5.1 0 3.4 5.1 0 3.5 5.1 0 3.6 5.1 0 3.7 5.1 0 3.8 5.1 0 3.9 5.1 0 4 5.1 0 4.1 5.1 0 4.2 5.1 0 4.3 5.1 0 4.4 5.1 0 4.5 5.1 0 4.6 5.1 0 4.7 5.1 0 4.8 5.1 0 4.9 5.1 0 5 5.1 0 5.1 5.1 0 5.2 5.1 0 5.3 5.1 0 5.4 5.1 0 5.5 5.1 0 5.6 5.1 0 5.7 5.1 0 5.8 5.1 0 5.9 5.1 0 6 5.1 0 6.1 5.1 0 6.2 5.1 0 6.3 5.1 0 6.4 5.1 0 6.5 5.1 0 6.6 5.1 0 6.7 5.1 0 6.8 5.1 0 6.9 5.1 0 7 5.1 0 7.1 5.1 0 7.2 5.1 0 7.3 5.1 0 7.4 5.1 0 7.5 5.1 0 7.6 5.1 0 7.7 5.1 0 7.8 5.1 0 7.9 5.1 0 8 5.1 0 8.1 5.1 0 8.2 5.1 0 8.3 5.1 0 8.4 5.1 0 8.5 5.1 0 8.6 5.1 0 8.7 5.1 0 8.8 5.1 0 8.9 5.1 0 9 5.1 0 9.1 5.1 0 9.2 5.1 0 9.3 5.1 0 9.4 5.1 0 9.5 5.1 0 9.6 5.1 0 9.7 5.1 0 9.8 5.1 0 9.9 5.1 0 10 5.1 0 0 5.2 0 0.1 5.2 0 0.2 5.2 0 0.3 5.2 0 0.4 5.2 0 0.5 5.2 0 0.6 5.2 0 0.7 5.2 0 0.8 5.2 0 0.9 5.2 0 1 5.2 0 1.1 5.2 0 1.2 5.2 0 1.3 5.2 0 1.4 5.2 0 1.5 5.2 0 1.6 5.2 0 1.7 5.2 0 1.8 5.2 0 1.9 5.2 0 2 5.2 0 2.1 5.2 0 2.2 5.2 0 2.3 5.2 0 2.4 5.2 0 2.5 5.2 0 2.6 5.2 0 2.7 5.2 0 2.8 5.2 0 2.9 5.2 0 3 5.2 0 3.1 5.2 0 3.2 5.2 0 3.3 5.2 0 3.4 5.2 0 3.5 5.2 0 3.6 5.2 0 3.7 5.2 0 3.8 5.2 0 3.9 5.2 0 4 5.2 0 4.1 5.2 0 4.2 5.2 0 4.3 5.2 0 4.4 5.2 0 4.5 5.2 0 4.6 5.2 0 4.7 5.2 0 4.8 5.2 0 4.9 5.2 0 5 5.2 0 5.1 5.2 0 5.2 5.2 0 5.3 5.2 0 5.4 5.2 0 5.5 5.2 0 5.6 5.2 0 5.7 5.2 0 5.8 5.2 0 5.9 5.2 0 6 5.2 0 6.1 5.2 0 6.2 5.2 0 6.3 5.2 0 6.4 5.2 0 6.5 5.2 0 6.6 5.2 0 6.7 5.2 0 6.8 5.2 0 6.9 5.2 0 7 5.2 0 7.1 5.2 0 7.2 5.2 0 7.3 5.2 0 7.4 5.2 0 7.5 5.2 0 7.6 5.2 0 7.7 5.2 0 7.8 5.2 0 7.9 5.2 0 8 5.2 0 8.1 5.2 0 8.2 5.2 0 8.3 5.2 0 8.4 5.2 0 8.5 5.2 0 8.6 5.2 0 8.7 5.2 0 8.8 5.2 0 8.9 5.2 0 9 5.2 0 9.1 5.2 0 9.2 5.2 0 9.3 5.2 0 9.4 5.2 0 9.5 5.2 0 9.6 5.2 0 9.7 5.2 0 9.8 5.2 0 9.9 5.2 0 10 5.2 0 0 5.3 0 0.1 5.3 0 0.2 5.3 0 0.3 5.3 0 0.4 5.3 0 0.5 5.3 0 0.6 5.3 0 0.7 5.3 0 0.8 5.3 0 0.9 5.3 0 1 5.3 0 1.1 5.3 0 1.2 5.3 0 1.3 5.3 0 1.4 5.3 0 1.5 5.3 0 1.6 5.3 0 1.7 5.3 0 1.8 5.3 0 1.9 5.3 0 2 5.3 0 2.1 5.3 0 2.2 5.3 0 2.3 5.3 0 2.4 5.3 0 2.5 5.3 0 2.6 5.3 0 2.7 5.3 0 2.8 5.3 0 2.9 5.3 0 3 5.3 0 3.1 5.3 0 3.2 5.3 0 3.3 5.3 0 3.4 5.3 0 3.5 5.3 0 3.6 5.3 0 3.7 5.3 0 3.8 5.3 0 3.9 5.3 0 4 5.3 0 4.1 5.3 0 4.2 5.3 0 4.3 5.3 0 4.4 5.3 0 4.5 5.3 0 4.6 5.3 0 4.7 5.3 0 4.8 5.3 0 4.9 5.3 0 5 5.3 0 5.1 5.3 0 5.2 5.3 0 5.3 5.3 0 5.4 5.3 0 5.5 5.3 0 5.6 5.3 0 5.7 5.3 0 5.8 5.3 0 5.9 5.3 0 6 5.3 0 6.1 5.3 0 6.2 5.3 0 6.3 5.3 0 6.4 5.3 0 6.5 5.3 0 6.6 5.3 0 6.7 5.3 0 6.8 5.3 0 6.9 5.3 0 7 5.3 0 7.1 5.3 0 7.2 5.3 0 7.3 5.3 0 7.4 5.3 0 7.5 5.3 0 7.6 5.3 0 7.7 5.3 0 7.8 5.3 0 7.9 5.3 0 8 5.3 0 8.1 5.3 0 8.2 5.3 0 8.3 5.3 0 8.4 5.3 0 8.5 5.3 0 8.6 5.3 0 8.7 5.3 0 8.8 5.3 0 8.9 5.3 0 9 5.3 0 9.1 5.3 0 9.2 5.3 0 9.3 5.3 0 9.4 5.3 0 9.5 5.3 0 9.6 5.3 0 9.7 5.3 0 9.8 5.3 0 9.9 5.3 0 10 5.3 0 0 5.4 0 0.1 5.4 0 0.2 5.4 0 0.3 5.4 0 0.4 5.4 0 0.5 5.4 0 0.6 5.4 0 0.7 5.4 0 0.8 5.4 0 0.9 5.4 0 1 5.4 0 1.1 5.4 0 1.2 5.4 0 1.3 5.4 0 1.4 5.4 0 1.5 5.4 0 1.6 5.4 0 1.7 5.4 0 1.8 5.4 0 1.9 5.4 0 2 5.4 0 2.1 5.4 0 2.2 5.4 0 2.3 5.4 0 2.4 5.4 0 2.5 5.4 0 2.6 5.4 0 2.7 5.4 0 2.8 5.4 0 2.9 5.4 0 3 5.4 0 3.1 5.4 0 3.2 5.4 0 3.3 5.4 0 3.4 5.4 0 3.5 5.4 0 3.6 5.4 0 3.7 5.4 0 3.8 5.4 0 3.9 5.4 0 4 5.4 0 4.1 5.4 0 4.2 5.4 0 4.3 5.4 0 4.4 5.4 0 4.5 5.4 0 4.6 5.4 0 4.7 5.4 0 4.8 5.4 0 4.9 5.4 0 5 5.4 0 5.1 5.4 0 5.2 5.4 0 5.3 5.4 0 5.4 5.4 0 5.5 5.4 0 5.6 5.4 0 5.7 5.4 0 5.8 5.4 0 5.9 5.4 0 6 5.4 0 6.1 5.4 0 6.2 5.4 0 6.3 5.4 0 6.4 5.4 0 6.5 5.4 0 6.6 5.4 0 6.7 5.4 0 6.8 5.4 0 6.9 5.4 0 7 5.4 0 7.1 5.4 0 7.2 5.4 0 7.3 5.4 0 7.4 5.4 0 7.5 5.4 0 7.6 5.4 0 7.7 5.4 0 7.8 5.4 0 7.9 5.4 0 8 5.4 0 8.1 5.4 0 8.2 5.4 0 8.3 5.4 0 8.4 5.4 0 8.5 5.4 0 8.6 5.4 0 8.7 5.4 0 8.8 5.4 0 8.9 5.4 0 9 5.4 0 9.1 5.4 0 9.2 5.4 0 9.3 5.4 0 9.4 5.4 0 9.5 5.4 0 9.6 5.4 0 9.7 5.4 0 9.8 5.4 0 9.9 5.4 0 10 5.4 0 0 5.5 0 0.1 5.5 0 0.2 5.5 0 0.3 5.5 0 0.4 5.5 0 0.5 5.5 0 0.6 5.5 0 0.7 5.5 0 0.8 5.5 0 0.9 5.5 0 1 5.5 0 1.1 5.5 0 1.2 5.5 0 1.3 5.5 0 1.4 5.5 0 1.5 5.5 0 1.6 5.5 0 1.7 5.5 0 1.8 5.5 0 1.9 5.5 0 2 5.5 0 2.1 5.5 0 2.2 5.5 0 2.3 5.5 0 2.4 5.5 0 2.5 5.5 0 2.6 5.5 0 2.7 5.5 0 2.8 5.5 0 2.9 5.5 0 3 5.5 0 3.1 5.5 0 3.2 5.5 0 3.3 5.5 0 3.4 5.5 0 3.5 5.5 0 3.6 5.5 0 3.7 5.5 0 3.8 5.5 0 3.9 5.5 0 4 5.5 0 4.1 5.5 0 4.2 5.5 0 4.3 5.5 0 4.4 5.5 0 4.5 5.5 0 4.6 5.5 0 4.7 5.5 0 4.8 5.5 0 4.9 5.5 0 5 5.5 0 5.1 5.5 0 5.2 5.5 0 5.3 5.5 0 5.4 5.5 0 5.5 5.5 0 5.6 5.5 0 5.7 5.5 0 5.8 5.5 0 5.9 5.5 0 6 5.5 0 6.1 5.5 0 6.2 5.5 0 6.3 5.5 0 6.4 5.5 0 6.5 5.5 0 6.6 5.5 0 6.7 5.5 0 6.8 5.5 0 6.9 5.5 0 7 5.5 0 7.1 5.5 0 7.2 5.5 0 7.3 5.5 0 7.4 5.5 0 7.5 5.5 0 7.6 5.5 0 7.7 5.5 0 7.8 5.5 0 7.9 5.5 0 8 5.5 0 8.1 5.5 0 8.2 5.5 0 8.3 5.5 0 8.4 5.5 0 8.5 5.5 0 8.6 5.5 0 8.7 5.5 0 8.8 5.5 0 8.9 5.5 0 9 5.5 0 9.1 5.5 0 9.2 5.5 0 9.3 5.5 0 9.4 5.5 0 9.5 5.5 0 9.6 5.5 0 9.7 5.5 0 9.8 5.5 0 9.9 5.5 0 10 5.5 0 0 5.6 0 0.1 5.6 0 0.2 5.6 0 0.3 5.6 0 0.4 5.6 0 0.5 5.6 0 0.6 5.6 0 0.7 5.6 0 0.8 5.6 0 0.9 5.6 0 1 5.6 0 1.1 5.6 0 1.2 5.6 0 1.3 5.6 0 1.4 5.6 0 1.5 5.6 0 1.6 5.6 0 1.7 5.6 0 1.8 5.6 0 1.9 5.6 0 2 5.6 0 2.1 5.6 0 2.2 5.6 0 2.3 5.6 0 2.4 5.6 0 2.5 5.6 0 2.6 5.6 0 2.7 5.6 0 2.8 5.6 0 2.9 5.6 0 3 5.6 0 3.1 5.6 0 3.2 5.6 0 3.3 5.6 0 3.4 5.6 0 3.5 5.6 0 3.6 5.6 0 3.7 5.6 0 3.8 5.6 0 3.9 5.6 0 4 5.6 0 4.1 5.6 0 4.2 5.6 0 4.3 5.6 0 4.4 5.6 0 4.5 5.6 0 4.6 5.6 0 4.7 5.6 0 4.8 5.6 0 4.9 5.6 0 5 5.6 0 5.1 5.6 0 5.2 5.6 0 5.3 5.6 0 5.4 5.6 0 5.5 5.6 0 5.6 5.6 0 5.7 5.6 0 5.8 5.6 0 5.9 5.6 0 6 5.6 0 6.1 5.6 0 6.2 5.6 0 6.3 5.6 0 6.4 5.6 0 6.5 5.6 0 6.6 5.6 0 6.7 5.6 0 6.8 5.6 0 6.9 5.6 0 7 5.6 0 7.1 5.6 0 7.2 5.6 0 7.3 5.6 0 7.4 5.6 0 7.5 5.6 0 7.6 5.6 0 7.7 5.6 0 7.8 5.6 0 7.9 5.6 0 8 5.6 0 8.1 5.6 0 8.2 5.6 0 8.3 5.6 0 8.4 5.6 0 8.5 5.6 0 8.6 5.6 0 8.7 5.6 0 8.8 5.6 0 8.9 5.6 0 9 5.6 0 9.1 5.6 0 9.2 5.6 0 9.3 5.6 0 9.4 5.6 0 9.5 5.6 0 9.6 5.6 0 9.7 5.6 0 9.8 5.6 0 9.9 5.6 0 10 5.6 0 0 5.7 0 0.1 5.7 0 0.2 5.7 0 0.3 5.7 0 0.4 5.7 0 0.5 5.7 0 0.6 5.7 0 0.7 5.7 0 0.8 5.7 0 0.9 5.7 0 1 5.7 0 1.1 5.7 0 1.2 5.7 0 1.3 5.7 0 1.4 5.7 0 1.5 5.7 0 1.6 5.7 0 1.7 5.7 0 1.8 5.7 0 1.9 5.7 0 2 5.7 0 2.1 5.7 0 2.2 5.7 0 2.3 5.7 0 2.4 5.7 0 2.5 5.7 0 2.6 5.7 0 2.7 5.7 0 2.8 5.7 0 2.9 5.7 0 3 5.7 0 3.1 5.7 0 3.2 5.7 0 3.3 5.7 0 3.4 5.7 0 3.5 5.7 0 3.6 5.7 0 3.7 5.7 0 3.8 5.7 0 3.9 5.7 0 4 5.7 0 4.1 5.7 0 4.2 5.7 0 4.3 5.7 0 4.4 5.7 0 4.5 5.7 0 4.6 5.7 0 4.7 5.7 0 4.8 5.7 0 4.9 5.7 0 5 5.7 0 5.1 5.7 0 5.2 5.7 0 5.3 5.7 0 5.4 5.7 0 5.5 5.7 0 5.6 5.7 0 5.7 5.7 0 5.8 5.7 0 5.9 5.7 0 6 5.7 0 6.1 5.7 0 6.2 5.7 0 6.3 5.7 0 6.4 5.7 0 6.5 5.7 0 6.6 5.7 0 6.7 5.7 0 6.8 5.7 0 6.9 5.7 0 7 5.7 0 7.1 5.7 0 7.2 5.7 0 7.3 5.7 0 7.4 5.7 0 7.5 5.7 0 7.6 5.7 0 7.7 5.7 0 7.8 5.7 0 7.9 5.7 0 8 5.7 0 8.1 5.7 0 8.2 5.7 0 8.3 5.7 0 8.4 5.7 0 8.5 5.7 0 8.6 5.7 0 8.7 5.7 0 8.8 5.7 0 8.9 5.7 0 9 5.7 0 9.1 5.7 0 9.2 5.7 0 9.3 5.7 0 9.4 5.7 0 9.5 5.7 0 9.6 5.7 0 9.7 5.7 0 9.8 5.7 0 9.9 5.7 0 10 5.7 0 0 5.8 0 0.1 5.8 0 0.2 5.8 0 0.3 5.8 0 0.4 5.8 0 0.5 5.8 0 0.6 5.8 0 0.7 5.8 0 0.8 5.8 0 0.9 5.8 0 1 5.8 0 1.1 5.8 0 1.2 5.8 0 1.3 5.8 0 1.4 5.8 0 1.5 5.8 0 1.6 5.8 0 1.7 5.8 0 1.8 5.8 0 1.9 5.8 0 2 5.8 0 2.1 5.8 0 2.2 5.8 0 2.3 5.8 0 2.4 5.8 0 2.5 5.8 0 2.6 5.8 0 2.7 5.8 0 2.8 5.8 0 2.9 5.8 0 3 5.8 0 3.1 5.8 0 3.2 5.8 0 3.3 5.8 0 3.4 5.8 0 3.5 5.8 0 3.6 5.8 0 3.7 5.8 0 3.8 5.8 0 3.9 5.8 0 4 5.8 0 4.1 5.8 0 4.2 5.8 0 4.3 5.8 0 4.4 5.8 0 4.5 5.8 0 4.6 5.8 0 4.7 5.8 0 4.8 5.8 0 4.9 5.8 0 5 5.8 0 5.1 5.8 0 5.2 5.8 0 5.3 5.8 0 5.4 5.8 0 5.5 5.8 0 5.6 5.8 0 5.7 5.8 0 5.8 5.8 0 5.9 5.8 0 6 5.8 0 6.1 5.8 0 6.2 5.8 0 6.3 5.8 0 6.4 5.8 0 6.5 5.8 0 6.6 5.8 0 6.7 5.8 0 6.8 5.8 0 6.9 5.8 0 7 5.8 0 7.1 5.8 0 7.2 5.8 0 7.3 5.8 0 7.4 5.8 0 7.5 5.8 0 7.6 5.8 0 7.7 5.8 0 7.8 5.8 0 7.9 5.8 0 8 5.8 0 8.1 5.8 0 8.2 5.8 0 8.3 5.8 0 8.4 5.8 0 8.5 5.8 0 8.6 5.8 0 8.7 5.8 0 8.8 5.8 0 8.9 5.8 0 9 5.8 0 9.1 5.8 0 9.2 5.8 0 9.3 5.8 0 9.4 5.8 0 9.5 5.8 0 9.6 5.8 0 9.7 5.8 0 9.8 5.8 0 9.9 5.8 0 10 5.8 0 0 5.9 0 0.1 5.9 0 0.2 5.9 0 0.3 5.9 0 0.4 5.9 0 0.5 5.9 0 0.6 5.9 0 0.7 5.9 0 0.8 5.9 0 0.9 5.9 0 1 5.9 0 1.1 5.9 0 1.2 5.9 0 1.3 5.9 0 1.4 5.9 0 1.5 5.9 0 1.6 5.9 0 1.7 5.9 0 1.8 5.9 0 1.9 5.9 0 2 5.9 0 2.1 5.9 0 2.2 5.9 0 2.3 5.9 0 2.4 5.9 0 2.5 5.9 0 2.6 5.9 0 2.7 5.9 0 2.8 5.9 0 2.9 5.9 0 3 5.9 0 3.1 5.9 0 3.2 5.9 0 3.3 5.9 0 3.4 5.9 0 3.5 5.9 0 3.6 5.9 0 3.7 5.9 0 3.8 5.9 0 3.9 5.9 0 4 5.9 0 4.1 5.9 0 4.2 5.9 0 4.3 5.9 0 4.4 5.9 0 4.5 5.9 0 4.6 5.9 0 4.7 5.9 0 4.8 5.9 0 4.9 5.9 0 5 5.9 0 5.1 5.9 0 5.2 5.9 0 5.3 5.9 0 5.4 5.9 0 5.5 5.9 0 5.6 5.9 0 5.7 5.9 0 5.8 5.9 0 5.9 5.9 0 6 5.9 0 6.1 5.9 0 6.2 5.9 0 6.3 5.9 0 6.4 5.9 0 6.5 5.9 0 6.6 5.9 0 6.7 5.9 0 6.8 5.9 0 6.9 5.9 0 7 5.9 0 7.1 5.9 0 7.2 5.9 0 7.3 5.9 0 7.4 5.9 0 7.5 5.9 0 7.6 5.9 0 7.7 5.9 0 7.8 5.9 0 7.9 5.9 0 8 5.9 0 8.1 5.9 0 8.2 5.9 0 8.3 5.9 0 8.4 5.9 0 8.5 5.9 0 8.6 5.9 0 8.7 5.9 0 8.8 5.9 0 8.9 5.9 0 9 5.9 0 9.1 5.9 0 9.2 5.9 0 9.3 5.9 0 9.4 5.9 0 9.5 5.9 0 9.6 5.9 0 9.7 5.9 0 9.8 5.9 0 9.9 5.9 0 10 5.9 0 0 6 0 0.1 6 0 0.2 6 0 0.3 6 0 0.4 6 0 0.5 6 0 0.6 6 0 0.7 6 0 0.8 6 0 0.9 6 0 1 6 0 1.1 6 0 1.2 6 0 1.3 6 0 1.4 6 0 1.5 6 0 1.6 6 0 1.7 6 0 1.8 6 0 1.9 6 0 2 6 0 2.1 6 0 2.2 6 0 2.3 6 0 2.4 6 0 2.5 6 0 2.6 6 0 2.7 6 0 2.8 6 0 2.9 6 0 3 6 0 3.1 6 0 3.2 6 0 3.3 6 0 3.4 6 0 3.5 6 0 3.6 6 0 3.7 6 0 3.8 6 0 3.9 6 0 4 6 0 4.1 6 0 4.2 6 0 4.3 6 0 4.4 6 0 4.5 6 0 4.6 6 0 4.7 6 0 4.8 6 0 4.9 6 0 5 6 0 5.1 6 0 5.2 6 0 5.3 6 0 5.4 6 0 5.5 6 0 5.6 6 0 5.7 6 0 5.8 6 0 5.9 6 0 6 6 0 6.1 6 0 6.2 6 0 6.3 6 0 6.4 6 0 6.5 6 0 6.6 6 0 6.7 6 0 6.8 6 0 6.9 6 0 7 6 0 7.1 6 0 7.2 6 0 7.3 6 0 7.4 6 0 7.5 6 0 7.6 6 0 7.7 6 0 7.8 6 0 7.9 6 0 8 6 0 8.1 6 0 8.2 6 0 8.3 6 0 8.4 6 0 8.5 6 0 8.6 6 0 8.7 6 0 8.8 6 0 8.9 6 0 9 6 0 9.1 6 0 9.2 6 0 9.3 6 0 9.4 6 0 9.5 6 0 9.6 6 0 9.7 6 0 9.8 6 0 9.9 6 0 10 6 0 0 6.1 0 0.1 6.1 0 0.2 6.1 0 0.3 6.1 0 0.4 6.1 0 0.5 6.1 0 0.6 6.1 0 0.7 6.1 0 0.8 6.1 0 0.9 6.1 0 1 6.1 0 1.1 6.1 0 1.2 6.1 0 1.3 6.1 0 1.4 6.1 0 1.5 6.1 0 1.6 6.1 0 1.7 6.1 0 1.8 6.1 0 1.9 6.1 0 2 6.1 0 2.1 6.1 0 2.2 6.1 0 2.3 6.1 0 2.4 6.1 0 2.5 6.1 0 2.6 6.1 0 2.7 6.1 0 2.8 6.1 0 2.9 6.1 0 3 6.1 0 3.1 6.1 0 3.2 6.1 0 3.3 6.1 0 3.4 6.1 0 3.5 6.1 0 3.6 6.1 0 3.7 6.1 0 3.8 6.1 0 3.9 6.1 0 4 6.1 0 4.1 6.1 0 4.2 6.1 0 4.3 6.1 0 4.4 6.1 0 4.5 6.1 0 4.6 6.1 0 4.7 6.1 0 4.8 6.1 0 4.9 6.1 0 5 6.1 0 5.1 6.1 0 5.2 6.1 0 5.3 6.1 0 5.4 6.1 0 5.5 6.1 0 5.6 6.1 0 5.7 6.1 0 5.8 6.1 0 5.9 6.1 0 6 6.1 0 6.1 6.1 0 6.2 6.1 0 6.3 6.1 0 6.4 6.1 0 6.5 6.1 0 6.6 6.1 0 6.7 6.1 0 6.8 6.1 0 6.9 6.1 0 7 6.1 0 7.1 6.1 0 7.2 6.1 0 7.3 6.1 0 7.4 6.1 0 7.5 6.1 0 7.6 6.1 0 7.7 6.1 0 7.8 6.1 0 7.9 6.1 0 8 6.1 0 8.1 6.1 0 8.2 6.1 0 8.3 6.1 0 8.4 6.1 0 8.5 6.1 0 8.6 6.1 0 8.7 6.1 0 8.8 6.1 0 8.9 6.1 0 9 6.1 0 9.1 6.1 0 9.2 6.1 0 9.3 6.1 0 9.4 6.1 0 9.5 6.1 0 9.6 6.1 0 9.7 6.1 0 9.8 6.1 0 9.9 6.1 0 10 6.1 0 0 6.2 0 0.1 6.2 0 0.2 6.2 0 0.3 6.2 0 0.4 6.2 0 0.5 6.2 0 0.6 6.2 0 0.7 6.2 0 0.8 6.2 0 0.9 6.2 0 1 6.2 0 1.1 6.2 0 1.2 6.2 0 1.3 6.2 0 1.4 6.2 0 1.5 6.2 0 1.6 6.2 0 1.7 6.2 0 1.8 6.2 0 1.9 6.2 0 2 6.2 0 2.1 6.2 0 2.2 6.2 0 2.3 6.2 0 2.4 6.2 0 2.5 6.2 0 2.6 6.2 0 2.7 6.2 0 2.8 6.2 0 2.9 6.2 0 3 6.2 0 3.1 6.2 0 3.2 6.2 0 3.3 6.2 0 3.4 6.2 0 3.5 6.2 0 3.6 6.2 0 3.7 6.2 0 3.8 6.2 0 3.9 6.2 0 4 6.2 0 4.1 6.2 0 4.2 6.2 0 4.3 6.2 0 4.4 6.2 0 4.5 6.2 0 4.6 6.2 0 4.7 6.2 0 4.8 6.2 0 4.9 6.2 0 5 6.2 0 5.1 6.2 0 5.2 6.2 0 5.3 6.2 0 5.4 6.2 0 5.5 6.2 0 5.6 6.2 0 5.7 6.2 0 5.8 6.2 0 5.9 6.2 0 6 6.2 0 6.1 6.2 0 6.2 6.2 0 6.3 6.2 0 6.4 6.2 0 6.5 6.2 0 6.6 6.2 0 6.7 6.2 0 6.8 6.2 0 6.9 6.2 0 7 6.2 0 7.1 6.2 0 7.2 6.2 0 7.3 6.2 0 7.4 6.2 0 7.5 6.2 0 7.6 6.2 0 7.7 6.2 0 7.8 6.2 0 7.9 6.2 0 8 6.2 0 8.1 6.2 0 8.2 6.2 0 8.3 6.2 0 8.4 6.2 0 8.5 6.2 0 8.6 6.2 0 8.7 6.2 0 8.8 6.2 0 8.9 6.2 0 9 6.2 0 9.1 6.2 0 9.2 6.2 0 9.3 6.2 0 9.4 6.2 0 9.5 6.2 0 9.6 6.2 0 9.7 6.2 0 9.8 6.2 0 9.9 6.2 0 10 6.2 0 0 6.3 0 0.1 6.3 0 0.2 6.3 0 0.3 6.3 0 0.4 6.3 0 0.5 6.3 0 0.6 6.3 0 0.7 6.3 0 0.8 6.3 0 0.9 6.3 0 1 6.3 0 1.1 6.3 0 1.2 6.3 0 1.3 6.3 0 1.4 6.3 0 1.5 6.3 0 1.6 6.3 0 1.7 6.3 0 1.8 6.3 0 1.9 6.3 0 2 6.3 0 2.1 6.3 0 2.2 6.3 0 2.3 6.3 0 2.4 6.3 0 2.5 6.3 0 2.6 6.3 0 2.7 6.3 0 2.8 6.3 0 2.9 6.3 0 3 6.3 0 3.1 6.3 0 3.2 6.3 0 3.3 6.3 0 3.4 6.3 0 3.5 6.3 0 3.6 6.3 0 3.7 6.3 0 3.8 6.3 0 3.9 6.3 0 4 6.3 0 4.1 6.3 0 4.2 6.3 0 4.3 6.3 0 4.4 6.3 0 4.5 6.3 0 4.6 6.3 0 4.7 6.3 0 4.8 6.3 0 4.9 6.3 0 5 6.3 0 5.1 6.3 0 5.2 6.3 0 5.3 6.3 0 5.4 6.3 0 5.5 6.3 0 5.6 6.3 0 5.7 6.3 0 5.8 6.3 0 5.9 6.3 0 6 6.3 0 6.1 6.3 0 6.2 6.3 0 6.3 6.3 0 6.4 6.3 0 6.5 6.3 0 6.6 6.3 0 6.7 6.3 0 6.8 6.3 0 6.9 6.3 0 7 6.3 0 7.1 6.3 0 7.2 6.3 0 7.3 6.3 0 7.4 6.3 0 7.5 6.3 0 7.6 6.3 0 7.7 6.3 0 7.8 6.3 0 7.9 6.3 0 8 6.3 0 8.1 6.3 0 8.2 6.3 0 8.3 6.3 0 8.4 6.3 0 8.5 6.3 0 8.6 6.3 0 8.7 6.3 0 8.8 6.3 0 8.9 6.3 0 9 6.3 0 9.1 6.3 0 9.2 6.3 0 9.3 6.3 0 9.4 6.3 0 9.5 6.3 0 9.6 6.3 0 9.7 6.3 0 9.8 6.3 0 9.9 6.3 0 10 6.3 0 0 6.4 0 0.1 6.4 0 0.2 6.4 0 0.3 6.4 0 0.4 6.4 0 0.5 6.4 0 0.6 6.4 0 0.7 6.4 0 0.8 6.4 0 0.9 6.4 0 1 6.4 0 1.1 6.4 0 1.2 6.4 0 1.3 6.4 0 1.4 6.4 0 1.5 6.4 0 1.6 6.4 0 1.7 6.4 0 1.8 6.4 0 1.9 6.4 0 2 6.4 0 2.1 6.4 0 2.2 6.4 0 2.3 6.4 0 2.4 6.4 0 2.5 6.4 0 2.6 6.4 0 2.7 6.4 0 2.8 6.4 0 2.9 6.4 0 3 6.4 0 3.1 6.4 0 3.2 6.4 0 3.3 6.4 0 3.4 6.4 0 3.5 6.4 0 3.6 6.4 0 3.7 6.4 0 3.8 6.4 0 3.9 6.4 0 4 6.4 0 4.1 6.4 0 4.2 6.4 0 4.3 6.4 0 4.4 6.4 0 4.5 6.4 0 4.6 6.4 0 4.7 6.4 0 4.8 6.4 0 4.9 6.4 0 5 6.4 0 5.1 6.4 0 5.2 6.4 0 5.3 6.4 0 5.4 6.4 0 5.5 6.4 0 5.6 6.4 0 5.7 6.4 0 5.8 6.4 0 5.9 6.4 0 6 6.4 0 6.1 6.4 0 6.2 6.4 0 6.3 6.4 0 6.4 6.4 0 6.5 6.4 0 6.6 6.4 0 6.7 6.4 0 6.8 6.4 0 6.9 6.4 0 7 6.4 0 7.1 6.4 0 7.2 6.4 0 7.3 6.4 0 7.4 6.4 0 7.5 6.4 0 7.6 6.4 0 7.7 6.4 0 7.8 6.4 0 7.9 6.4 0 8 6.4 0 8.1 6.4 0 8.2 6.4 0 8.3 6.4 0 8.4 6.4 0 8.5 6.4 0 8.6 6.4 0 8.7 6.4 0 8.8 6.4 0 8.9 6.4 0 9 6.4 0 9.1 6.4 0 9.2 6.4 0 9.3 6.4 0 9.4 6.4 0 9.5 6.4 0 9.6 6.4 0 9.7 6.4 0 9.8 6.4 0 9.9 6.4 0 10 6.4 0 0 6.5 0 0.1 6.5 0 0.2 6.5 0 0.3 6.5 0 0.4 6.5 0 0.5 6.5 0 0.6 6.5 0 0.7 6.5 0 0.8 6.5 0 0.9 6.5 0 1 6.5 0 1.1 6.5 0 1.2 6.5 0 1.3 6.5 0 1.4 6.5 0 1.5 6.5 0 1.6 6.5 0 1.7 6.5 0 1.8 6.5 0 1.9 6.5 0 2 6.5 0 2.1 6.5 0 2.2 6.5 0 2.3 6.5 0 2.4 6.5 0 2.5 6.5 0 2.6 6.5 0 2.7 6.5 0 2.8 6.5 0 2.9 6.5 0 3 6.5 0 3.1 6.5 0 3.2 6.5 0 3.3 6.5 0 3.4 6.5 0 3.5 6.5 0 3.6 6.5 0 3.7 6.5 0 3.8 6.5 0 3.9 6.5 0 4 6.5 0 4.1 6.5 0 4.2 6.5 0 4.3 6.5 0 4.4 6.5 0 4.5 6.5 0 4.6 6.5 0 4.7 6.5 0 4.8 6.5 0 4.9 6.5 0 5 6.5 0 5.1 6.5 0 5.2 6.5 0 5.3 6.5 0 5.4 6.5 0 5.5 6.5 0 5.6 6.5 0 5.7 6.5 0 5.8 6.5 0 5.9 6.5 0 6 6.5 0 6.1 6.5 0 6.2 6.5 0 6.3 6.5 0 6.4 6.5 0 6.5 6.5 0 6.6 6.5 0 6.7 6.5 0 6.8 6.5 0 6.9 6.5 0 7 6.5 0 7.1 6.5 0 7.2 6.5 0 7.3 6.5 0 7.4 6.5 0 7.5 6.5 0 7.6 6.5 0 7.7 6.5 0 7.8 6.5 0 7.9 6.5 0 8 6.5 0 8.1 6.5 0 8.2 6.5 0 8.3 6.5 0 8.4 6.5 0 8.5 6.5 0 8.6 6.5 0 8.7 6.5 0 8.8 6.5 0 8.9 6.5 0 9 6.5 0 9.1 6.5 0 9.2 6.5 0 9.3 6.5 0 9.4 6.5 0 9.5 6.5 0 9.6 6.5 0 9.7 6.5 0 9.8 6.5 0 9.9 6.5 0 10 6.5 0 0 6.6 0 0.1 6.6 0 0.2 6.6 0 0.3 6.6 0 0.4 6.6 0 0.5 6.6 0 0.6 6.6 0 0.7 6.6 0 0.8 6.6 0 0.9 6.6 0 1 6.6 0 1.1 6.6 0 1.2 6.6 0 1.3 6.6 0 1.4 6.6 0 1.5 6.6 0 1.6 6.6 0 1.7 6.6 0 1.8 6.6 0 1.9 6.6 0 2 6.6 0 2.1 6.6 0 2.2 6.6 0 2.3 6.6 0 2.4 6.6 0 2.5 6.6 0 2.6 6.6 0 2.7 6.6 0 2.8 6.6 0 2.9 6.6 0 3 6.6 0 3.1 6.6 0 3.2 6.6 0 3.3 6.6 0 3.4 6.6 0 3.5 6.6 0 3.6 6.6 0 3.7 6.6 0 3.8 6.6 0 3.9 6.6 0 4 6.6 0 4.1 6.6 0 4.2 6.6 0 4.3 6.6 0 4.4 6.6 0 4.5 6.6 0 4.6 6.6 0 4.7 6.6 0 4.8 6.6 0 4.9 6.6 0 5 6.6 0 5.1 6.6 0 5.2 6.6 0 5.3 6.6 0 5.4 6.6 0 5.5 6.6 0 5.6 6.6 0 5.7 6.6 0 5.8 6.6 0 5.9 6.6 0 6 6.6 0 6.1 6.6 0 6.2 6.6 0 6.3 6.6 0 6.4 6.6 0 6.5 6.6 0 6.6 6.6 0 6.7 6.6 0 6.8 6.6 0 6.9 6.6 0 7 6.6 0 7.1 6.6 0 7.2 6.6 0 7.3 6.6 0 7.4 6.6 0 7.5 6.6 0 7.6 6.6 0 7.7 6.6 0 7.8 6.6 0 7.9 6.6 0 8 6.6 0 8.1 6.6 0 8.2 6.6 0 8.3 6.6 0 8.4 6.6 0 8.5 6.6 0 8.6 6.6 0 8.7 6.6 0 8.8 6.6 0 8.9 6.6 0 9 6.6 0 9.1 6.6 0 9.2 6.6 0 9.3 6.6 0 9.4 6.6 0 9.5 6.6 0 9.6 6.6 0 9.7 6.6 0 9.8 6.6 0 9.9 6.6 0 10 6.6 0 0 6.7 0 0.1 6.7 0 0.2 6.7 0 0.3 6.7 0 0.4 6.7 0 0.5 6.7 0 0.6 6.7 0 0.7 6.7 0 0.8 6.7 0 0.9 6.7 0 1 6.7 0 1.1 6.7 0 1.2 6.7 0 1.3 6.7 0 1.4 6.7 0 1.5 6.7 0 1.6 6.7 0 1.7 6.7 0 1.8 6.7 0 1.9 6.7 0 2 6.7 0 2.1 6.7 0 2.2 6.7 0 2.3 6.7 0 2.4 6.7 0 2.5 6.7 0 2.6 6.7 0 2.7 6.7 0 2.8 6.7 0 2.9 6.7 0 3 6.7 0 3.1 6.7 0 3.2 6.7 0 3.3 6.7 0 3.4 6.7 0 3.5 6.7 0 3.6 6.7 0 3.7 6.7 0 3.8 6.7 0 3.9 6.7 0 4 6.7 0 4.1 6.7 0 4.2 6.7 0 4.3 6.7 0 4.4 6.7 0 4.5 6.7 0 4.6 6.7 0 4.7 6.7 0 4.8 6.7 0 4.9 6.7 0 5 6.7 0 5.1 6.7 0 5.2 6.7 0 5.3 6.7 0 5.4 6.7 0 5.5 6.7 0 5.6 6.7 0 5.7 6.7 0 5.8 6.7 0 5.9 6.7 0 6 6.7 0 6.1 6.7 0 6.2 6.7 0 6.3 6.7 0 6.4 6.7 0 6.5 6.7 0 6.6 6.7 0 6.7 6.7 0 6.8 6.7 0 6.9 6.7 0 7 6.7 0 7.1 6.7 0 7.2 6.7 0 7.3 6.7 0 7.4 6.7 0 7.5 6.7 0 7.6 6.7 0 7.7 6.7 0 7.8 6.7 0 7.9 6.7 0 8 6.7 0 8.1 6.7 0 8.2 6.7 0 8.3 6.7 0 8.4 6.7 0 8.5 6.7 0 8.6 6.7 0 8.7 6.7 0 8.8 6.7 0 8.9 6.7 0 9 6.7 0 9.1 6.7 0 9.2 6.7 0 9.3 6.7 0 9.4 6.7 0 9.5 6.7 0 9.6 6.7 0 9.7 6.7 0 9.8 6.7 0 9.9 6.7 0 10 6.7 0 0 6.8 0 0.1 6.8 0 0.2 6.8 0 0.3 6.8 0 0.4 6.8 0 0.5 6.8 0 0.6 6.8 0 0.7 6.8 0 0.8 6.8 0 0.9 6.8 0 1 6.8 0 1.1 6.8 0 1.2 6.8 0 1.3 6.8 0 1.4 6.8 0 1.5 6.8 0 1.6 6.8 0 1.7 6.8 0 1.8 6.8 0 1.9 6.8 0 2 6.8 0 2.1 6.8 0 2.2 6.8 0 2.3 6.8 0 2.4 6.8 0 2.5 6.8 0 2.6 6.8 0 2.7 6.8 0 2.8 6.8 0 2.9 6.8 0 3 6.8 0 3.1 6.8 0 3.2 6.8 0 3.3 6.8 0 3.4 6.8 0 3.5 6.8 0 3.6 6.8 0 3.7 6.8 0 3.8 6.8 0 3.9 6.8 0 4 6.8 0 4.1 6.8 0 4.2 6.8 0 4.3 6.8 0 4.4 6.8 0 4.5 6.8 0 4.6 6.8 0 4.7 6.8 0 4.8 6.8 0 4.9 6.8 0 5 6.8 0 5.1 6.8 0 5.2 6.8 0 5.3 6.8 0 5.4 6.8 0 5.5 6.8 0 5.6 6.8 0 5.7 6.8 0 5.8 6.8 0 5.9 6.8 0 6 6.8 0 6.1 6.8 0 6.2 6.8 0 6.3 6.8 0 6.4 6.8 0 6.5 6.8 0 6.6 6.8 0 6.7 6.8 0 6.8 6.8 0 6.9 6.8 0 7 6.8 0 7.1 6.8 0 7.2 6.8 0 7.3 6.8 0 7.4 6.8 0 7.5 6.8 0 7.6 6.8 0 7.7 6.8 0 7.8 6.8 0 7.9 6.8 0 8 6.8 0 8.1 6.8 0 8.2 6.8 0 8.3 6.8 0 8.4 6.8 0 8.5 6.8 0 8.6 6.8 0 8.7 6.8 0 8.8 6.8 0 8.9 6.8 0 9 6.8 0 9.1 6.8 0 9.2 6.8 0 9.3 6.8 0 9.4 6.8 0 9.5 6.8 0 9.6 6.8 0 9.7 6.8 0 9.8 6.8 0 9.9 6.8 0 10 6.8 0 0 6.9 0 0.1 6.9 0 0.2 6.9 0 0.3 6.9 0 0.4 6.9 0 0.5 6.9 0 0.6 6.9 0 0.7 6.9 0 0.8 6.9 0 0.9 6.9 0 1 6.9 0 1.1 6.9 0 1.2 6.9 0 1.3 6.9 0 1.4 6.9 0 1.5 6.9 0 1.6 6.9 0 1.7 6.9 0 1.8 6.9 0 1.9 6.9 0 2 6.9 0 2.1 6.9 0 2.2 6.9 0 2.3 6.9 0 2.4 6.9 0 2.5 6.9 0 2.6 6.9 0 2.7 6.9 0 2.8 6.9 0 2.9 6.9 0 3 6.9 0 3.1 6.9 0 3.2 6.9 0 3.3 6.9 0 3.4 6.9 0 3.5 6.9 0 3.6 6.9 0 3.7 6.9 0 3.8 6.9 0 3.9 6.9 0 4 6.9 0 4.1 6.9 0 4.2 6.9 0 4.3 6.9 0 4.4 6.9 0 4.5 6.9 0 4.6 6.9 0 4.7 6.9 0 4.8 6.9 0 4.9 6.9 0 5 6.9 0 5.1 6.9 0 5.2 6.9 0 5.3 6.9 0 5.4 6.9 0 5.5 6.9 0 5.6 6.9 0 5.7 6.9 0 5.8 6.9 0 5.9 6.9 0 6 6.9 0 6.1 6.9 0 6.2 6.9 0 6.3 6.9 0 6.4 6.9 0 6.5 6.9 0 6.6 6.9 0 6.7 6.9 0 6.8 6.9 0 6.9 6.9 0 7 6.9 0 7.1 6.9 0 7.2 6.9 0 7.3 6.9 0 7.4 6.9 0 7.5 6.9 0 7.6 6.9 0 7.7 6.9 0 7.8 6.9 0 7.9 6.9 0 8 6.9 0 8.1 6.9 0 8.2 6.9 0 8.3 6.9 0 8.4 6.9 0 8.5 6.9 0 8.6 6.9 0 8.7 6.9 0 8.8 6.9 0 8.9 6.9 0 9 6.9 0 9.1 6.9 0 9.2 6.9 0 9.3 6.9 0 9.4 6.9 0 9.5 6.9 0 9.6 6.9 0 9.7 6.9 0 9.8 6.9 0 9.9 6.9 0 10 6.9 0 0 7 0 0.1 7 0 0.2 7 0 0.3 7 0 0.4 7 0 0.5 7 0 0.6 7 0 0.7 7 0 0.8 7 0 0.9 7 0 1 7 0 1.1 7 0 1.2 7 0 1.3 7 0 1.4 7 0 1.5 7 0 1.6 7 0 1.7 7 0 1.8 7 0 1.9 7 0 2 7 0 2.1 7 0 2.2 7 0 2.3 7 0 2.4 7 0 2.5 7 0 2.6 7 0 2.7 7 0 2.8 7 0 2.9 7 0 3 7 0 3.1 7 0 3.2 7 0 3.3 7 0 3.4 7 0 3.5 7 0 3.6 7 0 3.7 7 0 3.8 7 0 3.9 7 0 4 7 0 4.1 7 0 4.2 7 0 4.3 7 0 4.4 7 0 4.5 7 0 4.6 7 0 4.7 7 0 4.8 7 0 4.9 7 0 5 7 0 5.1 7 0 5.2 7 0 5.3 7 0 5.4 7 0 5.5 7 0 5.6 7 0 5.7 7 0 5.8 7 0 5.9 7 0 6 7 0 6.1 7 0 6.2 7 0 6.3 7 0 6.4 7 0 6.5 7 0 6.6 7 0 6.7 7 0 6.8 7 0 6.9 7 0 7 7 0 7.1 7 0 7.2 7 0 7.3 7 0 7.4 7 0 7.5 7 0 7.6 7 0 7.7 7 0 7.8 7 0 7.9 7 0 8 7 0 8.1 7 0 8.2 7 0 8.3 7 0 8.4 7 0 8.5 7 0 8.6 7 0 8.7 7 0 8.8 7 0 8.9 7 0 9 7 0 9.1 7 0 9.2 7 0 9.3 7 0 9.4 7 0 9.5 7 0 9.6 7 0 9.7 7 0 9.8 7 0 9.9 7 0 10 7 0 0 7.1 0 0.1 7.1 0 0.2 7.1 0 0.3 7.1 0 0.4 7.1 0 0.5 7.1 0 0.6 7.1 0 0.7 7.1 0 0.8 7.1 0 0.9 7.1 0 1 7.1 0 1.1 7.1 0 1.2 7.1 0 1.3 7.1 0 1.4 7.1 0 1.5 7.1 0 1.6 7.1 0 1.7 7.1 0 1.8 7.1 0 1.9 7.1 0 2 7.1 0 2.1 7.1 0 2.2 7.1 0 2.3 7.1 0 2.4 7.1 0 2.5 7.1 0 2.6 7.1 0 2.7 7.1 0 2.8 7.1 0 2.9 7.1 0 3 7.1 0 3.1 7.1 0 3.2 7.1 0 3.3 7.1 0 3.4 7.1 0 3.5 7.1 0 3.6 7.1 0 3.7 7.1 0 3.8 7.1 0 3.9 7.1 0 4 7.1 0 4.1 7.1 0 4.2 7.1 0 4.3 7.1 0 4.4 7.1 0 4.5 7.1 0 4.6 7.1 0 4.7 7.1 0 4.8 7.1 0 4.9 7.1 0 5 7.1 0 5.1 7.1 0 5.2 7.1 0 5.3 7.1 0 5.4 7.1 0 5.5 7.1 0 5.6 7.1 0 5.7 7.1 0 5.8 7.1 0 5.9 7.1 0 6 7.1 0 6.1 7.1 0 6.2 7.1 0 6.3 7.1 0 6.4 7.1 0 6.5 7.1 0 6.6 7.1 0 6.7 7.1 0 6.8 7.1 0 6.9 7.1 0 7 7.1 0 7.1 7.1 0 7.2 7.1 0 7.3 7.1 0 7.4 7.1 0 7.5 7.1 0 7.6 7.1 0 7.7 7.1 0 7.8 7.1 0 7.9 7.1 0 8 7.1 0 8.1 7.1 0 8.2 7.1 0 8.3 7.1 0 8.4 7.1 0 8.5 7.1 0 8.6 7.1 0 8.7 7.1 0 8.8 7.1 0 8.9 7.1 0 9 7.1 0 9.1 7.1 0 9.2 7.1 0 9.3 7.1 0 9.4 7.1 0 9.5 7.1 0 9.6 7.1 0 9.7 7.1 0 9.8 7.1 0 9.9 7.1 0 10 7.1 0 0 7.2 0 0.1 7.2 0 0.2 7.2 0 0.3 7.2 0 0.4 7.2 0 0.5 7.2 0 0.6 7.2 0 0.7 7.2 0 0.8 7.2 0 0.9 7.2 0 1 7.2 0 1.1 7.2 0 1.2 7.2 0 1.3 7.2 0 1.4 7.2 0 1.5 7.2 0 1.6 7.2 0 1.7 7.2 0 1.8 7.2 0 1.9 7.2 0 2 7.2 0 2.1 7.2 0 2.2 7.2 0 2.3 7.2 0 2.4 7.2 0 2.5 7.2 0 2.6 7.2 0 2.7 7.2 0 2.8 7.2 0 2.9 7.2 0 3 7.2 0 3.1 7.2 0 3.2 7.2 0 3.3 7.2 0 3.4 7.2 0 3.5 7.2 0 3.6 7.2 0 3.7 7.2 0 3.8 7.2 0 3.9 7.2 0 4 7.2 0 4.1 7.2 0 4.2 7.2 0 4.3 7.2 0 4.4 7.2 0 4.5 7.2 0 4.6 7.2 0 4.7 7.2 0 4.8 7.2 0 4.9 7.2 0 5 7.2 0 5.1 7.2 0 5.2 7.2 0 5.3 7.2 0 5.4 7.2 0 5.5 7.2 0 5.6 7.2 0 5.7 7.2 0 5.8 7.2 0 5.9 7.2 0 6 7.2 0 6.1 7.2 0 6.2 7.2 0 6.3 7.2 0 6.4 7.2 0 6.5 7.2 0 6.6 7.2 0 6.7 7.2 0 6.8 7.2 0 6.9 7.2 0 7 7.2 0 7.1 7.2 0 7.2 7.2 0 7.3 7.2 0 7.4 7.2 0 7.5 7.2 0 7.6 7.2 0 7.7 7.2 0 7.8 7.2 0 7.9 7.2 0 8 7.2 0 8.1 7.2 0 8.2 7.2 0 8.3 7.2 0 8.4 7.2 0 8.5 7.2 0 8.6 7.2 0 8.7 7.2 0 8.8 7.2 0 8.9 7.2 0 9 7.2 0 9.1 7.2 0 9.2 7.2 0 9.3 7.2 0 9.4 7.2 0 9.5 7.2 0 9.6 7.2 0 9.7 7.2 0 9.8 7.2 0 9.9 7.2 0 10 7.2 0 0 7.3 0 0.1 7.3 0 0.2 7.3 0 0.3 7.3 0 0.4 7.3 0 0.5 7.3 0 0.6 7.3 0 0.7 7.3 0 0.8 7.3 0 0.9 7.3 0 1 7.3 0 1.1 7.3 0 1.2 7.3 0 1.3 7.3 0 1.4 7.3 0 1.5 7.3 0 1.6 7.3 0 1.7 7.3 0 1.8 7.3 0 1.9 7.3 0 2 7.3 0 2.1 7.3 0 2.2 7.3 0 2.3 7.3 0 2.4 7.3 0 2.5 7.3 0 2.6 7.3 0 2.7 7.3 0 2.8 7.3 0 2.9 7.3 0 3 7.3 0 3.1 7.3 0 3.2 7.3 0 3.3 7.3 0 3.4 7.3 0 3.5 7.3 0 3.6 7.3 0 3.7 7.3 0 3.8 7.3 0 3.9 7.3 0 4 7.3 0 4.1 7.3 0 4.2 7.3 0 4.3 7.3 0 4.4 7.3 0 4.5 7.3 0 4.6 7.3 0 4.7 7.3 0 4.8 7.3 0 4.9 7.3 0 5 7.3 0 5.1 7.3 0 5.2 7.3 0 5.3 7.3 0 5.4 7.3 0 5.5 7.3 0 5.6 7.3 0 5.7 7.3 0 5.8 7.3 0 5.9 7.3 0 6 7.3 0 6.1 7.3 0 6.2 7.3 0 6.3 7.3 0 6.4 7.3 0 6.5 7.3 0 6.6 7.3 0 6.7 7.3 0 6.8 7.3 0 6.9 7.3 0 7 7.3 0 7.1 7.3 0 7.2 7.3 0 7.3 7.3 0 7.4 7.3 0 7.5 7.3 0 7.6 7.3 0 7.7 7.3 0 7.8 7.3 0 7.9 7.3 0 8 7.3 0 8.1 7.3 0 8.2 7.3 0 8.3 7.3 0 8.4 7.3 0 8.5 7.3 0 8.6 7.3 0 8.7 7.3 0 8.8 7.3 0 8.9 7.3 0 9 7.3 0 9.1 7.3 0 9.2 7.3 0 9.3 7.3 0 9.4 7.3 0 9.5 7.3 0 9.6 7.3 0 9.7 7.3 0 9.8 7.3 0 9.9 7.3 0 10 7.3 0 0 7.4 0 0.1 7.4 0 0.2 7.4 0 0.3 7.4 0 0.4 7.4 0 0.5 7.4 0 0.6 7.4 0 0.7 7.4 0 0.8 7.4 0 0.9 7.4 0 1 7.4 0 1.1 7.4 0 1.2 7.4 0 1.3 7.4 0 1.4 7.4 0 1.5 7.4 0 1.6 7.4 0 1.7 7.4 0 1.8 7.4 0 1.9 7.4 0 2 7.4 0 2.1 7.4 0 2.2 7.4 0 2.3 7.4 0 2.4 7.4 0 2.5 7.4 0 2.6 7.4 0 2.7 7.4 0 2.8 7.4 0 2.9 7.4 0 3 7.4 0 3.1 7.4 0 3.2 7.4 0 3.3 7.4 0 3.4 7.4 0 3.5 7.4 0 3.6 7.4 0 3.7 7.4 0 3.8 7.4 0 3.9 7.4 0 4 7.4 0 4.1 7.4 0 4.2 7.4 0 4.3 7.4 0 4.4 7.4 0 4.5 7.4 0 4.6 7.4 0 4.7 7.4 0 4.8 7.4 0 4.9 7.4 0 5 7.4 0 5.1 7.4 0 5.2 7.4 0 5.3 7.4 0 5.4 7.4 0 5.5 7.4 0 5.6 7.4 0 5.7 7.4 0 5.8 7.4 0 5.9 7.4 0 6 7.4 0 6.1 7.4 0 6.2 7.4 0 6.3 7.4 0 6.4 7.4 0 6.5 7.4 0 6.6 7.4 0 6.7 7.4 0 6.8 7.4 0 6.9 7.4 0 7 7.4 0 7.1 7.4 0 7.2 7.4 0 7.3 7.4 0 7.4 7.4 0 7.5 7.4 0 7.6 7.4 0 7.7 7.4 0 7.8 7.4 0 7.9 7.4 0 8 7.4 0 8.1 7.4 0 8.2 7.4 0 8.3 7.4 0 8.4 7.4 0 8.5 7.4 0 8.6 7.4 0 8.7 7.4 0 8.8 7.4 0 8.9 7.4 0 9 7.4 0 9.1 7.4 0 9.2 7.4 0 9.3 7.4 0 9.4 7.4 0 9.5 7.4 0 9.6 7.4 0 9.7 7.4 0 9.8 7.4 0 9.9 7.4 0 10 7.4 0 0 7.5 0 0.1 7.5 0 0.2 7.5 0 0.3 7.5 0 0.4 7.5 0 0.5 7.5 0 0.6 7.5 0 0.7 7.5 0 0.8 7.5 0 0.9 7.5 0 1 7.5 0 1.1 7.5 0 1.2 7.5 0 1.3 7.5 0 1.4 7.5 0 1.5 7.5 0 1.6 7.5 0 1.7 7.5 0 1.8 7.5 0 1.9 7.5 0 2 7.5 0 2.1 7.5 0 2.2 7.5 0 2.3 7.5 0 2.4 7.5 0 2.5 7.5 0 2.6 7.5 0 2.7 7.5 0 2.8 7.5 0 2.9 7.5 0 3 7.5 0 3.1 7.5 0 3.2 7.5 0 3.3 7.5 0 3.4 7.5 0 3.5 7.5 0 3.6 7.5 0 3.7 7.5 0 3.8 7.5 0 3.9 7.5 0 4 7.5 0 4.1 7.5 0 4.2 7.5 0 4.3 7.5 0 4.4 7.5 0 4.5 7.5 0 4.6 7.5 0 4.7 7.5 0 4.8 7.5 0 4.9 7.5 0 5 7.5 0 5.1 7.5 0 5.2 7.5 0 5.3 7.5 0 5.4 7.5 0 5.5 7.5 0 5.6 7.5 0 5.7 7.5 0 5.8 7.5 0 5.9 7.5 0 6 7.5 0 6.1 7.5 0 6.2 7.5 0 6.3 7.5 0 6.4 7.5 0 6.5 7.5 0 6.6 7.5 0 6.7 7.5 0 6.8 7.5 0 6.9 7.5 0 7 7.5 0 7.1 7.5 0 7.2 7.5 0 7.3 7.5 0 7.4 7.5 0 7.5 7.5 0 7.6 7.5 0 7.7 7.5 0 7.8 7.5 0 7.9 7.5 0 8 7.5 0 8.1 7.5 0 8.2 7.5 0 8.3 7.5 0 8.4 7.5 0 8.5 7.5 0 8.6 7.5 0 8.7 7.5 0 8.8 7.5 0 8.9 7.5 0 9 7.5 0 9.1 7.5 0 9.2 7.5 0 9.3 7.5 0 9.4 7.5 0 9.5 7.5 0 9.6 7.5 0 9.7 7.5 0 9.8 7.5 0 9.9 7.5 0 10 7.5 0 0 7.6 0 0.1 7.6 0 0.2 7.6 0 0.3 7.6 0 0.4 7.6 0 0.5 7.6 0 0.6 7.6 0 0.7 7.6 0 0.8 7.6 0 0.9 7.6 0 1 7.6 0 1.1 7.6 0 1.2 7.6 0 1.3 7.6 0 1.4 7.6 0 1.5 7.6 0 1.6 7.6 0 1.7 7.6 0 1.8 7.6 0 1.9 7.6 0 2 7.6 0 2.1 7.6 0 2.2 7.6 0 2.3 7.6 0 2.4 7.6 0 2.5 7.6 0 2.6 7.6 0 2.7 7.6 0 2.8 7.6 0 2.9 7.6 0 3 7.6 0 3.1 7.6 0 3.2 7.6 0 3.3 7.6 0 3.4 7.6 0 3.5 7.6 0 3.6 7.6 0 3.7 7.6 0 3.8 7.6 0 3.9 7.6 0 4 7.6 0 4.1 7.6 0 4.2 7.6 0 4.3 7.6 0 4.4 7.6 0 4.5 7.6 0 4.6 7.6 0 4.7 7.6 0 4.8 7.6 0 4.9 7.6 0 5 7.6 0 5.1 7.6 0 5.2 7.6 0 5.3 7.6 0 5.4 7.6 0 5.5 7.6 0 5.6 7.6 0 5.7 7.6 0 5.8 7.6 0 5.9 7.6 0 6 7.6 0 6.1 7.6 0 6.2 7.6 0 6.3 7.6 0 6.4 7.6 0 6.5 7.6 0 6.6 7.6 0 6.7 7.6 0 6.8 7.6 0 6.9 7.6 0 7 7.6 0 7.1 7.6 0 7.2 7.6 0 7.3 7.6 0 7.4 7.6 0 7.5 7.6 0 7.6 7.6 0 7.7 7.6 0 7.8 7.6 0 7.9 7.6 0 8 7.6 0 8.1 7.6 0 8.2 7.6 0 8.3 7.6 0 8.4 7.6 0 8.5 7.6 0 8.6 7.6 0 8.7 7.6 0 8.8 7.6 0 8.9 7.6 0 9 7.6 0 9.1 7.6 0 9.2 7.6 0 9.3 7.6 0 9.4 7.6 0 9.5 7.6 0 9.6 7.6 0 9.7 7.6 0 9.8 7.6 0 9.9 7.6 0 10 7.6 0 0 7.7 0 0.1 7.7 0 0.2 7.7 0 0.3 7.7 0 0.4 7.7 0 0.5 7.7 0 0.6 7.7 0 0.7 7.7 0 0.8 7.7 0 0.9 7.7 0 1 7.7 0 1.1 7.7 0 1.2 7.7 0 1.3 7.7 0 1.4 7.7 0 1.5 7.7 0 1.6 7.7 0 1.7 7.7 0 1.8 7.7 0 1.9 7.7 0 2 7.7 0 2.1 7.7 0 2.2 7.7 0 2.3 7.7 0 2.4 7.7 0 2.5 7.7 0 2.6 7.7 0 2.7 7.7 0 2.8 7.7 0 2.9 7.7 0 3 7.7 0 3.1 7.7 0 3.2 7.7 0 3.3 7.7 0 3.4 7.7 0 3.5 7.7 0 3.6 7.7 0 3.7 7.7 0 3.8 7.7 0 3.9 7.7 0 4 7.7 0 4.1 7.7 0 4.2 7.7 0 4.3 7.7 0 4.4 7.7 0 4.5 7.7 0 4.6 7.7 0 4.7 7.7 0 4.8 7.7 0 4.9 7.7 0 5 7.7 0 5.1 7.7 0 5.2 7.7 0 5.3 7.7 0 5.4 7.7 0 5.5 7.7 0 5.6 7.7 0 5.7 7.7 0 5.8 7.7 0 5.9 7.7 0 6 7.7 0 6.1 7.7 0 6.2 7.7 0 6.3 7.7 0 6.4 7.7 0 6.5 7.7 0 6.6 7.7 0 6.7 7.7 0 6.8 7.7 0 6.9 7.7 0 7 7.7 0 7.1 7.7 0 7.2 7.7 0 7.3 7.7 0 7.4 7.7 0 7.5 7.7 0 7.6 7.7 0 7.7 7.7 0 7.8 7.7 0 7.9 7.7 0 8 7.7 0 8.1 7.7 0 8.2 7.7 0 8.3 7.7 0 8.4 7.7 0 8.5 7.7 0 8.6 7.7 0 8.7 7.7 0 8.8 7.7 0 8.9 7.7 0 9 7.7 0 9.1 7.7 0 9.2 7.7 0 9.3 7.7 0 9.4 7.7 0 9.5 7.7 0 9.6 7.7 0 9.7 7.7 0 9.8 7.7 0 9.9 7.7 0 10 7.7 0 0 7.8 0 0.1 7.8 0 0.2 7.8 0 0.3 7.8 0 0.4 7.8 0 0.5 7.8 0 0.6 7.8 0 0.7 7.8 0 0.8 7.8 0 0.9 7.8 0 1 7.8 0 1.1 7.8 0 1.2 7.8 0 1.3 7.8 0 1.4 7.8 0 1.5 7.8 0 1.6 7.8 0 1.7 7.8 0 1.8 7.8 0 1.9 7.8 0 2 7.8 0 2.1 7.8 0 2.2 7.8 0 2.3 7.8 0 2.4 7.8 0 2.5 7.8 0 2.6 7.8 0 2.7 7.8 0 2.8 7.8 0 2.9 7.8 0 3 7.8 0 3.1 7.8 0 3.2 7.8 0 3.3 7.8 0 3.4 7.8 0 3.5 7.8 0 3.6 7.8 0 3.7 7.8 0 3.8 7.8 0 3.9 7.8 0 4 7.8 0 4.1 7.8 0 4.2 7.8 0 4.3 7.8 0 4.4 7.8 0 4.5 7.8 0 4.6 7.8 0 4.7 7.8 0 4.8 7.8 0 4.9 7.8 0 5 7.8 0 5.1 7.8 0 5.2 7.8 0 5.3 7.8 0 5.4 7.8 0 5.5 7.8 0 5.6 7.8 0 5.7 7.8 0 5.8 7.8 0 5.9 7.8 0 6 7.8 0 6.1 7.8 0 6.2 7.8 0 6.3 7.8 0 6.4 7.8 0 6.5 7.8 0 6.6 7.8 0 6.7 7.8 0 6.8 7.8 0 6.9 7.8 0 7 7.8 0 7.1 7.8 0 7.2 7.8 0 7.3 7.8 0 7.4 7.8 0 7.5 7.8 0 7.6 7.8 0 7.7 7.8 0 7.8 7.8 0 7.9 7.8 0 8 7.8 0 8.1 7.8 0 8.2 7.8 0 8.3 7.8 0 8.4 7.8 0 8.5 7.8 0 8.6 7.8 0 8.7 7.8 0 8.8 7.8 0 8.9 7.8 0 9 7.8 0 9.1 7.8 0 9.2 7.8 0 9.3 7.8 0 9.4 7.8 0 9.5 7.8 0 9.6 7.8 0 9.7 7.8 0 9.8 7.8 0 9.9 7.8 0 10 7.8 0 0 7.9 0 0.1 7.9 0 0.2 7.9 0 0.3 7.9 0 0.4 7.9 0 0.5 7.9 0 0.6 7.9 0 0.7 7.9 0 0.8 7.9 0 0.9 7.9 0 1 7.9 0 1.1 7.9 0 1.2 7.9 0 1.3 7.9 0 1.4 7.9 0 1.5 7.9 0 1.6 7.9 0 1.7 7.9 0 1.8 7.9 0 1.9 7.9 0 2 7.9 0 2.1 7.9 0 2.2 7.9 0 2.3 7.9 0 2.4 7.9 0 2.5 7.9 0 2.6 7.9 0 2.7 7.9 0 2.8 7.9 0 2.9 7.9 0 3 7.9 0 3.1 7.9 0 3.2 7.9 0 3.3 7.9 0 3.4 7.9 0 3.5 7.9 0 3.6 7.9 0 3.7 7.9 0 3.8 7.9 0 3.9 7.9 0 4 7.9 0 4.1 7.9 0 4.2 7.9 0 4.3 7.9 0 4.4 7.9 0 4.5 7.9 0 4.6 7.9 0 4.7 7.9 0 4.8 7.9 0 4.9 7.9 0 5 7.9 0 5.1 7.9 0 5.2 7.9 0 5.3 7.9 0 5.4 7.9 0 5.5 7.9 0 5.6 7.9 0 5.7 7.9 0 5.8 7.9 0 5.9 7.9 0 6 7.9 0 6.1 7.9 0 6.2 7.9 0 6.3 7.9 0 6.4 7.9 0 6.5 7.9 0 6.6 7.9 0 6.7 7.9 0 6.8 7.9 0 6.9 7.9 0 7 7.9 0 7.1 7.9 0 7.2 7.9 0 7.3 7.9 0 7.4 7.9 0 7.5 7.9 0 7.6 7.9 0 7.7 7.9 0 7.8 7.9 0 7.9 7.9 0 8 7.9 0 8.1 7.9 0 8.2 7.9 0 8.3 7.9 0 8.4 7.9 0 8.5 7.9 0 8.6 7.9 0 8.7 7.9 0 8.8 7.9 0 8.9 7.9 0 9 7.9 0 9.1 7.9 0 9.2 7.9 0 9.3 7.9 0 9.4 7.9 0 9.5 7.9 0 9.6 7.9 0 9.7 7.9 0 9.8 7.9 0 9.9 7.9 0 10 7.9 0 0 8 0 0.1 8 0 0.2 8 0 0.3 8 0 0.4 8 0 0.5 8 0 0.6 8 0 0.7 8 0 0.8 8 0 0.9 8 0 1 8 0 1.1 8 0 1.2 8 0 1.3 8 0 1.4 8 0 1.5 8 0 1.6 8 0 1.7 8 0 1.8 8 0 1.9 8 0 2 8 0 2.1 8 0 2.2 8 0 2.3 8 0 2.4 8 0 2.5 8 0 2.6 8 0 2.7 8 0 2.8 8 0 2.9 8 0 3 8 0 3.1 8 0 3.2 8 0 3.3 8 0 3.4 8 0 3.5 8 0 3.6 8 0 3.7 8 0 3.8 8 0 3.9 8 0 4 8 0 4.1 8 0 4.2 8 0 4.3 8 0 4.4 8 0 4.5 8 0 4.6 8 0 4.7 8 0 4.8 8 0 4.9 8 0 5 8 0 5.1 8 0 5.2 8 0 5.3 8 0 5.4 8 0 5.5 8 0 5.6 8 0 5.7 8 0 5.8 8 0 5.9 8 0 6 8 0 6.1 8 0 6.2 8 0 6.3 8 0 6.4 8 0 6.5 8 0 6.6 8 0 6.7 8 0 6.8 8 0 6.9 8 0 7 8 0 7.1 8 0 7.2 8 0 7.3 8 0 7.4 8 0 7.5 8 0 7.6 8 0 7.7 8 0 7.8 8 0 7.9 8 0 8 8 0 8.1 8 0 8.2 8 0 8.3 8 0 8.4 8 0 8.5 8 0 8.6 8 0 8.7 8 0 8.8 8 0 8.9 8 0 9 8 0 9.1 8 0 9.2 8 0 9.3 8 0 9.4 8 0 9.5 8 0 9.6 8 0 9.7 8 0 9.8 8 0 9.9 8 0 10 8 0 0 8.1 0 0.1 8.1 0 0.2 8.1 0 0.3 8.1 0 0.4 8.1 0 0.5 8.1 0 0.6 8.1 0 0.7 8.1 0 0.8 8.1 0 0.9 8.1 0 1 8.1 0 1.1 8.1 0 1.2 8.1 0 1.3 8.1 0 1.4 8.1 0 1.5 8.1 0 1.6 8.1 0 1.7 8.1 0 1.8 8.1 0 1.9 8.1 0 2 8.1 0 2.1 8.1 0 2.2 8.1 0 2.3 8.1 0 2.4 8.1 0 2.5 8.1 0 2.6 8.1 0 2.7 8.1 0 2.8 8.1 0 2.9 8.1 0 3 8.1 0 3.1 8.1 0 3.2 8.1 0 3.3 8.1 0 3.4 8.1 0 3.5 8.1 0 3.6 8.1 0 3.7 8.1 0 3.8 8.1 0 3.9 8.1 0 4 8.1 0 4.1 8.1 0 4.2 8.1 0 4.3 8.1 0 4.4 8.1 0 4.5 8.1 0 4.6 8.1 0 4.7 8.1 0 4.8 8.1 0 4.9 8.1 0 5 8.1 0 5.1 8.1 0 5.2 8.1 0 5.3 8.1 0 5.4 8.1 0 5.5 8.1 0 5.6 8.1 0 5.7 8.1 0 5.8 8.1 0 5.9 8.1 0 6 8.1 0 6.1 8.1 0 6.2 8.1 0 6.3 8.1 0 6.4 8.1 0 6.5 8.1 0 6.6 8.1 0 6.7 8.1 0 6.8 8.1 0 6.9 8.1 0 7 8.1 0 7.1 8.1 0 7.2 8.1 0 7.3 8.1 0 7.4 8.1 0 7.5 8.1 0 7.6 8.1 0 7.7 8.1 0 7.8 8.1 0 7.9 8.1 0 8 8.1 0 8.1 8.1 0 8.2 8.1 0 8.3 8.1 0 8.4 8.1 0 8.5 8.1 0 8.6 8.1 0 8.7 8.1 0 8.8 8.1 0 8.9 8.1 0 9 8.1 0 9.1 8.1 0 9.2 8.1 0 9.3 8.1 0 9.4 8.1 0 9.5 8.1 0 9.6 8.1 0 9.7 8.1 0 9.8 8.1 0 9.9 8.1 0 10 8.1 0 0 8.2 0 0.1 8.2 0 0.2 8.2 0 0.3 8.2 0 0.4 8.2 0 0.5 8.2 0 0.6 8.2 0 0.7 8.2 0 0.8 8.2 0 0.9 8.2 0 1 8.2 0 1.1 8.2 0 1.2 8.2 0 1.3 8.2 0 1.4 8.2 0 1.5 8.2 0 1.6 8.2 0 1.7 8.2 0 1.8 8.2 0 1.9 8.2 0 2 8.2 0 2.1 8.2 0 2.2 8.2 0 2.3 8.2 0 2.4 8.2 0 2.5 8.2 0 2.6 8.2 0 2.7 8.2 0 2.8 8.2 0 2.9 8.2 0 3 8.2 0 3.1 8.2 0 3.2 8.2 0 3.3 8.2 0 3.4 8.2 0 3.5 8.2 0 3.6 8.2 0 3.7 8.2 0 3.8 8.2 0 3.9 8.2 0 4 8.2 0 4.1 8.2 0 4.2 8.2 0 4.3 8.2 0 4.4 8.2 0 4.5 8.2 0 4.6 8.2 0 4.7 8.2 0 4.8 8.2 0 4.9 8.2 0 5 8.2 0 5.1 8.2 0 5.2 8.2 0 5.3 8.2 0 5.4 8.2 0 5.5 8.2 0 5.6 8.2 0 5.7 8.2 0 5.8 8.2 0 5.9 8.2 0 6 8.2 0 6.1 8.2 0 6.2 8.2 0 6.3 8.2 0 6.4 8.2 0 6.5 8.2 0 6.6 8.2 0 6.7 8.2 0 6.8 8.2 0 6.9 8.2 0 7 8.2 0 7.1 8.2 0 7.2 8.2 0 7.3 8.2 0 7.4 8.2 0 7.5 8.2 0 7.6 8.2 0 7.7 8.2 0 7.8 8.2 0 7.9 8.2 0 8 8.2 0 8.1 8.2 0 8.2 8.2 0 8.3 8.2 0 8.4 8.2 0 8.5 8.2 0 8.6 8.2 0 8.7 8.2 0 8.8 8.2 0 8.9 8.2 0 9 8.2 0 9.1 8.2 0 9.2 8.2 0 9.3 8.2 0 9.4 8.2 0 9.5 8.2 0 9.6 8.2 0 9.7 8.2 0 9.8 8.2 0 9.9 8.2 0 10 8.2 0 0 8.3 0 0.1 8.3 0 0.2 8.3 0 0.3 8.3 0 0.4 8.3 0 0.5 8.3 0 0.6 8.3 0 0.7 8.3 0 0.8 8.3 0 0.9 8.3 0 1 8.3 0 1.1 8.3 0 1.2 8.3 0 1.3 8.3 0 1.4 8.3 0 1.5 8.3 0 1.6 8.3 0 1.7 8.3 0 1.8 8.3 0 1.9 8.3 0 2 8.3 0 2.1 8.3 0 2.2 8.3 0 2.3 8.3 0 2.4 8.3 0 2.5 8.3 0 2.6 8.3 0 2.7 8.3 0 2.8 8.3 0 2.9 8.3 0 3 8.3 0 3.1 8.3 0 3.2 8.3 0 3.3 8.3 0 3.4 8.3 0 3.5 8.3 0 3.6 8.3 0 3.7 8.3 0 3.8 8.3 0 3.9 8.3 0 4 8.3 0 4.1 8.3 0 4.2 8.3 0 4.3 8.3 0 4.4 8.3 0 4.5 8.3 0 4.6 8.3 0 4.7 8.3 0 4.8 8.3 0 4.9 8.3 0 5 8.3 0 5.1 8.3 0 5.2 8.3 0 5.3 8.3 0 5.4 8.3 0 5.5 8.3 0 5.6 8.3 0 5.7 8.3 0 5.8 8.3 0 5.9 8.3 0 6 8.3 0 6.1 8.3 0 6.2 8.3 0 6.3 8.3 0 6.4 8.3 0 6.5 8.3 0 6.6 8.3 0 6.7 8.3 0 6.8 8.3 0 6.9 8.3 0 7 8.3 0 7.1 8.3 0 7.2 8.3 0 7.3 8.3 0 7.4 8.3 0 7.5 8.3 0 7.6 8.3 0 7.7 8.3 0 7.8 8.3 0 7.9 8.3 0 8 8.3 0 8.1 8.3 0 8.2 8.3 0 8.3 8.3 0 8.4 8.3 0 8.5 8.3 0 8.6 8.3 0 8.7 8.3 0 8.8 8.3 0 8.9 8.3 0 9 8.3 0 9.1 8.3 0 9.2 8.3 0 9.3 8.3 0 9.4 8.3 0 9.5 8.3 0 9.6 8.3 0 9.7 8.3 0 9.8 8.3 0 9.9 8.3 0 10 8.3 0 0 8.4 0 0.1 8.4 0 0.2 8.4 0 0.3 8.4 0 0.4 8.4 0 0.5 8.4 0 0.6 8.4 0 0.7 8.4 0 0.8 8.4 0 0.9 8.4 0 1 8.4 0 1.1 8.4 0 1.2 8.4 0 1.3 8.4 0 1.4 8.4 0 1.5 8.4 0 1.6 8.4 0 1.7 8.4 0 1.8 8.4 0 1.9 8.4 0 2 8.4 0 2.1 8.4 0 2.2 8.4 0 2.3 8.4 0 2.4 8.4 0 2.5 8.4 0 2.6 8.4 0 2.7 8.4 0 2.8 8.4 0 2.9 8.4 0 3 8.4 0 3.1 8.4 0 3.2 8.4 0 3.3 8.4 0 3.4 8.4 0 3.5 8.4 0 3.6 8.4 0 3.7 8.4 0 3.8 8.4 0 3.9 8.4 0 4 8.4 0 4.1 8.4 0 4.2 8.4 0 4.3 8.4 0 4.4 8.4 0 4.5 8.4 0 4.6 8.4 0 4.7 8.4 0 4.8 8.4 0 4.9 8.4 0 5 8.4 0 5.1 8.4 0 5.2 8.4 0 5.3 8.4 0 5.4 8.4 0 5.5 8.4 0 5.6 8.4 0 5.7 8.4 0 5.8 8.4 0 5.9 8.4 0 6 8.4 0 6.1 8.4 0 6.2 8.4 0 6.3 8.4 0 6.4 8.4 0 6.5 8.4 0 6.6 8.4 0 6.7 8.4 0 6.8 8.4 0 6.9 8.4 0 7 8.4 0 7.1 8.4 0 7.2 8.4 0 7.3 8.4 0 7.4 8.4 0 7.5 8.4 0 7.6 8.4 0 7.7 8.4 0 7.8 8.4 0 7.9 8.4 0 8 8.4 0 8.1 8.4 0 8.2 8.4 0 8.3 8.4 0 8.4 8.4 0 8.5 8.4 0 8.6 8.4 0 8.7 8.4 0 8.8 8.4 0 8.9 8.4 0 9 8.4 0 9.1 8.4 0 9.2 8.4 0 9.3 8.4 0 9.4 8.4 0 9.5 8.4 0 9.6 8.4 0 9.7 8.4 0 9.8 8.4 0 9.9 8.4 0 10 8.4 0 0 8.5 0 0.1 8.5 0 0.2 8.5 0 0.3 8.5 0 0.4 8.5 0 0.5 8.5 0 0.6 8.5 0 0.7 8.5 0 0.8 8.5 0 0.9 8.5 0 1 8.5 0 1.1 8.5 0 1.2 8.5 0 1.3 8.5 0 1.4 8.5 0 1.5 8.5 0 1.6 8.5 0 1.7 8.5 0 1.8 8.5 0 1.9 8.5 0 2 8.5 0 2.1 8.5 0 2.2 8.5 0 2.3 8.5 0 2.4 8.5 0 2.5 8.5 0 2.6 8.5 0 2.7 8.5 0 2.8 8.5 0 2.9 8.5 0 3 8.5 0 3.1 8.5 0 3.2 8.5 0 3.3 8.5 0 3.4 8.5 0 3.5 8.5 0 3.6 8.5 0 3.7 8.5 0 3.8 8.5 0 3.9 8.5 0 4 8.5 0 4.1 8.5 0 4.2 8.5 0 4.3 8.5 0 4.4 8.5 0 4.5 8.5 0 4.6 8.5 0 4.7 8.5 0 4.8 8.5 0 4.9 8.5 0 5 8.5 0 5.1 8.5 0 5.2 8.5 0 5.3 8.5 0 5.4 8.5 0 5.5 8.5 0 5.6 8.5 0 5.7 8.5 0 5.8 8.5 0 5.9 8.5 0 6 8.5 0 6.1 8.5 0 6.2 8.5 0 6.3 8.5 0 6.4 8.5 0 6.5 8.5 0 6.6 8.5 0 6.7 8.5 0 6.8 8.5 0 6.9 8.5 0 7 8.5 0 7.1 8.5 0 7.2 8.5 0 7.3 8.5 0 7.4 8.5 0 7.5 8.5 0 7.6 8.5 0 7.7 8.5 0 7.8 8.5 0 7.9 8.5 0 8 8.5 0 8.1 8.5 0 8.2 8.5 0 8.3 8.5 0 8.4 8.5 0 8.5 8.5 0 8.6 8.5 0 8.7 8.5 0 8.8 8.5 0 8.9 8.5 0 9 8.5 0 9.1 8.5 0 9.2 8.5 0 9.3 8.5 0 9.4 8.5 0 9.5 8.5 0 9.6 8.5 0 9.7 8.5 0 9.8 8.5 0 9.9 8.5 0 10 8.5 0 0 8.6 0 0.1 8.6 0 0.2 8.6 0 0.3 8.6 0 0.4 8.6 0 0.5 8.6 0 0.6 8.6 0 0.7 8.6 0 0.8 8.6 0 0.9 8.6 0 1 8.6 0 1.1 8.6 0 1.2 8.6 0 1.3 8.6 0 1.4 8.6 0 1.5 8.6 0 1.6 8.6 0 1.7 8.6 0 1.8 8.6 0 1.9 8.6 0 2 8.6 0 2.1 8.6 0 2.2 8.6 0 2.3 8.6 0 2.4 8.6 0 2.5 8.6 0 2.6 8.6 0 2.7 8.6 0 2.8 8.6 0 2.9 8.6 0 3 8.6 0 3.1 8.6 0 3.2 8.6 0 3.3 8.6 0 3.4 8.6 0 3.5 8.6 0 3.6 8.6 0 3.7 8.6 0 3.8 8.6 0 3.9 8.6 0 4 8.6 0 4.1 8.6 0 4.2 8.6 0 4.3 8.6 0 4.4 8.6 0 4.5 8.6 0 4.6 8.6 0 4.7 8.6 0 4.8 8.6 0 4.9 8.6 0 5 8.6 0 5.1 8.6 0 5.2 8.6 0 5.3 8.6 0 5.4 8.6 0 5.5 8.6 0 5.6 8.6 0 5.7 8.6 0 5.8 8.6 0 5.9 8.6 0 6 8.6 0 6.1 8.6 0 6.2 8.6 0 6.3 8.6 0 6.4 8.6 0 6.5 8.6 0 6.6 8.6 0 6.7 8.6 0 6.8 8.6 0 6.9 8.6 0 7 8.6 0 7.1 8.6 0 7.2 8.6 0 7.3 8.6 0 7.4 8.6 0 7.5 8.6 0 7.6 8.6 0 7.7 8.6 0 7.8 8.6 0 7.9 8.6 0 8 8.6 0 8.1 8.6 0 8.2 8.6 0 8.3 8.6 0 8.4 8.6 0 8.5 8.6 0 8.6 8.6 0 8.7 8.6 0 8.8 8.6 0 8.9 8.6 0 9 8.6 0 9.1 8.6 0 9.2 8.6 0 9.3 8.6 0 9.4 8.6 0 9.5 8.6 0 9.6 8.6 0 9.7 8.6 0 9.8 8.6 0 9.9 8.6 0 10 8.6 0 0 8.7 0 0.1 8.7 0 0.2 8.7 0 0.3 8.7 0 0.4 8.7 0 0.5 8.7 0 0.6 8.7 0 0.7 8.7 0 0.8 8.7 0 0.9 8.7 0 1 8.7 0 1.1 8.7 0 1.2 8.7 0 1.3 8.7 0 1.4 8.7 0 1.5 8.7 0 1.6 8.7 0 1.7 8.7 0 1.8 8.7 0 1.9 8.7 0 2 8.7 0 2.1 8.7 0 2.2 8.7 0 2.3 8.7 0 2.4 8.7 0 2.5 8.7 0 2.6 8.7 0 2.7 8.7 0 2.8 8.7 0 2.9 8.7 0 3 8.7 0 3.1 8.7 0 3.2 8.7 0 3.3 8.7 0 3.4 8.7 0 3.5 8.7 0 3.6 8.7 0 3.7 8.7 0 3.8 8.7 0 3.9 8.7 0 4 8.7 0 4.1 8.7 0 4.2 8.7 0 4.3 8.7 0 4.4 8.7 0 4.5 8.7 0 4.6 8.7 0 4.7 8.7 0 4.8 8.7 0 4.9 8.7 0 5 8.7 0 5.1 8.7 0 5.2 8.7 0 5.3 8.7 0 5.4 8.7 0 5.5 8.7 0 5.6 8.7 0 5.7 8.7 0 5.8 8.7 0 5.9 8.7 0 6 8.7 0 6.1 8.7 0 6.2 8.7 0 6.3 8.7 0 6.4 8.7 0 6.5 8.7 0 6.6 8.7 0 6.7 8.7 0 6.8 8.7 0 6.9 8.7 0 7 8.7 0 7.1 8.7 0 7.2 8.7 0 7.3 8.7 0 7.4 8.7 0 7.5 8.7 0 7.6 8.7 0 7.7 8.7 0 7.8 8.7 0 7.9 8.7 0 8 8.7 0 8.1 8.7 0 8.2 8.7 0 8.3 8.7 0 8.4 8.7 0 8.5 8.7 0 8.6 8.7 0 8.7 8.7 0 8.8 8.7 0 8.9 8.7 0 9 8.7 0 9.1 8.7 0 9.2 8.7 0 9.3 8.7 0 9.4 8.7 0 9.5 8.7 0 9.6 8.7 0 9.7 8.7 0 9.8 8.7 0 9.9 8.7 0 10 8.7 0 0 8.8 0 0.1 8.8 0 0.2 8.8 0 0.3 8.8 0 0.4 8.8 0 0.5 8.8 0 0.6 8.8 0 0.7 8.8 0 0.8 8.8 0 0.9 8.8 0 1 8.8 0 1.1 8.8 0 1.2 8.8 0 1.3 8.8 0 1.4 8.8 0 1.5 8.8 0 1.6 8.8 0 1.7 8.8 0 1.8 8.8 0 1.9 8.8 0 2 8.8 0 2.1 8.8 0 2.2 8.8 0 2.3 8.8 0 2.4 8.8 0 2.5 8.8 0 2.6 8.8 0 2.7 8.8 0 2.8 8.8 0 2.9 8.8 0 3 8.8 0 3.1 8.8 0 3.2 8.8 0 3.3 8.8 0 3.4 8.8 0 3.5 8.8 0 3.6 8.8 0 3.7 8.8 0 3.8 8.8 0 3.9 8.8 0 4 8.8 0 4.1 8.8 0 4.2 8.8 0 4.3 8.8 0 4.4 8.8 0 4.5 8.8 0 4.6 8.8 0 4.7 8.8 0 4.8 8.8 0 4.9 8.8 0 5 8.8 0 5.1 8.8 0 5.2 8.8 0 5.3 8.8 0 5.4 8.8 0 5.5 8.8 0 5.6 8.8 0 5.7 8.8 0 5.8 8.8 0 5.9 8.8 0 6 8.8 0 6.1 8.8 0 6.2 8.8 0 6.3 8.8 0 6.4 8.8 0 6.5 8.8 0 6.6 8.8 0 6.7 8.8 0 6.8 8.8 0 6.9 8.8 0 7 8.8 0 7.1 8.8 0 7.2 8.8 0 7.3 8.8 0 7.4 8.8 0 7.5 8.8 0 7.6 8.8 0 7.7 8.8 0 7.8 8.8 0 7.9 8.8 0 8 8.8 0 8.1 8.8 0 8.2 8.8 0 8.3 8.8 0 8.4 8.8 0 8.5 8.8 0 8.6 8.8 0 8.7 8.8 0 8.8 8.8 0 8.9 8.8 0 9 8.8 0 9.1 8.8 0 9.2 8.8 0 9.3 8.8 0 9.4 8.8 0 9.5 8.8 0 9.6 8.8 0 9.7 8.8 0 9.8 8.8 0 9.9 8.8 0 10 8.8 0 0 8.9 0 0.1 8.9 0 0.2 8.9 0 0.3 8.9 0 0.4 8.9 0 0.5 8.9 0 0.6 8.9 0 0.7 8.9 0 0.8 8.9 0 0.9 8.9 0 1 8.9 0 1.1 8.9 0 1.2 8.9 0 1.3 8.9 0 1.4 8.9 0 1.5 8.9 0 1.6 8.9 0 1.7 8.9 0 1.8 8.9 0 1.9 8.9 0 2 8.9 0 2.1 8.9 0 2.2 8.9 0 2.3 8.9 0 2.4 8.9 0 2.5 8.9 0 2.6 8.9 0 2.7 8.9 0 2.8 8.9 0 2.9 8.9 0 3 8.9 0 3.1 8.9 0 3.2 8.9 0 3.3 8.9 0 3.4 8.9 0 3.5 8.9 0 3.6 8.9 0 3.7 8.9 0 3.8 8.9 0 3.9 8.9 0 4 8.9 0 4.1 8.9 0 4.2 8.9 0 4.3 8.9 0 4.4 8.9 0 4.5 8.9 0 4.6 8.9 0 4.7 8.9 0 4.8 8.9 0 4.9 8.9 0 5 8.9 0 5.1 8.9 0 5.2 8.9 0 5.3 8.9 0 5.4 8.9 0 5.5 8.9 0 5.6 8.9 0 5.7 8.9 0 5.8 8.9 0 5.9 8.9 0 6 8.9 0 6.1 8.9 0 6.2 8.9 0 6.3 8.9 0 6.4 8.9 0 6.5 8.9 0 6.6 8.9 0 6.7 8.9 0 6.8 8.9 0 6.9 8.9 0 7 8.9 0 7.1 8.9 0 7.2 8.9 0 7.3 8.9 0 7.4 8.9 0 7.5 8.9 0 7.6 8.9 0 7.7 8.9 0 7.8 8.9 0 7.9 8.9 0 8 8.9 0 8.1 8.9 0 8.2 8.9 0 8.3 8.9 0 8.4 8.9 0 8.5 8.9 0 8.6 8.9 0 8.7 8.9 0 8.8 8.9 0 8.9 8.9 0 9 8.9 0 9.1 8.9 0 9.2 8.9 0 9.3 8.9 0 9.4 8.9 0 9.5 8.9 0 9.6 8.9 0 9.7 8.9 0 9.8 8.9 0 9.9 8.9 0 10 8.9 0 0 9 0 0.1 9 0 0.2 9 0 0.3 9 0 0.4 9 0 0.5 9 0 0.6 9 0 0.7 9 0 0.8 9 0 0.9 9 0 1 9 0 1.1 9 0 1.2 9 0 1.3 9 0 1.4 9 0 1.5 9 0 1.6 9 0 1.7 9 0 1.8 9 0 1.9 9 0 2 9 0 2.1 9 0 2.2 9 0 2.3 9 0 2.4 9 0 2.5 9 0 2.6 9 0 2.7 9 0 2.8 9 0 2.9 9 0 3 9 0 3.1 9 0 3.2 9 0 3.3 9 0 3.4 9 0 3.5 9 0 3.6 9 0 3.7 9 0 3.8 9 0 3.9 9 0 4 9 0 4.1 9 0 4.2 9 0 4.3 9 0 4.4 9 0 4.5 9 0 4.6 9 0 4.7 9 0 4.8 9 0 4.9 9 0 5 9 0 5.1 9 0 5.2 9 0 5.3 9 0 5.4 9 0 5.5 9 0 5.6 9 0 5.7 9 0 5.8 9 0 5.9 9 0 6 9 0 6.1 9 0 6.2 9 0 6.3 9 0 6.4 9 0 6.5 9 0 6.6 9 0 6.7 9 0 6.8 9 0 6.9 9 0 7 9 0 7.1 9 0 7.2 9 0 7.3 9 0 7.4 9 0 7.5 9 0 7.6 9 0 7.7 9 0 7.8 9 0 7.9 9 0 8 9 0 8.1 9 0 8.2 9 0 8.3 9 0 8.4 9 0 8.5 9 0 8.6 9 0 8.7 9 0 8.8 9 0 8.9 9 0 9 9 0 9.1 9 0 9.2 9 0 9.3 9 0 9.4 9 0 9.5 9 0 9.6 9 0 9.7 9 0 9.8 9 0 9.9 9 0 10 9 0 0 9.1 0 0.1 9.1 0 0.2 9.1 0 0.3 9.1 0 0.4 9.1 0 0.5 9.1 0 0.6 9.1 0 0.7 9.1 0 0.8 9.1 0 0.9 9.1 0 1 9.1 0 1.1 9.1 0 1.2 9.1 0 1.3 9.1 0 1.4 9.1 0 1.5 9.1 0 1.6 9.1 0 1.7 9.1 0 1.8 9.1 0 1.9 9.1 0 2 9.1 0 2.1 9.1 0 2.2 9.1 0 2.3 9.1 0 2.4 9.1 0 2.5 9.1 0 2.6 9.1 0 2.7 9.1 0 2.8 9.1 0 2.9 9.1 0 3 9.1 0 3.1 9.1 0 3.2 9.1 0 3.3 9.1 0 3.4 9.1 0 3.5 9.1 0 3.6 9.1 0 3.7 9.1 0 3.8 9.1 0 3.9 9.1 0 4 9.1 0 4.1 9.1 0 4.2 9.1 0 4.3 9.1 0 4.4 9.1 0 4.5 9.1 0 4.6 9.1 0 4.7 9.1 0 4.8 9.1 0 4.9 9.1 0 5 9.1 0 5.1 9.1 0 5.2 9.1 0 5.3 9.1 0 5.4 9.1 0 5.5 9.1 0 5.6 9.1 0 5.7 9.1 0 5.8 9.1 0 5.9 9.1 0 6 9.1 0 6.1 9.1 0 6.2 9.1 0 6.3 9.1 0 6.4 9.1 0 6.5 9.1 0 6.6 9.1 0 6.7 9.1 0 6.8 9.1 0 6.9 9.1 0 7 9.1 0 7.1 9.1 0 7.2 9.1 0 7.3 9.1 0 7.4 9.1 0 7.5 9.1 0 7.6 9.1 0 7.7 9.1 0 7.8 9.1 0 7.9 9.1 0 8 9.1 0 8.1 9.1 0 8.2 9.1 0 8.3 9.1 0 8.4 9.1 0 8.5 9.1 0 8.6 9.1 0 8.7 9.1 0 8.8 9.1 0 8.9 9.1 0 9 9.1 0 9.1 9.1 0 9.2 9.1 0 9.3 9.1 0 9.4 9.1 0 9.5 9.1 0 9.6 9.1 0 9.7 9.1 0 9.8 9.1 0 9.9 9.1 0 10 9.1 0 0 9.2 0 0.1 9.2 0 0.2 9.2 0 0.3 9.2 0 0.4 9.2 0 0.5 9.2 0 0.6 9.2 0 0.7 9.2 0 0.8 9.2 0 0.9 9.2 0 1 9.2 0 1.1 9.2 0 1.2 9.2 0 1.3 9.2 0 1.4 9.2 0 1.5 9.2 0 1.6 9.2 0 1.7 9.2 0 1.8 9.2 0 1.9 9.2 0 2 9.2 0 2.1 9.2 0 2.2 9.2 0 2.3 9.2 0 2.4 9.2 0 2.5 9.2 0 2.6 9.2 0 2.7 9.2 0 2.8 9.2 0 2.9 9.2 0 3 9.2 0 3.1 9.2 0 3.2 9.2 0 3.3 9.2 0 3.4 9.2 0 3.5 9.2 0 3.6 9.2 0 3.7 9.2 0 3.8 9.2 0 3.9 9.2 0 4 9.2 0 4.1 9.2 0 4.2 9.2 0 4.3 9.2 0 4.4 9.2 0 4.5 9.2 0 4.6 9.2 0 4.7 9.2 0 4.8 9.2 0 4.9 9.2 0 5 9.2 0 5.1 9.2 0 5.2 9.2 0 5.3 9.2 0 5.4 9.2 0 5.5 9.2 0 5.6 9.2 0 5.7 9.2 0 5.8 9.2 0 5.9 9.2 0 6 9.2 0 6.1 9.2 0 6.2 9.2 0 6.3 9.2 0 6.4 9.2 0 6.5 9.2 0 6.6 9.2 0 6.7 9.2 0 6.8 9.2 0 6.9 9.2 0 7 9.2 0 7.1 9.2 0 7.2 9.2 0 7.3 9.2 0 7.4 9.2 0 7.5 9.2 0 7.6 9.2 0 7.7 9.2 0 7.8 9.2 0 7.9 9.2 0 8 9.2 0 8.1 9.2 0 8.2 9.2 0 8.3 9.2 0 8.4 9.2 0 8.5 9.2 0 8.6 9.2 0 8.7 9.2 0 8.8 9.2 0 8.9 9.2 0 9 9.2 0 9.1 9.2 0 9.2 9.2 0 9.3 9.2 0 9.4 9.2 0 9.5 9.2 0 9.6 9.2 0 9.7 9.2 0 9.8 9.2 0 9.9 9.2 0 10 9.2 0 0 9.3 0 0.1 9.3 0 0.2 9.3 0 0.3 9.3 0 0.4 9.3 0 0.5 9.3 0 0.6 9.3 0 0.7 9.3 0 0.8 9.3 0 0.9 9.3 0 1 9.3 0 1.1 9.3 0 1.2 9.3 0 1.3 9.3 0 1.4 9.3 0 1.5 9.3 0 1.6 9.3 0 1.7 9.3 0 1.8 9.3 0 1.9 9.3 0 2 9.3 0 2.1 9.3 0 2.2 9.3 0 2.3 9.3 0 2.4 9.3 0 2.5 9.3 0 2.6 9.3 0 2.7 9.3 0 2.8 9.3 0 2.9 9.3 0 3 9.3 0 3.1 9.3 0 3.2 9.3 0 3.3 9.3 0 3.4 9.3 0 3.5 9.3 0 3.6 9.3 0 3.7 9.3 0 3.8 9.3 0 3.9 9.3 0 4 9.3 0 4.1 9.3 0 4.2 9.3 0 4.3 9.3 0 4.4 9.3 0 4.5 9.3 0 4.6 9.3 0 4.7 9.3 0 4.8 9.3 0 4.9 9.3 0 5 9.3 0 5.1 9.3 0 5.2 9.3 0 5.3 9.3 0 5.4 9.3 0 5.5 9.3 0 5.6 9.3 0 5.7 9.3 0 5.8 9.3 0 5.9 9.3 0 6 9.3 0 6.1 9.3 0 6.2 9.3 0 6.3 9.3 0 6.4 9.3 0 6.5 9.3 0 6.6 9.3 0 6.7 9.3 0 6.8 9.3 0 6.9 9.3 0 7 9.3 0 7.1 9.3 0 7.2 9.3 0 7.3 9.3 0 7.4 9.3 0 7.5 9.3 0 7.6 9.3 0 7.7 9.3 0 7.8 9.3 0 7.9 9.3 0 8 9.3 0 8.1 9.3 0 8.2 9.3 0 8.3 9.3 0 8.4 9.3 0 8.5 9.3 0 8.6 9.3 0 8.7 9.3 0 8.8 9.3 0 8.9 9.3 0 9 9.3 0 9.1 9.3 0 9.2 9.3 0 9.3 9.3 0 9.4 9.3 0 9.5 9.3 0 9.6 9.3 0 9.7 9.3 0 9.8 9.3 0 9.9 9.3 0 10 9.3 0 0 9.4 0 0.1 9.4 0 0.2 9.4 0 0.3 9.4 0 0.4 9.4 0 0.5 9.4 0 0.6 9.4 0 0.7 9.4 0 0.8 9.4 0 0.9 9.4 0 1 9.4 0 1.1 9.4 0 1.2 9.4 0 1.3 9.4 0 1.4 9.4 0 1.5 9.4 0 1.6 9.4 0 1.7 9.4 0 1.8 9.4 0 1.9 9.4 0 2 9.4 0 2.1 9.4 0 2.2 9.4 0 2.3 9.4 0 2.4 9.4 0 2.5 9.4 0 2.6 9.4 0 2.7 9.4 0 2.8 9.4 0 2.9 9.4 0 3 9.4 0 3.1 9.4 0 3.2 9.4 0 3.3 9.4 0 3.4 9.4 0 3.5 9.4 0 3.6 9.4 0 3.7 9.4 0 3.8 9.4 0 3.9 9.4 0 4 9.4 0 4.1 9.4 0 4.2 9.4 0 4.3 9.4 0 4.4 9.4 0 4.5 9.4 0 4.6 9.4 0 4.7 9.4 0 4.8 9.4 0 4.9 9.4 0 5 9.4 0 5.1 9.4 0 5.2 9.4 0 5.3 9.4 0 5.4 9.4 0 5.5 9.4 0 5.6 9.4 0 5.7 9.4 0 5.8 9.4 0 5.9 9.4 0 6 9.4 0 6.1 9.4 0 6.2 9.4 0 6.3 9.4 0 6.4 9.4 0 6.5 9.4 0 6.6 9.4 0 6.7 9.4 0 6.8 9.4 0 6.9 9.4 0 7 9.4 0 7.1 9.4 0 7.2 9.4 0 7.3 9.4 0 7.4 9.4 0 7.5 9.4 0 7.6 9.4 0 7.7 9.4 0 7.8 9.4 0 7.9 9.4 0 8 9.4 0 8.1 9.4 0 8.2 9.4 0 8.3 9.4 0 8.4 9.4 0 8.5 9.4 0 8.6 9.4 0 8.7 9.4 0 8.8 9.4 0 8.9 9.4 0 9 9.4 0 9.1 9.4 0 9.2 9.4 0 9.3 9.4 0 9.4 9.4 0 9.5 9.4 0 9.6 9.4 0 9.7 9.4 0 9.8 9.4 0 9.9 9.4 0 10 9.4 0 0 9.5 0 0.1 9.5 0 0.2 9.5 0 0.3 9.5 0 0.4 9.5 0 0.5 9.5 0 0.6 9.5 0 0.7 9.5 0 0.8 9.5 0 0.9 9.5 0 1 9.5 0 1.1 9.5 0 1.2 9.5 0 1.3 9.5 0 1.4 9.5 0 1.5 9.5 0 1.6 9.5 0 1.7 9.5 0 1.8 9.5 0 1.9 9.5 0 2 9.5 0 2.1 9.5 0 2.2 9.5 0 2.3 9.5 0 2.4 9.5 0 2.5 9.5 0 2.6 9.5 0 2.7 9.5 0 2.8 9.5 0 2.9 9.5 0 3 9.5 0 3.1 9.5 0 3.2 9.5 0 3.3 9.5 0 3.4 9.5 0 3.5 9.5 0 3.6 9.5 0 3.7 9.5 0 3.8 9.5 0 3.9 9.5 0 4 9.5 0 4.1 9.5 0 4.2 9.5 0 4.3 9.5 0 4.4 9.5 0 4.5 9.5 0 4.6 9.5 0 4.7 9.5 0 4.8 9.5 0 4.9 9.5 0 5 9.5 0 5.1 9.5 0 5.2 9.5 0 5.3 9.5 0 5.4 9.5 0 5.5 9.5 0 5.6 9.5 0 5.7 9.5 0 5.8 9.5 0 5.9 9.5 0 6 9.5 0 6.1 9.5 0 6.2 9.5 0 6.3 9.5 0 6.4 9.5 0 6.5 9.5 0 6.6 9.5 0 6.7 9.5 0 6.8 9.5 0 6.9 9.5 0 7 9.5 0 7.1 9.5 0 7.2 9.5 0 7.3 9.5 0 7.4 9.5 0 7.5 9.5 0 7.6 9.5 0 7.7 9.5 0 7.8 9.5 0 7.9 9.5 0 8 9.5 0 8.1 9.5 0 8.2 9.5 0 8.3 9.5 0 8.4 9.5 0 8.5 9.5 0 8.6 9.5 0 8.7 9.5 0 8.8 9.5 0 8.9 9.5 0 9 9.5 0 9.1 9.5 0 9.2 9.5 0 9.3 9.5 0 9.4 9.5 0 9.5 9.5 0 9.6 9.5 0 9.7 9.5 0 9.8 9.5 0 9.9 9.5 0 10 9.5 0 0 9.6 0 0.1 9.6 0 0.2 9.6 0 0.3 9.6 0 0.4 9.6 0 0.5 9.6 0 0.6 9.6 0 0.7 9.6 0 0.8 9.6 0 0.9 9.6 0 1 9.6 0 1.1 9.6 0 1.2 9.6 0 1.3 9.6 0 1.4 9.6 0 1.5 9.6 0 1.6 9.6 0 1.7 9.6 0 1.8 9.6 0 1.9 9.6 0 2 9.6 0 2.1 9.6 0 2.2 9.6 0 2.3 9.6 0 2.4 9.6 0 2.5 9.6 0 2.6 9.6 0 2.7 9.6 0 2.8 9.6 0 2.9 9.6 0 3 9.6 0 3.1 9.6 0 3.2 9.6 0 3.3 9.6 0 3.4 9.6 0 3.5 9.6 0 3.6 9.6 0 3.7 9.6 0 3.8 9.6 0 3.9 9.6 0 4 9.6 0 4.1 9.6 0 4.2 9.6 0 4.3 9.6 0 4.4 9.6 0 4.5 9.6 0 4.6 9.6 0 4.7 9.6 0 4.8 9.6 0 4.9 9.6 0 5 9.6 0 5.1 9.6 0 5.2 9.6 0 5.3 9.6 0 5.4 9.6 0 5.5 9.6 0 5.6 9.6 0 5.7 9.6 0 5.8 9.6 0 5.9 9.6 0 6 9.6 0 6.1 9.6 0 6.2 9.6 0 6.3 9.6 0 6.4 9.6 0 6.5 9.6 0 6.6 9.6 0 6.7 9.6 0 6.8 9.6 0 6.9 9.6 0 7 9.6 0 7.1 9.6 0 7.2 9.6 0 7.3 9.6 0 7.4 9.6 0 7.5 9.6 0 7.6 9.6 0 7.7 9.6 0 7.8 9.6 0 7.9 9.6 0 8 9.6 0 8.1 9.6 0 8.2 9.6 0 8.3 9.6 0 8.4 9.6 0 8.5 9.6 0 8.6 9.6 0 8.7 9.6 0 8.8 9.6 0 8.9 9.6 0 9 9.6 0 9.1 9.6 0 9.2 9.6 0 9.3 9.6 0 9.4 9.6 0 9.5 9.6 0 9.6 9.6 0 9.7 9.6 0 9.8 9.6 0 9.9 9.6 0 10 9.6 0 0 9.7 0 0.1 9.7 0 0.2 9.7 0 0.3 9.7 0 0.4 9.7 0 0.5 9.7 0 0.6 9.7 0 0.7 9.7 0 0.8 9.7 0 0.9 9.7 0 1 9.7 0 1.1 9.7 0 1.2 9.7 0 1.3 9.7 0 1.4 9.7 0 1.5 9.7 0 1.6 9.7 0 1.7 9.7 0 1.8 9.7 0 1.9 9.7 0 2 9.7 0 2.1 9.7 0 2.2 9.7 0 2.3 9.7 0 2.4 9.7 0 2.5 9.7 0 2.6 9.7 0 2.7 9.7 0 2.8 9.7 0 2.9 9.7 0 3 9.7 0 3.1 9.7 0 3.2 9.7 0 3.3 9.7 0 3.4 9.7 0 3.5 9.7 0 3.6 9.7 0 3.7 9.7 0 3.8 9.7 0 3.9 9.7 0 4 9.7 0 4.1 9.7 0 4.2 9.7 0 4.3 9.7 0 4.4 9.7 0 4.5 9.7 0 4.6 9.7 0 4.7 9.7 0 4.8 9.7 0 4.9 9.7 0 5 9.7 0 5.1 9.7 0 5.2 9.7 0 5.3 9.7 0 5.4 9.7 0 5.5 9.7 0 5.6 9.7 0 5.7 9.7 0 5.8 9.7 0 5.9 9.7 0 6 9.7 0 6.1 9.7 0 6.2 9.7 0 6.3 9.7 0 6.4 9.7 0 6.5 9.7 0 6.6 9.7 0 6.7 9.7 0 6.8 9.7 0 6.9 9.7 0 7 9.7 0 7.1 9.7 0 7.2 9.7 0 7.3 9.7 0 7.4 9.7 0 7.5 9.7 0 7.6 9.7 0 7.7 9.7 0 7.8 9.7 0 7.9 9.7 0 8 9.7 0 8.1 9.7 0 8.2 9.7 0 8.3 9.7 0 8.4 9.7 0 8.5 9.7 0 8.6 9.7 0 8.7 9.7 0 8.8 9.7 0 8.9 9.7 0 9 9.7 0 9.1 9.7 0 9.2 9.7 0 9.3 9.7 0 9.4 9.7 0 9.5 9.7 0 9.6 9.7 0 9.7 9.7 0 9.8 9.7 0 9.9 9.7 0 10 9.7 0 0 9.8 0 0.1 9.8 0 0.2 9.8 0 0.3 9.8 0 0.4 9.8 0 0.5 9.8 0 0.6 9.8 0 0.7 9.8 0 0.8 9.8 0 0.9 9.8 0 1 9.8 0 1.1 9.8 0 1.2 9.8 0 1.3 9.8 0 1.4 9.8 0 1.5 9.8 0 1.6 9.8 0 1.7 9.8 0 1.8 9.8 0 1.9 9.8 0 2 9.8 0 2.1 9.8 0 2.2 9.8 0 2.3 9.8 0 2.4 9.8 0 2.5 9.8 0 2.6 9.8 0 2.7 9.8 0 2.8 9.8 0 2.9 9.8 0 3 9.8 0 3.1 9.8 0 3.2 9.8 0 3.3 9.8 0 3.4 9.8 0 3.5 9.8 0 3.6 9.8 0 3.7 9.8 0 3.8 9.8 0 3.9 9.8 0 4 9.8 0 4.1 9.8 0 4.2 9.8 0 4.3 9.8 0 4.4 9.8 0 4.5 9.8 0 4.6 9.8 0 4.7 9.8 0 4.8 9.8 0 4.9 9.8 0 5 9.8 0 5.1 9.8 0 5.2 9.8 0 5.3 9.8 0 5.4 9.8 0 5.5 9.8 0 5.6 9.8 0 5.7 9.8 0 5.8 9.8 0 5.9 9.8 0 6 9.8 0 6.1 9.8 0 6.2 9.8 0 6.3 9.8 0 6.4 9.8 0 6.5 9.8 0 6.6 9.8 0 6.7 9.8 0 6.8 9.8 0 6.9 9.8 0 7 9.8 0 7.1 9.8 0 7.2 9.8 0 7.3 9.8 0 7.4 9.8 0 7.5 9.8 0 7.6 9.8 0 7.7 9.8 0 7.8 9.8 0 7.9 9.8 0 8 9.8 0 8.1 9.8 0 8.2 9.8 0 8.3 9.8 0 8.4 9.8 0 8.5 9.8 0 8.6 9.8 0 8.7 9.8 0 8.8 9.8 0 8.9 9.8 0 9 9.8 0 9.1 9.8 0 9.2 9.8 0 9.3 9.8 0 9.4 9.8 0 9.5 9.8 0 9.6 9.8 0 9.7 9.8 0 9.8 9.8 0 9.9 9.8 0 10 9.8 0 0 9.9 0 0.1 9.9 0 0.2 9.9 0 0.3 9.9 0 0.4 9.9 0 0.5 9.9 0 0.6 9.9 0 0.7 9.9 0 0.8 9.9 0 0.9 9.9 0 1 9.9 0 1.1 9.9 0 1.2 9.9 0 1.3 9.9 0 1.4 9.9 0 1.5 9.9 0 1.6 9.9 0 1.7 9.9 0 1.8 9.9 0 1.9 9.9 0 2 9.9 0 2.1 9.9 0 2.2 9.9 0 2.3 9.9 0 2.4 9.9 0 2.5 9.9 0 2.6 9.9 0 2.7 9.9 0 2.8 9.9 0 2.9 9.9 0 3 9.9 0 3.1 9.9 0 3.2 9.9 0 3.3 9.9 0 3.4 9.9 0 3.5 9.9 0 3.6 9.9 0 3.7 9.9 0 3.8 9.9 0 3.9 9.9 0 4 9.9 0 4.1 9.9 0 4.2 9.9 0 4.3 9.9 0 4.4 9.9 0 4.5 9.9 0 4.6 9.9 0 4.7 9.9 0 4.8 9.9 0 4.9 9.9 0 5 9.9 0 5.1 9.9 0 5.2 9.9 0 5.3 9.9 0 5.4 9.9 0 5.5 9.9 0 5.6 9.9 0 5.7 9.9 0 5.8 9.9 0 5.9 9.9 0 6 9.9 0 6.1 9.9 0 6.2 9.9 0 6.3 9.9 0 6.4 9.9 0 6.5 9.9 0 6.6 9.9 0 6.7 9.9 0 6.8 9.9 0 6.9 9.9 0 7 9.9 0 7.1 9.9 0 7.2 9.9 0 7.3 9.9 0 7.4 9.9 0 7.5 9.9 0 7.6 9.9 0 7.7 9.9 0 7.8 9.9 0 7.9 9.9 0 8 9.9 0 8.1 9.9 0 8.2 9.9 0 8.3 9.9 0 8.4 9.9 0 8.5 9.9 0 8.6 9.9 0 8.7 9.9 0 8.8 9.9 0 8.9 9.9 0 9 9.9 0 9.1 9.9 0 9.2 9.9 0 9.3 9.9 0 9.4 9.9 0 9.5 9.9 0 9.6 9.9 0 9.7 9.9 0 9.8 9.9 0 9.9 9.9 0 10 9.9 0 0 10 0 0.1 10 0 0.2 10 0 0.3 10 0 0.4 10 0 0.5 10 0 0.6 10 0 0.7 10 0 0.8 10 0 0.9 10 0 1 10 0 1.1 10 0 1.2 10 0 1.3 10 0 1.4 10 0 1.5 10 0 1.6 10 0 1.7 10 0 1.8 10 0 1.9 10 0 2 10 0 2.1 10 0 2.2 10 0 2.3 10 0 2.4 10 0 2.5 10 0 2.6 10 0 2.7 10 0 2.8 10 0 2.9 10 0 3 10 0 3.1 10 0 3.2 10 0 3.3 10 0 3.4 10 0 3.5 10 0 3.6 10 0 3.7 10 0 3.8 10 0 3.9 10 0 4 10 0 4.1 10 0 4.2 10 0 4.3 10 0 4.4 10 0 4.5 10 0 4.6 10 0 4.7 10 0 4.8 10 0 4.9 10 0 5 10 0 5.1 10 0 5.2 10 0 5.3 10 0 5.4 10 0 5.5 10 0 5.6 10 0 5.7 10 0 5.8 10 0 5.9 10 0 6 10 0 6.1 10 0 6.2 10 0 6.3 10 0 6.4 10 0 6.5 10 0 6.6 10 0 6.7 10 0 6.8 10 0 6.9 10 0 7 10 0 7.1 10 0 7.2 10 0 7.3 10 0 7.4 10 0 7.5 10 0 7.6 10 0 7.7 10 0 7.8 10 0 7.9 10 0 8 10 0 8.1 10 0 8.2 10 0 8.3 10 0 8.4 10 0 8.5 10 0 8.6 10 0 8.7 10 0 8.8 10 0 8.9 10 0 9 10 0 9.1 10 0 9.2 10 0 9.3 10 0 9.4 10 0 9.5 10 0 9.6 10 0 9.7 10 0 9.8 10 0 9.9 10 0 10 10 0 
</DataArray>
</Points> 
</Piece> 
</StructuredGrid> 
</VTKFile> 
