<?xml version="1.0"?> 
<VTKFile type="StructuredGrid" version="0.1"> 
<StructuredGrid WholeExtent="0 100 0 100 0 0"> 
<Piece Extent="0 100 0 100 0 0"> 
<PointData>
<DataArray type="Float32" Name="value" format="ascii" NumberOfComponents="1"> 
67.0634 67.1172 67.2777 67.5411 67.9031 68.3555 68.8881 69.4908 70.1495 70.8485 71.5717 72.301 73.0169 73.6998 74.3301 74.8885 75.3557 75.7146 75.9508 76.0505 76.0025 75.8014 75.4424 74.9231 74.2476 73.4211 72.4498 71.3441 70.1157 68.7763 67.3397 65.82 64.2315 62.588 60.9028 59.1895 57.4604 55.7267 53.9999 52.2894 50.6027 48.947 47.3292 45.7553 44.2312 42.7613 41.3472 39.9901 38.6914 37.4522 36.2739 35.1573 34.1011 33.1039 32.1639 31.2795 30.4491 29.6712 28.9435 28.2638 27.6298 27.0393 26.49 25.9795 25.5058 25.0668 24.6604 24.2846 23.9374 23.6168 23.3208 23.0481 22.797 22.5662 22.3541 22.1593 21.9803 21.8163 21.666 21.5287 21.4033 21.2889 21.1845 21.0894 21.003 20.9249 20.8542 20.7906 20.7334 20.6822 20.6367 20.5966 20.5615 20.5312 20.5054 20.4839 20.4665 20.4531 20.4436 20.438 20.4361 67.1172 67.1716 67.3335 67.5993 67.9648 68.4215 68.9594 69.5682 70.2337 70.9403 71.6718 72.41 73.135 73.827 74.4662 75.0331 75.5085 75.8747 76.1173 76.2216 76.1766 75.9773 75.6199 75.1019 74.4267 73.5982 72.6219 71.5089 70.2716 68.9228 67.4771 65.9501 64.3568 62.7099 61.0211 59.3017 57.564 55.8207 54.0844 52.3651 50.6707 49.0087 47.3858 45.8076 44.2794 42.8054 41.3872 40.0261 38.7236 37.4808 36.2991 35.1794 34.1205 33.1207 32.1785 31.2922 30.4602 29.6807 28.9517 28.2709 27.636 27.0447 26.4946 25.9835 25.5092 25.0697 24.6629 24.2867 23.9392 23.6183 23.3221 23.0491 22.7979 22.5669 22.3547 22.1598 21.9808 21.8166 21.6663 21.5289 21.4035 21.289 21.1846 21.0895 21.0031 20.9249 20.8543 20.7906 20.7334 20.6822 20.6367 20.5965 20.5615 20.5312 20.5054 20.4838 20.4664 20.453 20.4436 20.4379 20.436 67.2777 67.3335 67.4998 67.7729 68.1485 68.6182 69.1718 69.799 70.4855 71.2151 71.9712 72.7353 73.4874 74.2073 74.8746 75.4686 75.9686 76.3565 76.6178 76.7384 76.7067 76.5164 76.1617 75.6398 74.9562 74.1178 73.1321 72.0099 70.7626 69.4018 67.9403 66.391 64.7674 63.0857 61.3632 59.6171 57.8597 56.0995 54.3452 52.6056 50.8899 49.2073 47.5654 45.9697 44.4255 42.9366 41.5047 40.1311 38.8169 37.5636 36.3724 35.2441 34.1775 33.1708 32.2224 31.3306 30.4937 29.7099 28.9771 28.2929 27.655 27.061 26.5087 25.9956 25.5196 25.0785 24.6704 24.2931 23.9446 23.6229 23.326 23.0524 22.8006 22.5692 22.3566 22.1613 21.982 21.8176 21.6671 21.5296 21.404 21.2894 21.1849 21.0897 21.0032 20.925 20.8543 20.7906 20.7334 20.6822 20.6366 20.5965 20.5614 20.5311 20.5053 20.4837 20.4663 20.4529 20.4434 20.4378 20.4359 67.5411 67.5993 67.7729 68.0583 68.4508 68.942 69.5218 70.1797 70.901 71.669 72.4666 73.2746 74.0723 74.8388 75.5527 76.1917 76.7336 77.1592 77.4534 77.6014 77.5908 77.4142 77.0646 76.5389 75.8444 74.99 73.985 72.8407 71.5682 70.179 68.6853 67.0992 65.4335 63.7066 61.9394 60.1526 58.3586 56.5643 54.7764 53.0031 51.2541 49.5391 47.866 46.2408 44.669 43.1548 41.6996 40.3048 38.9714 37.7006 36.4936 35.3511 34.2716 33.2535 32.295 31.3941 30.5491 29.7581 29.0189 28.3291 27.6863 27.088 26.5319 26.0155 25.5366 25.0931 24.6828 24.3037 23.9536 23.6305 23.3324 23.0577 22.8051 22.5729 22.3597 22.1639 21.9841 21.8193 21.6685 21.5307 21.4049 21.2901 21.1854 21.09 21.0035 20.9251 20.8544 20.7907 20.7334 20.6821 20.6365 20.5963 20.5612 20.5309 20.5051 20.4835 20.4661 20.4527 20.4432 20.4376 20.4357 67.9031 67.9648 68.1485 68.4508 68.8671 69.3886 70.0051 70.7058 71.4757 72.2975 73.1539 74.0246 74.8871 75.719 76.4975 77.1993 77.8012 78.2823 78.6248 78.8111 78.8275 78.6678 78.3266 77.8015 77.098 76.2231 75.1851 73.9972 72.6736 71.2292 69.6799 68.0424 66.333 64.5669 62.7582 60.9213 59.0696 57.2161 55.3735 53.5519 51.7586 50.0009 48.2857 46.6197 45.0093 43.4596 41.972 40.5474 39.1868 37.8915 36.6622 35.4997 34.4024 33.3684 32.3956 31.482 30.6258 29.8248 29.0768 28.3792 27.7295 27.1252 26.5639 26.0429 25.56 25.113 24.6998 24.3181 23.9659 23.6408 23.3411 23.0651 22.8112 22.578 22.3639 22.1674 21.987 21.8216 21.6704 21.5322 21.406 21.291 21.1861 21.0905 21.0038 20.9253 20.8545 20.7907 20.7333 20.682 20.6363 20.5961 20.561 20.5306 20.5048 20.4832 20.4658 20.4523 20.4429 20.4372 20.4353 68.3555 68.4215 68.6182 68.942 69.3886 69.9491 70.6127 71.3684 72.2006 73.092 74.0247 74.9769 75.924 76.8414 77.7045 78.4889 79.1699 79.7244 80.1307 80.3676 80.4195 80.2822 79.9528 79.43 78.7167 77.8164 76.7353 75.4896 74.0983 72.5804 70.9581 69.2542 67.4904 65.6767 63.817 61.9163 59.9891 58.0571 56.1419 54.2565 52.4053 50.5924 48.8232 47.1053 45.446 43.851 42.3216 40.8587 39.4632 38.136 36.878 35.6897 34.5693 33.5147 32.5236 31.5939 30.7232 29.9095 29.1502 28.4426 27.7842 27.1722 26.6042 26.0775 25.5895 25.1382 24.7212 24.3363 23.9813 23.6539 23.3521 23.0743 22.8189 22.5843 22.3691 22.1717 21.9905 21.8245 21.6726 21.5339 21.4074 21.2921 21.1868 21.0911 21.0042 20.9255 20.8545 20.7906 20.7332 20.6818 20.6361 20.5958 20.5606 20.5303 20.5044 20.4828 20.4654 20.4519 20.4424 20.4368 20.4349 68.8881 68.9594 69.1718 69.5218 70.0051 70.6127 71.3337 72.1566 73.0656 74.0425 75.0688 76.1213 77.1734 78.1984 79.1692 80.0585 80.8388 81.484 81.9695 82.271 82.371 82.2652 81.951 81.4273 80.6974 79.7653 78.6378 77.3335 75.8737 74.2804 72.5781 70.7923 68.9469 67.0517 65.1093 63.1232 61.1087 59.09 57.0908 55.1254 53.1984 51.314 49.4776 47.6966 45.9785 44.3287 42.7485 41.2387 39.8003 38.4339 37.1406 35.9206 34.7719 33.6921 32.6786 31.7291 30.8409 30.0116 29.2385 28.5189 27.8498 27.2287 26.6526 26.1189 25.6249 25.1683 24.7468 24.358 23.9997 23.6694 23.3651 23.0852 22.828 22.5919 22.3753 22.1767 21.9946 21.8278 21.6753 21.536 21.409 21.2933 21.1878 21.0917 21.0046 20.9257 20.8546 20.7905 20.733 20.6815 20.6358 20.5954 20.5602 20.5298 20.5039 20.4823 20.4648 20.4514 20.4419 20.4363 20.4344 69.4908 69.5682 69.799 70.1797 70.7058 71.3684 72.1566 73.0591 74.0594 75.1381 76.2755 77.4471 78.6251 79.7814 80.8856 81.9047 82.8058 83.5593 84.1396 84.5216 84.6858 84.6238 84.3283 83.7965 83.0387 82.0671 80.8951 79.5415 78.0257 76.3676 74.5869 72.7031 70.736 68.7052 66.6305 64.5311 62.4225 60.3173 58.2279 56.1659 54.142 52.1666 50.2482 48.3929 46.6062 44.8923 43.2524 41.6873 40.1978 38.7849 37.4495 36.1917 35.0094 33.8997 32.8598 31.8869 30.9781 30.1305 29.3413 28.6075 27.9261 27.2941 26.7087 26.1668 25.6657 25.203 24.7763 24.383 24.0208 23.6873 23.3801 23.0977 22.8383 22.6005 22.3824 22.1825 21.9993 21.8315 21.6783 21.5384 21.4108 21.2946 21.1887 21.0924 21.005 20.9259 20.8546 20.7904 20.7327 20.6812 20.6353 20.595 20.5597 20.5293 20.5034 20.4817 20.4642 20.4508 20.4413 20.4356 20.4337 70.1495 70.2337 70.4855 70.901 71.4757 72.2006 73.0656 74.0594 75.1647 76.361 77.6272 78.9378 80.2636 81.5755 82.8389 84.014 85.061 85.9457 86.6414 87.1223 87.3664 87.359 87.0864 86.5438 85.7512 84.7325 83.5107 82.1037 80.5285 78.801 76.9336 74.937 72.8243 70.6286 68.3933 66.16 63.944 61.7417 59.5496 57.3752 55.2369 53.1538 51.1384 49.1953 47.3282 45.5398 43.8308 42.2018 40.6534 39.1865 37.8023 36.5008 35.2797 34.1357 33.0655 32.0657 31.1333 30.2649 29.4573 28.7073 28.0118 27.3677 26.7716 26.2204 25.7114 25.2418 24.8092 24.4109 24.0444 23.7071 23.3967 23.1115 22.8498 22.6099 22.3902 22.1889 22.0044 21.8356 21.6815 21.5409 21.4128 21.2961 21.1897 21.093 21.0053 20.926 20.8545 20.7902 20.7324 20.6807 20.6348 20.5944 20.5591 20.5286 20.5027 20.481 20.4635 20.45 20.4405 20.4349 20.433 70.8485 70.9403 71.2151 71.669 72.2975 73.092 74.0425 75.1381 76.361 77.69 79.1034 80.5739 82.0706 83.562 85.0096 86.3676 87.59 88.637 89.4766 90.0777 90.414 90.4683 90.2243 89.677 88.8519 87.7794 86.4882 84.9988 83.3298 81.4986 79.517 77.3944 75.1434 72.8016 70.4197 68.0461 65.6972 63.3663 61.0465 58.7451 56.4827 54.2806 52.1533 50.1061 48.1434 46.2683 44.4803 42.7788 41.1635 39.6354 38.1958 36.8451 35.5803 34.3976 33.2932 32.2635 31.3046 30.4129 29.5849 28.817 28.1059 27.4482 26.8404 26.2791 25.7612 25.2841 24.845 24.4411 24.0699 23.7285 23.4146 23.1264 22.8621 22.6201 22.3985 22.1956 22.0098 21.8399 21.6848 21.5434 21.4147 21.2975 21.1907 21.0936 21.0056 20.9261 20.8544 20.7899 20.732 20.6802 20.6342 20.5937 20.5583 20.5278 20.5019 20.4802 20.4626 20.4492 20.4397 20.434 20.4321 71.5717 71.6718 71.9712 72.4666 73.1539 74.0247 75.0688 76.2755 77.6272 79.1034 80.6825 82.3353 84.0268 85.7216 87.3777 88.9461 90.378 91.6259 92.645 93.3906 93.8291 93.9488 93.7405 93.2026 92.3557 91.2236 89.8316 88.2086 86.3848 84.3897 82.2496 79.9898 77.6351 75.208 72.73 70.2221 67.704 65.1942 62.711 60.2689 57.8789 55.5515 53.2974 51.127 49.0509 47.0751 45.1975 43.4146 41.7246 40.1282 38.627 37.2215 35.9082 34.6827 33.5408 32.478 31.4902 30.573 29.7225 28.9351 28.2071 27.5347 26.9141 26.3418 25.8145 25.3292 24.883 24.4732 24.0969 23.7511 23.4335 23.142 22.875 22.6306 22.407 22.2025 22.0153 21.8442 21.6882 21.546 21.4165 21.2988 21.1915 21.0941 21.0058 20.926 20.8541 20.7894 20.7313 20.6795 20.6334 20.5928 20.5574 20.5269 20.5009 20.4792 20.4617 20.4482 20.4387 20.433 20.4311 72.301 72.41 72.7353 73.2746 74.0246 74.9769 76.1213 77.4471 78.9378 80.5739 82.3353 84.1905 86.0998 88.0233 89.9155 91.7255 93.4019 94.8886 96.1222 97.0393 97.597 97.7929 97.6292 97.1104 96.2476 95.0529 93.544 91.7615 89.7515 87.5603 85.2362 82.8278 80.3788 77.8871 75.3272 72.6769 69.9603 67.2354 64.5593 61.9584 59.4281 56.9628 54.5665 52.2564 50.0508 47.9601 45.9805 44.1061 42.3331 40.6617 39.0931 37.6276 36.2611 34.9889 33.8059 32.7073 31.688 30.7433 29.8687 29.0603 28.3141 27.6259 26.9918 26.4078 25.8703 25.3763 24.9227 24.5066 24.1249 23.7745 23.4529 23.1581 22.8881 22.6413 22.4157 22.2094 22.0208 21.8485 21.6914 21.5484 21.4183 21.2999 21.1922 21.0944 21.0058 20.9257 20.8536 20.7887 20.7306 20.6786 20.6324 20.5918 20.5564 20.5258 20.4998 20.4781 20.4605 20.447 20.4375 20.4318 20.4299 73.0169 73.135 73.4874 74.0723 74.8871 75.924 77.1734 78.6251 80.2636 82.0706 84.0268 86.0998 88.2476 90.4277 92.5902 94.6779 96.6331 98.389 99.8664 100.985 101.692 101.989 101.881 101.378 100.491 99.2345 97.6283 95.7194 93.5616 91.2094 88.7197 86.1507 83.5536 80.9179 78.2016 75.3675 72.4433 69.5043 66.625 63.8381 61.1349 58.5049 55.9502 53.4899 51.144 48.9248 46.8286 44.8502 42.9852 41.2326 39.5918 38.0614 36.6372 35.3139 34.0864 32.9491 31.8962 30.9221 30.0219 29.1912 28.4257 27.7209 27.0725 26.4762 25.928 25.4249 24.9635 24.5408 24.1534 23.7983 23.4725 23.1742 22.9013 22.6519 22.4242 22.2162 22.0261 21.8525 21.6944 21.5505 21.4197 21.3008 21.1927 21.0944 21.0055 20.9252 20.8529 20.7879 20.7296 20.6775 20.6313 20.5906 20.5551 20.5246 20.4985 20.4768 20.4592 20.4457 20.4362 20.4305 20.4286 73.6998 73.827 74.2073 74.8388 75.719 76.8414 78.1984 79.7814 81.5755 83.562 85.7216 88.0233 90.4277 92.8945 95.3673 97.774 100.041 102.091 103.836 105.189 106.09 106.525 106.488 105.983 105.051 103.737 102.086 100.141 97.9405 95.5259 92.9312 90.1888 87.3299 84.3763 81.3452 78.2542 75.1321 72.0154 68.9405 65.9322 63.004 60.169 57.4387 54.8229 52.3313 49.9704 47.7412 45.6438 43.6774 41.8378 40.1205 38.5208 37.0341 35.6555 34.38 33.2014 32.1129 31.1077 30.1804 29.3263 28.5406 27.8185 27.1552 26.546 25.9868 25.4742 25.0048 24.5753 24.1821 23.822 23.4921 23.1901 22.9142 22.6623 22.4324 22.2226 22.031 21.8562 21.6971 21.5524 21.4209 21.3014 21.1928 21.0942 21.005 20.9244 20.8519 20.7868 20.7284 20.6762 20.6299 20.5892 20.5537 20.5231 20.4971 20.4753 20.4578 20.4443 20.4347 20.4291 20.4272 74.3301 74.4662 74.8746 75.5527 76.4975 77.7045 79.1692 80.8856 82.8389 85.0096 87.3777 89.9155 92.5902 95.3673 98.1839 100.948 103.567 105.949 108.001 109.632 110.769 111.377 111.424 110.91 109.92 108.555 106.9 104.983 102.816 100.41 97.7538 94.8313 91.6359 88.248 84.7925 81.3883 78.0635 74.7806 71.5027 68.2379 65.0396 61.9624 59.0355 56.2526 53.605 51.0892 48.7127 46.4837 44.4066 42.4734 40.6745 39.0008 37.4473 36.0097 34.6834 33.4613 32.3353 31.2977 30.3423 29.4639 28.6573 27.9173 27.2387 26.6163 26.0458 25.5235 25.0459 24.6094 24.2103 23.8452 23.511 23.2054 22.9265 22.6721 22.4401 22.2286 22.0355 21.8595 21.6993 21.5538 21.4217 21.3016 21.1926 21.0936 21.0041 20.9233 20.8507 20.7854 20.7269 20.6747 20.6283 20.5876 20.5521 20.5215 20.4954 20.4737 20.4561 20.4426 20.4331 20.4274 20.4255 74.8885 75.0331 75.4686 76.1917 77.1993 78.4889 80.0585 81.9047 84.014 86.3676 88.9461 91.7255 94.6779 97.774 100.948 104.099 107.122 109.909 112.344 114.309 115.713 116.507 116.652 116.15 115.122 113.71 112.031 110.104 107.921 105.473 102.722 99.6264 96.1575 92.4277 88.6212 84.9123 81.3323 77.8095 74.2731 70.7261 67.2451 63.909 60.7579 57.7773 54.9492 52.2647 49.7333 47.3667 45.1707 43.1349 41.2463 39.4933 37.8699 36.3712 34.9924 33.7251 32.5604 31.4892 30.5048 29.6015 28.7737 28.0156 27.3215 26.6859 26.1039 25.5719 25.086 24.6424 24.2375 23.8674 23.5289 23.2198 22.9379 22.681 22.447 22.2337 22.0392 21.8621 21.701 21.5547 21.4219 21.3014 21.1919 21.0926 21.0028 20.9219 20.8491 20.7837 20.7251 20.6729 20.6265 20.5858 20.5502 20.5196 20.4936 20.4719 20.4543 20.4408 20.4313 20.4256 20.4237 75.3557 75.5085 75.9686 76.7336 77.8012 79.1699 80.8388 82.8058 85.061 87.59 90.378 93.4019 96.6331 100.041 103.567 107.122 110.615 113.916 116.845 119.217 120.901 121.876 122.132 121.693 120.678 119.223 117.442 115.362 112.988 110.325 107.371 104.122 100.581 96.8117 92.9104 88.9697 85.0337 81.1118 77.2131 73.3673 69.6237 66.0326 62.623 59.3954 56.3479 53.4799 50.7931 48.2893 45.9674 43.8176 41.8287 39.9903 38.2946 36.7344 35.3024 33.9892 32.7847 31.6793 30.6655 29.737 28.8878 28.1116 27.4021 26.7533 26.16 25.6183 25.1242 24.6737 24.2629 23.888 23.5454 23.2328 22.948 22.6888 22.4528 22.238 22.0422 21.8639 21.7019 21.5548 21.4215 21.3005 21.1907 21.0911 21.0011 20.92 20.8471 20.7817 20.7231 20.6708 20.6244 20.5836 20.5481 20.5176 20.4915 20.4698 20.4523 20.4388 20.4293 20.4236 20.4217 75.7146 75.8747 76.3565 77.1592 78.2823 79.7244 81.484 83.5593 85.9457 88.637 91.6259 94.8886 98.389 102.091 105.949 109.909 113.916 117.819 121.337 124.181 126.168 127.333 127.729 127.423 126.497 125.042 123.137 120.829 118.157 115.166 111.934 108.552 105.097 101.522 97.7165 93.5816 89.1844 84.7114 80.3475 76.175 72.1746 68.3226 64.6194 61.0983 57.7951 54.7282 51.8829 49.2408 46.7863 44.5128 42.415 40.4865 38.717 37.0951 35.6097 34.2498 33.005 31.8649 30.8215 29.868 28.9977 28.2036 27.4791 26.8174 26.213 25.6618 25.1597 24.7025 24.2861 23.9064 23.5598 23.244 22.9565 22.6951 22.4574 22.2411 22.044 21.8647 21.7019 21.5542 21.4203 21.299 21.1889 21.0891 20.9989 20.9177 20.8447 20.7793 20.7206 20.6683 20.622 20.5813 20.5458 20.5152 20.4892 20.4675 20.45 20.4366 20.4271 20.4214 20.4195 75.9508 76.1173 76.6178 77.4534 78.6248 80.1307 81.9695 84.1396 86.6414 89.4766 92.645 96.1222 99.8664 103.836 108.001 112.344 116.845 121.337 125.448 128.793 131.142 132.568 133.18 133.076 132.33 131.009 129.178 126.876 124.136 121.006 117.61 114.098 110.596 106.995 103.065 98.5994 93.6915 88.6521 83.7886 79.2227 74.8904 70.7208 66.6954 62.8683 59.2987 56.0166 52.9949 50.2001 47.6061 45.2068 42.9998 40.9805 39.1358 37.4508 35.9108 34.5036 33.2181 32.0433 30.9705 29.9923 29.1012 28.2899 27.5509 26.8769 26.2619 25.7016 25.1917 24.7281 24.3063 23.9221 23.5719 23.253 22.963 22.6996 22.4604 22.2428 22.0447 21.8645 21.7009 21.5527 21.4184 21.2967 21.1863 21.0864 20.9961 20.9149 20.8419 20.7764 20.7178 20.6656 20.6193 20.5786 20.5431 20.5126 20.4867 20.465 20.4475 20.4341 20.4247 20.419 20.4171 76.0505 76.2216 76.7384 77.6014 78.8111 80.3676 82.271 84.5216 87.1223 90.0777 93.3906 97.0393 100.985 105.189 109.632 114.309 119.217 124.181 128.793 132.631 135.436 137.265 138.211 138.381 137.916 136.963 135.633 133.892 131.669 128.91 125.661 122.004 118.013 113.686 108.979 103.864 98.4554 92.9787 87.6546 82.5871 77.7633 73.1658 68.7968 64.6867 60.8675 57.353 54.121 51.1456 48.4043 45.8852 43.5779 41.4713 39.5503 37.7992 36.2024 34.747 33.4206 32.2113 31.1096 30.1074 29.1965 28.3688 27.6162 26.9305 26.3054 25.7366 25.2195 24.7497 24.3229 23.9346 23.5809 23.2593 22.9672 22.7022 22.4615 22.2429 22.0439 21.863 21.6988 21.5501 21.4154 21.2935 21.183 21.0829 20.9927 20.9114 20.8385 20.7732 20.7146 20.6624 20.6162 20.5756 20.5402 20.5097 20.4839 20.4623 20.4448 20.4315 20.422 20.4164 20.4145 76.0025 76.1766 76.7067 77.5908 78.8275 80.4195 82.371 84.6858 87.3664 90.414 93.8291 97.597 101.692 106.09 110.769 115.713 120.901 126.168 131.142 135.436 138.791 141.185 142.627 143.198 143.18 142.888 142.54 141.961 140.874 139.023 136.249 132.433 127.495 121.711 115.542 109.429 103.51 97.7099 91.9505 86.2613 80.7771 75.6361 70.9014 66.5329 62.483 58.7205 55.2457 52.0628 49.1683 46.537 44.1399 41.9507 39.9534 38.1342 36.4795 34.9756 33.6089 32.3659 31.2364 30.2112 29.2816 28.4386 27.6734 26.9769 26.3427 25.7659 25.2422 24.7668 24.3354 23.9433 23.5867 23.2627 22.9688 22.7024 22.4607 22.2412 22.0416 21.8601 21.6955 21.5464 21.4115 21.2894 21.1788 21.0788 20.9886 20.9074 20.8346 20.7694 20.711 20.6589 20.6128 20.5722 20.5369 20.5066 20.4807 20.4592 20.4419 20.4286 20.4192 20.4136 20.4117 75.8014 75.9773 76.5164 77.4142 78.6678 80.2822 82.2652 84.6238 87.359 90.4683 93.9488 97.7929 101.989 106.525 111.377 116.507 121.876 127.333 132.568 137.265 141.185 144.246 146.385 147.651 148.404 149.058 149.881 150.563 150.649 149.701 147.395 143.445 137.651 130.525 122.951 115.766 109.151 102.813 96.4621 90.0753 83.899 78.1879 73.0486 68.3819 64.0736 60.0537 56.338 52.9516 49.9036 47.1573 44.6683 42.3974 40.3266 38.443 36.7335 35.1838 33.7789 32.5042 31.3484 30.3019 29.3549 28.4979 27.7211 27.0149 26.3724 25.7886 25.2589 24.7787 24.3433 23.948 23.5889 23.263 22.9676 22.7001 22.4576 22.2376 22.0374 21.8556 21.6907 21.5414 21.4064 21.2843 21.1737 21.0738 20.9837 20.9028 20.8302 20.7651 20.7069 20.655 20.609 20.5685 20.5334 20.5031 20.4774 20.4559 20.4387 20.4254 20.4161 20.4105 20.4086 75.4424 75.6199 76.1617 77.0646 78.3266 79.9528 81.951 84.3283 87.0864 90.2243 93.7405 97.6292 101.881 106.488 111.424 116.652 122.132 127.729 133.18 138.211 142.627 146.385 149.46 151.893 153.912 155.779 157.631 159.115 159.753 159.1 156.876 152.865 146.92 139.508 131.416 123.392 115.7 108.25 100.95 93.8406 87.094 80.8863 75.2852 70.2081 65.5614 61.2821 57.3653 53.8133 50.6178 47.7422 45.1448 42.7881 40.6498 38.7116 36.9555 35.3655 33.9263 32.6229 31.4434 30.3774 29.4147 28.545 27.7579 27.0432 26.3934 25.8036 25.269 24.7847 24.3461 23.9483 23.5872 23.2598 22.9634 22.6951 22.4522 22.2318 22.0314 21.8494 21.6844 21.5351 21.4001 21.2781 21.1677 21.068 20.9782 20.8975 20.8251 20.7603 20.7023 20.6506 20.6048 20.5645 20.5294 20.4993 20.4737 20.4524 20.4352 20.422 20.4127 20.4072 20.4053 74.9231 75.1019 75.6398 76.5389 77.8015 79.43 81.4273 83.7965 86.5438 89.677 93.2026 97.1104 101.378 105.983 110.91 116.15 121.693 127.423 133.076 138.381 143.198 147.651 151.893 155.998 159.831 163.216 165.953 167.739 168.243 167.187 164.589 160.574 155.266 148.758 141.132 132.49 123.231 113.967 105.296 97.4547 90.3088 83.7116 77.59 71.973 66.897 62.3625 58.3007 54.6348 51.3024 48.2812 45.556 43.1086 40.9104 38.9299 37.1377 35.5149 34.0468 32.7188 31.5188 30.4359 29.4595 28.5786 27.7825 27.0605 26.4047 25.81 25.2716 24.7844 24.3435 23.9439 23.5815 23.2531 22.956 22.6872 22.4441 22.2236 22.0232 21.8412 21.6764 21.5274 21.3926 21.2709 21.1608 21.0614 20.9719 20.8915 20.8194 20.7549 20.6972 20.6457 20.6001 20.56 20.5252 20.4952 20.4697 20.4485 20.4315 20.4184 20.4092 20.4037 20.4018 74.2476 74.4267 74.9562 75.8444 77.098 78.7167 80.6974 83.0387 85.7512 88.8519 92.3557 96.2476 100.491 105.051 109.92 115.122 120.678 126.497 132.33 137.916 143.18 148.404 153.912 159.831 165.742 171.135 175.524 178.517 179.749 178.936 176.278 172.149 166.877 160.354 152.257 142.318 131.122 119.864 109.717 101.053 93.4384 86.4102 79.7544 73.6018 68.1077 63.3291 59.1326 55.3629 51.9036 48.7464 45.9011 43.3691 41.1158 39.0981 37.2758 35.627 34.1363 32.7889 31.5723 30.4756 29.4875 28.5971 27.7934 27.0654 26.4049 25.8068 25.2659 24.777 24.3349 23.9345 23.5714 23.2426 22.9452 22.6763 22.4331 22.2128 22.0126 21.8311 21.6667 21.5181 21.3838 21.2626 21.1529 21.0539 20.9648 20.8848 20.8131 20.7489 20.6915 20.6403 20.595 20.5552 20.5206 20.4908 20.4655 20.4444 20.4275 20.4145 20.4053 20.3999 20.398 73.4211 73.5982 74.1178 74.99 76.2231 77.8164 79.7653 82.0671 84.7325 87.7794 91.2236 95.0529 99.2345 103.737 108.555 113.71 119.223 125.042 131.009 136.963 142.888 149.058 155.779 163.216 171.135 179.238 187.109 193.867 198.515 200.177 198.688 194.14 186.662 176.718 164.939 151.974 138.63 125.835 114.486 104.813 96.3694 88.6886 81.5381 75.0136 69.2342 64.2291 59.8523 55.9378 52.3604 49.1064 46.1817 43.5837 41.2771 39.2182 37.3662 35.6965 34.1905 32.83 31.6016 30.4943 29.4972 28.5991 27.7892 27.0566 26.3931 25.7931 25.2512 24.7619 24.3199 23.9198 23.5569 23.2281 22.9309 22.6621 22.4192 22.1992 21.9996 21.8186 21.655 21.5071 21.3736 21.2531 21.1441 21.0456 20.957 20.8774 20.8061 20.7423 20.6853 20.6344 20.5894 20.5499 20.5156 20.486 20.461 20.4401 20.4232 20.4103 20.4012 20.3958 20.3939 72.4498 72.6219 73.1321 73.985 75.1851 76.7353 78.6378 80.8951 83.5107 86.4882 89.8316 93.544 97.6283 102.086 106.9 112.031 117.442 123.137 129.178 135.633 142.54 149.881 157.631 165.953 175.524 187.109 200.933 215.05 226.972 234.376 235.893 230.499 217.503 199.097 178.959 160.6 145.079 131.692 119.713 108.796 98.9766 90.3071 82.7479 76.1345 70.2932 65.0864 60.4457 56.3109 52.6243 49.3357 46.3962 43.7609 41.4006 39.2906 37.4055 35.7194 34.2058 32.8393 31.6045 30.4905 29.487 28.5833 27.7689 27.0332 26.3682 25.768 25.2268 24.7388 24.2982 23.8994 23.5375 23.2095 22.9128 22.6445 22.4021 22.1827 21.9839 21.8039 21.6412 21.4944 21.362 21.2424 21.1342 21.0364 20.9484 20.8693 20.7984 20.735 20.6784 20.6279 20.5833 20.5442 20.5102 20.481 20.4561 20.4354 20.4187 20.4059 20.3968 20.3915 20.3896 71.3441 71.5089 72.0099 72.8407 73.9972 75.4896 77.3335 79.5415 82.1037 84.9988 88.2086 91.7615 95.7194 100.141 104.983 110.104 115.362 120.829 126.876 133.892 141.961 150.563 159.115 167.739 178.517 193.867 215.05 238.702 260.305 275.542 281.275 274.796 254.158 224.06 192.62 167.514 150.047 136.927 124.851 112.612 101.089 91.2421 83.3816 76.9197 71.2044 65.8315 60.8785 56.4783 52.6988 49.4298 46.5305 43.8847 41.4754 39.3105 37.3926 35.6952 34.1813 32.8155 31.5793 30.4627 29.4559 28.549 27.732 26.9952 26.3305 25.7317 25.1927 24.7074 24.2696 23.8731 23.513 23.1864 22.8907 22.6234 22.3818 22.1634 21.9656 21.7869 21.6255 21.4801 21.3489 21.2305 21.1233 21.0263 20.9389 20.8604 20.79 20.7271 20.6709 20.6209 20.5768 20.5381 20.5045 20.4756 20.451 20.4305 20.4139 20.4012 20.3922 20.3869 20.3851 70.1157 70.2716 70.7626 71.5682 72.6736 74.0983 75.8737 78.0257 80.5285 83.3298 86.3848 89.7515 93.5616 97.9405 102.816 107.921 112.988 118.157 124.136 131.669 140.874 150.649 159.753 168.243 179.749 198.515 226.972 260.305 291.885 315.316 325.544 318.003 289.359 247.004 203.853 172.079 153.177 140.946 129.191 115.757 102.524 91.5238 83.4843 77.3318 71.8634 66.3717 61.1115 56.4476 52.6003 49.3896 46.567 43.9333 41.486 39.2718 37.3267 35.6245 34.1167 32.7574 31.5248 30.4097 29.403 28.4957 27.6787 26.9428 26.2803 25.6846 25.1493 24.6679 24.2338 23.8406 23.4832 23.1586 22.8646 22.5987 22.3583 22.1412 21.9449 21.7677 21.6079 21.464 21.3344 21.2173 21.1112 21.0152 20.9286 20.8507 20.7809 20.7185 20.6628 20.6134 20.5697 20.5315 20.4984 20.4698 20.4456 20.4253 20.4088 20.3962 20.3873 20.382 20.3803 68.7763 68.9228 69.4018 70.179 71.2292 72.5804 74.2804 76.3676 78.801 81.4986 84.3897 87.5603 91.2094 95.5259 100.41 105.473 110.325 115.166 121.006 128.91 139.023 149.701 159.1 167.187 178.936 200.177 234.376 275.542 315.316 345.586 359.651 351.324 316.055 263.531 210.771 173.793 154.2 143.204 132.043 117.742 103.119 91.2023 83.1153 77.3391 72.1664 66.6143 61.107 56.2302 52.3487 49.218 46.4889 43.8846 41.4165 39.168 37.2069 35.5078 34.0119 32.664 31.4395 30.3301 29.3274 28.4231 27.6088 26.8763 26.218 25.6271 25.0967 24.6203 24.1909 23.8018 23.4477 23.126 22.8342 22.5703 22.3317 22.1163 21.9218 21.7464 21.5885 21.4464 21.3184 21.2028 21.098 21.0031 20.9174 20.8403 20.7711 20.7093 20.6542 20.6054 20.5623 20.5246 20.4919 20.4638 20.4398 20.4198 20.4035 20.391 20.3821 20.3769 20.3753 67.3397 67.4771 67.9403 68.6853 69.6799 70.9581 72.5781 74.5869 76.9336 79.517 82.2496 85.2362 88.7197 92.9312 97.7538 102.722 107.371 111.934 117.61 125.661 136.249 147.395 156.876 164.589 176.278 198.688 235.893 281.275 325.544 359.651 375.954 367.319 328.481 270.429 212.52 172.957 153.367 143.423 132.838 118.167 102.817 90.4432 82.4167 76.9459 72.0127 66.4661 60.8398 55.8603 51.9856 48.9301 46.2815 43.7139 41.248 38.9913 37.0319 35.3454 33.8666 32.5342 31.3222 30.2228 29.2281 28.3306 27.5225 26.7961 26.144 25.5594 25.0352 24.5646 24.1406 23.7564 23.4064 23.0881 22.7994 22.5381 22.302 22.0888 21.8965 21.7233 21.5674 21.4272 21.301 21.187 21.0836 20.9898 20.9052 20.829 20.7606 20.6996 20.6451 20.5969 20.5544 20.5173 20.485 20.4573 20.4337 20.4139 20.3979 20.3855 20.3768 20.3716 20.37 65.82 65.9501 66.391 67.0992 68.0424 69.2542 70.7923 72.7031 74.937 77.3944 79.9898 82.8278 86.1507 90.1888 94.8313 99.6264 104.122 108.552 114.098 122.004 132.433 143.445 152.865 160.574 172.149 194.14 230.499 274.796 318.003 351.324 367.319 359.034 321.337 264.92 208.623 170.163 151.116 141.421 131.051 116.665 101.604 89.4535 81.5604 76.169 71.3025 65.8339 60.2885 55.3806 51.56 48.5456 45.9311 43.3956 40.9605 38.7328 36.8001 35.1378 33.6806 32.3671 31.1715 30.0864 29.1043 28.2178 27.4196 26.7023 26.0587 25.4819 24.965 24.501 24.083 23.7041 23.3589 23.0449 22.76 22.5021 22.2691 22.0588 21.8691 21.6983 21.5446 21.4065 21.2821 21.1697 21.0679 20.9755 20.892 20.8168 20.7494 20.6892 20.6356 20.588 20.5462 20.5096 20.4778 20.4506 20.4273 20.4078 20.3919 20.3797 20.3711 20.3661 20.3645 64.2315 64.3568 64.7674 65.4335 66.333 67.4904 68.9469 70.736 72.8243 75.1434 77.6351 80.3788 83.5536 87.3299 91.6359 96.1575 100.581 105.097 110.596 118.013 127.495 137.651 146.92 155.266 166.877 186.662 217.503 254.158 289.359 316.055 328.481 321.337 290.729 245.002 198.803 165.922 147.822 137.082 126.299 112.966 99.4768 88.3998 80.6833 75.0249 69.9617 64.6482 59.4388 54.8253 51.1112 48.0804 45.4276 42.9106 40.5393 38.3866 36.5108 34.8855 33.4537 32.1617 30.9864 29.92 28.9551 28.0844 27.3002 26.5953 25.9625 25.395 24.8862 24.4294 24.0178 23.6447 23.305 22.9961 22.7159 22.4623 22.2331 22.0263 21.8396 21.6715 21.5203 21.3842 21.2617 21.1511 21.0508 20.9599 20.8778 20.8038 20.7376 20.6783 20.6256 20.5788 20.5376 20.5015 20.4703 20.4434 20.4205 20.4013 20.3857 20.3737 20.3653 20.3603 20.3587 62.588 62.7099 63.0857 63.7066 64.5669 65.6767 67.0517 68.7052 70.6286 72.8016 75.208 77.8871 80.9179 84.3763 88.248 92.4277 96.8117 101.522 106.995 113.686 121.711 130.525 139.508 148.758 160.354 176.718 199.097 224.06 247.004 263.531 270.429 264.92 245.002 215.45 184.523 160.034 143.282 130.875 119.414 107.662 96.5512 87.0924 79.619 73.5253 68.1383 63.0447 58.3352 54.158 50.5914 47.5201 44.7953 42.2964 40.0144 37.9683 36.1701 34.5911 33.1881 31.9204 30.7688 29.7253 28.7821 27.9313 27.1651 26.4756 25.8556 25.2989 24.7992 24.3501 23.9454 23.5787 23.2451 22.942 22.6673 22.4187 22.1942 21.9914 21.8082 21.6431 21.4944 21.3606 21.24 21.1312 21.0325 20.9432 20.8626 20.79 20.725 20.6669 20.6151 20.5691 20.5286 20.4931 20.4624 20.4359 20.4134 20.3945 20.3793 20.3675 20.3592 20.3543 20.3528 60.9028 61.0211 61.3632 61.9394 62.7582 63.817 65.1093 66.6305 68.3933 70.4197 72.73 75.3272 78.2016 81.3452 84.7925 88.6212 92.9104 97.7165 103.065 108.979 115.542 122.951 131.416 141.132 152.257 164.939 178.959 192.62 203.853 210.771 212.52 208.623 198.803 184.523 168.142 151.936 137 123.571 111.856 101.783 93.0039 85.1581 78.0444 71.6793 66.0948 61.2651 57.0523 53.3058 49.9083 46.8347 44.076 41.6195 39.4391 37.505 35.7877 34.2579 32.8868 31.6465 30.5223 29.5055 28.5877 27.7604 27.0152 26.3435 25.7384 25.1939 24.7042 24.2637 23.8664 23.5066 23.1798 22.8832 22.6146 22.3718 22.1524 21.9541 21.7748 21.613 21.467 21.3355 21.217 21.11 21.0131 20.9255 20.8465 20.7755 20.7118 20.6549 20.6042 20.5591 20.5193 20.4844 20.4541 20.4281 20.406 20.3875 20.3725 20.361 20.3529 20.3481 20.3466 59.1895 59.3017 59.6171 60.1526 60.9213 61.9163 63.1232 64.5311 66.16 68.0461 70.2221 72.6769 75.3675 78.2542 81.3883 84.9123 88.9697 93.5816 98.5994 103.864 109.429 115.766 123.392 132.49 142.318 151.974 160.6 167.514 172.079 173.793 172.957 170.163 165.922 160.034 151.936 141.16 128.553 115.914 105.007 96.309 89.011 82.2577 75.6647 69.5001 64.0788 59.5368 55.6621 52.2027 48.977 45.9974 43.3093 40.9424 38.863 37.0218 35.3728 33.8895 32.5526 31.3438 30.2505 29.2638 28.3744 27.5734 26.8515 26.1998 25.611 25.08 24.6015 24.1704 23.7813 23.4292 23.1097 22.8202 22.5583 22.3217 22.1079 21.9146 21.7395 21.5811 21.438 21.309 21.1927 21.0877 20.9927 20.9069 20.8296 20.7602 20.698 20.6424 20.5928 20.5486 20.5096 20.4753 20.4456 20.42 20.3983 20.3802 20.3656 20.3543 20.3464 20.3417 20.3401 57.4604 57.564 57.8597 58.3586 59.0696 59.9891 61.1087 62.4225 63.944 65.6972 67.704 69.9603 72.4433 75.1321 78.0635 81.3323 85.0337 89.1844 93.6915 98.4554 103.51 109.151 115.7 123.231 131.122 138.63 145.079 150.047 153.177 154.2 153.367 151.116 147.822 143.282 137 128.553 118.536 108.285 99.1088 91.4202 84.7344 78.5336 72.5852 67.0523 62.1264 57.8863 54.1919 50.8782 47.8235 45.0262 42.5052 40.2694 38.2878 36.5195 34.9263 33.4876 32.1888 31.0156 29.957 29.0032 28.1447 27.3719 26.6751 26.0448 25.4738 24.9576 24.4914 24.0706 23.6907 23.3469 23.0354 22.7535 22.4988 22.2687 22.0609 21.8727 21.7021 21.5474 21.4075 21.2812 21.1672 21.0644 20.9714 20.8875 20.8121 20.7443 20.6837 20.6295 20.581 20.5378 20.4995 20.4659 20.4368 20.4117 20.3904 20.3727 20.3584 20.3474 20.3397 20.3351 20.3335 55.7267 55.8207 56.0995 56.5643 57.2161 58.0571 59.09 60.3173 61.7417 63.3663 65.1942 67.2354 69.5043 72.0154 74.7806 77.8095 81.1118 84.7114 88.6521 92.9787 97.7099 102.813 108.25 113.967 119.864 125.835 131.692 136.927 140.946 143.204 143.423 141.421 137.082 130.875 123.571 115.914 108.285 100.804 93.5833 86.726 80.3258 74.4746 69.1996 64.4381 60.1208 56.1946 52.6375 49.431 46.553 43.9714 41.6521 39.5633 37.6803 35.9809 34.4435 33.0534 31.7982 30.6657 29.6452 28.727 27.9011 27.1577 26.4869 25.879 25.327 24.8268 24.3741 23.9649 23.595 23.2605 22.9576 22.6838 22.4365 22.2132 22.0115 21.8287 21.6626 21.5119 21.3755 21.2521 21.1407 21.0401 20.9493 20.8675 20.7939 20.7279 20.6688 20.616 20.5687 20.5265 20.4891 20.4562 20.4276 20.4031 20.3822 20.3649 20.351 20.3403 20.3328 20.3283 20.3268 53.9999 54.0844 54.3452 54.7764 55.3735 56.1419 57.0908 58.2279 59.5496 61.0465 62.711 64.5593 66.625 68.9405 71.5027 74.2731 77.2131 80.3475 83.7886 87.6546 91.9505 96.4621 100.95 105.296 109.717 114.486 119.713 124.851 129.191 132.043 132.838 131.051 126.299 119.414 111.856 105.007 99.1088 93.5833 87.8549 81.8374 75.9341 70.5642 65.8976 61.7587 57.9469 54.3446 50.9947 47.9588 45.2699 42.8828 40.7388 38.7871 37.008 35.3894 33.9196 32.5878 31.3839 30.2975 29.3188 28.4382 27.646 26.9325 26.288 25.703 25.1709 24.6877 24.2498 23.8535 23.495 23.1705 22.8769 22.6115 22.3719 22.1555 21.9598 21.7825 21.6212 21.4747 21.3419 21.2217 21.1131 21.0151 20.9267 20.8469 20.7753 20.711 20.6535 20.602 20.5559 20.5148 20.4783 20.4462 20.4183 20.3943 20.3739 20.357 20.3435 20.3331 20.3257 20.3214 20.3198 52.2894 52.3651 52.6056 53.0031 53.5519 54.2565 55.1254 56.1659 57.3752 58.7451 60.2689 61.9584 63.8381 65.9322 68.2379 70.7261 73.3673 76.175 79.2227 82.5871 86.2613 90.0753 93.8406 97.4547 101.053 104.813 108.796 112.612 115.757 117.742 118.167 116.665 112.966 107.662 101.783 96.309 91.4202 86.726 81.8374 76.7123 71.6553 66.9818 62.8277 59.0797 55.6063 52.3308 49.2826 46.5032 44.0145 41.7844 39.7717 37.9394 36.2689 34.7462 33.3579 32.0949 30.9496 29.9143 28.9806 28.1393 27.3814 26.6979 26.0798 25.518 25.0064 24.5413 24.1194 23.7371 23.391 23.0776 22.7938 22.5371 22.3052 22.0957 21.9062 21.7343 21.5779 21.4357 21.3068 21.1901 21.0847 20.9894 20.9034 20.8259 20.7562 20.6937 20.6377 20.5876 20.5427 20.5026 20.4671 20.4359 20.4087 20.3853 20.3654 20.349 20.3357 20.3256 20.3185 20.3142 20.3127 50.6027 50.6707 50.8899 51.2541 51.7586 52.4053 53.1984 54.142 55.2369 56.4827 57.8789 59.4281 61.1349 63.004 65.0396 67.2451 69.6237 72.1746 74.8904 77.7633 80.7771 83.899 87.094 90.3088 93.4384 96.3694 98.9766 101.089 102.524 103.119 102.817 101.604 99.4768 96.5512 93.0039 89.011 84.7344 80.3258 75.9341 71.6553 67.5314 63.6023 59.8973 56.4312 53.2175 50.26 47.5431 45.0494 42.763 40.6744 38.7747 37.0534 35.492 34.0704 32.7698 31.5814 30.4998 29.5193 28.6328 27.8321 27.1091 26.4557 25.8639 25.3255 24.835 24.3889 23.9838 23.6165 23.2837 22.9819 22.7084 22.4607 22.2367 22.0341 21.8508 21.6844 21.533 21.3954 21.2705 21.1576 21.0554 20.9631 20.8797 20.8044 20.7367 20.676 20.6215 20.5728 20.5291 20.4902 20.4556 20.4253 20.3988 20.3761 20.3568 20.3408 20.3279 20.318 20.3111 20.3069 20.3054 48.947 49.0087 49.2073 49.5391 50.0009 50.5924 51.314 52.1666 53.1538 54.2806 55.5515 56.9628 58.5049 60.169 61.9624 63.909 66.0326 68.3226 70.7208 73.1658 75.6361 78.1879 80.8863 83.7116 86.4102 88.6886 90.3071 91.2421 91.5238 91.2023 90.4432 89.4535 88.3998 87.0924 85.1581 82.2577 78.5336 74.4746 70.5642 66.9818 63.6023 60.29 57.005 53.8414 50.9023 48.2421 45.819 43.5807 41.4895 39.5497 37.7726 36.1638 34.7074 33.3817 32.167 31.0545 30.0391 29.1155 28.2776 27.5183 26.8305 26.2075 25.642 25.1274 24.6584 24.2317 23.8442 23.4925 23.1735 22.884 22.6211 22.3826 22.1667 21.9711 21.7939 21.6331 21.4868 21.3538 21.2333 21.1241 21.0254 20.9362 20.8554 20.7825 20.7169 20.6579 20.605 20.5576 20.5152 20.4774 20.4439 20.4145 20.3888 20.3668 20.348 20.3325 20.3199 20.3103 20.3035 20.2995 20.2981 47.3292 47.3858 47.5654 47.866 48.2857 48.8232 49.4776 50.2482 51.1384 52.1533 53.2974 54.5665 55.9502 57.4387 59.0355 60.7579 62.623 64.6194 66.6954 68.7968 70.9014 73.0486 75.2852 77.59 79.7544 81.5381 82.7479 83.3816 83.4843 83.1153 82.4167 81.5604 80.6833 79.619 78.0444 75.6647 72.5852 69.1996 65.8976 62.8277 59.8973 57.005 54.1248 51.3352 48.7222 46.3327 44.1378 42.0998 40.1917 38.4161 36.781 35.2902 33.9326 32.6936 31.5591 30.5207 29.5718 28.706 27.9172 27.1996 26.5474 25.9548 25.416 24.9252 24.4781 24.0712 23.7016 23.3659 23.0612 22.7841 22.532 22.303 22.0952 21.9068 21.7359 21.5807 21.4396 21.3115 21.1952 21.09 20.9949 20.9087 20.8308 20.7602 20.6966 20.6395 20.5882 20.5422 20.5011 20.4644 20.432 20.4035 20.3786 20.3573 20.3391 20.324 20.3118 20.3024 20.2958 20.2919 20.2906 45.7553 45.8076 45.9697 46.2408 46.6197 47.1053 47.6966 48.3929 49.1953 50.1061 51.127 52.2564 53.4899 54.8229 56.2526 57.7773 59.3954 61.0983 62.8683 64.6867 66.5329 68.3819 70.2081 71.973 73.6018 75.0136 76.1345 76.9197 77.3318 77.3391 76.9459 76.169 75.0249 73.5253 71.6793 69.5001 67.0523 64.4381 61.7587 59.0797 56.4312 53.8414 51.3352 48.9328 46.6539 44.5116 42.5062 40.6364 38.8998 37.2908 35.8031 34.4307 33.1684 32.0109 30.9528 29.9862 29.1026 28.2938 27.5537 26.8778 26.2612 25.6993 25.1874 24.7208 24.2957 23.9088 23.5571 23.2376 22.9471 22.6827 22.4416 22.2221 22.0226 21.8414 21.677 21.5276 21.3918 21.2684 21.1567 21.0554 20.9638 20.8809 20.8057 20.7376 20.6761 20.6208 20.5711 20.5266 20.4868 20.4513 20.4199 20.3923 20.3683 20.3477 20.3301 20.3154 20.3036 20.2945 20.2881 20.2843 20.283 44.2312 44.2794 44.4255 44.669 45.0093 45.446 45.9785 46.6062 47.3282 48.1434 49.0509 50.0508 51.144 52.3313 53.605 54.9492 56.3479 57.7951 59.2987 60.8675 62.483 64.0736 65.5614 66.897 68.1077 69.2342 70.2932 71.2044 71.8634 72.1664 72.0127 71.3025 69.9617 68.1383 66.0948 64.0788 62.1264 60.1208 57.9469 55.6063 53.2175 50.9023 48.7222 46.6539 44.6682 42.7529 40.9293 39.2222 37.6468 36.1918 34.8413 33.5824 32.414 31.3378 30.3544 29.457 28.6359 27.8819 27.1895 26.5546 25.9737 25.4427 24.9581 24.5159 24.1127 23.7457 23.4119 23.1083 22.832 22.58 22.3498 22.14 21.949 21.7753 21.6174 21.474 21.3435 21.2251 21.1177 21.0205 20.9324 20.8526 20.7802 20.7146 20.6553 20.6018 20.5538 20.5108 20.4723 20.438 20.4077 20.3811 20.3579 20.3379 20.321 20.3068 20.2953 20.2865 20.2802 20.2765 20.2753 42.7613 42.8054 42.9366 43.1548 43.4596 43.851 44.3287 44.8923 45.5398 46.2683 47.0751 47.9601 48.9248 49.9704 51.0892 52.2647 53.4799 54.7282 56.0166 57.353 58.7205 60.0537 61.2821 62.3625 63.3291 64.2291 65.0864 65.8315 66.3717 66.6143 66.4661 65.8339 64.6482 63.0447 61.2651 59.5368 57.8863 56.1946 54.3446 52.3308 50.26 48.2421 46.3327 44.5116 42.7529 41.0467 39.4134 37.8771 36.453 35.1317 33.8996 32.746 31.6711 30.6783 29.7692 28.9378 28.1753 27.4732 26.8264 26.2319 25.6863 25.1865 24.7294 24.3117 23.9306 23.5832 23.2668 22.9787 22.7162 22.4764 22.2572 22.0571 21.8746 21.7086 21.5575 21.4202 21.2952 21.1816 21.0786 20.9853 20.9007 20.8241 20.7544 20.6913 20.6342 20.5827 20.5364 20.4949 20.4578 20.4247 20.3955 20.3698 20.3474 20.3281 20.3117 20.298 20.2869 20.2784 20.2723 20.2688 20.2676 41.3472 41.3872 41.5047 41.6996 41.972 42.3216 42.7485 43.2524 43.8308 44.4803 45.1975 45.9805 46.8286 47.7412 48.7127 49.7333 50.7931 51.8829 52.9949 54.121 55.2457 56.338 57.3653 58.3007 59.1326 59.8523 60.4457 60.8785 61.1115 61.107 60.8398 60.2885 59.4388 58.3352 57.0523 55.6621 54.1919 52.6375 50.9947 49.2826 47.5431 45.819 44.1378 42.5062 40.9293 39.4134 37.9671 36.5992 35.3153 34.1122 32.9849 31.9296 30.9463 30.0361 29.1992 28.4304 27.7228 27.0696 26.4667 25.9113 25.4006 24.9319 24.5023 24.1092 23.7498 23.4217 23.1224 22.8494 22.6003 22.3726 22.1642 21.9737 21.8 21.6416 21.4975 21.3663 21.2468 21.1381 21.0395 20.95 20.8689 20.7953 20.7285 20.6678 20.6129 20.5634 20.5189 20.479 20.4432 20.4114 20.3832 20.3584 20.3368 20.3182 20.3024 20.2892 20.2785 20.2702 20.2644 20.261 20.2599 39.9901 40.0261 40.1311 40.3048 40.5474 40.8587 41.2387 41.6873 42.2018 42.7788 43.4146 44.1061 44.8502 45.6438 46.4837 47.3667 48.2893 49.2408 50.2001 51.1456 52.0628 52.9516 53.8133 54.6348 55.3629 55.9378 56.3109 56.4783 56.4476 56.2302 55.8603 55.3806 54.8253 54.158 53.3058 52.2027 50.8782 49.431 47.9588 46.5032 45.0494 43.5807 42.0998 40.6364 39.2222 37.8771 36.5992 35.3837 34.2279 33.1339 32.1046 31.1424 30.2465 29.4151 28.6463 27.9362 27.28 26.6731 26.1121 25.5947 25.1182 24.6801 24.2778 23.9089 23.5709 23.2617 22.9791 22.7209 22.4849 22.269 22.0712 21.8904 21.7253 21.5747 21.4375 21.3125 21.1985 21.0947 21.0004 20.9148 20.837 20.7665 20.7024 20.6442 20.5915 20.5441 20.5013 20.463 20.4286 20.398 20.3709 20.347 20.3262 20.3083 20.293 20.2803 20.27 20.2621 20.2565 20.2532 20.2521 38.6914 38.7236 38.8169 38.9714 39.1868 39.4632 39.8003 40.1978 40.6534 41.1635 41.7246 42.3331 42.9852 43.6774 44.4066 45.1707 45.9674 46.7863 47.6061 48.4043 49.1683 49.9036 50.6178 51.3024 51.9036 52.3604 52.6243 52.6988 52.6003 52.3487 51.9856 51.56 51.1112 50.5914 49.9083 48.977 47.8235 46.553 45.2699 44.0145 42.763 41.4895 40.1917 38.8998 37.6468 36.453 35.3153 34.2279 33.1874 32.1979 31.2646 30.3914 29.5768 28.818 28.1122 27.4567 26.8487 26.2856 25.7648 25.2839 24.8406 24.4323 24.0568 23.7116 23.3946 23.1038 22.8374 22.5936 22.3704 22.166 21.9788 21.8075 21.651 21.5081 21.3779 21.259 21.1505 21.0515 20.9614 20.8796 20.8052 20.7377 20.6763 20.6206 20.5702 20.5247 20.4838 20.447 20.4141 20.3846 20.3585 20.3356 20.3156 20.2983 20.2837 20.2714 20.2615 20.2539 20.2485 20.2453 20.2443 37.4522 37.4808 37.5636 37.7006 37.8915 38.136 38.4339 38.7849 39.1865 39.6354 40.1282 40.6617 41.2326 41.8378 42.4734 43.1349 43.8176 44.5128 45.2068 45.8852 46.537 47.1573 47.7422 48.2812 48.7464 49.1064 49.3357 49.4298 49.3896 49.218 48.9301 48.5456 48.0804 47.5201 46.8347 45.9974 45.0262 43.9714 42.8828 41.7844 40.6744 39.5497 38.4161 37.2908 36.1918 35.1317 34.1122 33.1339 32.1979 31.3076 30.4664 29.6769 28.9374 28.2452 27.5975 26.993 26.4306 25.9091 25.4266 24.9808 24.5693 24.1899 23.8402 23.518 23.2212 22.9484 22.6979 22.4681 22.2574 22.0643 21.8873 21.7254 21.5773 21.4421 21.3187 21.2059 21.1027 21.0086 20.9227 20.8446 20.7736 20.709 20.6503 20.5971 20.5489 20.5054 20.4663 20.4311 20.3995 20.3713 20.3463 20.3242 20.305 20.2884 20.2743 20.2625 20.253 20.2457 20.2406 20.2375 20.2365 36.2739 36.2991 36.3724 36.4936 36.6622 36.878 37.1406 37.4495 37.8023 38.1958 38.627 39.0931 39.5918 40.1205 40.6745 41.2463 41.8287 42.415 42.9998 43.5779 44.1399 44.6683 45.1448 45.556 45.9011 46.1817 46.3962 46.5305 46.567 46.4889 46.2815 45.9311 45.4276 44.7953 44.076 43.3093 42.5052 41.6521 40.7388 39.7717 38.7747 37.7726 36.781 35.8031 34.8413 33.8996 32.9849 32.1046 31.2646 30.4664 29.7109 28.9986 28.3278 27.6965 27.1029 26.5465 26.0275 25.5457 25.0996 24.6871 24.3059 23.9539 23.6289 23.3287 23.0515 22.7961 22.5609 22.3448 22.1464 21.9643 21.7974 21.6446 21.5048 21.377 21.2602 21.1533 21.0555 20.966 20.8843 20.8099 20.7422 20.6806 20.6246 20.5738 20.5278 20.4863 20.4489 20.4152 20.385 20.358 20.334 20.3129 20.2944 20.2785 20.265 20.2537 20.2446 20.2376 20.2326 20.2297 20.2287 35.1573 35.1794 35.2441 35.3511 35.4997 35.6897 35.9206 36.1917 36.5008 36.8451 37.2215 37.6276 38.0614 38.5208 39.0008 39.4933 39.9903 40.4865 40.9805 41.4713 41.9507 42.3974 42.7881 43.1086 43.3691 43.5837 43.7609 43.8847 43.9333 43.8846 43.7139 43.3956 42.9106 42.2964 41.6195 40.9424 40.2694 39.5633 38.7871 37.9394 37.0534 36.1638 35.2902 34.4307 33.5824 32.746 31.9296 31.1424 30.3914 29.6769 28.9986 28.3557 27.7472 27.1719 26.6288 26.1182 25.6407 25.1968 24.7854 24.4043 24.0517 23.7255 23.4238 23.1444 22.886 22.6472 22.427 22.2243 22.0378 21.8666 21.7094 21.5654 21.4335 21.3129 21.2025 21.1014 21.0087 20.9239 20.8463 20.7756 20.7111 20.6525 20.5992 20.5507 20.5069 20.4673 20.4316 20.3995 20.3707 20.3448 20.3219 20.3016 20.2839 20.2687 20.2557 20.2449 20.2362 20.2295 20.2248 20.2219 20.221 34.1011 34.1205 34.1775 34.2716 34.4024 34.5693 34.7719 35.0094 35.2797 35.5803 35.9082 36.2611 36.6372 37.0341 37.4473 37.8699 38.2946 38.717 39.1358 39.5503 39.9534 40.3266 40.6498 40.9104 41.1158 41.2771 41.4006 41.4754 41.486 41.4165 41.248 40.9605 40.5393 40.0144 39.4391 38.863 38.2878 37.6803 37.008 36.2689 35.492 34.7074 33.9326 33.1684 32.414 31.6711 30.9463 30.2465 29.5768 28.9374 28.3278 27.7472 27.1953 26.6715 26.1758 25.7086 25.2708 24.863 24.4842 24.1329 23.8071 23.5051 23.2252 22.9656 22.7249 22.5022 22.2964 22.1067 21.9319 21.7712 21.6235 21.488 21.3639 21.2501 21.1459 21.0504 20.9627 20.8824 20.8089 20.7417 20.6806 20.6248 20.5741 20.528 20.4863 20.4485 20.4145 20.3839 20.3564 20.3317 20.3098 20.2904 20.2735 20.259 20.2465 20.2362 20.2279 20.2214 20.2169 20.2142 20.2133 33.1039 33.1207 33.1708 33.2535 33.3684 33.5147 33.6921 33.8997 34.1357 34.3976 34.6827 34.9889 35.3139 35.6555 36.0097 36.3712 36.7344 37.0951 37.4508 37.7992 38.1342 38.443 38.7116 38.9299 39.0981 39.2182 39.2906 39.3105 39.2718 39.168 38.9913 38.7328 38.3866 37.9683 37.505 37.0218 36.5195 35.9809 35.3894 34.7462 34.0704 33.3817 32.6936 32.0109 31.3378 30.6783 30.0361 29.4151 28.818 28.2452 27.6965 27.1719 26.6715 26.1955 25.7441 25.318 24.9177 24.5441 24.1963 23.8728 23.5721 23.2928 23.0334 22.7924 22.5687 22.3614 22.1695 21.9923 21.8289 21.6783 21.5398 21.4126 21.2958 21.1887 21.0905 21.0003 20.9175 20.8415 20.772 20.7084 20.6505 20.5976 20.5494 20.5057 20.466 20.4301 20.3977 20.3685 20.3423 20.3188 20.2978 20.2794 20.2633 20.2493 20.2375 20.2276 20.2196 20.2135 20.2092 20.2066 20.2057 32.1639 32.1785 32.2224 32.295 32.3956 32.5236 32.6786 32.8598 33.0655 33.2932 33.5408 33.8059 34.0864 34.38 34.6834 34.9924 35.3024 35.6097 35.9108 36.2024 36.4795 36.7335 36.9555 37.1377 37.2758 37.3662 37.4055 37.3926 37.3267 37.2069 37.0319 36.8001 36.5108 36.1701 35.7877 35.3728 34.9263 34.4435 33.9196 33.3579 32.7698 32.167 31.5591 30.9528 30.3544 29.7692 29.1992 28.6463 28.1122 27.5975 27.1029 26.6288 26.1758 25.7441 25.3342 24.9466 24.5818 24.2403 23.9215 23.6241 23.3469 23.0889 22.8488 22.6254 22.4178 22.2251 22.0465 21.8814 21.7289 21.5881 21.4585 21.3392 21.2295 21.1288 21.0363 20.9513 20.8732 20.8015 20.7358 20.6758 20.6209 20.5709 20.5252 20.4837 20.446 20.4119 20.3811 20.3533 20.3283 20.306 20.286 20.2685 20.2531 20.2398 20.2285 20.2191 20.2115 20.2056 20.2015 20.199 20.1982 31.2795 31.2922 31.3306 31.3941 31.482 31.5939 31.7291 31.8869 32.0657 32.2635 32.478 32.7073 32.9491 33.2014 33.4613 33.7251 33.9892 34.2498 34.5036 34.747 34.9756 35.1838 35.3655 35.5149 35.627 35.6965 35.7194 35.6952 35.6245 35.5078 35.3454 35.1378 34.8855 34.5911 34.2579 33.8895 33.4876 33.0534 32.5878 32.0949 31.5814 31.0545 30.5207 29.9862 29.457 28.9378 28.4304 27.9362 27.4567 26.993 26.5465 26.1182 25.7086 25.318 24.9466 24.5949 24.2632 23.9516 23.6598 23.3868 23.1317 22.8936 22.6716 22.4648 22.2724 22.0936 21.9278 21.7742 21.6321 21.5008 21.3796 21.2679 21.1651 21.0705 20.9835 20.9035 20.83 20.7624 20.7005 20.6438 20.592 20.5447 20.5015 20.4622 20.4264 20.394 20.3648 20.3384 20.3146 20.2934 20.2744 20.2577 20.2431 20.2304 20.2197 20.2107 20.2034 20.1978 20.1939 20.1915 20.1907 30.4491 30.4602 30.4937 30.5491 30.6258 30.7232 30.8409 30.9781 31.1333 31.3046 31.4902 31.688 31.8962 32.1129 32.3353 32.5604 32.7847 33.005 33.2181 33.4206 33.6089 33.7789 33.9263 34.0468 34.1363 34.1905 34.2058 34.1813 34.1167 34.0119 33.8666 33.6806 33.4537 33.1881 32.8868 32.5526 32.1888 31.7982 31.3839 30.9496 30.4998 30.0391 29.5718 29.1026 28.6359 28.1753 27.7228 27.28 26.8487 26.4306 26.0275 25.6407 25.2708 24.9177 24.5818 24.2632 23.9619 23.6781 23.4114 23.1611 22.9266 22.7071 22.5022 22.311 22.1329 21.9673 21.8135 21.6708 21.5387 21.4164 21.3033 21.1989 21.1026 21.0139 20.9322 20.8571 20.7879 20.7243 20.666 20.6126 20.5638 20.5191 20.4783 20.4411 20.4072 20.3765 20.3488 20.3237 20.3012 20.281 20.263 20.2471 20.2332 20.2212 20.211 20.2024 20.1955 20.1902 20.1864 20.1842 20.1834 29.6712 29.6807 29.7099 29.7581 29.8248 29.9095 30.0116 30.1305 30.2649 30.4129 30.573 30.7433 30.9221 31.1077 31.2977 31.4892 31.6793 31.8649 32.0433 32.2113 32.3659 32.5042 32.6229 32.7188 32.7889 32.83 32.8393 32.8155 32.7574 32.664 32.5342 32.3671 32.1617 31.9204 31.6465 31.3438 31.0156 30.6657 30.2975 29.9143 29.5193 29.1155 28.706 28.2938 27.8819 27.4732 27.0696 26.6731 26.2856 25.9091 25.5457 25.1968 24.863 24.5441 24.2403 23.9516 23.6781 23.4197 23.1761 22.9469 22.7316 22.5297 22.3407 22.1642 21.9996 21.8464 21.704 21.5717 21.4489 21.3351 21.2297 21.1322 21.0422 20.9592 20.8826 20.8121 20.7471 20.6874 20.6326 20.5823 20.5363 20.4942 20.4557 20.4205 20.3885 20.3594 20.3331 20.3094 20.288 20.2689 20.2518 20.2367 20.2236 20.2122 20.2024 20.1943 20.1877 20.1826 20.1791 20.1769 20.1762 28.9435 28.9517 28.9771 29.0189 29.0768 29.1502 29.2385 29.3413 29.4573 29.5849 29.7225 29.8687 30.0219 30.1804 30.3423 30.5048 30.6655 30.8215 30.9705 31.1096 31.2364 31.3484 31.4434 31.5188 31.5723 31.6016 31.6045 31.5793 31.5248 31.4395 31.3222 31.1715 30.9864 30.7688 30.5223 30.2505 29.957 29.6452 29.3188 28.9806 28.6328 28.2776 27.9172 27.5537 27.1895 26.8264 26.4667 26.1121 25.7648 25.4266 25.0996 24.7854 24.4842 24.1963 23.9215 23.6598 23.4114 23.1761 22.9538 22.7441 22.5466 22.3611 22.1872 22.0245 21.8727 21.7311 21.5993 21.4767 21.3627 21.257 21.1589 21.068 20.984 20.9063 20.8347 20.7686 20.7077 20.6516 20.6001 20.5529 20.5096 20.4699 20.4336 20.4004 20.3702 20.3428 20.3179 20.2954 20.2752 20.257 20.2409 20.2266 20.2141 20.2033 20.194 20.1863 20.1801 20.1752 20.1718 20.1698 20.1691 28.2638 28.2709 28.2929 28.3291 28.3792 28.4426 28.5189 28.6075 28.7073 28.817 28.9351 29.0603 29.1912 29.3263 29.4639 29.6015 29.737 29.868 29.9923 30.1074 30.2112 30.3019 30.3774 30.4359 30.4756 30.4943 30.4905 30.4627 30.4097 30.3301 30.2228 30.0864 29.92 29.7253 29.5055 29.2638 29.0032 28.727 28.4382 28.1393 27.8321 27.5183 27.1996 26.8778 26.5546 26.2319 25.9113 25.5947 25.2839 24.9808 24.6871 24.4043 24.1329 23.8728 23.6241 23.3868 23.1611 22.9469 22.7441 22.5524 22.3716 22.2014 22.0416 21.8919 21.7519 21.6212 21.4993 21.3858 21.2802 21.182 21.0908 21.0062 20.9279 20.8554 20.7885 20.7266 20.6696 20.6171 20.5688 20.5244 20.4837 20.4464 20.4122 20.3809 20.3524 20.3265 20.303 20.2818 20.2627 20.2455 20.2302 20.2167 20.2048 20.1946 20.1858 20.1785 20.1726 20.168 20.1648 20.1629 20.1622 27.6298 27.636 27.655 27.6863 27.7295 27.7842 27.8498 27.9261 28.0118 28.1059 28.2071 28.3141 28.4257 28.5406 28.6573 28.7737 28.8878 28.9977 29.1012 29.1965 29.2816 29.3549 29.4147 29.4595 29.4875 29.4972 29.487 29.4559 29.403 29.3274 29.2281 29.1043 28.9551 28.7821 28.5877 28.3744 28.1447 27.9011 27.646 27.3814 27.1091 26.8305 26.5474 26.2612 25.9737 25.6863 25.4006 25.1182 24.8406 24.5693 24.3059 24.0517 23.8071 23.5721 23.3469 23.1317 22.9266 22.7316 22.5466 22.3716 22.2062 22.0503 21.9036 21.766 21.6372 21.5167 21.4041 21.2991 21.2013 21.1103 21.0256 20.9469 20.874 20.8065 20.744 20.6862 20.6329 20.5837 20.5385 20.4968 20.4586 20.4236 20.3914 20.362 20.3352 20.3107 20.2886 20.2686 20.2505 20.2343 20.2198 20.207 20.1958 20.1861 20.1778 20.1709 20.1653 20.1609 20.1579 20.156 20.1554 27.0393 27.0447 27.061 27.088 27.1252 27.1722 27.2287 27.2941 27.3677 27.4482 27.5347 27.6259 27.7209 27.8185 27.9173 28.0156 28.1116 28.2036 28.2899 28.3688 28.4386 28.4979 28.545 28.5786 28.5971 28.5991 28.5833 28.549 28.4957 28.4231 28.3306 28.2178 28.0844 27.9313 27.7604 27.5734 27.3719 27.1577 26.9325 26.6979 26.4557 26.2075 25.9548 25.6993 25.4427 25.1865 24.9319 24.6801 24.4323 24.1899 23.9539 23.7255 23.5051 23.2928 23.0889 22.8936 22.7071 22.5297 22.3611 22.2014 22.0503 21.9076 21.7732 21.6469 21.5284 21.4174 21.3136 21.2166 21.1261 21.0417 20.9632 20.8901 20.8223 20.7595 20.7013 20.6474 20.5976 20.5516 20.5092 20.4702 20.4344 20.4015 20.3713 20.3436 20.3184 20.2954 20.2746 20.2557 20.2386 20.2233 20.2097 20.1976 20.187 20.1778 20.17 20.1634 20.1581 20.154 20.1511 20.1494 20.1488 26.49 26.4946 26.5087 26.5319 26.5639 26.6042 26.6526 26.7087 26.7716 26.8404 26.9141 26.9918 27.0725 27.1552 27.2387 27.3215 27.4021 27.4791 27.5509 27.6162 27.6734 27.7211 27.7579 27.7825 27.7934 27.7892 27.7689 27.732 27.6787 27.6088 27.5225 27.4196 27.3002 27.1651 27.0152 26.8515 26.6751 26.4869 26.288 26.0798 25.8639 25.642 25.416 25.1874 24.9581 24.7294 24.5023 24.2778 24.0568 23.8402 23.6289 23.4238 23.2252 23.0334 22.8488 22.6716 22.5022 22.3407 22.1872 22.0416 21.9036 21.7732 21.6501 21.5343 21.4255 21.3233 21.2277 21.1381 21.0545 20.9764 20.9036 20.8359 20.773 20.7145 20.6603 20.6101 20.5637 20.5207 20.4811 20.4446 20.4111 20.3802 20.3519 20.3259 20.3022 20.2806 20.261 20.2432 20.2272 20.2127 20.1998 20.1884 20.1784 20.1698 20.1624 20.1562 20.1511 20.1473 20.1445 20.1429 20.1424 25.9795 25.9835 25.9956 26.0155 26.0429 26.0775 26.1189 26.1668 26.2204 26.2791 26.3418 26.4078 26.4762 26.546 26.6163 26.6859 26.7533 26.8174 26.8769 26.9305 26.9769 27.0149 27.0432 27.0605 27.0654 27.0566 27.0332 26.9952 26.9428 26.8763 26.7961 26.7023 26.5953 26.4756 26.3435 26.1998 26.0448 25.879 25.703 25.518 25.3255 25.1274 24.9252 24.7208 24.5159 24.3117 24.1092 23.9089 23.7116 23.518 23.3287 23.1444 22.9656 22.7924 22.6254 22.4648 22.311 22.1642 22.0245 21.8919 21.766 21.6469 21.5343 21.4282 21.3283 21.2344 21.1463 21.0637 20.9865 20.9143 20.847 20.7842 20.7258 20.6716 20.6212 20.5745 20.5312 20.4911 20.4541 20.42 20.3886 20.3597 20.3332 20.3088 20.2866 20.2663 20.2478 20.2311 20.216 20.2024 20.1903 20.1796 20.1701 20.1619 20.155 20.1491 20.1444 20.1407 20.1381 20.1366 20.1361 25.5058 25.5092 25.5196 25.5366 25.56 25.5895 25.6249 25.6657 25.7114 25.7612 25.8145 25.8703 25.928 25.9868 26.0458 26.1039 26.16 26.213 26.2619 26.3054 26.3427 26.3724 26.3934 26.4047 26.4049 26.3931 26.3682 26.3305 26.2803 26.218 26.144 26.0587 25.9625 25.8556 25.7384 25.611 25.4738 25.327 25.1709 25.0064 24.835 24.6584 24.4781 24.2957 24.1127 23.9306 23.7498 23.5709 23.3946 23.2212 23.0515 22.886 22.7249 22.5687 22.4178 22.2724 22.1329 21.9996 21.8727 21.7519 21.6372 21.5284 21.4255 21.3283 21.2366 21.1504 21.0694 20.9933 20.9221 20.8554 20.7932 20.7351 20.681 20.6307 20.5839 20.5404 20.5001 20.4628 20.4283 20.3964 20.3671 20.34 20.3152 20.2924 20.2715 20.2525 20.2352 20.2195 20.2053 20.1925 20.1811 20.171 20.1621 20.1544 20.1478 20.1423 20.1378 20.1344 20.1319 20.1305 20.13 25.0668 25.0697 25.0785 25.0931 25.113 25.1382 25.1683 25.203 25.2418 25.2841 25.3292 25.3763 25.4249 25.4742 25.5235 25.5719 25.6183 25.6618 25.7016 25.7366 25.7659 25.7886 25.8036 25.81 25.8068 25.7931 25.768 25.7317 25.6846 25.6271 25.5594 25.4819 25.395 25.2989 25.1939 25.08 24.9576 24.8268 24.6877 24.5413 24.3889 24.2317 24.0712 23.9088 23.7457 23.5832 23.4217 23.2617 23.1038 22.9484 22.7961 22.6472 22.5022 22.3614 22.2251 22.0936 21.9673 21.8464 21.7311 21.6212 21.5167 21.4174 21.3233 21.2344 21.1504 21.0713 20.9968 20.9268 20.8612 20.7997 20.7422 20.6885 20.6384 20.5917 20.5483 20.5079 20.4705 20.4357 20.4036 20.3738 20.3464 20.3212 20.2979 20.2766 20.257 20.2392 20.223 20.2082 20.1949 20.1829 20.1722 20.1626 20.1543 20.147 20.1408 20.1356 20.1314 20.1282 20.1259 20.1245 20.124 24.6604 24.6629 24.6704 24.6828 24.6998 24.7212 24.7468 24.7763 24.8092 24.845 24.883 24.9227 24.9635 25.0048 25.0459 25.086 25.1242 25.1597 25.1917 25.2195 25.2422 25.2589 25.269 25.2716 25.2659 25.2512 25.2268 25.1927 25.1493 25.0967 25.0352 24.965 24.8862 24.7992 24.7042 24.6015 24.4914 24.3741 24.2498 24.1194 23.9838 23.8442 23.7016 23.5571 23.4119 23.2668 23.1224 22.9791 22.8374 22.6979 22.5609 22.427 22.2964 22.1695 22.0465 21.9278 21.8135 21.704 21.5993 21.4993 21.4041 21.3136 21.2277 21.1463 21.0694 20.9968 20.9284 20.8641 20.8037 20.747 20.6939 20.6443 20.5979 20.5547 20.5144 20.477 20.4422 20.4099 20.3799 20.3522 20.3267 20.3031 20.2814 20.2614 20.2432 20.2264 20.2112 20.1974 20.1849 20.1736 20.1636 20.1546 20.1468 20.1399 20.1341 20.1292 20.1252 20.1222 20.12 20.1187 20.1183 24.2846 24.2867 24.2931 24.3037 24.3181 24.3363 24.358 24.383 24.4109 24.4411 24.4732 24.5066 24.5408 24.5753 24.6094 24.6424 24.6737 24.7025 24.7281 24.7497 24.7668 24.7787 24.7847 24.7844 24.777 24.7619 24.7388 24.7074 24.6679 24.6203 24.5646 24.501 24.4294 24.3501 24.2637 24.1704 24.0706 23.9649 23.8535 23.7371 23.6165 23.4925 23.3659 23.2376 23.1083 22.9787 22.8494 22.7209 22.5936 22.4681 22.3448 22.2243 22.1067 21.9923 21.8814 21.7742 21.6708 21.5717 21.4767 21.3858 21.2991 21.2166 21.1381 21.0637 20.9933 20.9268 20.8641 20.805 20.7494 20.6972 20.6482 20.6024 20.5596 20.5196 20.4823 20.4476 20.4152 20.3852 20.3574 20.3316 20.3078 20.2858 20.2656 20.2469 20.2298 20.2142 20.2 20.187 20.1753 20.1647 20.1553 20.1469 20.1395 20.1331 20.1276 20.123 20.1193 20.1164 20.1144 20.1132 20.1128 23.9374 23.9392 23.9446 23.9536 23.9659 23.9813 23.9997 24.0208 24.0444 24.0699 24.0969 24.1249 24.1534 24.1821 24.2103 24.2375 24.2629 24.2861 24.3063 24.3229 24.3354 24.3433 24.3461 24.3435 24.3349 24.3199 24.2982 24.2696 24.2338 24.1909 24.1406 24.083 24.0178 23.9454 23.8664 23.7813 23.6907 23.595 23.495 23.391 23.2837 23.1735 23.0612 22.9471 22.832 22.7162 22.6003 22.4849 22.3704 22.2574 22.1464 22.0378 21.9319 21.8289 21.7289 21.6321 21.5387 21.4489 21.3627 21.2802 21.2013 21.1261 21.0545 20.9865 20.9221 20.8612 20.8037 20.7494 20.6983 20.6503 20.6052 20.5629 20.5233 20.4863 20.4518 20.4196 20.3897 20.3618 20.3359 20.312 20.2898 20.2693 20.2504 20.233 20.2171 20.2025 20.1892 20.177 20.1661 20.1562 20.1473 20.1394 20.1325 20.1265 20.1213 20.117 20.1135 20.1108 20.1089 20.1078 20.1074 23.6168 23.6183 23.6229 23.6305 23.6408 23.6539 23.6694 23.6873 23.7071 23.7285 23.7511 23.7745 23.7983 23.822 23.8452 23.8674 23.888 23.9064 23.9221 23.9346 23.9433 23.948 23.9483 23.9439 23.9345 23.9198 23.8994 23.8731 23.8406 23.8018 23.7564 23.7041 23.6447 23.5787 23.5066 23.4292 23.3469 23.2605 23.1705 23.0776 22.9819 22.884 22.7841 22.6827 22.58 22.4764 22.3726 22.269 22.166 22.0643 21.9643 21.8666 21.7712 21.6783 21.5881 21.5008 21.4164 21.3351 21.257 21.182 21.1103 21.0417 20.9764 20.9143 20.8554 20.7997 20.747 20.6972 20.6503 20.6061 20.5646 20.5256 20.4891 20.4549 20.423 20.3932 20.3654 20.3396 20.3156 20.2933 20.2727 20.2536 20.236 20.2198 20.2049 20.1913 20.1788 20.1675 20.1572 20.148 20.1397 20.1323 20.1258 20.1202 20.1153 20.1113 20.108 20.1055 20.1037 20.1026 20.1022 23.3208 23.3221 23.326 23.3324 23.3411 23.3521 23.3651 23.3801 23.3967 23.4146 23.4335 23.4529 23.4725 23.4921 23.511 23.5289 23.5454 23.5598 23.5719 23.5809 23.5867 23.5889 23.5872 23.5815 23.5714 23.5569 23.5375 23.513 23.4832 23.4477 23.4064 23.3589 23.305 23.2451 23.1798 23.1097 23.0354 22.9576 22.8769 22.7938 22.7084 22.6211 22.532 22.4416 22.3498 22.2572 22.1642 22.0712 21.9788 21.8873 21.7974 21.7094 21.6235 21.5398 21.4585 21.3796 21.3033 21.2297 21.1589 21.0908 21.0256 20.9632 20.9036 20.847 20.7932 20.7422 20.6939 20.6482 20.6052 20.5646 20.5264 20.4905 20.4568 20.4252 20.3957 20.3682 20.3424 20.3185 20.2962 20.2755 20.2564 20.2387 20.2223 20.2072 20.1933 20.1806 20.1689 20.1584 20.1488 20.1401 20.1323 20.1254 20.1193 20.1141 20.1095 20.1057 20.1027 20.1003 20.0986 20.0976 20.0973 23.0481 23.0491 23.0524 23.0577 23.0651 23.0743 23.0852 23.0977 23.1115 23.1264 23.142 23.1581 23.1742 23.1901 23.2054 23.2198 23.2328 23.244 23.253 23.2593 23.2627 23.263 23.2598 23.2531 23.2426 23.2281 23.2095 23.1864 23.1586 23.126 23.0881 23.0449 22.9961 22.942 22.8832 22.8202 22.7535 22.6838 22.6115 22.5371 22.4607 22.3826 22.303 22.2221 22.14 22.0571 21.9737 21.8904 21.8075 21.7254 21.6446 21.5654 21.488 21.4126 21.3392 21.2679 21.1989 21.1322 21.068 21.0062 20.9469 20.8901 20.8359 20.7842 20.7351 20.6885 20.6443 20.6024 20.5629 20.5256 20.4905 20.4574 20.4264 20.3973 20.37 20.3445 20.3208 20.2986 20.2779 20.2587 20.2409 20.2245 20.2092 20.1952 20.1822 20.1704 20.1595 20.1496 20.1407 20.1326 20.1253 20.1189 20.1132 20.1082 20.104 20.1004 20.0975 20.0953 20.0937 20.0928 20.0925 22.797 22.7979 22.8006 22.8051 22.8112 22.8189 22.828 22.8383 22.8498 22.8621 22.875 22.8881 22.9013 22.9142 22.9265 22.9379 22.948 22.9565 22.963 22.9672 22.9688 22.9676 22.9634 22.956 22.9452 22.9309 22.9128 22.8907 22.8646 22.8342 22.7994 22.76 22.7159 22.6673 22.6146 22.5583 22.4988 22.4365 22.3719 22.3052 22.2367 22.1667 22.0952 22.0226 21.949 21.8746 21.8 21.7253 21.651 21.5773 21.5048 21.4335 21.3639 21.2958 21.2295 21.1651 21.1026 21.0422 20.984 20.9279 20.874 20.8223 20.773 20.7258 20.681 20.6384 20.5979 20.5596 20.5233 20.4891 20.4568 20.4264 20.3978 20.371 20.3458 20.3223 20.3003 20.2797 20.2606 20.2428 20.2263 20.211 20.1968 20.1838 20.1717 20.1607 20.1506 20.1413 20.133 20.1254 20.1186 20.1126 20.1073 20.1026 20.0987 20.0953 20.0926 20.0906 20.0891 20.0882 20.0879 22.5662 22.5669 22.5692 22.5729 22.578 22.5843 22.5919 22.6005 22.6099 22.6201 22.6306 22.6413 22.6519 22.6623 22.6721 22.681 22.6888 22.6951 22.6996 22.7022 22.7024 22.7001 22.6951 22.6872 22.6763 22.6621 22.6445 22.6234 22.5987 22.5703 22.5381 22.5021 22.4623 22.4187 22.3718 22.3217 22.2687 22.2132 22.1555 22.0957 22.0341 21.9711 21.9068 21.8414 21.7753 21.7086 21.6416 21.5747 21.5081 21.4421 21.377 21.3129 21.2501 21.1887 21.1288 21.0705 21.0139 20.9592 20.9063 20.8554 20.8065 20.7595 20.7145 20.6716 20.6307 20.5917 20.5547 20.5196 20.4863 20.4549 20.4252 20.3973 20.371 20.3463 20.3231 20.3013 20.281 20.262 20.2443 20.2278 20.2125 20.1983 20.1851 20.1729 20.1617 20.1514 20.142 20.1334 20.1256 20.1186 20.1122 20.1066 20.1016 20.0973 20.0936 20.0905 20.088 20.086 20.0846 20.0838 20.0835 22.3541 22.3547 22.3566 22.3597 22.3639 22.3691 22.3753 22.3824 22.3902 22.3985 22.407 22.4157 22.4242 22.4324 22.4401 22.447 22.4528 22.4574 22.4604 22.4615 22.4607 22.4576 22.4522 22.4441 22.4331 22.4192 22.4021 22.3818 22.3583 22.3317 22.302 22.2691 22.2331 22.1942 22.1524 22.1079 22.0609 22.0115 21.9598 21.9062 21.8508 21.7939 21.7359 21.677 21.6174 21.5575 21.4975 21.4375 21.3779 21.3187 21.2602 21.2025 21.1459 21.0905 21.0363 20.9835 20.9322 20.8826 20.8347 20.7885 20.744 20.7013 20.6603 20.6212 20.5839 20.5483 20.5144 20.4823 20.4518 20.423 20.3957 20.37 20.3458 20.3231 20.3017 20.2816 20.2628 20.2453 20.2289 20.2136 20.1994 20.1862 20.174 20.1627 20.1523 20.1427 20.1339 20.1259 20.1187 20.1121 20.1062 20.1009 20.0963 20.0922 20.0887 20.0858 20.0835 20.0816 20.0803 20.0796 20.0793 22.1593 22.1598 22.1613 22.1639 22.1674 22.1717 22.1767 22.1825 22.1889 22.1956 22.2025 22.2094 22.2162 22.2226 22.2286 22.2337 22.238 22.2411 22.2428 22.2429 22.2412 22.2376 22.2318 22.2236 22.2128 22.1992 22.1827 22.1634 22.1412 22.1163 22.0888 22.0588 22.0263 21.9914 21.9541 21.9146 21.8727 21.8287 21.7825 21.7343 21.6844 21.6331 21.5807 21.5276 21.474 21.4202 21.3663 21.3125 21.259 21.2059 21.1533 21.1014 21.0504 21.0003 20.9513 20.9035 20.8571 20.8121 20.7686 20.7266 20.6862 20.6474 20.6101 20.5745 20.5404 20.5079 20.477 20.4476 20.4196 20.3932 20.3682 20.3445 20.3223 20.3013 20.2816 20.2631 20.2458 20.2295 20.2144 20.2002 20.1871 20.1748 20.1635 20.153 20.1433 20.1344 20.1263 20.1188 20.112 20.1059 20.1004 20.0955 20.0911 20.0874 20.0841 20.0814 20.0792 20.0775 20.0763 20.0756 20.0753 21.9803 21.9808 21.982 21.9841 21.987 21.9905 21.9946 21.9993 22.0044 22.0098 22.0153 22.0208 22.0261 22.031 22.0355 22.0392 22.0422 22.044 22.0447 22.0439 22.0416 22.0374 22.0314 22.0232 22.0126 21.9996 21.9839 21.9656 21.9449 21.9218 21.8965 21.8691 21.8396 21.8082 21.7748 21.7395 21.7021 21.6626 21.6212 21.5779 21.533 21.4868 21.4396 21.3918 21.3435 21.2952 21.2468 21.1985 21.1505 21.1027 21.0555 21.0087 20.9627 20.9175 20.8732 20.83 20.7879 20.7471 20.7077 20.6696 20.6329 20.5976 20.5637 20.5312 20.5001 20.4705 20.4422 20.4152 20.3897 20.3654 20.3424 20.3208 20.3003 20.281 20.2628 20.2458 20.2297 20.2147 20.2007 20.1876 20.1754 20.1641 20.1536 20.1439 20.1349 20.1266 20.119 20.1121 20.1058 20.1 20.0949 20.0903 20.0863 20.0827 20.0797 20.0772 20.0751 20.0735 20.0724 20.0717 20.0715 21.8163 21.8166 21.8176 21.8193 21.8216 21.8245 21.8278 21.8315 21.8356 21.8399 21.8442 21.8485 21.8525 21.8562 21.8595 21.8621 21.8639 21.8647 21.8645 21.863 21.8601 21.8556 21.8494 21.8412 21.8311 21.8186 21.8039 21.7869 21.7677 21.7464 21.7233 21.6983 21.6715 21.6431 21.613 21.5811 21.5474 21.5119 21.4747 21.4357 21.3954 21.3538 21.3115 21.2684 21.2251 21.1816 21.1381 21.0947 21.0515 21.0086 20.966 20.9239 20.8824 20.8415 20.8015 20.7624 20.7243 20.6874 20.6516 20.6171 20.5837 20.5516 20.5207 20.4911 20.4628 20.4357 20.4099 20.3852 20.3618 20.3396 20.3185 20.2986 20.2797 20.262 20.2453 20.2295 20.2147 20.2009 20.1879 20.1758 20.1645 20.154 20.1443 20.1352 20.1269 20.1192 20.1122 20.1057 20.0998 20.0945 20.0897 20.0854 20.0817 20.0784 20.0756 20.0732 20.0713 20.0698 20.0687 20.0681 20.0679 21.666 21.6663 21.6671 21.6685 21.6704 21.6726 21.6753 21.6783 21.6815 21.6848 21.6882 21.6914 21.6944 21.6971 21.6993 21.701 21.7019 21.7019 21.7009 21.6988 21.6955 21.6907 21.6844 21.6764 21.6667 21.655 21.6412 21.6255 21.6079 21.5885 21.5674 21.5446 21.5203 21.4944 21.467 21.438 21.4075 21.3755 21.3419 21.3068 21.2705 21.2333 21.1952 21.1567 21.1177 21.0786 21.0395 21.0004 20.9614 20.9227 20.8843 20.8463 20.8089 20.772 20.7358 20.7005 20.666 20.6326 20.6001 20.5688 20.5385 20.5092 20.4811 20.4541 20.4283 20.4036 20.3799 20.3574 20.3359 20.3156 20.2962 20.2779 20.2606 20.2443 20.2289 20.2144 20.2007 20.1879 20.176 20.1648 20.1543 20.1446 20.1355 20.1271 20.1194 20.1123 20.1057 20.0997 20.0942 20.0893 20.0848 20.0808 20.0773 20.0742 20.0716 20.0694 20.0676 20.0662 20.0652 20.0646 20.0644 21.5287 21.5289 21.5296 21.5307 21.5322 21.5339 21.536 21.5384 21.5409 21.5434 21.546 21.5484 21.5505 21.5524 21.5538 21.5547 21.5548 21.5542 21.5527 21.5501 21.5464 21.5414 21.5351 21.5274 21.5181 21.5071 21.4944 21.4801 21.464 21.4464 21.4272 21.4065 21.3842 21.3606 21.3355 21.309 21.2812 21.2521 21.2217 21.1901 21.1576 21.1241 21.09 21.0554 21.0205 20.9853 20.95 20.9148 20.8796 20.8446 20.8099 20.7756 20.7417 20.7084 20.6758 20.6438 20.6126 20.5823 20.5529 20.5244 20.4968 20.4702 20.4446 20.42 20.3964 20.3738 20.3522 20.3316 20.312 20.2933 20.2755 20.2587 20.2428 20.2278 20.2136 20.2002 20.1876 20.1758 20.1648 20.1544 20.1447 20.1357 20.1273 20.1195 20.1124 20.1057 20.0996 20.094 20.0889 20.0843 20.0802 20.0765 20.0732 20.0703 20.0679 20.0658 20.0641 20.0628 20.0619 20.0613 20.0612 21.4033 21.4035 21.404 21.4049 21.406 21.4074 21.409 21.4108 21.4128 21.4147 21.4165 21.4183 21.4197 21.4209 21.4217 21.4219 21.4215 21.4203 21.4184 21.4154 21.4115 21.4064 21.4001 21.3926 21.3838 21.3736 21.362 21.3489 21.3344 21.3184 21.301 21.2821 21.2617 21.24 21.217 21.1927 21.1672 21.1407 21.1131 21.0847 21.0554 21.0254 20.9949 20.9638 20.9324 20.9007 20.8689 20.837 20.8052 20.7736 20.7422 20.7111 20.6806 20.6505 20.6209 20.592 20.5638 20.5363 20.5096 20.4837 20.4586 20.4344 20.4111 20.3886 20.3671 20.3464 20.3267 20.3078 20.2898 20.2727 20.2564 20.2409 20.2263 20.2125 20.1994 20.1871 20.1754 20.1645 20.1543 20.1447 20.1358 20.1274 20.1196 20.1124 20.1058 20.0996 20.0939 20.0887 20.084 20.0797 20.0758 20.0724 20.0693 20.0666 20.0643 20.0624 20.0608 20.0596 20.0588 20.0583 20.0581 21.2889 21.289 21.2894 21.2901 21.291 21.2921 21.2933 21.2946 21.2961 21.2975 21.2988 21.2999 21.3008 21.3014 21.3016 21.3014 21.3005 21.299 21.2967 21.2935 21.2894 21.2843 21.2781 21.2709 21.2626 21.2531 21.2424 21.2305 21.2173 21.2028 21.187 21.1697 21.1511 21.1312 21.11 21.0877 21.0644 21.0401 21.0151 20.9894 20.9631 20.9362 20.9087 20.8809 20.8526 20.8241 20.7953 20.7665 20.7377 20.709 20.6806 20.6525 20.6248 20.5976 20.5709 20.5447 20.5191 20.4942 20.4699 20.4464 20.4236 20.4015 20.3802 20.3597 20.34 20.3212 20.3031 20.2858 20.2693 20.2536 20.2387 20.2245 20.211 20.1983 20.1862 20.1748 20.1641 20.154 20.1446 20.1357 20.1274 20.1197 20.1125 20.1058 20.0996 20.0938 20.0886 20.0837 20.0793 20.0753 20.0717 20.0685 20.0656 20.0632 20.061 20.0592 20.0578 20.0566 20.0558 20.0553 20.0552 21.1845 21.1846 21.1849 21.1854 21.1861 21.1868 21.1878 21.1887 21.1897 21.1907 21.1915 21.1922 21.1927 21.1928 21.1926 21.1919 21.1907 21.1889 21.1863 21.183 21.1788 21.1737 21.1677 21.1608 21.1529 21.1441 21.1342 21.1233 21.1112 21.098 21.0836 21.0679 21.0508 21.0325 21.0131 20.9927 20.9714 20.9493 20.9267 20.9034 20.8797 20.8554 20.8308 20.8057 20.7802 20.7544 20.7285 20.7024 20.6763 20.6503 20.6246 20.5992 20.5741 20.5494 20.5252 20.5015 20.4783 20.4557 20.4336 20.4122 20.3914 20.3713 20.3519 20.3332 20.3152 20.2979 20.2814 20.2656 20.2504 20.236 20.2223 20.2092 20.1968 20.1851 20.174 20.1635 20.1536 20.1443 20.1355 20.1273 20.1196 20.1125 20.1058 20.0996 20.0938 20.0885 20.0836 20.0791 20.075 20.0712 20.0679 20.0649 20.0622 20.0599 20.0579 20.0562 20.0549 20.0538 20.053 20.0526 20.0524 21.0894 21.0895 21.0897 21.09 21.0905 21.0911 21.0917 21.0924 21.093 21.0936 21.0941 21.0944 21.0944 21.0942 21.0936 21.0926 21.0911 21.0891 21.0864 21.0829 21.0788 21.0738 21.068 21.0614 21.0539 21.0456 21.0364 21.0263 21.0152 21.0031 20.9898 20.9755 20.9599 20.9432 20.9255 20.9069 20.8875 20.8675 20.8469 20.8259 20.8044 20.7825 20.7602 20.7376 20.7146 20.6913 20.6678 20.6442 20.6206 20.5971 20.5738 20.5507 20.528 20.5057 20.4837 20.4622 20.4411 20.4205 20.4004 20.3809 20.362 20.3436 20.3259 20.3088 20.2924 20.2766 20.2614 20.2469 20.233 20.2198 20.2072 20.1952 20.1838 20.1729 20.1627 20.153 20.1439 20.1352 20.1271 20.1195 20.1124 20.1058 20.0996 20.0938 20.0884 20.0835 20.0789 20.0747 20.0709 20.0674 20.0643 20.0615 20.059 20.0568 20.055 20.0534 20.0521 20.0511 20.0504 20.05 20.0499 21.003 21.0031 21.0032 21.0035 21.0038 21.0042 21.0046 21.005 21.0053 21.0056 21.0058 21.0058 21.0055 21.005 21.0041 21.0028 21.0011 20.9989 20.9961 20.9927 20.9886 20.9837 20.9782 20.9719 20.9648 20.957 20.9484 20.9389 20.9286 20.9174 20.9052 20.892 20.8778 20.8626 20.8465 20.8296 20.8121 20.7939 20.7753 20.7562 20.7367 20.7169 20.6966 20.6761 20.6553 20.6342 20.6129 20.5915 20.5702 20.5489 20.5278 20.5069 20.4863 20.466 20.446 20.4264 20.4072 20.3885 20.3702 20.3524 20.3352 20.3184 20.3022 20.2866 20.2715 20.257 20.2432 20.2298 20.2171 20.2049 20.1933 20.1822 20.1717 20.1617 20.1523 20.1433 20.1349 20.1269 20.1194 20.1124 20.1058 20.0996 20.0938 20.0884 20.0835 20.0788 20.0746 20.0707 20.0671 20.0639 20.061 20.0583 20.056 20.054 20.0523 20.0508 20.0496 20.0487 20.048 20.0476 20.0475 20.9249 20.9249 20.925 20.9251 20.9253 20.9255 20.9257 20.9259 20.926 20.9261 20.926 20.9257 20.9252 20.9244 20.9233 20.9219 20.92 20.9177 20.9149 20.9114 20.9074 20.9028 20.8975 20.8915 20.8848 20.8774 20.8693 20.8604 20.8507 20.8403 20.829 20.8168 20.8038 20.79 20.7755 20.7602 20.7443 20.7279 20.711 20.6937 20.676 20.6579 20.6395 20.6208 20.6018 20.5827 20.5634 20.5441 20.5247 20.5054 20.4863 20.4673 20.4485 20.4301 20.4119 20.394 20.3765 20.3594 20.3428 20.3265 20.3107 20.2954 20.2806 20.2663 20.2525 20.2392 20.2264 20.2142 20.2025 20.1913 20.1806 20.1704 20.1607 20.1514 20.1427 20.1344 20.1266 20.1192 20.1123 20.1057 20.0996 20.0938 20.0885 20.0835 20.0788 20.0746 20.0706 20.067 20.0636 20.0606 20.0579 20.0554 20.0533 20.0514 20.0497 20.0484 20.0472 20.0464 20.0458 20.0454 20.0453 20.8542 20.8543 20.8543 20.8544 20.8545 20.8545 20.8546 20.8546 20.8545 20.8544 20.8541 20.8536 20.8529 20.8519 20.8507 20.8491 20.8471 20.8447 20.8419 20.8385 20.8346 20.8302 20.8251 20.8194 20.8131 20.8061 20.7984 20.79 20.7809 20.7711 20.7606 20.7494 20.7376 20.725 20.7118 20.698 20.6837 20.6688 20.6535 20.6377 20.6215 20.605 20.5882 20.5711 20.5538 20.5364 20.5189 20.5013 20.4838 20.4663 20.4489 20.4316 20.4145 20.3977 20.3811 20.3648 20.3488 20.3331 20.3179 20.303 20.2886 20.2746 20.261 20.2478 20.2352 20.223 20.2112 20.2 20.1892 20.1788 20.1689 20.1595 20.1506 20.142 20.1339 20.1263 20.119 20.1122 20.1057 20.0996 20.0939 20.0886 20.0836 20.0789 20.0746 20.0706 20.0669 20.0635 20.0604 20.0576 20.055 20.0527 20.0507 20.0489 20.0474 20.0461 20.045 20.0442 20.0437 20.0433 20.0432 20.7906 20.7906 20.7906 20.7907 20.7907 20.7906 20.7905 20.7904 20.7902 20.7899 20.7894 20.7887 20.7879 20.7868 20.7854 20.7837 20.7817 20.7793 20.7764 20.7732 20.7694 20.7651 20.7603 20.7549 20.7489 20.7423 20.735 20.7271 20.7185 20.7093 20.6996 20.6892 20.6783 20.6669 20.6549 20.6424 20.6295 20.616 20.602 20.5876 20.5728 20.5576 20.5422 20.5266 20.5108 20.4949 20.479 20.463 20.447 20.4311 20.4152 20.3995 20.3839 20.3685 20.3533 20.3384 20.3237 20.3094 20.2954 20.2818 20.2686 20.2557 20.2432 20.2311 20.2195 20.2082 20.1974 20.187 20.177 20.1675 20.1584 20.1496 20.1413 20.1334 20.1259 20.1188 20.1121 20.1057 20.0997 20.094 20.0887 20.0837 20.0791 20.0747 20.0707 20.067 20.0635 20.0603 20.0574 20.0548 20.0524 20.0502 20.0483 20.0466 20.0452 20.044 20.043 20.0423 20.0417 20.0414 20.0413 20.7334 20.7334 20.7334 20.7334 20.7333 20.7332 20.733 20.7327 20.7324 20.732 20.7313 20.7306 20.7296 20.7284 20.7269 20.7251 20.7231 20.7206 20.7178 20.7146 20.711 20.7069 20.7023 20.6972 20.6915 20.6853 20.6784 20.6709 20.6628 20.6542 20.6451 20.6356 20.6256 20.6151 20.6042 20.5928 20.581 20.5687 20.5559 20.5427 20.5291 20.5152 20.5011 20.4868 20.4723 20.4578 20.4432 20.4286 20.4141 20.3995 20.385 20.3707 20.3564 20.3423 20.3283 20.3146 20.3012 20.288 20.2752 20.2627 20.2505 20.2386 20.2272 20.216 20.2053 20.1949 20.1849 20.1753 20.1661 20.1572 20.1488 20.1407 20.133 20.1256 20.1187 20.112 20.1058 20.0998 20.0942 20.0889 20.084 20.0793 20.075 20.0709 20.0671 20.0636 20.0604 20.0574 20.0547 20.0522 20.0499 20.0479 20.0461 20.0446 20.0432 20.0421 20.0412 20.0404 20.0399 20.0396 20.0395 20.6822 20.6822 20.6822 20.6821 20.682 20.6818 20.6815 20.6812 20.6807 20.6802 20.6795 20.6786 20.6775 20.6762 20.6747 20.6729 20.6708 20.6683 20.6656 20.6624 20.6589 20.655 20.6506 20.6457 20.6403 20.6344 20.6279 20.6209 20.6134 20.6054 20.5969 20.588 20.5788 20.5691 20.5591 20.5486 20.5378 20.5265 20.5148 20.5026 20.4902 20.4774 20.4644 20.4513 20.438 20.4247 20.4114 20.398 20.3846 20.3713 20.358 20.3448 20.3317 20.3188 20.306 20.2934 20.281 20.2689 20.257 20.2455 20.2343 20.2233 20.2127 20.2024 20.1925 20.1829 20.1736 20.1647 20.1562 20.148 20.1401 20.1326 20.1254 20.1186 20.1121 20.1059 20.1 20.0945 20.0893 20.0843 20.0797 20.0753 20.0712 20.0674 20.0639 20.0606 20.0576 20.0548 20.0522 20.0498 20.0477 20.0458 20.0441 20.0427 20.0414 20.0403 20.0395 20.0388 20.0383 20.038 20.0379 20.6367 20.6367 20.6366 20.6365 20.6363 20.6361 20.6358 20.6353 20.6348 20.6342 20.6334 20.6324 20.6313 20.6299 20.6283 20.6265 20.6244 20.622 20.6193 20.6162 20.6128 20.609 20.6048 20.6001 20.595 20.5894 20.5833 20.5768 20.5697 20.5623 20.5544 20.5462 20.5376 20.5286 20.5193 20.5096 20.4995 20.4891 20.4783 20.4671 20.4556 20.4439 20.432 20.4199 20.4077 20.3955 20.3832 20.3709 20.3585 20.3463 20.334 20.3219 20.3098 20.2978 20.286 20.2744 20.263 20.2518 20.2409 20.2302 20.2198 20.2097 20.1998 20.1903 20.1811 20.1722 20.1636 20.1553 20.1473 20.1397 20.1323 20.1253 20.1186 20.1122 20.1062 20.1004 20.0949 20.0897 20.0848 20.0802 20.0758 20.0717 20.0679 20.0643 20.061 20.0579 20.055 20.0524 20.0499 20.0477 20.0457 20.0439 20.0424 20.041 20.0398 20.0387 20.0379 20.0373 20.0368 20.0366 20.0365 20.5966 20.5965 20.5965 20.5963 20.5961 20.5958 20.5954 20.595 20.5944 20.5937 20.5928 20.5918 20.5906 20.5892 20.5876 20.5858 20.5836 20.5813 20.5786 20.5756 20.5722 20.5685 20.5645 20.56 20.5552 20.5499 20.5442 20.5381 20.5315 20.5246 20.5173 20.5096 20.5015 20.4931 20.4844 20.4753 20.4659 20.4562 20.4462 20.4359 20.4253 20.4145 20.4035 20.3923 20.3811 20.3698 20.3584 20.347 20.3356 20.3242 20.3129 20.3016 20.2904 20.2794 20.2685 20.2577 20.2471 20.2367 20.2266 20.2167 20.207 20.1976 20.1884 20.1796 20.171 20.1626 20.1546 20.1469 20.1394 20.1323 20.1254 20.1189 20.1126 20.1066 20.1009 20.0955 20.0903 20.0854 20.0808 20.0765 20.0724 20.0685 20.0649 20.0615 20.0583 20.0554 20.0527 20.0502 20.0479 20.0458 20.0439 20.0422 20.0407 20.0394 20.0383 20.0373 20.0365 20.0359 20.0355 20.0352 20.0352 20.5615 20.5615 20.5614 20.5612 20.561 20.5606 20.5602 20.5597 20.5591 20.5583 20.5574 20.5564 20.5551 20.5537 20.5521 20.5502 20.5481 20.5458 20.5431 20.5402 20.5369 20.5334 20.5294 20.5252 20.5206 20.5156 20.5102 20.5045 20.4984 20.4919 20.485 20.4778 20.4703 20.4624 20.4541 20.4456 20.4368 20.4276 20.4183 20.4087 20.3988 20.3888 20.3786 20.3683 20.3579 20.3474 20.3368 20.3262 20.3156 20.305 20.2944 20.2839 20.2735 20.2633 20.2531 20.2431 20.2332 20.2236 20.2141 20.2048 20.1958 20.187 20.1784 20.1701 20.1621 20.1543 20.1468 20.1395 20.1325 20.1258 20.1193 20.1132 20.1073 20.1016 20.0963 20.0911 20.0863 20.0817 20.0773 20.0732 20.0693 20.0656 20.0622 20.059 20.056 20.0533 20.0507 20.0483 20.0461 20.0441 20.0424 20.0407 20.0393 20.038 20.037 20.0361 20.0353 20.0347 20.0343 20.0341 20.034 20.5312 20.5312 20.5311 20.5309 20.5306 20.5303 20.5298 20.5293 20.5286 20.5278 20.5269 20.5258 20.5246 20.5231 20.5215 20.5196 20.5176 20.5152 20.5126 20.5097 20.5066 20.5031 20.4993 20.4952 20.4908 20.486 20.481 20.4756 20.4698 20.4638 20.4573 20.4506 20.4434 20.4359 20.4281 20.42 20.4117 20.4031 20.3943 20.3853 20.3761 20.3668 20.3573 20.3477 20.3379 20.3281 20.3182 20.3083 20.2983 20.2884 20.2785 20.2687 20.259 20.2493 20.2398 20.2304 20.2212 20.2122 20.2033 20.1946 20.1861 20.1778 20.1698 20.1619 20.1544 20.147 20.1399 20.1331 20.1265 20.1202 20.1141 20.1082 20.1026 20.0973 20.0922 20.0874 20.0827 20.0784 20.0742 20.0703 20.0666 20.0632 20.0599 20.0568 20.054 20.0514 20.0489 20.0466 20.0446 20.0427 20.041 20.0394 20.038 20.0368 20.0358 20.0349 20.0342 20.0337 20.0333 20.0331 20.033 20.5054 20.5054 20.5053 20.5051 20.5048 20.5044 20.5039 20.5034 20.5027 20.5019 20.5009 20.4998 20.4985 20.4971 20.4954 20.4936 20.4915 20.4892 20.4867 20.4839 20.4807 20.4774 20.4737 20.4697 20.4655 20.461 20.4561 20.451 20.4456 20.4398 20.4337 20.4273 20.4205 20.4134 20.406 20.3983 20.3904 20.3822 20.3739 20.3654 20.3568 20.348 20.3391 20.3301 20.321 20.3117 20.3024 20.293 20.2837 20.2743 20.265 20.2557 20.2465 20.2375 20.2285 20.2197 20.211 20.2024 20.194 20.1858 20.1778 20.17 20.1624 20.155 20.1478 20.1408 20.1341 20.1276 20.1213 20.1153 20.1095 20.104 20.0987 20.0936 20.0887 20.0841 20.0797 20.0756 20.0716 20.0679 20.0643 20.061 20.0579 20.055 20.0523 20.0497 20.0474 20.0452 20.0432 20.0414 20.0398 20.0383 20.037 20.0358 20.0348 20.034 20.0333 20.0328 20.0324 20.0322 20.0321 20.4839 20.4838 20.4837 20.4835 20.4832 20.4828 20.4823 20.4817 20.481 20.4802 20.4792 20.4781 20.4768 20.4753 20.4737 20.4719 20.4698 20.4675 20.465 20.4623 20.4592 20.4559 20.4524 20.4485 20.4444 20.4401 20.4354 20.4305 20.4253 20.4198 20.4139 20.4078 20.4013 20.3945 20.3875 20.3802 20.3727 20.3649 20.357 20.349 20.3408 20.3325 20.324 20.3154 20.3068 20.298 20.2892 20.2803 20.2714 20.2625 20.2537 20.2449 20.2362 20.2276 20.2191 20.2107 20.2024 20.1943 20.1863 20.1785 20.1709 20.1634 20.1562 20.1491 20.1423 20.1356 20.1292 20.123 20.117 20.1113 20.1057 20.1004 20.0953 20.0905 20.0858 20.0814 20.0772 20.0732 20.0694 20.0658 20.0624 20.0592 20.0562 20.0534 20.0508 20.0484 20.0461 20.044 20.0421 20.0403 20.0387 20.0373 20.0361 20.0349 20.034 20.0332 20.0325 20.032 20.0316 20.0314 20.0313 20.4665 20.4664 20.4663 20.4661 20.4658 20.4654 20.4648 20.4642 20.4635 20.4626 20.4617 20.4605 20.4592 20.4578 20.4561 20.4543 20.4523 20.45 20.4475 20.4448 20.4419 20.4387 20.4352 20.4315 20.4275 20.4232 20.4187 20.4139 20.4088 20.4035 20.3979 20.3919 20.3857 20.3793 20.3725 20.3656 20.3584 20.351 20.3435 20.3357 20.3279 20.3199 20.3118 20.3036 20.2953 20.2869 20.2785 20.27 20.2615 20.253 20.2446 20.2362 20.2279 20.2196 20.2115 20.2034 20.1955 20.1877 20.1801 20.1726 20.1653 20.1581 20.1511 20.1444 20.1378 20.1314 20.1252 20.1193 20.1135 20.108 20.1027 20.0975 20.0926 20.088 20.0835 20.0792 20.0751 20.0713 20.0676 20.0641 20.0608 20.0578 20.0549 20.0521 20.0496 20.0472 20.045 20.043 20.0412 20.0395 20.0379 20.0365 20.0353 20.0342 20.0333 20.0325 20.0319 20.0314 20.031 20.0308 20.0307 20.4531 20.453 20.4529 20.4527 20.4523 20.4519 20.4514 20.4508 20.45 20.4492 20.4482 20.447 20.4457 20.4443 20.4426 20.4408 20.4388 20.4366 20.4341 20.4315 20.4286 20.4254 20.422 20.4184 20.4145 20.4103 20.4059 20.4012 20.3962 20.391 20.3855 20.3797 20.3737 20.3675 20.361 20.3543 20.3474 20.3403 20.3331 20.3256 20.318 20.3103 20.3024 20.2945 20.2865 20.2784 20.2702 20.2621 20.2539 20.2457 20.2376 20.2295 20.2214 20.2135 20.2056 20.1978 20.1902 20.1826 20.1752 20.168 20.1609 20.154 20.1473 20.1407 20.1344 20.1282 20.1222 20.1164 20.1108 20.1055 20.1003 20.0953 20.0906 20.086 20.0816 20.0775 20.0735 20.0698 20.0662 20.0628 20.0596 20.0566 20.0538 20.0511 20.0487 20.0464 20.0442 20.0423 20.0404 20.0388 20.0373 20.0359 20.0347 20.0337 20.0328 20.032 20.0314 20.0309 20.0305 20.0303 20.0303 20.4436 20.4436 20.4434 20.4432 20.4429 20.4424 20.4419 20.4413 20.4405 20.4397 20.4387 20.4375 20.4362 20.4347 20.4331 20.4313 20.4293 20.4271 20.4247 20.422 20.4192 20.4161 20.4127 20.4092 20.4053 20.4012 20.3968 20.3922 20.3873 20.3821 20.3768 20.3711 20.3653 20.3592 20.3529 20.3464 20.3397 20.3328 20.3257 20.3185 20.3111 20.3035 20.2958 20.2881 20.2802 20.2723 20.2644 20.2565 20.2485 20.2406 20.2326 20.2248 20.2169 20.2092 20.2015 20.1939 20.1864 20.1791 20.1718 20.1648 20.1579 20.1511 20.1445 20.1381 20.1319 20.1259 20.12 20.1144 20.1089 20.1037 20.0986 20.0937 20.0891 20.0846 20.0803 20.0763 20.0724 20.0687 20.0652 20.0619 20.0588 20.0558 20.053 20.0504 20.048 20.0458 20.0437 20.0417 20.0399 20.0383 20.0368 20.0355 20.0343 20.0333 20.0324 20.0316 20.031 20.0305 20.0302 20.03 20.0299 20.438 20.4379 20.4378 20.4376 20.4372 20.4368 20.4363 20.4356 20.4349 20.434 20.433 20.4318 20.4305 20.4291 20.4274 20.4256 20.4236 20.4214 20.419 20.4164 20.4136 20.4105 20.4072 20.4037 20.3999 20.3958 20.3915 20.3869 20.382 20.3769 20.3716 20.3661 20.3603 20.3543 20.3481 20.3417 20.3351 20.3283 20.3214 20.3142 20.3069 20.2995 20.2919 20.2843 20.2765 20.2688 20.261 20.2532 20.2453 20.2375 20.2297 20.2219 20.2142 20.2066 20.199 20.1915 20.1842 20.1769 20.1698 20.1629 20.156 20.1494 20.1429 20.1366 20.1305 20.1245 20.1187 20.1132 20.1078 20.1026 20.0976 20.0928 20.0882 20.0838 20.0796 20.0756 20.0717 20.0681 20.0646 20.0613 20.0583 20.0553 20.0526 20.05 20.0476 20.0454 20.0433 20.0414 20.0396 20.038 20.0366 20.0352 20.0341 20.0331 20.0322 20.0314 20.0308 20.0303 20.03 20.0298 20.0297 20.4361 20.436 20.4359 20.4357 20.4353 20.4349 20.4344 20.4337 20.433 20.4321 20.4311 20.4299 20.4286 20.4272 20.4255 20.4237 20.4217 20.4195 20.4171 20.4145 20.4117 20.4086 20.4053 20.4018 20.398 20.3939 20.3896 20.3851 20.3803 20.3753 20.37 20.3645 20.3587 20.3528 20.3466 20.3401 20.3335 20.3268 20.3198 20.3127 20.3054 20.2981 20.2906 20.283 20.2753 20.2676 20.2599 20.2521 20.2443 20.2365 20.2287 20.221 20.2133 20.2057 20.1982 20.1907 20.1834 20.1762 20.1691 20.1622 20.1554 20.1488 20.1424 20.1361 20.13 20.124 20.1183 20.1128 20.1074 20.1022 20.0973 20.0925 20.0879 20.0835 20.0793 20.0753 20.0715 20.0679 20.0644 20.0612 20.0581 20.0552 20.0524 20.0499 20.0475 20.0453 20.0432 20.0413 20.0395 20.0379 20.0365 20.0352 20.034 20.033 20.0321 20.0313 20.0307 20.0303 20.0299 20.0297 20.0297 </DataArray> 
<DataArray type="Float32" Name="gradient" format="ascii" NumberOfComponents="3"> 
-0.206877 -0.206877 0 31.2388 -0.151802 0 61.6318 -0.186212 0 90.9721 -0.224399 0 118.564 -0.197517 0 143.298 -0.135191 0 165.162 -0.102691 0 183.67 -0.154114 0 197.635 -0.245903 0 207.003 -0.28422 0 211.562 -0.184988 0 210.507 -0.00230506 0 203.763 0.110147 0 191.338 0.00455957 0 173.296 -0.281289 0 149.644 -0.524029 0 120.493 -0.49773 0 86.9738 -0.225869 0 49.3868 -0.0779938 0 7.81619 -0.445989 0 -35.8922 -1.33964 0 -80.9834 -2.02662 0 -127.435 -1.69007 0 -173.489 -0.0223268 0 -218.044 1.87744 0 -261.098 2.66913 0 -301.726 1.37057 0 -339.004 -1.56888 0 -372.932 -5.34198 0 -403.209 -9.08444 0 -429.354 -11.5991 0 -451.363 -11.5685 0 -469.298 -7.96175 0 -483.311 -2.24748 0 -493.41 2.81907 0 -499.712 4.662 0 -502.662 3.28474 0 -502.301 0.549637 0 -498.775 -1.68773 0 -492.962 -2.67153 0 -485.007 -2.74569 0 -474.941 -2.29989 0 -463.076 -1.63135 0 -449.497 -0.908975 0 -434.245 -0.291692 0 -418.247 0.123658 0 -401.883 0.360839 0 -385.152 0.457472 0 -368.054 0.45118 0 -350.59 0.379584 0 -332.759 0.280304 0 -314.979 0.184859 0 -297.669 0.100354 0 -280.828 0.0277925 0 -264.456 -0.0318245 0 -248.554 -0.0774946 0 -233.121 -0.108215 0 -218.212 -0.123305 0 -203.958 -0.12486 0 -190.366 -0.116413 0 -177.436 -0.101505 0 -165.168 -0.0836791 0 -153.561 -0.0664769 0 -142.607 -0.0533397 0 -132.253 -0.0453823 0 -122.489 -0.0413926 0 -113.314 -0.0400578 0 -104.73 -0.0400647 0 -96.7367 -0.0401003 0 -89.3281 -0.0388566 0 -82.393 -0.0356458 0 -75.8855 -0.0309838 0 -69.8056 -0.025525 0 -64.1535 -0.0199238 0 -58.929 -0.0148344 0 -54.1322 -0.0109113 0 -49.6897 -0.0086273 0 -45.5278 -0.00772938 0 -41.6468 -0.00778301 0 -38.0465 -0.00835365 0 -34.727 -0.00900678 0 -31.6882 -0.00930788 0 -28.8985 -0.00887136 0 -26.2804 -0.00773784 0 -23.8304 -0.00616733 0 -21.5485 -0.00442169 0 -19.4346 -0.00276274 0 -17.4888 -0.00145233 0 -15.7009 -0.000742419 0 -14.0102 -0.000657955 0 -12.4065 -0.000996835 0 -10.8899 -0.00154709 0 -9.4602 -0.00209675 0 -8.11755 -0.00243385 0 -6.86008 -0.00234776 0 -5.64778 -0.00178969 0 -4.46427 -0.00102519 0 -3.30954 -0.000355933 0 -2.1836 -8.35726e-05 0 -1.08644 -0.000509775 0 -0.0180746 -0.0019362 0 -0.151802 31.2388 0 31.5263 31.5263 0 62.1809 32.3861 0 91.8121 33.8029 0 119.702 35.7626 0 144.707 38.2611 0 166.813 41.2976 0 185.542 44.8657 0 199.725 48.9086 0 209.309 53.3433 0 214.064 58.0886 0 213.129 63.0878 0 206.422 68.3016 0 193.958 73.6867 0 175.835 79.0971 0 152.069 84.2842 0 122.762 88.9978 0 88.9749 93.1101 0 50.9902 96.6638 0 8.90174 99.7134 0 -35.2197 102.206 0 -80.527 103.881 0 -127.002 104.454 0 -173.205 103.817 0 -218.234 102.354 0 -262.088 100.532 0 -303.549 98.715 0 -341.401 96.8541 0 -375.643 94.7973 0 -405.945 92.3639 0 -431.785 89.2032 0 -453.155 84.9036 0 -470.376 79.1585 0 -484.231 72.58 0 -494.757 66.2532 0 -501.885 61.1903 0 -505.357 57.3669 0 -505.146 54.0109 0 -501.439 50.3583 0 -495.344 46.2106 0 -487.045 41.9346 0 -476.587 37.9172 0 -464.43 34.3478 0 -450.696 31.1409 0 -435.423 28.1915 0 -419.43 25.4278 0 -403.052 22.8427 0 -386.29 20.4367 0 -369.143 18.2104 0 -351.611 16.1643 0 -333.694 14.2988 0 -315.822 12.6124 0 -298.425 11.0953 0 -281.503 9.73593 0 -265.055 8.52241 0 -249.082 7.44302 0 -233.583 6.48599 0 -218.614 5.63976 0 -204.306 4.89417 0 -190.667 4.23983 0 -177.696 3.66735 0 -165.393 3.16734 0 -153.759 2.73041 0 -142.783 2.34729 0 -132.408 2.01121 0 -122.625 1.71795 0 -113.433 1.4634 0 -104.833 1.24342 0 -96.8249 1.05391 0 -89.4031 0.890742 0 -82.4563 0.750356 0 -75.9387 0.630245 0 -69.8502 0.528023 0 -64.191 0.441309 0 -58.9609 0.367716 0 -54.16 0.304863 0 -49.7142 0.250638 0 -45.5494 0.204029 0 -41.6654 0.164294 0 -38.0624 0.130696 0 -34.7402 0.102494 0 -31.699 0.0789475 0 -28.9071 0.0593383 0 -26.2871 0.0431207 0 -23.8356 0.0298396 0 -21.5525 0.0190405 0 -19.4378 0.0102688 0 -17.4916 0.00307018 0 -15.7036 -0.00300149 0 -14.0127 -0.00819799 0 -12.4088 -0.0125768 0 -10.8918 -0.0161871 0 -9.46173 -0.0190779 0 -8.11859 -0.0212982 0 -6.86058 -0.0228976 0 -5.64787 -0.0239602 0 -4.46417 -0.0246384 0 -3.30949 -0.025092 0 -2.18382 -0.0254811 0 -1.08717 -0.0259656 0 -0.0195249 -0.0267057 0 -0.186212 61.6318 0 32.3861 62.1809 0 63.8978 63.8978 0 94.3488 66.7351 0 123.038 70.6513 0 148.85 75.6395 0 171.77 81.7054 0 191.281 88.8429 0 206.121 96.9447 0 216.232 105.851 0 221.4 115.405 0 220.818 125.482 0 214.41 135.986 0 202.152 146.812 0 183.898 157.682 0 159.624 168.152 0 129.464 177.77 0 94.8162 186.28 0 56.0534 193.692 0 13.2515 200.036 0 -31.9107 205.157 0 -78.7467 208.545 0 -127.228 209.648 0 -175.121 208.266 0 -221.025 205.176 0 -264.938 201.317 0 -306.197 197.424 0 -344.135 193.413 0 -378.753 188.993 0 -409.871 183.827 0 -437.2 177.307 0 -460.737 168.733 0 -480.119 157.582 0 -494.464 144.929 0 -503.731 132.667 0 -508.428 122.571 0 -510.462 114.677 0 -510.018 107.768 0 -507.069 100.636 0 -501.469 92.8751 0 -493.193 84.8805 0 -482.321 77.0789 0 -469.698 69.7321 0 -455.549 62.8731 0 -439.909 56.5181 0 -423.574 50.6703 0 -406.866 45.3078 0 -389.787 40.406 0 -372.336 35.9402 0 -354.514 31.8858 0 -336.32 28.2179 0 -318.187 24.912 0 -300.547 21.9423 0 -283.4 19.2835 0 -266.747 16.9099 0 -250.586 14.7958 0 -234.919 12.9158 0 -219.798 11.2449 0 -205.352 9.76405 0 -191.586 8.45746 0 -178.502 7.3092 0 -166.098 6.30339 0 -154.374 5.42416 0 -143.322 4.65575 0 -132.878 3.9855 0 -123.032 3.40385 0 -113.785 2.90135 0 -105.136 2.46857 0 -97.086 2.09608 0 -89.6289 1.77444 0 -82.6509 1.49592 0 -76.1054 1.25603 0 -69.9924 1.05064 0 -64.3117 0.87564 0 -59.0636 0.726916 0 -54.2479 0.60035 0 -49.7895 0.492203 0 -45.6133 0.400256 0 -41.7193 0.322668 0 -38.1076 0.257599 0 -34.7781 0.203206 0 -31.7307 0.15765 0 -28.9338 0.119172 0 -26.3094 0.0867302 0 -23.854 0.0596532 0 -21.5676 0.0372715 0 -19.4501 0.0189162 0 -17.5017 0.00391804 0 -15.712 -0.00838369 0 -14.0197 -0.0184607 0 -12.4144 -0.0265953 0 -10.8963 -0.0330619 0 -9.46525 -0.0381344 0 -8.1213 -0.0420872 0 -6.86263 -0.0451939 0 -5.6494 -0.0476606 0 -4.46528 -0.0495624 0 -3.31028 -0.0509592 0 -2.1844 -0.0519113 0 -1.08765 -0.0524784 0 -0.0200117 -0.0527208 0 -0.224399 90.9721 0 33.8029 91.8121 0 66.7351 94.3488 0 98.5722 98.5722 0 128.621 104.469 0 155.776 112 0 180.024 121.121 0 200.808 131.777 0 216.768 143.862 0 227.843 157.239 0 233.809 171.763 0 233.828 187.182 0 227.822 203.165 0 215.736 219.38 0 197.246 235.475 0 172.3 251.079 0 141.05 265.819 0 105.082 279.283 0 64.8186 291.007 0 20.3319 300.522 0 -26.8081 307.514 0 -75.9589 311.965 0 -127.084 313.892 0 -177.367 313.326 0 -225.038 310.343 0 -270.097 305.023 0 -312.198 297.498 0 -350.998 288.109 0 -386.497 277.246 0 -418.602 265.303 0 -447.167 252.714 0 -472.19 239.919 0 -492.946 227.308 0 -507.664 214.798 0 -516.265 202.062 0 -519.565 188.805 0 -520.63 175.214 0 -519.754 161.82 0 -516.828 149.145 0 -511.196 137.322 0 -502.747 126.092 0 -491.566 115.185 0 -478.522 104.522 0 -463.846 94.2875 0 -447.579 84.688 0 -430.609 75.8511 0 -413.3 67.7562 0 -395.652 60.3653 0 -377.664 53.6405 0 -359.337 47.544 0 -340.67 42.0378 0 -322.097 37.0836 0 -304.05 32.6414 0 -286.53 28.6705 0 -269.535 25.1306 0 -253.067 21.981 0 -237.125 19.1812 0 -221.757 16.692 0 -207.085 14.4848 0 -193.113 12.5365 0 -179.841 10.824 0 -167.269 9.32449 0 -155.397 8.01477 0 -144.214 6.87205 0 -133.653 5.8775 0 -123.703 5.01629 0 -114.363 4.2738 0 -105.633 3.63539 0 -97.5138 3.08641 0 -89.9997 2.61224 0 -82.9716 2.20105 0 -76.381 1.84636 0 -70.2278 1.54232 0 -64.5121 1.28307 0 -59.2337 1.06276 0 -54.3928 0.875549 0 -49.9129 0.716067 0 -45.7176 0.580954 0 -41.8069 0.467339 0 -38.1807 0.372354 0 -34.8391 0.293131 0 -31.7821 0.226799 0 -28.9774 0.170629 0 -26.3461 0.123091 0 -23.8845 0.0832733 0 -21.5927 0.0502714 0 -19.4707 0.0231793 0 -17.5185 0.00109125 0 -15.7257 -0.016889 0 -14.0307 -0.0314461 0 -12.4232 -0.0430524 0 -10.9032 -0.0521714 0 -9.47061 -0.0592665 0 -8.12551 -0.0648008 0 -6.86605 -0.0692367 0 -5.65214 -0.0728908 0 -4.46738 -0.0757972 0 -3.31177 -0.0779577 0 -2.18531 -0.0793742 0 -1.08799 -0.0800482 0 -0.0198198 -0.0799816 0 -0.197517 118.564 0 35.7626 119.702 0 70.6513 123.038 0 104.469 128.621 0 136.48 136.48 0 165.518 146.547 0 191.566 158.714 0 214.062 172.877 0 231.629 188.941 0 244.207 206.821 0 251.498 226.411 0 252.39 247.321 0 246.777 268.962 0 234.629 290.747 0 215.766 312.246 0 190.158 333.19 0 157.922 353.308 0 120.267 372.017 0 77.5153 388.299 0 29.7767 401.108 0 -20.5164 409.965 0 -72.3688 415.485 0 -125.753 418.412 0 -178.485 419.07 0 -229.194 416.625 0 -277.88 410.044 0 -323.464 398.673 0 -364.867 383.362 0 -402.09 365.34 0 -434.891 345.904 0 -462.887 326.745 0 -486.073 309.697 0 -504.637 296.252 0 -519.035 284.895 0 -529.29 272.569 0 -535.478 256.435 0 -537.89 236.822 0 -536.551 216.338 0 -531.672 197.568 0 -524.497 181.336 0 -515.234 166.712 0 -503.896 152.7 0 -490.605 138.836 0 -475.392 125.394 0 -458.309 112.701 0 -440.47 100.97 0 -422.331 90.1879 0 -403.893 80.3146 0 -385.154 71.3114 0 -366.116 63.1391 0 -346.778 55.7584 0 -327.578 49.1274 0 -308.952 43.1925 0 -290.901 37.897 0 -273.424 33.1845 0 -256.522 28.9984 0 -240.194 25.2822 0 -224.484 21.9812 0 -209.496 19.0564 0 -195.236 16.4769 0 -181.702 14.2119 0 -168.895 12.2306 0 -156.816 10.5022 0 -145.45 8.99619 0 -134.725 7.68719 0 -124.628 6.55529 0 -115.159 5.58076 0 -106.317 4.74387 0 -98.1022 4.0249 0 -90.5098 3.40415 0 -83.4131 2.86575 0 -76.7606 2.40125 0 -70.5523 2.00306 0 -64.7881 1.6636 0 -59.468 1.37526 0 -54.5922 1.13046 0 -50.0823 0.922231 0 -45.8604 0.746121 0 -41.9264 0.598306 0 -38.2803 0.474963 0 -34.9222 0.372268 0 -31.852 0.286396 0 -29.0368 0.21371 0 -26.3961 0.152202 0 -23.9262 0.1007 0 -21.6271 0.0580402 0 -19.4988 0.0230581 0 -17.5413 -0.00541019 0 -15.7442 -0.0285175 0 -14.0456 -0.0471541 0 -12.4349 -0.061948 0 -10.9123 -0.0735158 0 -9.47767 -0.082474 0 -8.13106 -0.0894391 0 -6.87062 -0.095026 0 -5.65588 -0.0996507 0 -4.47028 -0.103343 0 -3.31381 -0.106087 0 -2.18648 -0.10787 0 -1.08829 -0.108675 0 -0.019234 -0.108488 0 -0.135191 143.298 0 38.2611 144.707 0 75.6395 148.85 0 112 155.776 0 146.547 165.518 0 178.013 178.013 0 206.383 193.166 0 231.095 210.879 0 250.78 231.033 0 265.377 253.505 0 274.484 278.148 0 276.589 304.524 0 271.549 331.986 0 259.367 359.888 0 240.07 387.633 0 213.66 414.685 0 180.2 440.499 0 140.354 464.318 0 94.2972 485.076 0 42.197 501.694 0 -12.2501 513.604 0 -67.532 521.243 0 -123.634 525.16 0 -179.412 525.615 0 -234.148 522.064 0 -287.841 513.825 0 -338.286 500.526 0 -383.276 483.024 0 -422.812 462.488 0 -456.434 440.13 0 -483.411 417.426 0 -503.734 395.952 0 -518.948 377.008 0 -532.829 359.527 0 -545.548 341.218 0 -556.091 319.963 0 -560.645 296.07 0 -558.844 271.595 0 -551.337 248.58 0 -542.006 227.759 0 -531.5 208.561 0 -519.747 190.364 0 -505.997 172.866 0 -490.053 156.206 0 -471.974 140.558 0 -453.087 126.028 0 -433.935 112.603 0 -414.518 100.254 0 -394.836 88.9528 0 -374.889 78.6709 0 -354.677 69.3797 0 -334.652 61.0433 0 -315.267 53.5956 0 -296.522 46.9629 0 -278.416 41.0716 0 -260.95 35.8481 0 -244.123 31.2188 0 -227.97 27.1124 0 -212.576 23.4788 0 -197.943 20.2787 0 -184.073 17.4728 0 -170.964 15.0218 0 -158.618 12.8866 0 -147.019 11.0282 0 -136.085 9.41458 0 -125.8 8.02083 0 -116.165 6.82221 0 -107.18 5.79401 0 -98.8449 4.91155 0 -91.1535 4.15015 0 -83.9702 3.49 0 -77.2396 2.92069 0 -70.9615 2.43288 0 -65.1361 2.01723 0 -59.7632 1.66441 0 -54.843 1.36509 0 -50.2952 1.11069 0 -46.0396 0.895758 0 -42.0762 0.71557 0 -38.405 0.565425 0 -35.026 0.440617 0 -31.9392 0.336439 0 -29.1108 0.248415 0 -26.4583 0.174064 0 -23.9779 0.111933 0 -21.6697 0.0605778 0 -19.5335 0.0185527 0 -17.5695 -0.0155863 0 -15.7671 -0.0432691 0 -14.0639 -0.0655848 0 -12.4493 -0.0832822 0 -10.9234 -0.0970949 0 -9.48628 -0.107757 0 -8.1378 -0.116002 0 -6.87615 -0.122562 0 -5.66039 -0.127941 0 -4.47375 -0.132199 0 -3.31625 -0.135348 0 -2.18788 -0.137398 0 -1.08865 -0.138359 0 -0.0185392 -0.13824 0 -0.102691 165.162 0 41.2976 166.813 0 81.7054 171.77 0 121.121 180.024 0 158.714 191.566 0 193.166 206.383 0 224.46 224.46 0 252.001 245.767 0 274.337 270.124 0 291.4 297.277 0 302.711 326.959 0 306.457 358.773 0 302.465 392.22 0 290.71 426.789 0 271.034 461.632 0 243.411 495.565 0 207.9 527.395 0 165.137 556.182 0 115.291 581.331 0 58.5582 602.276 0 -0.72039 618.447 0 -60.7689 629.267 0 -121.572 634.161 0 -181.957 632.962 0 -241.186 626.634 0 -299.258 616.332 0 -353.647 603.052 0 -401.826 587.146 0 -443.795 568.807 0 -479.099 548.166 0 -507.014 524.989 0 -527.529 498.912 0 -542.521 469.74 0 -556.569 438.749 0 -569.882 407.971 0 -581.23 379.318 0 -585.986 352.912 0 -583.706 327.594 0 -575.12 302.218 0 -564.599 276.628 0 -552.87 251.661 0 -539.866 228.185 0 -524.879 206.613 0 -507.72 186.726 0 -488.451 168.258 0 -468.393 151.024 0 -448.088 135.001 0 -427.536 120.183 0 -406.738 106.565 0 -385.692 94.1395 0 -364.4 82.9017 0 -343.345 72.8313 0 -323.013 63.8507 0 -303.403 55.8682 0 -284.515 48.792 0 -266.349 42.5302 0 -248.906 36.991 0 -232.208 32.0857 0 -216.314 27.7521 0 -201.225 23.9419 0 -186.942 20.6066 0 -173.464 17.698 0 -160.793 15.1678 0 -148.91 12.968 0 -137.721 11.0597 0 -127.21 9.41292 0 -117.375 7.99815 0 -108.217 6.78582 0 -99.7358 5.74636 0 -91.9252 4.85026 0 -84.6377 4.07383 0 -77.8131 3.40469 0 -71.4512 2.83176 0 -65.5522 2.34395 0 -60.116 1.9302 0 -55.1426 1.57942 0 -50.5493 1.28146 0 -46.2533 1.02986 0 -42.2546 0.81913 0 -38.5532 0.64374 0 -35.1492 0.498178 0 -32.0425 0.37693 0 -29.1983 0.274744 0 -26.5317 0.188678 0 -24.0388 0.116973 0 -21.7197 0.0578842 0 -19.5742 0.0096631 0 -17.6024 -0.029437 0 -15.7938 -0.0611438 0 -14.0852 -0.0867382 0 -12.4661 -0.107055 0 -10.9365 -0.122909 0 -9.49629 -0.135115 0 -8.14557 -0.144489 0 -6.88244 -0.151844 0 -5.66544 -0.15776 0 -4.47761 -0.162367 0 -3.31896 -0.165741 0 -2.18947 -0.167959 0 -1.08916 -0.169099 0 -0.0180202 -0.169238 0 -0.154114 183.67 0 44.8657 185.542 0 88.8429 191.281 0 131.777 200.808 0 172.877 214.062 0 210.879 231.095 0 245.767 252.001 0 276.84 276.84 0 302.383 305.375 0 322.316 337.215 0 336.152 371.972 0 342.054 409.317 0 339.845 448.958 0 329.344 490.571 0 309.463 533.041 0 280.022 574.462 0 241.179 612.912 0 194.603 647.234 0 140.737 677.343 0 79.7429 703.223 0 15.1808 724.268 0 -51.4932 738.72 0 -120.235 744.69 0 -187.584 741.522 0 -251.369 731.973 0 -311.588 719.383 0 -367.165 706.376 0 -417.021 692.714 0 -461.157 677.441 0 -499.581 659.416 0 -532.303 636.396 0 -559.325 605.742 0 -580.645 565.493 0 -596.258 519.619 0 -606.166 475.141 0 -610.773 438.618 0 -611.606 409.977 0 -608.811 384.363 0 -602.458 356.973 0 -592.969 326.595 0 -580.415 295.612 0 -564.895 266.53 0 -547.453 240.579 0 -528.365 217.213 0 -507.675 195.757 0 -486.346 175.742 0 -464.773 157.102 0 -442.954 139.814 0 -420.884 123.87 0 -398.557 109.287 0 -375.974 96.0914 0 -353.675 84.2832 0 -332.199 73.7736 0 -311.548 64.4508 0 -291.72 56.203 0 -272.716 48.9193 0 -254.535 42.4887 0 -237.187 36.8044 0 -220.698 31.7915 0 -205.067 27.3921 0 -190.294 23.5482 0 -176.381 20.2021 0 -163.327 17.2956 0 -151.112 14.7716 0 -139.625 12.5839 0 -128.848 10.6977 0 -118.779 9.0789 0 -109.419 7.69322 0 -100.768 6.50644 0 -92.8185 5.48439 0 -85.4098 4.59963 0 -78.4758 3.83787 0 -72.0167 3.18631 0 -66.0322 2.63213 0 -60.5226 2.16255 0 -55.4877 1.76475 0 -50.8419 1.42703 0 -46.4992 1.14204 0 -42.4597 0.903551 0 -38.7234 0.705304 0 -35.2904 0.541054 0 -32.1605 0.404553 0 -29.298 0.289851 0 -26.6151 0.193562 0 -24.1078 0.113628 0 -21.776 0.047996 0 -19.6199 -0.00538223 0 -17.6395 -0.0485573 0 -15.8239 -0.0835545 0 -14.1093 -0.111835 0 -12.4851 -0.134295 0 -10.9511 -0.151808 0 -9.5075 -0.165244 0 -8.15418 -0.175476 0 -6.88927 -0.183373 0 -5.67081 -0.189584 0 -4.48164 -0.194322 0 -3.32177 -0.197749 0 -2.1912 -0.200031 0 -1.08991 -0.201331 0 -0.0179269 -0.201812 0 -0.245903 197.635 0 48.9086 199.725 0 96.9447 206.121 0 143.862 216.768 0 188.941 231.629 0 231.033 250.78 0 270.124 274.337 0 305.375 302.383 0 334.734 334.734 0 358.108 371.066 0 375.021 411.052 0 383.678 454.32 0 383.908 500.473 0 375.314 549.077 0 355.519 598.924 0 324.127 648.033 0 281.424 694.399 0 230.405 736.558 0 171.864 773.791 0 105.914 805.43 0 34.9839 830.522 0 -39.9325 847.561 0 -118.749 854.976 0 -194.777 852.296 0 -263.815 842.083 0 -325.861 827.423 0 -381.978 810.806 0 -433.227 792.362 0 -479.607 771.629 0 -521.782 747.974 0 -560.811 719.778 0 -596.706 685.061 0 -626.803 642.378 0 -644.587 594.946 0 -649.762 548.38 0 -645.017 507.935 0 -640.463 473.683 0 -637.068 441.965 0 -633.998 409.157 0 -626.254 374.367 0 -613.002 339.433 0 -594.553 306.293 0 -574.152 275.986 0 -552.662 248.304 0 -530.112 222.949 0 -507.148 199.654 0 -484.034 178.217 0 -460.768 158.441 0 -437.263 140.189 0 -413.464 123.485 0 -389.371 108.379 0 -365.605 94.8901 0 -342.786 82.9137 0 -320.915 72.3141 0 -299.989 62.9563 0 -280.007 54.7091 0 -260.969 47.4428 0 -242.869 41.0321 0 -225.69 35.3896 0 -209.434 30.4476 0 -194.098 26.1383 0 -179.685 22.3942 0 -166.193 19.1476 0 -153.6 16.3315 0 -141.775 13.8928 0 -130.695 11.7924 0 -120.361 9.99184 0 -110.771 8.45248 0 -101.928 7.13584 0 -93.8212 6.00345 0 -86.2755 5.02445 0 -79.2181 4.18271 0 -72.6491 3.4638 0 -66.5685 2.85328 0 -60.9763 2.33674 0 -55.8725 1.89973 0 -51.1677 1.52908 0 -46.7728 1.21665 0 -42.6876 0.955542 0 -38.9123 0.73886 0 -35.4467 0.559714 0 -32.2909 0.41121 0 -29.4077 0.286778 0 -26.7065 0.182658 0 -24.1831 0.0965368 0 -21.8374 0.0261134 0 -19.6696 -0.0309135 0 -17.6795 -0.0768455 0 -15.8564 -0.113955 0 -14.1354 -0.14386 0 -12.5055 -0.16752 0 -10.9669 -0.185869 0 -9.51945 -0.19984 0 -8.16324 -0.210364 0 -6.89632 -0.218374 0 -5.67625 -0.224573 0 -4.48566 -0.229231 0 -3.32457 -0.232562 0 -2.19296 -0.234784 0 -1.09084 -0.236115 0 -0.0182032 -0.236771 0 -0.28422 207.003 0 53.3433 209.309 0 105.851 216.232 0 157.239 227.843 0 206.821 244.207 0 253.505 265.377 0 297.277 291.4 0 337.215 322.316 0 371.066 358.108 0 398.73 398.73 0 419.651 444.1 0 431.749 493.7 0 434.825 546.689 0 428.337 602.211 0 409.034 659.148 0 376.372 716.123 0 330.656 771.737 0 275.056 824.111 0 210.413 870.705 0 136.865 908.936 0 57.4069 937.184 0 -26.7337 955.698 0 -115.451 964.941 0 -200.483 965.33 0 -276.639 957.147 0 -343.918 940.652 0 -404.074 916.354 0 -458.861 885.756 0 -508.278 850.609 0 -553.321 812.664 0 -595.573 773.687 0 -635.055 735.444 0 -668.403 699.401 0 -687.395 664.404 0 -691.657 627.946 0 -684.478 587.725 0 -678.225 544.323 0 -674.084 500.405 0 -671.016 458.605 0 -662.788 419.794 0 -648.362 383.081 0 -628.081 347.515 0 -605.526 312.889 0 -581.649 280.028 0 -556.499 249.829 0 -531.122 222.736 0 -505.946 198.315 0 -480.967 176.031 0 -455.846 155.493 0 -430.369 136.705 0 -404.536 119.739 0 -379.074 104.629 0 -354.708 91.2505 0 -331.439 79.4401 0 -309.261 69.0359 0 -288.166 59.8858 0 -268.154 51.8411 0 -249.2 44.7583 0 -231.243 38.5371 0 -214.28 33.1 0 -198.311 28.3695 0 -183.336 24.268 0 -169.356 20.718 0 -156.343 17.6427 0 -144.143 14.9822 0 -132.728 12.6934 0 -122.099 10.7337 0 -112.256 9.0607 0 -103.199 7.63201 0 -94.9183 6.40523 0 -87.2212 5.34633 0 -80.0276 4.43748 0 -73.3377 3.66273 0 -67.1513 3.00611 0 -61.4685 2.45166 0 -56.2894 1.9834 0 -51.5205 1.5868 0 -47.0685 1.25298 0 -42.9336 0.9745 0 -39.1156 0.743898 0 -35.6145 0.553726 0 -32.4305 0.39653 0 -29.5249 0.265208 0 -26.8038 0.155688 0 -24.2629 0.0654573 0 -21.9022 -0.00798171 0 -19.7217 -0.0671277 0 -17.7213 -0.114479 0 -15.8902 -0.152503 0 -14.1623 -0.182948 0 -12.5265 -0.206843 0 -10.9829 -0.225188 0 -9.53147 -0.238981 0 -8.17224 -0.249219 0 -6.90323 -0.256901 0 -5.68151 -0.26278 0 -4.4895 -0.267146 0 -3.32721 -0.270232 0 -2.19464 -0.272272 0 -1.09178 -0.2735 0 -0.018636 -0.27415 0 -0.184988 211.562 0 58.0886 214.064 0 115.405 221.4 0 171.763 233.809 0 226.411 251.498 0 278.148 274.484 0 326.959 302.711 0 371.972 336.152 0 411.052 375.021 0 444.1 419.651 0 470.308 470.308 0 486.624 526.3 0 492.758 586.25 0 488.204 648.779 0 469.924 712.943 0 437.413 778.229 0 390.758 844.1 0 330.88 908.192 0 258.022 965.603 0 172.505 1011.27 0 81.4004 1042.73 0 -12.3999 1062.61 0 -108.821 1074.13 0 -201.963 1078.9 0 -288.123 1074.1 0 -367.301 1056.19 0 -438.626 1022.96 0 -501.232 977.667 0 -555.117 924.919 0 -600.823 869.561 0 -639.211 817.823 0 -670.292 776.43 0 -694.385 750.7 0 -712.266 733.666 0 -723.971 712.037 0 -729.659 673.471 0 -729.935 619.221 0 -724.856 560.343 0 -714.704 507.771 0 -701.173 464.755 0 -684.547 426.856 0 -664.827 389.364 0 -642.055 350.4 0 -616.241 312.008 0 -587.509 276.514 0 -558.594 245.241 0 -530.615 217.559 0 -503.562 192.615 0 -476.604 169.769 0 -449.219 148.957 0 -421.408 130.219 0 -394.019 113.557 0 -367.903 98.8264 0 -343.059 85.8498 0 -319.475 74.4488 0 -297.134 64.4505 0 -276.034 55.6835 0 -256.129 47.9827 0 -237.306 41.234 0 -219.56 35.3495 0 -202.891 30.2419 0 -187.298 25.8235 0 -172.781 22.0068 0 -159.311 18.7053 0 -146.701 15.8521 0 -134.921 13.4005 0 -123.972 11.3044 0 -113.853 9.51787 0 -104.563 7.99494 0 -96.0947 6.6897 0 -88.2333 5.56526 0 -80.8923 4.6022 0 -74.0715 3.78312 0 -67.771 3.09062 0 -61.9908 2.5073 0 -56.7309 2.01576 0 -51.8935 1.60017 0 -47.3807 1.25103 0 -43.1926 0.960424 0 -39.3292 0.720418 0 -35.7904 0.523089 0 -32.5762 0.360516 0 -29.6469 0.225144 0 -26.9047 0.112653 0 -24.3453 0.0203893 0 -21.9686 -0.0542894 0 -19.7748 -0.114025 0 -17.7637 -0.161458 0 -15.9241 -0.199197 0 -14.189 -0.229099 0 -12.5471 -0.252265 0 -10.9984 -0.269764 0 -9.54293 -0.282666 0 -8.18066 -0.292041 0 -6.90963 -0.298954 0 -5.68633 -0.304205 0 -4.49298 -0.308068 0 -3.32957 -0.310759 0 -2.19611 -0.312493 0 -1.09259 -0.313486 0 -0.0190106 -0.313951 0 -0.00230506 210.507 0 63.0878 213.129 0 125.482 220.818 0 187.182 233.828 0 247.321 252.39 0 304.524 276.589 0 358.773 306.457 0 409.317 342.054 0 454.32 383.678 0 493.7 431.749 0 526.3 486.624 0 547.78 547.78 0 557.722 614.059 0 555.715 684.294 0 539.284 757.416 0 508.016 832.45 0 461.655 908.388 0 397.523 982.401 0 314.908 1049.14 0 214.408 1103.1 0 109.167 1141.42 0 4.5615 1166.38 0 -99.3846 1180.87 0 -200.916 1186.51 0 -298.93 1181.43 0 -393.427 1163.18 0 -479.476 1130.39 0 -552.15 1086.03 0 -611.448 1034.18 0 -657.077 979.11 0 -688.567 926.258 0 -705.914 881.485 0 -715.19 849.43 0 -731.24 824.065 0 -754.739 793.876 0 -780.917 748.186 0 -791.837 688.322 0 -785.783 624.265 0 -765.088 565.893 0 -743.752 516.318 0 -724.108 471.89 0 -705.667 428.713 0 -683.302 385.175 0 -655.653 342.827 0 -622.935 303.45 0 -589.917 268.122 0 -558.55 236.554 0 -528.819 208.304 0 -499.507 182.971 0 -469.852 160.287 0 -439.852 140.001 0 -410.396 121.887 0 -382.368 105.8 0 -355.768 91.6223 0 -330.598 79.2213 0 -306.86 68.4077 0 -284.552 58.9702 0 -263.603 50.7056 0 -243.831 43.4802 0 -225.228 37.196 0 -207.794 31.7554 0 -191.529 27.0606 0 -176.434 23.0141 0 -162.471 19.5192 0 -149.423 16.5025 0 -137.252 13.9138 0 -125.959 11.704 0 -115.544 9.824 0 -106.006 8.22465 0 -97.3352 6.85689 0 -89.2984 5.68125 0 -81.7999 4.67686 0 -74.8398 3.82496 0 -68.4181 3.10681 0 -62.5348 2.50368 0 -57.1898 1.99681 0 -52.2804 1.5692 0 -47.7038 1.21081 0 -43.4599 0.913315 0 -39.5489 0.668418 0 -35.9706 0.467805 0 -32.7251 0.303166 0 -29.771 0.166583 0 -27.0069 0.0535534 0 -24.4283 -0.0386672 0 -22.0352 -0.11281 0 -19.8275 -0.171604 0 -17.8052 -0.217782 0 -15.9571 -0.254039 0 -14.2146 -0.282314 0 -12.5665 -0.303785 0 -11.0127 -0.319597 0 -9.55318 -0.330897 0 -8.188 -0.338828 0 -6.91514 -0.344534 0 -5.69047 -0.348847 0 -4.49593 -0.351997 0 -3.33152 -0.354144 0 -2.19725 -0.355449 0 -1.09311 -0.356072 0 -0.0191125 -0.356173 0 0.110147 203.763 0 68.3016 206.422 0 135.986 214.41 0 203.165 227.822 0 268.962 246.777 0 331.986 271.549 0 392.22 302.465 0 448.958 339.845 0 500.473 383.908 0 546.689 434.825 0 586.25 492.758 0 614.059 557.722 0 629.629 629.629 0 632.405 708.327 0 619.057 792.289 0 589.031 878.606 0 541.863 964.303 0 472.705 1046.13 0 380.269 1120.43 0 265.342 1183.55 0 145.25 1232.7 0 27.082 1266.81 0 -89.1476 1284.99 0 -202.238 1287.54 0 -311.436 1278.04 0 -416.741 1260.6 0 -512.3 1238.61 0 -592.26 1212.56 0 -656.62 1182.19 0 -704.896 1147.1 0 -736.318 1106.08 0 -750.875 1057.64 0 -756.756 1000.68 0 -773.984 937.645 0 -803.467 872.816 0 -838.494 810.244 0 -853.834 750.661 0 -847.071 692.408 0 -821.351 633.853 0 -795.56 575.16 0 -772.842 518.292 0 -752.57 465.262 0 -728.164 416.893 0 -697.876 372.35 0 -661.938 330.68 0 -625.466 291.471 0 -590.555 255.361 0 -557.193 223.107 0 -524.528 195.097 0 -492.025 170.698 0 -459.685 149.102 0 -428.169 129.639 0 -398.14 112.188 0 -369.599 96.7652 0 -342.615 83.3559 0 -317.3 71.7579 0 -293.655 61.701 0 -271.569 52.9268 0 -250.767 45.2757 0 -231.237 38.6395 0 -212.979 32.91 0 -195.993 27.9795 0 -180.279 23.7399 0 -165.795 20.0845 0 -152.281 16.9333 0 -139.695 14.2333 0 -128.038 11.9325 0 -117.309 9.9791 0 -107.509 8.32113 0 -98.6247 6.90678 0 -90.4026 5.6943 0 -82.7383 4.66145 0 -75.6317 3.78824 0 -69.0829 3.05468 0 -63.0918 2.44078 0 -57.6584 1.92654 0 -52.6746 1.49389 0 -48.032 1.1323 0 -43.7306 0.833173 0 -39.7705 0.5879 0 -36.1517 0.387872 0 -32.8741 0.22448 0 -29.8947 0.089526 0 -27.1083 -0.0216113 0 -24.5101 -0.111712 0 -22.1001 -0.183543 0 -19.8784 -0.239867 0 -17.8448 -0.283451 0 -15.9879 -0.317027 0 -14.238 -0.342592 0 -12.5837 -0.361403 0 -11.0249 -0.374688 0 -9.56156 -0.383672 0 -8.19375 -0.389582 0 -6.9194 -0.393641 0 -5.69366 -0.396707 0 -4.49817 -0.398933 0 -3.33293 -0.400387 0 -2.19794 -0.401139 0 -1.09321 -0.401259 0 -0.0187272 -0.400817 0 0.00455957 191.338 0 73.6867 193.958 0 146.812 202.152 0 219.38 215.736 0 290.747 234.629 0 359.888 259.367 0 426.789 290.71 0 490.571 329.344 0 549.077 375.314 0 602.211 428.337 0 648.779 488.204 0 684.294 555.715 0 708.327 632.405 0 719.668 719.668 0 711.058 815.393 0 681.286 913.956 0 630.066 1009.63 0 554.395 1098.72 0 453.474 1180.39 0 328.03 1253.97 0 194.019 1316.92 0 57.9692 1362.96 0 -79.9996 1385.42 0 -210.566 1382.52 0 -327.875 1366.14 0 -431.926 1350.46 0 -523.432 1346.13 0 -603.107 1349.67 0 -670.951 1354.07 0 -727.901 1351.67 0 -775.446 1330.97 0 -813.606 1279.1 0 -843.636 1186.11 0 -868.604 1067.56 0 -888.649 952.1 0 -902.651 866.531 0 -906.397 810.604 0 -899.482 764.587 0 -882.767 708.972 0 -861.417 639.27 0 -836.291 566.015 0 -807.459 500.251 0 -775.643 446.584 0 -741.036 400.682 0 -703.723 357.576 0 -665.579 314.612 0 -627.369 273.638 0 -589.107 237.017 0 -551.645 206.203 0 -515.52 180.139 0 -480.733 157.338 0 -447.303 136.591 0 -415.251 117.803 0 -384.575 101.156 0 -355.506 86.7738 0 -328.408 74.4431 0 -303.286 63.8265 0 -279.973 54.602 0 -258.065 46.5818 0 -237.541 39.6467 0 -218.403 33.678 0 -200.65 28.5572 0 -184.282 24.1657 0 -169.249 20.3863 0 -155.247 17.1326 0 -142.227 14.3491 0 -130.189 11.9817 0 -119.131 9.97612 0 -109.055 8.27832 0 -99.9479 6.83418 0 -91.5324 5.60004 0 -83.6951 4.55242 0 -76.4362 3.67014 0 -69.7556 2.93204 0 -63.6533 2.31696 0 -58.1294 1.80373 0 -53.0696 1.37325 0 -48.3597 1.01467 0 -43.9998 0.71921 0 -39.9899 0.47808 0 -36.33 0.282496 0 -33.02 0.123672 0 -30.0153 -0.00675302 0 -27.2065 -0.113458 0 -24.5887 -0.199224 0 -22.1618 -0.266816 0 -19.926 -0.319 0 -17.8811 -0.358542 0 -16.0154 -0.388176 0 -14.2582 -0.409933 0 -12.5979 -0.425142 0 -11.0343 -0.435098 0 -9.56745 -0.441098 0 -8.1974 -0.444438 0 -6.92204 -0.446413 0 -5.69564 -0.447894 0 -4.49952 -0.448936 0 -3.33365 -0.449501 0 -2.19806 -0.44955 0 -1.09272 -0.449043 0 -0.0176564 -0.447942 0 -0.281289 173.296 0 79.0971 175.835 0 157.682 183.898 0 235.475 197.246 0 312.246 215.766 0 387.633 240.07 0 461.632 271.034 0 533.041 309.463 0 598.924 355.519 0 659.148 409.034 0 712.943 469.924 0 757.416 539.284 0 792.289 619.057 0 815.393 711.058 0 813.716 813.716 0 785.088 922.074 0 729.533 1031.05 0 647.297 1136.29 0 538.445 1234.52 0 403.523 1322.5 0 254.555 1396.06 0 96.4566 1449.21 0 -70.4719 1475.73 0 -222.942 1474.61 0 -346.322 1459.1 0 -440.614 1444.94 0 -518.512 1443.87 0 -592.711 1451.79 0 -663.212 1460.61 0 -733.276 1461.66 0 -808.094 1442.89 0 -887.733 1391.01 0 -960.602 1295.71 0 -998.366 1172.72 0 -999.739 1051.19 0 -974.029 958.36 0 -956.241 894.342 0 -949.728 839.686 0 -951.077 775.164 0 -939.817 696.582 0 -912.538 614.783 0 -870.547 541.118 0 -827.492 480.418 0 -787.002 428.462 0 -748.923 380.383 0 -709.796 333.493 0 -668.21 289.347 0 -624.205 249.983 0 -581.017 216.634 0 -540.678 188.301 0 -503.188 163.604 0 -467.734 141.406 0 -433.503 121.533 0 -400.496 104.057 0 -369.134 89.002 0 -340.088 76.1159 0 -313.367 65.0487 0 -288.742 55.4655 0 -265.652 47.1658 0 -244.072 40.0183 0 -224.002 33.8921 0 -205.441 28.6565 0 -188.39 24.1807 0 -172.79 20.3356 0 -158.285 17.0283 0 -144.816 14.2021 0 -132.383 11.802 0 -120.986 9.77293 0 -110.625 8.05987 0 -101.286 6.60787 0 -92.6707 5.37224 0 -84.6551 4.32828 0 -77.2397 3.45358 0 -70.4243 2.72572 0 -64.209 2.12229 0 -58.5938 1.62089 0 -53.458 1.20139 0 -48.681 0.852866 0 -44.2626 0.566697 0 -40.2029 0.334253 0 -36.502 0.146904 0 -33.1597 -0.0039775 0 -30.1298 -0.126613 0 -27.2988 -0.225688 0 -24.6615 -0.304066 0 -22.2181 -0.364597 0 -19.9684 -0.410129 0 -17.9124 -0.443513 0 -16.0383 -0.467564 0 -14.2742 -0.484337 0 -12.6082 -0.495128 0 -11.0403 -0.501197 0 -9.57036 -0.503806 0 -8.19852 -0.504218 0 -6.92261 -0.503689 0 -5.696 -0.503063 0 -4.4996 -0.502377 0 -3.33341 -0.501575 0 -2.19742 -0.500601 0 -1.09165 -0.499399 0 -0.0160802 -0.497914 0 -0.524029 149.644 0 84.2842 152.069 0 168.152 159.624 0 251.079 172.3 0 333.19 190.158 0 414.685 213.66 0 495.565 243.411 0 574.462 280.022 0 648.033 324.127 0 716.123 376.372 0 778.229 437.413 0 832.45 508.016 0 878.606 589.031 0 913.956 681.286 0 922.074 785.088 0 900.221 900.221 0 848.118 1026.34 0 762.854 1158.2 0 643.653 1283.75 0 491.204 1390.49 0 320.655 1470.46 0 138.204 1524.61 0 -55.7361 1554.87 0 -228.811 1564.32 0 -360.695 1559.14 0 -451.39 1546.06 0 -522.483 1530.34 0 -595.561 1511.33 0 -670.623 1486.93 0 -751.779 1455.23 0 -845.569 1415.52 0 -952.077 1367.56 0 -1052.65 1311.12 0 -1101.7 1246.29 0 -1097.14 1173.33 0 -1053.65 1092.61 0 -1026.33 1006.24 0 -1020.47 917.519 0 -1030.49 829.749 0 -1022.93 745.086 0 -992.21 664.549 0 -940.338 589.102 0 -888.211 519.424 0 -841.385 455.797 0 -799.591 398.475 0 -756.864 347.44 0 -710.766 302.148 0 -661.351 261.997 0 -612.982 226.448 0 -568.398 195.133 0 -527.599 167.717 0 -489.366 143.859 0 -452.479 123.193 0 -416.938 105.348 0 -383.244 89.9617 0 -352.195 76.7182 0 -323.802 65.3181 0 -297.78 55.4729 0 -273.437 46.9889 0 -250.741 39.721 0 -229.693 33.5244 0 -210.292 28.2545 0 -192.538 23.7665 0 -176.362 19.9177 0 -161.347 16.6084 0 -147.422 13.7824 0 -134.589 11.3852 0 -122.846 9.36249 0 -112.194 7.65974 0 -102.618 6.22265 0 -93.7978 5.00653 0 -85.6002 3.98548 0 -78.0258 3.13573 0 -71.0746 2.43354 0 -64.7466 1.85514 0 -59.0417 1.37678 0 -53.832 0.97732 0 -48.9894 0.646043 0 -44.5139 0.374849 0 -40.4055 0.155635 0 -36.6642 -0.0196992 0 -33.2899 -0.159256 0 -30.2349 -0.27078 0 -27.3819 -0.358917 0 -24.7256 -0.426716 0 -22.266 -0.477213 0 -20.0031 -0.513443 0 -17.9369 -0.538442 0 -16.0553 -0.555205 0 -14.2851 -0.565804 0 -12.6141 -0.571383 0 -11.0424 -0.573048 0 -9.56995 -0.571904 0 -8.19675 -0.569056 0 -6.92064 -0.565607 0 -5.69415 -0.562323 0 -4.49785 -0.559316 0 -3.33174 -0.556623 0 -2.19583 -0.55428 0 -1.0901 -0.552325 0 -0.0145566 -0.550794 0 -0.49773 120.493 0 88.9978 122.762 0 177.77 129.464 0 265.819 141.05 0 353.308 157.922 0 440.499 180.2 0 527.395 207.9 0 612.912 241.179 0 694.399 281.424 0 771.737 330.656 0 844.1 390.758 0 908.388 461.655 0 964.303 541.863 0 1009.63 630.066 0 1031.05 729.533 0 1026.34 848.118 0 993.565 993.565 0 912.419 1159.61 0 777.5 1320.53 0 590.399 1449.32 0 386.102 1532.57 0 178.92 1583.43 0 -30.8169 1618.03 0 -217.399 1646.23 0 -364.677 1660.42 0 -472.648 1650.01 0 -560.167 1607.69 0 -646.087 1539.3 0 -730.407 1453.96 0 -814.206 1362.4 0 -899.2 1284.58 0 -985.411 1243.82 0 -1064.65 1258.18 0 -1116.89 1299.84 0 -1141.23 1317.37 0 -1142.64 1263.03 0 -1139.8 1142.26 0 -1134.52 998.813 0 -1125.27 875.969 0 -1102.9 786.984 0 -1065.9 715.088 0 -1015.33 642.445 0 -962.31 562.126 0 -909.811 482.34 0 -857.795 412.367 0 -805.533 356.964 0 -752.725 312.086 0 -699.403 272.683 0 -647.869 235.232 0 -599.571 200.436 0 -554.51 169.72 0 -512.099 144.096 0 -471.754 122.909 0 -433.474 105.093 0 -397.58 89.6748 0 -364.584 76.254 0 -334.491 64.6347 0 -306.991 54.6243 0 -281.325 46.0511 0 -257.459 38.7548 0 -235.392 32.575 0 -215.126 27.3512 0 -196.658 22.9231 0 -179.909 19.1324 0 -164.386 15.8729 0 -150.008 13.09 0 -136.774 10.7314 0 -124.684 8.7448 0 -113.739 7.07792 0 -103.922 5.67852 0 -94.8933 4.50291 0 -86.5119 3.524 0 -78.7782 2.71659 0 -71.6921 2.05549 0 -65.2537 1.51549 0 -59.463 1.07141 0 -54.1834 0.70105 0 -49.2786 0.394202 0 -44.7486 0.143663 0 -40.5934 -0.0577732 0 -36.813 -0.217313 0 -33.4074 -0.342162 0 -30.3273 -0.439254 0 -27.4526 -0.513147 0 -24.7778 -0.567175 0 -22.3028 -0.604664 0 -20.0278 -0.62894 0 -17.9526 -0.643328 0 -16.0648 -0.6511 0 -14.2897 -0.654333 0 -12.6149 -0.653907 0 -11.0403 -0.65065 0 -9.56589 -0.64539 0 -8.19174 -0.638954 0 -6.91563 -0.632169 0 -5.6895 -0.625675 0 -4.4937 -0.619754 0 -3.32821 -0.614644 0 -2.19304 -0.610586 0 -1.08819 -0.607819 0 -0.0136599 -0.606582 0 -0.225869 86.9738 0 93.1101 88.9749 0 186.28 94.8162 0 279.283 105.082 0 372.017 120.267 0 464.318 140.354 0 556.182 165.137 0 647.234 194.603 0 736.558 230.405 0 824.111 275.056 0 908.192 330.88 0 982.401 397.523 0 1046.13 472.705 0 1098.72 554.395 0 1136.29 647.297 0 1158.2 762.854 0 1159.61 912.419 0 1090.11 1090.11 0 936.297 1266.12 0 701.315 1409.03 0 454.329 1503.54 0 223.634 1565.7 0 9.30423 1615.16 0 -182.938 1663.8 0 -349.497 1702.13 0 -490.374 1716.96 0 -612.784 1698.51 0 -723.943 1650.55 0 -823.852 1580.22 0 -906.728 1496.93 0 -963.369 1423.11 0 -993.656 1385.96 0 -1014.06 1406.66 0 -1064.82 1454.34 0 -1147.77 1471.3 0 -1245.92 1404.1 0 -1295.32 1260.25 0 -1289.86 1091.17 0 -1237.26 947.688 0 -1183.91 845.279 0 -1137.52 764.03 0 -1096.88 682.771 0 -1049.25 593.126 0 -991.235 504.468 0 -923.328 427.435 0 -856.364 367.419 0 -794.776 319.631 0 -738.535 278.111 0 -685.298 238.689 0 -633.594 202.136 0 -583.422 170.07 0 -535.663 143.627 0 -491.196 122.021 0 -450.02 103.983 0 -412.052 88.3706 0 -377.159 74.7624 0 -345.337 62.9989 0 -316.278 52.9195 0 -289.222 44.3524 0 -264.134 37.1198 0 -241.015 31.0439 0 -219.865 25.9467 0 -200.684 21.6504 0 -183.374 17.9798 0 -167.356 14.8218 0 -152.533 12.1249 0 -138.905 9.84048 0 -126.473 7.91988 0 -115.235 6.31441 0 -105.176 4.97548 0 -95.9372 3.86139 0 -87.372 2.94386 0 -79.4805 2.19616 0 -72.2625 1.59157 0 -65.7181 1.10335 0 -59.8474 0.704775 0 -54.5041 0.372574 0 -49.5423 0.0973433 0 -44.9618 -0.126858 0 -40.7627 -0.305972 0 -36.945 -0.445938 0 -33.5087 -0.552698 0 -30.4037 -0.632036 0 -27.5076 -0.688376 0 -24.815 -0.725442 0 -22.3257 -0.746951 0 -20.0398 -0.756622 0 -17.9574 -0.75817 0 -16.0655 -0.755247 0 -14.2873 -0.749924 0 -12.6099 -0.7427 0 -11.0335 -0.734004 0 -9.55786 -0.724265 0 -8.18313 -0.713911 0 -6.90708 -0.703373 0 -5.68146 -0.693118 0 -4.48655 -0.683689 0 -3.32235 -0.675639 0 -2.18885 -0.669519 0 -1.08605 -0.665881 0 -0.0139647 -0.665278 0 -0.0779938 49.3868 0 96.6638 50.9902 0 193.692 56.0534 0 291.007 64.8186 0 388.299 77.5153 0 485.076 94.2972 0 581.331 115.291 0 677.343 140.737 0 773.791 171.864 0 870.705 210.413 0 965.603 258.022 0 1049.14 314.908 0 1120.43 380.269 0 1180.39 453.474 0 1234.52 538.445 0 1283.75 643.653 0 1320.53 777.5 0 1266.12 936.297 0 1099.57 1099.57 0 825.37 1245.7 0 542.161 1362.39 0 290.302 1455.49 0 69.7059 1532.93 0 -126.598 1601.98 0 -302.989 1668.07 0 -459.465 1736.32 0 -601.052 1808.82 0 -732.775 1875.64 0 -854.634 1923.83 0 -953.603 1942.26 0 -1008.95 1930.35 0 -1020.4 1891.36 0 -1019.05 1828.3 0 -1080.9 1741.94 0 -1209.42 1631.93 0 -1373.7 1498.42 0 -1457.6 1349.01 0 -1450.01 1196.61 0 -1364.96 1053.91 0 -1286.76 926.09 0 -1229.46 810.745 0 -1190.37 705.193 0 -1141.49 608.325 0 -1075.36 521.219 0 -992.829 445.107 0 -912.438 380.231 0 -841.768 324.908 0 -780.75 277.236 0 -723.903 235.675 0 -667.785 199.683 0 -612.394 168.889 0 -559.552 142.855 0 -511.076 120.882 0 -466.967 102.202 0 -426.8 86.1101 0 -389.896 72.254 0 -356.248 60.4106 0 -325.546 50.3587 0 -297.034 41.8928 0 -270.678 34.816 0 -246.478 28.931 0 -224.434 24.0408 0 -204.546 19.9484 0 -186.7 16.46 0 -170.209 13.4551 0 -154.96 10.8871 0 -140.952 8.71249 0 -128.185 6.8877 0 -116.659 5.36921 0 -106.358 4.11353 0 -96.9093 3.08195 0 -88.1621 2.24504 0 -80.1161 1.57444 0 -72.7712 1.04179 0 -66.1275 0.618721 0 -60.1849 0.276873 0 -54.7862 -0.00810607 0 -49.7739 -0.244534 0 -45.1483 -0.436717 0 -40.9092 -0.588961 0 -37.0566 -0.705574 0 -33.5905 -0.790862 0 -30.4606 -0.849125 0 -27.5437 -0.884606 0 -24.8341 -0.901518 0 -22.3318 -0.904074 0 -20.0369 -0.896487 0 -17.9494 -0.88297 0 -16.0559 -0.867647 0 -14.2767 -0.852578 0 -12.5986 -0.837763 0 -11.0216 -0.82311 0 -9.54554 -0.808528 0 -8.17058 -0.793928 0 -6.8945 -0.77922 0 -5.66944 -0.764652 0 -4.47584 -0.751123 0 -3.3137 -0.739608 0 -2.18302 -0.73108 0 -1.08381 -0.726513 0 -0.0160454 -0.726881 0 -0.445989 7.81619 0 99.7134 8.90174 0 200.036 13.2515 0 300.522 20.3319 0 401.108 29.7767 0 501.694 42.197 0 602.276 58.5582 0 703.223 79.7429 0 805.43 105.914 0 908.936 136.865 0 1011.27 172.505 0 1103.1 214.408 0 1183.55 265.342 0 1253.97 328.03 0 1322.5 403.523 0 1390.49 491.204 0 1449.32 590.399 0 1409.03 701.315 0 1245.7 825.37 0 964.025 964.025 0 667.294 1112.7 0 397.762 1255.11 0 155.551 1373.6 0 -49.9059 1464.64 0 -212.683 1563.55 0 -332.779 1712.34 0 -441.806 1937.77 0 -571.371 2205.7 0 -721.474 2466.74 0 -875.13 2671.93 0 -1005.3 2774.6 0 -1111.63 2728.92 0 -1204.25 2500.37 0 -1307.92 2152.86 0 -1423.75 1800.95 0 -1536.56 1552.15 0 -1589.24 1412.39 0 -1576.32 1314.37 0 -1506.66 1191.4 0 -1433.36 1027 0 -1365.28 854.99 0 -1301.4 710.863 0 -1231.02 608.642 0 -1151.28 532.531 0 -1062.73 464.6 0 -976.987 394.683 0 -898.811 327.692 0 -828.164 270.269 0 -762.256 226.463 0 -699.331 193.169 0 -639.391 166.057 0 -583.241 141.579 0 -531.689 119.32 0 -484.733 99.6459 0 -441.975 82.842 0 -402.776 68.7063 0 -367.128 56.8613 0 -334.697 46.9401 0 -304.667 38.6745 0 -277 31.8469 0 -251.697 26.2397 0 -228.757 21.6359 0 -208.18 17.818 0 -189.831 14.5725 0 -172.899 11.7722 0 -157.248 9.37631 0 -142.879 7.34768 0 -129.792 5.64926 0 -117.987 4.24397 0 -107.445 3.09473 0 -97.7895 2.16671 0 -88.864 1.42943 0 -80.6688 0.852897 0 -73.204 0.407113 0 -66.4695 0.0620896 0 -60.4654 -0.212167 0 -55.0214 -0.44104 0 -49.9673 -0.631492 0 -45.3031 -0.785877 0 -41.0287 -0.906547 0 -37.1443 -0.995857 0 -33.6497 -1.05616 0 -30.4949 -1.08998 0 -27.5575 -1.10134 0 -24.832 -1.095 0 -22.3183 -1.07576 0 -20.0165 -1.0484 0 -17.9266 -1.0177 0 -16.0346 -0.988338 0 -14.2571 -0.962343 0 -12.5803 -0.939116 0 -11.0041 -0.917942 0 -9.5286 -0.898103 0 -8.15373 -0.878884 0 -6.87739 -0.859575 0 -5.65285 -0.840161 0 -4.46099 -0.821978 0 -3.30183 -0.806513 0 -2.17535 -0.795259 0 -1.08157 -0.789705 0 -0.0204705 -0.79134 0 -1.33964 -35.8922 0 102.206 -35.2197 0 205.157 -31.9107 0 307.514 -26.8081 0 409.965 -20.5164 0 513.604 -12.2501 0 618.447 -0.72039 0 724.268 15.1808 0 830.522 34.9839 0 937.184 57.4069 0 1042.73 81.4004 0 1141.42 109.167 0 1232.7 145.25 0 1316.92 194.019 0 1396.06 254.555 0 1470.46 320.655 0 1532.57 386.102 0 1503.54 454.329 0 1362.39 542.161 0 1112.7 667.294 0 833.143 833.143 0 555.886 1015.39 0 281.633 1186.56 0 64.8465 1336.83 0 -60.261 1505.18 0 -93.6891 1738.92 0 -121.143 2067.1 0 -228.329 2445.6 0 -415.246 2812.01 0 -664.769 3103.93 0 -949.638 3258.87 0 -1269.5 3214.3 0 -1576.83 2923.08 0 -1755.43 2471.75 0 -1800.02 2015.71 0 -1741.38 1700.76 0 -1695.32 1535.13 0 -1672.9 1427.84 0 -1666.12 1288.67 0 -1626.88 1094.92 0 -1547.16 891.355 0 -1430.78 725.069 0 -1317.65 614.254 0 -1218.37 537.023 0 -1132.48 468.627 0 -1049.62 395.036 0 -965.552 323.039 0 -880.354 261.814 0 -799.86 217.027 0 -727.733 184.647 0 -663.974 158.983 0 -606.377 135.404 0 -552.737 113.524 0 -503.055 94.0187 0 -457.333 77.4404 0 -415.579 63.6275 0 -377.792 52.1587 0 -343.583 42.6268 0 -312.002 34.746 0 -283.006 28.2931 0 -256.596 23.0455 0 -232.77 18.7804 0 -211.53 15.2753 0 -192.716 12.3115 0 -175.377 9.76071 0 -159.355 7.58536 0 -144.65 5.75174 0 -131.261 4.22617 0 -119.188 2.97493 0 -108.415 1.96435 0 -98.5588 1.16208 0 -89.4627 0.538384 0 -81.1269 0.0638144 0 -73.5515 -0.291069 0 -66.7364 -0.555709 0 -60.6816 -0.759546 0 -55.2027 -0.927316 0 -50.1155 -1.06492 0 -45.4197 -1.17357 0 -41.1155 -1.25446 0 -37.2029 -1.30878 0 -33.6818 -1.33774 0 -30.5031 -1.3428 0 -27.5466 -1.32764 0 -24.8069 -1.2971 0 -22.2838 -1.25605 0 -19.9775 -1.20932 0 -17.8879 -1.16177 0 -16.0005 -1.11813 0 -14.2273 -1.08028 0 -12.5539 -1.04725 0 -10.9802 -1.01795 0 -9.5062 -0.991277 0 -8.13191 -0.966153 0 -6.85529 -0.941488 0 -5.6314 -0.917095 0 -4.44186 -0.894524 0 -3.28665 -0.875528 0 -2.16579 -0.861858 0 -1.07927 -0.855267 0 -0.0270937 -0.857505 0 -2.02662 -80.9834 0 103.881 -80.527 0 208.545 -78.7467 0 311.965 -75.9589 0 415.485 -72.3688 0 521.243 -67.532 0 629.267 -60.7689 0 738.72 -51.4932 0 847.561 -39.9325 0 955.698 -26.7337 0 1062.61 -12.3999 0 1166.38 4.5615 0 1266.81 27.082 0 1362.96 57.9692 0 1449.21 96.4566 0 1524.61 138.204 0 1583.43 178.92 0 1565.7 223.634 0 1455.49 290.302 0 1255.11 397.762 0 1015.39 555.886 0 757.146 757.146 0 481.454 992.016 0 272.717 1253.36 0 183.957 1540.64 0 215.175 1854.45 0 240.316 2189.31 0 133.327 2515.52 0 -105.793 2797.27 0 -458.062 3000.18 0 -893.262 3098.03 0 -1411.01 3067.55 0 -1915.82 2891.95 0 -2174.33 2610.51 0 -2175.92 2291.46 0 -1987.92 1999.67 0 -1863.5 1751.9 0 -1826.89 1530.2 0 -1857.76 1316.5 0 -1834.13 1108.11 0 -1735.67 917.629 0 -1569.97 758.157 0 -1416.35 633.414 0 -1295.91 534.132 0 -1207.38 450.12 0 -1122.88 374.852 0 -1031.03 308.926 0 -931.966 253.756 0 -838.034 209.812 0 -756.98 174.957 0 -688.804 146.606 0 -628.928 122.531 0 -572.772 101.937 0 -520.338 84.3815 0 -471.857 69.4449 0 -427.701 56.8161 0 -387.874 46.2245 0 -351.946 37.4037 0 -318.868 30.1271 0 -288.592 24.1876 0 -261.116 19.3789 0 -236.443 15.4942 0 -214.57 12.3271 0 -195.318 9.67448 0 -177.598 7.41547 0 -161.228 5.51136 0 -146.209 3.92701 0 -132.541 2.62725 0 -120.223 1.57693 0 -109.238 0.740928 0 -99.2001 0.0870473 0 -89.9499 -0.411187 0 -81.488 -0.779599 0 -73.8143 -1.04401 0 -66.9288 -1.23024 0 -60.8315 -1.36412 0 -55.3246 -1.46738 0 -50.2105 -1.5454 0 -45.4891 -1.59949 0 -41.1603 -1.63095 0 -37.2243 -1.64107 0 -33.6809 -1.63117 0 -30.4821 -1.60273 0 -27.5099 -1.55903 0 -24.759 -1.50422 0 -22.2294 -1.44249 0 -19.9212 -1.378 0 -17.8342 -1.31494 0 -15.9532 -1.25736 0 -14.1861 -1.20683 0 -12.5177 -1.16236 0 -10.9478 -1.12289 0 -9.47653 -1.08735 0 -8.10385 -1.05466 0 -6.82781 -1.02375 0 -5.60543 -0.994409 0 -4.4191 -0.968057 0 -3.26883 -0.946313 0 -2.15462 -0.930796 0 -1.07647 -0.923121 0 -0.0343798 -0.924905 0 -1.69007 -127.435 0 104.454 -127.002 0 209.648 -127.228 0 313.892 -127.084 0 418.412 -125.753 0 525.16 -123.634 0 634.161 -121.572 0 744.69 -120.235 0 854.976 -118.749 0 964.941 -115.451 0 1074.13 -108.821 0 1180.87 -99.3846 0 1284.99 -89.1476 0 1385.42 -79.9996 0 1475.73 -70.4719 0 1554.87 -55.7361 0 1618.03 -30.8169 0 1615.16 9.30423 0 1532.93 69.7059 0 1373.6 155.551 0 1186.56 281.633 0 992.016 481.454 0 790.619 790.619 0 632.991 1213.48 0 550.934 1668.05 0 544.448 2057.56 0 506.676 2306.21 0 330.762 2422.26 0 16.7051 2434.93 0 -406.7 2378.05 0 -893.618 2312.4 0 -1443.46 2308.46 0 -1974.35 2421.64 0 -2286.12 2576.03 0 -2369.69 2628.07 0 -2275.14 2445.67 0 -2190.85 2060.3 0 -2134.87 1621.3 0 -2097.17 1276.06 0 -2017.76 1067.4 0 -1886.64 933.634 0 -1709.35 809.316 0 -1543.82 665.471 0 -1405.46 523.731 0 -1293.4 409.346 0 -1188.54 334.399 0 -1083.07 285.407 0 -977.084 245.957 0 -878.304 204.663 0 -791.576 164.037 0 -716.898 128.969 0 -650.901 103.045 0 -590.214 84.6269 0 -534.838 70.7701 0 -484.44 58.8672 0 -438.493 48.2743 0 -396.99 39.0585 0 -359.522 31.2709 0 -325.091 24.8177 0 -293.65 19.5304 0 -265.201 15.24 0 -239.743 11.7774 0 -217.276 8.97332 0 -197.6 6.66145 0 -179.513 4.73649 0 -162.814 3.15432 0 -147.504 1.87347 0 -133.582 0.85251 0 -121.049 0.0499692 0 -109.886 -0.575545 0 -99.6967 -1.05839 0 -90.3182 -1.41928 0 -81.7507 -1.67734 0 -73.9941 -1.85171 0 -67.0485 -1.96151 0 -60.9138 -2.02589 0 -55.3818 -2.06122 0 -50.2445 -2.07292 0 -45.5017 -2.06363 0 -41.1535 -2.03602 0 -37.1998 -1.99273 0 -33.6408 -1.93643 0 -30.4285 -1.86978 0 -27.4464 -1.79551 0 -24.6891 -1.71636 0 -22.1567 -1.63509 0 -19.8491 -1.55445 0 -17.7663 -1.47721 0 -15.8925 -1.40603 0 -14.1323 -1.34198 0 -12.4697 -1.28445 0 -10.9048 -1.23279 0 -9.43768 -1.18633 0 -8.06822 -1.14441 0 -6.79456 -1.10637 0 -5.5753 -1.0721 0 -4.39348 -1.04258 0 -3.2491 -1.01887 0 -2.14217 -1.00207 0 -1.07268 -0.993267 0 -0.0406345 -0.993541 0 -0.0223268 -173.489 0 103.817 -173.205 0 208.266 -175.121 0 313.326 -177.367 0 419.07 -178.485 0 525.615 -179.412 0 632.962 -181.957 0 741.522 -187.584 0 852.296 -194.777 0 965.33 -200.483 0 1078.9 -201.963 0 1186.51 -200.916 0 1287.54 -202.238 0 1382.52 -210.566 0 1474.61 -222.942 0 1564.32 -228.811 0 1646.23 -217.399 0 1663.8 -182.938 0 1601.98 -126.598 0 1464.64 -49.9059 0 1336.83 64.8465 0 1253.36 272.717 0 1213.48 632.991 0 1159.43 1159.43 0 1054.9 1739.99 0 899.892 2241.1 0 671.812 2557.43 0 348.054 2696.56 0 -71.3816 2694.3 0 -535.9 2594.43 0 -964.962 2487.21 0 -1357.53 2479.69 0 -1717.3 2656.44 0 -2053.27 2905.72 0 -2365.85 3014.77 0 -2624.7 2787.87 0 -2715.75 2272 0 -2628.05 1689.1 0 -2389.35 1258 0 -2166.03 1037.31 0 -1985.8 925.437 0 -1844.9 815.155 0 -1703.87 659.663 0 -1552.21 496.008 0 -1390.96 367.233 0 -1242.74 294.537 0 -1116.81 256.686 0 -1013.02 227.586 0 -920.518 189.4 0 -832.477 147.104 0 -748.899 109.583 0 -672.101 83.5516 0 -604.4 67.0533 0 -545.795 55.9635 0 -494.453 46.6298 0 -447.454 38.1603 0 -404.76 30.6621 0 -366.043 24.2282 0 -330.494 18.8179 0 -298.078 14.3215 0 -268.794 10.6289 0 -242.643 7.62977 0 -219.624 5.21396 0 -199.526 3.27243 0 -181.075 1.72378 0 -164.06 0.514221 0 -148.479 -0.408856 0 -134.334 -1.09805 0 -121.623 -1.60596 0 -110.329 -1.98507 0 -100.032 -2.27424 0 -90.56 -2.4859 0 -81.9136 -2.62942 0 -74.0926 -2.71417 0 -67.0972 -2.74952 0 -60.9271 -2.74485 0 -55.369 -2.70885 0 -50.2094 -2.64748 0 -45.4481 -2.56599 0 -41.0853 -2.46966 0 -37.1209 -2.36376 0 -33.555 -2.25354 0 -30.3392 -2.14396 0 -27.3552 -2.03708 0 -24.5979 -1.93351 0 -22.0671 -1.83385 0 -19.7629 -1.73867 0 -17.6853 -1.64857 0 -15.818 -1.56414 0 -14.0644 -1.48574 0 -12.4081 -1.41352 0 -10.8492 -1.34763 0 -9.38773 -1.2882 0 -8.02366 -1.23539 0 -6.75514 -1.18933 0 -5.5414 -1.15018 0 -4.36576 -1.11808 0 -3.22821 -1.0932 0 -2.12876 -1.07569 0 -1.06741 -1.06571 0 -0.0441632 -1.06341 0 1.87744 -218.044 0 102.354 -218.234 0 205.176 -221.025 0 310.343 -225.038 0 416.625 -229.194 0 522.064 -234.148 0 626.634 -241.186 0 731.973 -251.369 0 842.083 -263.815 0 957.147 -276.639 0 1074.1 -288.123 0 1181.43 -298.93 0 1278.04 -311.436 0 1366.14 -327.875 0 1459.1 -346.322 0 1559.14 -360.695 0 1660.42 -364.677 0 1702.13 -349.497 0 1668.07 -302.989 0 1563.55 -212.683 0 1505.18 -60.261 0 1540.64 183.957 0 1668.05 550.934 0 1739.99 1054.9 0 1663.82 1663.82 0 1439.56 2337.78 0 1088.12 3030.68 0 630.415 3671.81 0 66.4476 4184.3 0 -521.449 4501.7 0 -1002.22 4618.3 0 -1374.17 4550.4 0 -1694.68 4315.17 0 -2103.99 3937.18 0 -2608.46 3444.82 0 -3121.04 2868.67 0 -3314.35 2268.68 0 -3157.05 1726.01 0 -2709.95 1319.29 0 -2337.8 1058.36 0 -2101.41 884.286 0 -1988.04 735.853 0 -1864.76 584.098 0 -1696.21 444.797 0 -1485.21 336.931 0 -1293.87 268.371 0 -1147.59 225.402 0 -1046.01 191.84 0 -959.887 156.372 0 -870.849 121.155 0 -778.901 90.6514 0 -691.772 68.1999 0 -617.194 52.645 0 -555.167 41.7076 0 -502.582 33.3122 0 -454.488 26.5733 0 -410.823 21.036 0 -371.241 16.2757 0 -334.902 12.1277 0 -301.768 8.5609 0 -271.837 5.54547 0 -245.112 3.05148 0 -221.59 1.04902 0 -201.06 -0.492606 0 -182.238 -1.62266 0 -164.912 -2.40893 0 -149.081 -2.91999 0 -134.745 -3.22443 0 -121.904 -3.39085 0 -110.539 -3.48764 0 -100.189 -3.5605 0 -90.6677 -3.61105 0 -81.9754 -3.63582 0 -74.1116 -3.63138 0 -67.0766 -3.59426 0 -60.8702 -3.52101 0 -55.2809 -3.41027 0 -50.0972 -3.26908 0 -45.319 -3.10658 0 -40.9463 -2.93189 0 -36.9791 -2.75415 0 -33.4174 -2.5825 0 -30.2108 -2.42525 0 -27.2355 -2.28375 0 -24.4859 -2.15569 0 -21.9622 -2.03876 0 -19.6642 -1.93065 0 -17.5919 -1.82904 0 -15.7295 -1.73169 0 -13.9812 -1.63811 0 -12.3309 -1.54957 0 -10.7788 -1.46741 0 -9.32476 -1.39298 0 -7.96885 -1.32761 0 -6.70917 -1.27265 0 -5.50412 -1.22863 0 -4.3367 -1.19457 0 -3.2069 -1.1693 0 -2.11473 -1.15164 0 -1.06019 -1.14044 0 -0.0432713 -1.13452 0 2.66913 -261.098 0 100.532 -262.088 0 201.317 -264.938 0 305.023 -270.097 0 410.044 -277.88 0 513.825 -287.841 0 616.332 -299.258 0 719.383 -311.588 0 827.423 -325.861 0 940.652 -343.918 0 1056.19 -367.301 0 1163.18 -393.427 0 1260.6 -416.741 0 1350.46 -431.926 0 1444.94 -440.614 0 1546.06 -451.39 0 1650.01 -472.648 0 1716.96 -490.374 0 1736.32 -459.465 0 1712.34 -332.779 0 1738.92 -93.6891 0 1854.45 215.175 0 2057.56 544.448 0 2241.1 899.892 0 2337.78 1439.56 0 2347.6 2347.6 0 2169.39 3725.97 0 1702.02 5348.02 0 945.488 6904.94 0 20.7007 8099.85 0 -879.868 8705.67 0 -1753.75 8520.56 0 -2556.69 7397.83 0 -3180.49 5670.41 0 -3620.25 3918.21 0 -3859.31 2688.07 0 -3835.07 2050.35 0 -3541.55 1732.05 0 -3029.56 1459.94 0 -2604.05 1130.55 0 -2315.84 810.179 0 -2152.84 571.411 0 -1988.67 438.777 0 -1789.74 370.098 0 -1558.64 318.439 0 -1352.36 255.902 0 -1194.22 191.557 0 -1083.82 138.719 0 -990.83 105.58 0 -896.181 86.1896 0 -799.875 72.1747 0 -709.064 56.9903 0 -630.899 41.4019 0 -565.38 28.0024 0 -509.739 18.9145 0 -459.57 13.5135 0 -414.816 10.1803 0 -374.851 7.41343 0 -338.14 4.74704 0 -304.615 2.24855 0 -274.274 -0.0102455 0 -247.119 -1.95752 0 -223.15 -3.52147 0 -202.164 -4.63364 0 -182.953 -5.30284 0 -165.316 -5.61512 0 -149.254 -5.65991 0 -134.765 -5.52663 0 -121.85 -5.3047 0 -110.485 -5.08325 0 -100.151 -4.91716 0 -90.634 -4.79471 0 -81.9346 -4.69656 0 -74.0528 -4.60335 0 -66.9885 -4.49574 0 -60.7417 -4.35436 0 -55.1123 -4.16547 0 -49.9 -3.93773 0 -45.1047 -3.68538 0 -40.7266 -3.42269 0 -36.7657 -3.16391 0 -33.2218 -2.92329 0 -30.0401 -2.71367 0 -27.0861 -2.5355 0 -24.3539 -2.38288 0 -21.8434 -2.24983 0 -19.5545 -2.13039 0 -17.4873 -2.0186 0 -15.6266 -1.90867 0 -13.8814 -1.79908 0 -12.2363 -1.6926 0 -10.6915 -1.59214 0 -9.24684 -1.50066 0 -7.90244 -1.42107 0 -6.65624 -1.35632 0 -5.46384 -1.30747 0 -4.30706 -1.27205 0 -3.18592 -1.24716 0 -2.1004 -1.22993 0 -1.05052 -1.21746 0 -0.0362645 -1.20686 0 1.37057 -301.726 0 98.715 -303.549 0 197.424 -306.197 0 297.498 -312.198 0 398.673 -323.464 0 500.526 -338.286 0 603.052 -353.647 0 706.376 -367.165 0 810.806 -381.978 0 916.354 -404.074 0 1022.96 -438.626 0 1130.39 -479.476 0 1238.61 -512.3 0 1346.13 -523.432 0 1443.87 -518.512 0 1530.34 -522.483 0 1607.69 -560.167 0 1698.51 -612.784 0 1808.82 -601.052 0 1937.77 -441.806 0 2067.1 -121.143 0 2189.31 240.316 0 2306.21 506.676 0 2557.43 671.812 0 3030.68 1088.12 0 3725.97 2169.39 0 4171.6 4171.6 0 3895.89 6719.46 0 2898.84 9279.87 0 1343.02 11331.7 0 -512.763 12424.1 0 -2665.2 12131.5 0 -4729.88 10138.3 0 -5767.14 7087.13 0 -5734.25 4113.56 0 -4882.35 2284.23 0 -4155.66 1672.7 0 -3644.57 1636.9 0 -3320.21 1537.28 0 -3009.35 1155.22 0 -2683.1 693.154 0 -2346.09 368.791 0 -2046.63 265.131 0 -1797.58 278.209 0 -1597.9 290.717 0 -1424.97 236.832 0 -1269.53 150.716 0 -1131.55 78.0001 0 -1009.03 48.2791 0 -900.701 46.8458 0 -806.569 51.4067 0 -723.157 44.6889 0 -646.988 29.5031 0 -578.061 13.6807 0 -516.54 3.86806 0 -462.683 -0.207878 0 -416.493 -1.32485 0 -376.675 -2.05693 0 -340.066 -3.17538 0 -306.52 -4.52323 0 -276.037 -5.93584 0 -248.619 -7.24858 0 -224.264 -8.29681 0 -202.799 -8.92151 0 -183.18 -9.09309 0 -165.234 -8.91137 0 -148.961 -8.48179 0 -134.36 -7.90982 0 -121.432 -7.30089 0 -110.149 -6.76009 0 -99.9038 -6.3487 0 -90.4497 -6.04289 0 -81.786 -5.80908 0 -73.9129 -5.61368 0 -66.8302 -5.42308 0 -60.5381 -5.2037 0 -54.8581 -4.93062 0 -49.6119 -4.61361 0 -44.7994 -4.27113 0 -40.4206 -3.92162 0 -36.4755 -3.58354 0 -32.9642 -3.27532 0 -29.8247 -3.01349 0 -26.9061 -2.79761 0 -24.2015 -2.61852 0 -21.7109 -2.46701 0 -19.4342 -2.33386 0 -17.3714 -2.20985 0 -15.5089 -2.08603 0 -13.764 -1.95994 0 -12.1231 -1.83561 0 -10.586 -1.71732 0 -9.15291 -1.60938 0 -7.82367 -1.51609 0 -6.5961 -1.44171 0 -5.42068 -1.38779 0 -4.27717 -1.35051 0 -3.16558 -1.32546 0 -2.0859 -1.30823 0 -1.03813 -1.2944 0 -0.0222667 -1.27955 0 -1.56888 -339.004 0 96.8541 -341.401 0 193.413 -344.135 0 288.109 -350.998 0 383.362 -364.867 0 483.024 -383.276 0 587.146 -401.826 0 692.714 -417.021 0 792.362 -433.227 0 885.756 -458.861 0 977.667 -501.232 0 1086.03 -552.15 0 1212.56 -592.26 0 1349.67 -603.107 0 1451.79 -592.711 0 1511.33 -595.561 0 1539.3 -646.087 0 1650.55 -723.943 0 1875.64 -732.775 0 2205.7 -571.371 0 2445.6 -228.329 0 2515.52 133.327 0 2422.26 330.762 0 2696.56 348.054 0 3671.81 630.415 0 5348.02 1702.02 0 6719.46 3895.89 0 6780.4 6780.4 0 5530.83 9732.75 0 3171.69 12140.2 0 22.8223 13448.4 0 -3911.67 13124.4 0 -7746.35 10770.5 0 -9316.86 7169.05 0 -8524.8 3709.51 0 -6023.77 1695.31 0 -4271.27 1191.41 0 -3502.6 1370.3 0 -3559.51 1408.65 0 -3492.56 1033.71 0 -3143.52 523.245 0 -2545.55 174.957 0 -2045.13 104.589 0 -1734.38 175.426 0 -1606.19 232.726 0 -1503.66 190.864 0 -1362.62 98.4433 0 -1183.69 19.4594 0 -1015.22 -4.27562 0 -887.6 7.76219 0 -800.829 25.6014 0 -733.357 26.0619 0 -663.633 13.128 0 -591.657 -2.42484 0 -522.416 -11.3957 0 -463.845 -13.7795 0 -416.048 -12.8993 0 -376.801 -11.8337 0 -340.669 -11.491 0 -307.407 -11.6621 0 -277.014 -12.1289 0 -249.489 -12.673 0 -224.834 -13.0762 0 -202.911 -13.127 0 -182.905 -12.7697 0 -164.679 -12.1047 0 -148.233 -11.2388 0 -133.566 -10.2792 0 -120.68 -9.33279 0 -109.542 -8.50631 0 -99.4446 -7.85957 0 -90.1002 -7.36156 0 -81.5082 -6.97084 0 -73.6686 -6.64594 0 -66.5815 -6.34542 0 -60.2469 -6.02783 0 -54.515 -5.66188 0 -49.2361 -5.25693 0 -44.4101 -4.83254 0 -40.0372 -4.40822 0 -36.1172 -4.00353 0 -32.6502 -3.63799 0 -29.5661 -3.32901 0 -26.6935 -3.07531 0 -24.0247 -2.86604 0 -21.5596 -2.69025 0 -19.2983 -2.537 0 -17.2408 -2.39536 0 -15.3751 -2.25469 0 -13.6298 -2.11195 0 -11.9931 -1.9716 0 -10.4649 -1.83844 0 -9.04521 -1.7173 0 -7.73406 -1.61296 0 -6.5289 -1.53021 0 -5.37371 -1.4707 0 -4.24558 -1.42996 0 -3.14451 -1.40284 0 -2.07051 -1.3842 0 -1.02356 -1.36886 0 -0.00367625 -1.35169 0 -5.34198 -372.932 0 94.7973 -375.643 0 188.993 -378.753 0 277.246 -386.497 0 365.34 -402.09 0 462.488 -422.812 0 568.807 -443.795 0 677.441 -461.157 0 771.629 -479.607 0 850.609 -508.278 0 924.919 -555.117 0 1034.18 -611.448 0 1182.19 -656.62 0 1354.07 -670.951 0 1460.61 -663.212 0 1486.93 -670.623 0 1453.96 -730.407 0 1580.22 -823.852 0 1923.83 -854.634 0 2466.74 -721.474 0 2812.01 -415.246 0 2797.27 -105.793 0 2434.93 16.7051 0 2694.3 -71.3816 0 4184.3 66.4476 0 6904.94 945.488 0 9279.87 2898.84 0 9732.75 5530.83 0 8263.58 8263.58 0 5101.29 10525.2 0 610.254 11778.6 0 -5204.84 11499.3 0 -10914.6 9294.5 0 -13024.7 5916.18 0 -11376.5 2706.05 0 -7064.83 921.306 0 -4206.42 606.498 0 -3195.47 932.221 0 -3726.44 1074.06 0 -3966.14 766.001 0 -3609.05 300.454 0 -2721.74 -10.0925 0 -1999.51 -42.848 0 -1627.29 61.7491 0 -1590.83 144.466 0 -1576.68 117.999 0 -1456.63 34.7398 0 -1232.05 -36.903 0 -1011.4 -52.0841 0 -862.811 -31.0614 0 -786.277 -5.24104 0 -739.001 1.10929 0 -678.182 -7.72356 0 -603.819 -20.3142 0 -526.502 -26.8768 0 -463.086 -27.2012 0 -413.79 -24.5429 0 -375.383 -21.9167 0 -339.975 -20.1997 0 -307.207 -19.1682 0 -277.08 -18.5895 0 -249.593 -18.2309 0 -224.746 -17.8598 0 -202.444 -17.2502 0 -182.12 -16.3328 0 -163.677 -15.195 0 -147.115 -13.9309 0 -132.436 -12.6346 0 -119.638 -11.4004 0 -108.686 -10.3219 0 -98.7727 -9.44978 0 -89.5694 -8.75073 0 -81.0757 -8.18183 0 -73.2919 -7.70015 0 -66.2177 -7.26277 0 -59.8533 -6.82675 0 -54.0797 -6.35924 0 -48.7778 -5.86769 0 -43.9477 -5.3696 0 -39.5893 -4.8825 0 -35.7028 -4.42389 0 -32.2879 -4.0113 0 -29.2664 -3.66021 0 -26.4461 -3.36861 0 -23.8184 -3.12543 0 -21.3834 -2.91954 0 -19.1409 -2.73982 0 -17.091 -2.57513 0 -15.2237 -2.41468 0 -13.4797 -2.25511 0 -11.8488 -2.10057 0 -10.3312 -1.95552 0 -8.92685 -1.82441 0 -7.63571 -1.7117 0 -6.45495 -1.62182 0 -5.32175 -1.5562 0 -4.21041 -1.5104 0 -3.12094 -1.47931 0 -2.05333 -1.45783 0 -1.00759 -1.44086 0 0.0162899 -1.42328 0 -9.08444 -403.209 0 92.3639 -405.945 0 183.827 -409.871 0 265.303 -418.602 0 345.904 -434.891 0 440.13 -456.434 0 548.166 -479.099 0 659.416 -499.581 0 747.974 -521.782 0 812.664 -553.321 0 869.561 -600.823 0 979.11 -657.077 0 1147.1 -704.896 0 1351.67 -727.901 0 1461.66 -733.276 0 1455.23 -751.779 0 1362.4 -814.206 0 1496.93 -906.728 0 1942.26 -953.603 0 2671.93 -875.13 0 3103.93 -664.769 0 3000.18 -458.062 0 2378.05 -406.7 0 2594.43 -535.9 0 4501.7 -521.449 0 8099.85 20.7007 0 11331.7 1343.02 0 12140.2 3171.69 0 10525.2 5101.29 0 6727.69 6727.69 0 1131.11 7654.2 0 -6259.62 7486.83 0 -13546.8 5928.92 0 -16091.7 3530.98 0 -13683.5 1279.72 0 -7800.29 98.7815 0 -3999.58 6.35156 0 -2813.5 368.1 0 -3803.96 554.108 0 -4342.31 367.264 0 -3990.46 43.2693 0 -2845.93 -166.705 0 -1927.35 -163.107 0 -1505.65 -56.7674 0 -1559.98 26.4602 0 -1631.93 18.1875 0 -1533.97 -38.3699 0 -1268.22 -87.2006 0 -999.901 -91.5045 0 -832.799 -67.5578 0 -766.918 -40.7257 0 -739.538 -30.584 0 -687.94 -33.552 0 -612.124 -40.2597 0 -527.897 -42.6657 0 -460.423 -40.4887 0 -410.024 -36.256 0 -372.578 -32.3062 0 -338.006 -29.3016 0 -305.851 -27.0413 0 -276.113 -25.3175 0 -248.791 -23.9222 0 -223.886 -22.6474 0 -201.341 -21.291 0 -180.816 -19.7823 0 -162.255 -18.1824 0 -145.657 -16.5581 0 -131.022 -14.9763 0 -118.351 -13.5037 0 -107.603 -12.2069 0 -97.8876 -11.1193 0 -88.8412 -10.2104 0 -80.4634 -9.44207 0 -72.7545 -8.77631 0 -65.7142 -8.17511 0 -59.3427 -7.60045 0 -53.5491 -7.02271 0 -48.2424 -6.44588 0 -43.4227 -5.88233 0 -39.0899 -5.34445 0 -35.2442 -4.84463 0 -31.8854 -4.39524 0 -28.9278 -4.00711 0 -26.1617 -3.6775 0 -23.5777 -3.39669 0 -21.1756 -3.15489 0 -18.9556 -2.94231 0 -16.9176 -2.74918 0 -15.0534 -2.56597 0 -13.3146 -2.38943 0 -11.6929 -2.22253 0 -10.1883 -2.06854 0 -8.80094 -1.93071 0 -7.53072 -1.81229 0 -6.37453 -1.71653 0 -5.26359 -1.64429 0 -4.16977 -1.59182 0 -3.09306 -1.55486 0 -2.03345 -1.52914 0 -0.990964 -1.51038 0 0.034415 -1.49433 0 -11.5991 -429.354 0 89.2032 -431.785 0 177.307 -437.2 0 252.714 -447.167 0 326.745 -462.887 0 417.426 -483.411 0 524.989 -507.014 0 636.396 -532.303 0 719.778 -560.811 0 773.687 -595.573 0 817.823 -639.211 0 926.258 -688.567 0 1106.08 -736.318 0 1330.97 -775.446 0 1442.89 -808.094 0 1415.52 -845.569 0 1284.58 -899.2 0 1423.11 -963.369 0 1930.35 -1008.95 0 2774.6 -1005.3 0 3258.87 -949.638 0 3098.03 -893.262 0 2312.4 -893.618 0 2487.21 -964.962 0 4618.3 -1002.22 0 8705.67 -879.868 0 12424.1 -512.763 0 13448.4 22.8223 0 11778.6 610.254 0 7654.2 1131.11 0 1456.51 1456.51 0 -6809.57 1453.81 0 -14977.9 1022 0 -17753.3 335.729 0 -14895.3 -288.441 0 -8103.67 -554.892 0 -3770.63 -468.301 0 -2508.12 -249.761 0 -3798.07 -118.402 0 -4531.95 -138.38 0 -4191.65 -218.874 0 -2894.02 -263.597 0 -1859.21 -233.784 0 -1411.74 -170.487 0 -1526.65 -120.459 0 -1655.21 -108.65 0 -1572.92 -117.662 0 -1282.37 -125.247 0 -984.94 -116.74 0 -807.145 -98.4368 0 -748.984 -80.2236 0 -735.06 -69.6788 0 -689.975 -65.1542 0 -613.728 -62.6948 0 -525.498 -58.9062 0 -455.81 -53.6665 0 -405.057 -48.0386 0 -368.543 -43.002 0 -334.787 -38.7966 0 -303.269 -35.2816 0 -273.989 -32.3131 0 -246.946 -29.7469 0 -222.14 -27.4392 0 -199.544 -25.2494 0 -178.986 -23.1181 0 -160.439 -21.0668 0 -143.903 -19.1204 0 -129.377 -17.3041 0 -116.862 -15.6427 0 -106.314 -14.1612 0 -96.7888 -12.8682 0 -87.8994 -11.7406 0 -79.6459 -10.7515 0 -72.0282 -9.87441 0 -65.0463 -9.08245 0 -58.7003 -8.34895 0 -52.9199 -7.6523 0 -47.6351 -6.9915 0 -42.8457 -6.37072 0 -38.5518 -5.79407 0 -34.7534 -5.26573 0 -31.4505 -4.78981 0 -28.5526 -4.3697 0 -25.8382 -4.002 0 -23.2974 -3.67983 0 -20.9301 -3.3963 0 -18.7364 -3.14448 0 -16.7161 -2.91749 0 -14.8627 -2.70857 0 -13.1355 -2.51489 0 -11.5277 -2.33747 0 -10.0394 -2.17751 0 -8.67056 -2.0362 0 -7.42117 -1.91476 0 -6.28793 -1.81435 0 -5.19806 -1.73497 0 -4.12178 -1.67423 0 -3.05908 -1.6295 0 -2.00997 -1.59812 0 -0.974451 -1.57744 0 0.047482 -1.56483 0 -11.5685 -451.363 0 84.9036 -453.155 0 168.733 -460.737 0 239.919 -472.19 0 309.697 -486.073 0 395.952 -503.734 0 498.912 -527.529 0 605.742 -559.325 0 685.061 -596.706 0 735.444 -635.055 0 776.43 -670.292 0 881.485 -705.914 0 1057.64 -750.875 0 1279.1 -813.606 0 1391.01 -887.733 0 1367.56 -952.077 0 1243.82 -985.411 0 1385.96 -993.656 0 1891.36 -1020.4 0 2728.92 -1111.63 0 3214.3 -1269.5 0 3067.55 -1411.01 0 2308.46 -1443.46 0 2479.69 -1357.53 0 4550.4 -1374.17 0 8520.56 -1753.75 0 12131.5 -2665.2 0 13124.4 -3911.67 0 11499.3 -5204.84 0 7486.83 -6259.62 0 1453.81 -6809.57 0 -6595.02 -6595.02 0 -14550.6 -5421.8 0 -17257.4 -3665.43 0 -14481.1 -1994.84 0 -7876.99 -1036.93 0 -3668.96 -815.657 0 -2452.91 -920.435 0 -3723.15 -943.049 0 -4445.43 -750.619 0 -4114.07 -485.6 0 -2843.59 -300.369 0 -1830.35 -254.593 0 -1392.51 -279.286 0 -1505.62 -296.281 0 -1631.57 -262.513 0 -1550.23 -203.096 0 -1264.15 -150.963 0 -971.433 -127.716 0 -796.557 -123.656 0 -739.519 -123.727 0 -725.896 -116.183 0 -681.268 -102.54 0 -605.635 -87.6253 0 -518.123 -75.6003 0 -449.178 -66.7351 0 -399.191 -59.8908 0 -363.433 -54.0042 0 -330.342 -48.6848 0 -299.392 -43.8891 0 -270.585 -39.5761 0 -243.919 -35.705 0 -219.395 -32.235 0 -196.996 -29.1255 0 -176.622 -26.3404 0 -158.257 -23.8483 0 -141.901 -21.6179 0 -127.553 -19.618 0 -115.215 -17.8175 0 -104.841 -16.185 0 -95.4757 -14.6965 0 -86.728 -13.3412 0 -78.5977 -12.1102 0 -71.0849 -10.9945 0 -64.1894 -9.9848 0 -57.9114 -9.07222 0 -52.1892 -8.24798 0 -46.9612 -7.50456 0 -42.2274 -6.83476 0 -37.9878 -6.23137 0 -34.2425 -5.68719 0 -30.9914 -5.19502 0 -28.143 -4.74799 0 -25.4734 -4.3421 0 -22.9726 -3.97485 0 -20.6405 -3.64376 0 -18.477 -3.34633 0 -16.4823 -3.08006 0 -14.6501 -2.84249 0 -12.9434 -2.63151 0 -11.3559 -2.4454 0 -9.88773 -2.28243 0 -8.53882 -2.14089 0 -7.30917 -2.01908 0 -6.19545 -1.91528 0 -5.12396 -1.82824 0 -4.06455 -1.75763 0 -3.01722 -1.70322 0 -1.98198 -1.66476 0 -0.95881 -1.64203 0 0.0522742 -1.63478 0 -7.96175 -469.298 0 79.1585 -470.376 0 157.582 -480.119 0 227.308 -492.946 0 296.252 -504.637 0 377.008 -518.948 0 469.74 -542.521 0 565.493 -580.645 0 642.378 -626.803 0 699.401 -668.403 0 750.7 -694.385 0 849.43 -715.19 0 1000.68 -756.756 0 1186.11 -843.636 0 1295.71 -960.602 0 1311.12 -1052.65 0 1258.18 -1064.65 0 1406.66 -1014.06 0 1828.3 -1019.05 0 2500.37 -1204.25 0 2923.08 -1576.83 0 2891.95 -1915.82 0 2421.64 -1974.35 0 2656.44 -1717.3 0 4315.17 -1694.68 0 7397.83 -2556.69 0 10138.3 -4729.88 0 10770.5 -7746.35 0 9294.5 -10914.6 0 5928.92 -13546.8 0 1022 -14977.9 0 -5421.8 -14550.6 0 -11771.4 -11771.4 0 -14039.7 -7569.68 0 -12045.4 -3607.65 0 -7052.57 -1441.81 0 -3813.61 -1112.22 0 -2783.55 -1566.09 0 -3591.83 -1757.53 0 -4015.12 -1354.97 0 -3682.87 -741.173 0 -2678.13 -324.483 0 -1868.41 -266.008 0 -1484.43 -383.796 0 -1508.42 -471.396 0 -1549.59 -416.027 0 -1448.07 -286.825 0 -1205.66 -173.785 0 -963.258 -136.012 0 -809.371 -147.266 0 -744 -166.691 0 -712.32 -162.57 0 -659.504 -139.732 0 -585.553 -112.143 0 -504.898 -91.8248 0 -440.514 -79.4417 0 -392.694 -71.5468 0 -357.389 -64.9359 0 -324.697 -58.5652 0 -294.167 -52.5035 0 -265.801 -46.8287 0 -239.598 -41.6186 0 -215.557 -36.9512 0 -193.652 -32.9009 0 -173.72 -29.4602 0 -155.734 -26.5398 0 -139.693 -24.047 0 -125.598 -21.8891 0 -113.448 -19.9732 0 -103.202 -18.207 0 -93.9488 -16.5305 0 -85.3141 -14.9475 0 -77.2983 -13.4693 0 -69.9013 -12.1069 0 -63.1232 -10.8713 0 -56.964 -9.77381 0 -51.3545 -8.82023 0 -46.2255 -7.99603 0 -41.5771 -7.28151 0 -37.4092 -6.65694 0 -33.7218 -6.10262 0 -30.515 -5.59883 0 -27.701 -5.12743 0 -25.0657 -4.68385 0 -22.5991 -4.27058 0 -20.3014 -3.89011 0 -18.1725 -3.54498 0 -16.2124 -3.23769 0 -14.4145 -2.9706 0 -12.7392 -2.74251 0 -11.1797 -2.54861 0 -9.7361 -2.38395 0 -8.40837 -2.24358 0 -7.19653 -2.12255 0 -6.09735 -2.01593 0 -5.0403 -1.92113 0 -3.99651 -1.8401 0 -2.96598 -1.77532 0 -1.9487 -1.72928 0 -0.944689 -1.70446 0 0.0460662 -1.70334 0 -2.24748 -483.311 0 72.58 -484.231 0 144.929 -494.464 0 214.798 -507.664 0 284.895 -519.035 0 359.527 -532.829 0 438.749 -556.569 0 519.619 -596.258 0 594.946 -644.587 0 664.404 -687.395 0 733.666 -712.266 0 824.065 -731.24 0 937.645 -773.984 0 1067.56 -868.604 0 1172.72 -998.366 0 1246.29 -1101.7 0 1299.84 -1116.89 0 1454.34 -1064.82 0 1741.94 -1080.9 0 2152.86 -1307.92 0 2471.75 -1755.43 0 2610.51 -2174.33 0 2576.03 -2286.12 0 2905.72 -2053.27 0 3937.18 -2103.99 0 5670.41 -3180.49 0 7087.13 -5767.14 0 7169.05 -9316.86 0 5916.18 -13024.7 0 3530.98 -16091.7 0 335.729 -17753.3 0 -3665.43 -17257.4 0 -7569.68 -14039.7 0 -9170.12 -9170.12 0 -8366.41 -4560.21 0 -5826.1 -2000.49 0 -4059.07 -1545.02 0 -3305.62 -1996.46 0 -3401.89 -2165.08 0 -3364.62 -1671.58 0 -3029.96 -947.133 0 -2432.57 -451.954 0 -1934.61 -366.972 0 -1632.39 -485.562 0 -1518.46 -573.428 0 -1428.63 -502.274 0 -1295.74 -349.668 0 -1120.47 -216.782 0 -955.314 -169.938 0 -833.256 -179.166 0 -754.296 -198.009 0 -694.138 -190.435 0 -628.486 -162.114 0 -557.342 -129.138 0 -487.612 -105.323 0 -430.29 -91.1692 0 -385.519 -82.3569 0 -350.411 -74.876 0 -317.906 -67.4576 0 -287.684 -60.2447 0 -259.745 -53.3916 0 -234.088 -47.0529 0 -210.715 -41.3832 0 -189.568 -36.5309 0 -170.306 -32.5046 0 -152.874 -29.1732 0 -137.271 -26.3996 0 -123.496 -24.0464 0 -111.551 -21.9765 0 -101.398 -20.0532 0 -92.2169 -18.1904 0 -83.6731 -16.401 0 -75.7665 -14.7093 0 -68.497 -13.1395 0 -61.8647 -11.7157 0 -55.8695 -10.4623 0 -50.4209 -9.39456 0 -45.4284 -8.49273 0 -40.8919 -7.72817 0 -36.8115 -7.07226 0 -33.1872 -6.49635 0 -30.0189 -5.97183 0 -27.227 -5.47249 0 -24.6172 -4.99321 0 -22.1805 -4.53972 0 -19.917 -4.11785 0 -17.8266 -3.73343 0 -15.9093 -3.39228 0 -14.1573 -3.09996 0 -12.5229 -2.85576 0 -10.9982 -2.65274 0 -9.58328 -2.48368 0 -8.27802 -2.34135 0 -7.08247 -2.21854 0 -5.99372 -2.10806 0 -4.94785 -2.00634 0 -3.91872 -1.91691 0 -2.90633 -1.84408 0 -1.91068 -1.79217 0 -0.931765 -1.76551 0 0.0304129 -1.76842 0 2.81907 -493.41 0 66.2532 -494.757 0 132.667 -503.731 0 202.062 -516.265 0 272.569 -529.29 0 341.218 -545.548 0 407.971 -569.882 0 475.141 -606.166 0 548.38 -649.762 0 627.946 -691.657 0 712.037 -723.971 0 793.876 -754.739 0 872.816 -803.467 0 952.1 -888.649 0 1051.19 -999.739 0 1173.33 -1097.14 0 1317.37 -1141.23 0 1471.3 -1147.77 0 1631.93 -1209.42 0 1800.95 -1423.75 0 2015.71 -1800.02 0 2291.46 -2175.92 0 2628.07 -2369.69 0 3014.77 -2365.85 0 3444.82 -2608.46 0 3918.21 -3620.25 0 4113.56 -5734.25 0 3709.51 -8524.8 0 2706.05 -11376.5 0 1279.72 -13683.5 0 -288.441 -14895.3 0 -1994.84 -14481.1 0 -3607.65 -12045.4 0 -4560.21 -8366.41 0 -4826.77 -4826.77 0 -4528.88 -2723.47 0 -4123.63 -2122.54 0 -3654.77 -2202.9 0 -3143.4 -2147.67 0 -2716.01 -1687.73 0 -2393.68 -1101.73 0 -2168.37 -688.057 0 -1955.99 -561.98 0 -1734.2 -584.652 0 -1504.64 -599.086 0 -1303.87 -518.211 0 -1146.81 -390.753 0 -1033.15 -281.002 0 -937.872 -230.779 0 -845.242 -219.806 0 -755.264 -217.176 0 -670.914 -198.944 0 -595.169 -169.022 0 -528.028 -138.288 0 -469.421 -115.993 0 -419.231 -101.889 0 -377.458 -92.2915 0 -342.426 -83.7826 0 -310.036 -75.3175 0 -280.104 -67.0725 0 -252.629 -59.2339 0 -227.611 -51.9881 0 -205.05 -45.5216 0 -184.849 -40.0134 0 -166.423 -35.475 0 -149.673 -31.7501 0 -134.601 -28.6752 0 -121.206 -26.0867 0 -109.488 -23.8213 0 -99.4156 -21.7157 0 -90.2929 -19.668 0 -81.835 -17.6944 0 -74.0419 -15.8247 0 -66.9136 -14.0889 0 -60.4501 -12.5167 0 -54.6514 -11.138 0 -49.3975 -9.97213 0 -44.568 -8.99588 0 -40.1631 -8.17554 0 -36.1828 -7.47738 0 -32.6271 -6.86767 0 -29.4958 -6.31267 0 -26.7204 -5.78156 0 -24.1324 -5.2686 0 -21.7243 -4.78103 0 -19.4961 -4.32618 0 -17.4478 -3.91137 0 -15.5794 -3.54393 0 -13.881 -3.23087 0 -12.2943 -2.97162 0 -10.8092 -2.75804 0 -9.42602 -2.58168 0 -8.14458 -2.43407 0 -6.96491 -2.30674 0 -5.88452 -2.19128 0 -4.84828 -2.08356 0 -3.83362 -1.98787 0 -2.84056 -1.90942 0 -1.86909 -1.85346 0 -0.919213 -1.82522 0 0.00907241 -1.82992 0 4.662 -499.712 0 61.1903 -501.885 0 122.571 -508.428 0 188.805 -519.565 0 256.435 -535.478 0 319.963 -556.091 0 379.318 -581.23 0 438.618 -610.773 0 507.935 -645.017 0 587.725 -684.478 0 673.471 -729.659 0 748.186 -780.917 0 810.244 -838.494 0 866.531 -902.651 0 958.36 -974.029 0 1092.61 -1053.65 0 1263.03 -1142.64 0 1404.1 -1245.92 0 1498.42 -1373.7 0 1552.15 -1536.56 0 1700.76 -1741.38 0 1999.67 -1987.92 0 2445.67 -2275.14 0 2787.87 -2624.7 0 2868.67 -3121.04 0 2688.07 -3859.31 0 2284.23 -4882.35 0 1695.31 -6023.77 0 921.306 -7064.83 0 98.7815 -7800.29 0 -554.892 -8103.67 0 -1036.93 -7876.99 0 -1441.81 -7052.57 0 -2000.49 -5826.1 0 -2723.47 -4528.88 0 -3475.58 -3475.58 0 -3748.64 -2740.09 0 -3493.99 -2222.73 0 -2808.95 -1822.1 0 -2277.55 -1484.99 0 -1997.11 -1206.42 0 -1943.54 -983.444 0 -1865.16 -810.004 0 -1695.02 -675.765 0 -1438.28 -570.09 0 -1208.26 -484.486 0 -1051.29 -414.617 0 -966.713 -356.627 0 -901.964 -307.212 0 -824.022 -264.591 0 -732.888 -227.247 0 -642.323 -194.046 0 -566.088 -165.402 0 -504.184 -142.114 0 -453.262 -124.671 0 -407.989 -111.746 0 -368.297 -101.352 0 -333.36 -91.6558 0 -301.156 -82.1449 0 -271.593 -72.987 0 -244.67 -64.3556 0 -220.388 -56.4242 0 -198.746 -49.3664 0 -179.604 -43.3484 0 -162.112 -38.3712 0 -146.127 -34.2702 0 -131.651 -30.8738 0 -118.682 -28.0101 0 -107.222 -25.5074 0 -97.2444 -23.1946 0 -88.1899 -20.9634 0 -79.8299 -18.8278 0 -72.1642 -16.8157 0 -65.1929 -14.9552 0 -58.916 -13.2743 0 -53.3334 -11.8011 0 -48.293 -10.553 0 -43.6424 -9.50548 0 -39.3817 -8.6236 0 -35.5108 -7.87231 0 -32.0298 -7.21657 0 -28.9387 -6.62137 0 -26.1804 -6.05464 0 -23.6157 -5.51005 0 -21.2382 -4.99452 0 -19.0478 -4.51509 0 -17.0447 -4.07878 0 -15.2288 -3.69263 0 -13.5884 -3.36334 0 -12.0528 -3.09009 0 -10.6104 -2.86452 0 -9.26103 -2.67796 0 -8.00484 -2.52173 0 -6.84176 -2.38716 0 -5.76975 -2.2656 0 -4.74325 -2.15279 0 -3.74365 -2.05296 0 -2.77094 -1.97134 0 -1.82513 -1.91314 0 -0.906206 -1.88357 0 -0.0141786 -1.88786 0 3.28474 -502.662 0 57.3669 -505.357 0 114.677 -510.462 0 175.214 -520.63 0 236.822 -537.89 0 296.07 -560.645 0 352.912 -585.986 0 409.977 -611.606 0 473.683 -640.463 0 544.323 -678.225 0 619.221 -729.935 0 688.322 -791.837 0 750.661 -853.834 0 810.604 -906.397 0 894.342 -956.241 0 1006.24 -1026.33 0 1142.26 -1139.8 0 1260.25 -1295.32 0 1349.01 -1457.6 0 1412.39 -1589.24 0 1535.13 -1695.32 0 1751.9 -1863.5 0 2060.3 -2190.85 0 2272 -2715.75 0 2268.68 -3314.35 0 2050.35 -3835.07 0 1672.7 -4155.66 0 1191.41 -4271.27 0 606.498 -4206.42 0 6.35156 -3999.58 0 -468.301 -3770.63 0 -815.657 -3668.96 0 -1112.22 -3813.61 0 -1545.02 -4059.07 0 -2122.54 -4123.63 0 -2740.09 -3748.64 0 -3004 -3004 0 -2876.58 -2196.34 0 -2425.73 -1627.54 0 -2058.95 -1370.01 0 -1844.15 -1266.68 0 -1766.71 -1152.56 0 -1674.08 -956.77 0 -1525.67 -738.958 0 -1324.73 -568.11 0 -1142.53 -478.723 0 -1008.2 -438.318 0 -921.354 -406.736 0 -849.451 -356.659 0 -772.068 -296.24 0 -689.203 -239.707 0 -609.539 -198.117 0 -541.759 -169.844 0 -485.863 -150.093 0 -438.916 -134.503 0 -396.243 -121.277 0 -357.786 -109.542 0 -323.142 -98.4955 0 -291.332 -87.9398 0 -262.312 -77.9882 0 -236.08 -68.7567 0 -212.638 -60.3612 0 -191.985 -52.9176 0 -173.94 -46.536 0 -157.416 -41.1934 0 -142.231 -36.7338 0 -128.387 -32.9954 0 -115.882 -29.8164 0 -104.717 -27.035 0 -94.8725 -24.4899 0 -85.921 -22.0766 0 -77.6879 -19.8011 0 -70.1732 -17.6821 0 -63.3768 -15.7384 0 -57.2988 -13.9885 0 -51.9391 -12.4514 0 -47.1165 -11.137 0 -42.6497 -10.0215 0 -38.5387 -9.07237 0 -34.7834 -8.25704 0 -31.3839 -7.54306 0 -28.3402 -6.89791 0 -25.6066 -6.29172 0 -23.0714 -5.71754 0 -20.7296 -5.18019 0 -18.581 -4.68459 0 -16.6259 -4.23568 0 -14.864 -3.83839 0 -13.2819 -3.49738 0 -11.7982 -3.21117 0 -10.3992 -2.97217 0 -9.08503 -2.77252 0 -7.8556 -2.60435 0 -6.71093 -2.45979 0 -5.64938 -2.33101 0 -4.63446 -2.21401 0 -3.65125 -2.1122 0 -2.69976 -2.02984 0 -1.77998 -1.97121 0 -0.891916 -1.94058 0 -0.0355636 -1.94222 0 0.549637 -502.301 0 54.0109 -505.146 0 107.768 -510.018 0 161.82 -519.754 0 216.338 -536.551 0 271.595 -558.844 0 327.594 -583.706 0 384.363 -608.811 0 441.965 -637.068 0 500.405 -674.084 0 560.343 -724.856 0 624.265 -785.783 0 692.408 -847.071 0 764.587 -899.482 0 839.686 -949.728 0 917.519 -1020.47 0 998.813 -1134.52 0 1091.17 -1289.86 0 1196.61 -1450.01 0 1314.37 -1576.32 0 1427.84 -1672.9 0 1530.2 -1826.89 0 1621.3 -2134.87 0 1689.1 -2628.05 0 1726.01 -3157.05 0 1732.05 -3541.55 0 1636.9 -3644.57 0 1370.3 -3502.6 0 932.221 -3195.47 0 368.1 -2813.5 0 -249.761 -2508.12 0 -920.435 -2452.91 0 -1566.09 -2783.55 0 -1996.46 -3305.62 0 -2202.9 -3654.77 0 -2222.73 -3493.99 0 -2196.34 -2876.58 0 -2137.16 -2137.16 0 -2045.9 -1606.05 0 -1926.86 -1372.17 0 -1780.75 -1283.02 0 -1610.9 -1177.64 0 -1451.94 -987.509 0 -1313.09 -772.324 0 -1193.89 -600.964 0 -1084.19 -508.357 0 -979.833 -463.491 0 -880.86 -427.796 0 -790.005 -375.045 0 -708.989 -313.098 0 -637.812 -255.655 0 -574.82 -213.298 0 -518.356 -184.13 0 -468.421 -163.131 0 -423.89 -145.791 0 -382.972 -130.536 0 -345.643 -116.863 0 -311.698 -104.302 0 -280.633 -92.7021 0 -252.425 -82.0761 0 -227.076 -72.4373 0 -204.584 -63.7992 0 -184.949 -56.1753 0 -167.964 -49.5761 0 -152.377 -43.9414 0 -137.982 -39.1407 0 -124.776 -35.04 0 -112.761 -31.5057 0 -101.937 -28.404 0 -92.2885 -25.6015 0 -83.4992 -23.0075 0 -75.4392 -20.6143 0 -68.1085 -18.424 0 -61.5071 -16.4384 0 -55.6349 -14.6594 0 -50.4921 -13.089 0 -45.877 -11.7244 0 -41.5879 -10.544 0 -37.6251 -9.52183 0 -33.9883 -8.63159 0 -30.6777 -7.84714 0 -27.6932 -7.1423 0 -24.9983 -6.49282 0 -22.504 -5.89108 0 -20.2061 -5.33802 0 -18.1047 -4.83468 0 -16.1997 -4.38207 0 -14.4912 -3.98121 0 -12.9644 -3.63297 0 -11.5301 -3.33486 0 -10.1735 -3.081 0 -8.89473 -2.86535 0 -7.69366 -2.68191 0 -6.57032 -2.52463 0 -5.52339 -2.38753 0 -4.52357 -2.26724 0 -3.55887 -2.16557 0 -2.6293 -2.08492 0 -1.73484 -2.02768 0 -0.875513 -1.99624 0 -0.0513061 -1.99301 0 -1.68773 -498.775 0 50.3583 -501.439 0 100.636 -507.069 0 149.145 -516.828 0 197.568 -531.672 0 248.58 -551.337 0 302.218 -575.12 0 356.973 -602.458 0 409.157 -633.998 0 458.605 -671.016 0 507.771 -714.704 0 565.893 -765.088 0 633.853 -821.351 0 708.972 -882.767 0 775.164 -951.077 0 829.749 -1030.49 0 875.969 -1125.27 0 947.688 -1237.26 0 1053.91 -1364.96 0 1191.4 -1506.66 0 1288.67 -1666.12 0 1316.5 -1857.76 0 1276.06 -2097.17 0 1258 -2389.35 0 1319.29 -2709.95 0 1459.94 -3029.56 0 1537.28 -3320.21 0 1408.65 -3559.51 0 1074.06 -3726.44 0 554.108 -3803.96 0 -118.402 -3798.07 0 -943.049 -3723.15 0 -1757.53 -3591.83 0 -2165.08 -3401.89 0 -2147.67 -3143.4 0 -1822.1 -2808.95 0 -1627.54 -2425.73 0 -1606.05 -2045.9 0 -1720.6 -1720.6 0 -1749.03 -1465.24 0 -1654.34 -1259.49 0 -1449.26 -1081.7 0 -1267.08 -920.459 0 -1143.23 -778.56 0 -1075.34 -659.826 0 -1011.03 -564.924 0 -928.901 -488.391 0 -829.211 -424.06 0 -733.19 -367.212 0 -654.174 -317.124 0 -592.163 -273.757 0 -540.391 -236.934 0 -492.094 -205.93 0 -447.271 -179.878 0 -405.733 -157.927 0 -367.18 -139.303 0 -331.606 -123.259 0 -298.962 -109.093 0 -269.127 -96.4818 0 -242.095 -85.3017 0 -217.866 -75.4293 0 -196.44 -66.7411 0 -177.817 -59.1139 0 -161.781 -52.4251 0 -147.039 -46.5673 0 -133.375 -41.4486 0 -120.788 -36.9777 0 -109.279 -33.0633 0 -98.8471 -29.6143 0 -89.4822 -26.5394 0 -80.9378 -23.7699 0 -73.1133 -21.28 0 -66.0089 -19.0492 0 -59.6244 -17.0568 0 -53.9599 -15.2821 0 -49.0154 -13.7043 0 -44.5832 -12.3036 0 -40.4556 -11.0624 0 -36.6325 -9.96388 0 -33.114 -8.99124 0 -29.9 -8.12764 0 -26.9907 -7.35624 0 -24.355 -6.66112 0 -21.9177 -6.03398 0 -19.6751 -5.47052 0 -17.6275 -4.96644 0 -15.7746 -4.51745 0 -14.1167 -4.11927 0 -12.6383 -3.76763 0 -11.2482 -3.45868 0 -9.93107 -3.18904 0 -8.687 -2.95532 0 -7.51596 -2.75415 0 -6.41793 -2.58214 0 -5.39179 -2.43593 0 -4.41222 -2.31314 0 -3.46887 -2.21336 0 -2.56176 -2.13636 0 -1.69087 -2.08196 0 -0.856204 -2.04995 0 -0.0577696 -2.04012 0 -2.67153 -492.962 0 46.2106 -495.344 0 92.8751 -501.469 0 137.322 -511.196 0 181.336 -524.497 0 227.759 -542.006 0 276.628 -564.599 0 326.595 -592.969 0 374.367 -626.254 0 419.794 -662.788 0 464.755 -701.173 0 516.318 -743.752 0 575.16 -795.56 0 639.27 -861.417 0 696.582 -939.817 0 745.086 -1022.93 0 786.984 -1102.9 0 845.279 -1183.91 0 926.09 -1286.76 0 1027 -1433.36 0 1094.92 -1626.88 0 1108.11 -1834.13 0 1067.4 -2017.76 0 1037.31 -2166.03 0 1058.36 -2337.8 0 1130.55 -2604.05 0 1155.22 -3009.35 0 1033.71 -3492.56 0 766.001 -3966.14 0 367.264 -4342.31 0 -138.38 -4531.95 0 -750.619 -4445.43 0 -1354.97 -4015.12 0 -1671.58 -3364.62 0 -1687.73 -2716.01 0 -1484.99 -2277.55 0 -1370.01 -2058.95 0 -1372.17 -1926.86 0 -1465.24 -1749.03 0 -1491.86 -1491.86 0 -1425.8 -1220.33 0 -1276.28 -1002.8 0 -1139.42 -865.061 0 -1040.8 -773.861 0 -978.827 -691.73 0 -918.948 -597.653 0 -847.018 -502.559 0 -763.224 -421.043 0 -682.219 -362.22 0 -613.209 -320.074 0 -556.194 -285.996 0 -507.219 -253.085 0 -462.328 -221.277 0 -421.522 -192.215 0 -384.076 -167.276 0 -348.839 -146.26 0 -315.795 -128.404 0 -285.064 -112.977 0 -256.942 -99.578 0 -231.442 -87.9716 0 -208.563 -77.9252 0 -188.307 -69.206 0 -170.672 -61.5811 0 -155.457 -54.8213 0 -141.448 -48.7819 0 -128.445 -43.4029 0 -116.446 -38.628 0 -105.453 -34.4006 0 -95.4635 -30.6646 0 -86.4694 -27.3635 0 -78.2536 -24.4465 0 -70.7275 -21.8734 0 -63.891 -19.6052 0 -57.7441 -17.6029 0 -52.287 -15.8276 0 -47.5195 -14.2403 0 -43.2426 -12.8068 0 -39.2576 -11.5131 0 -35.5642 -10.3499 0 -32.1626 -9.30777 0 -29.0528 -8.37757 0 -26.2346 -7.54999 0 -23.6792 -6.8158 0 -21.3152 -6.16621 0 -19.1395 -5.5926 0 -17.1522 -5.08639 0 -15.3531 -4.63898 0 -13.7423 -4.24177 0 -12.305 -3.88633 0 -10.9533 -3.56772 0 -9.67229 -3.28454 0 -8.46208 -3.03553 0 -7.32263 -2.81944 0 -6.25395 -2.63501 0 -5.25492 -2.48099 0 -4.30089 -2.35578 0 -3.38178 -2.25718 0 -2.49759 -2.18288 0 -1.64832 -2.1306 0 -0.833967 -2.09805 0 -0.0545369 -2.08293 0 -2.74569 -485.007 0 41.9346 -487.045 0 84.8805 -493.193 0 126.092 -502.747 0 166.712 -515.234 0 208.561 -531.5 0 251.661 -552.87 0 295.612 -580.415 0 339.433 -613.002 0 383.081 -648.362 0 426.856 -684.547 0 471.89 -724.108 0 518.292 -772.842 0 566.015 -836.291 0 614.783 -912.538 0 664.549 -992.21 0 715.088 -1065.9 0 764.03 -1137.52 0 810.745 -1229.46 0 854.99 -1365.28 0 891.355 -1547.16 0 917.629 -1735.67 0 933.634 -1886.64 0 925.437 -1985.8 0 884.286 -2101.41 0 810.179 -2315.84 0 693.154 -2683.1 0 523.245 -3143.52 0 300.454 -3609.05 0 43.2693 -3990.46 0 -218.874 -4191.65 0 -485.6 -4114.07 0 -741.173 -3682.87 0 -947.133 -3029.96 0 -1101.73 -2393.68 0 -1206.42 -1997.11 0 -1266.68 -1844.15 0 -1283.02 -1780.75 0 -1259.49 -1654.34 0 -1220.33 -1425.8 0 -1169.57 -1169.57 0 -1107.76 -963.942 0 -1040.48 -839.554 0 -969.231 -760.925 0 -894.291 -687.849 0 -821.921 -598.08 0 -754.683 -504.252 0 -692.554 -422.998 0 -633.952 -364.913 0 -577.882 -323.908 0 -524.342 -291.037 0 -475.007 -259.093 0 -431.554 -227.843 0 -393.98 -198.792 0 -360.635 -173.23 0 -328.892 -151.189 0 -298.715 -132.242 0 -270.325 -115.974 0 -244.261 -102.041 0 -220.546 -90.1366 0 -199.181 -79.957 0 -180.166 -71.1969 0 -163.501 -63.5513 0 -149.011 -56.7211 0 -135.657 -50.5372 0 -123.264 -44.9614 0 -111.832 -39.9609 0 -101.361 -35.5029 0 -91.8512 -31.5548 0 -83.2928 -28.0837 0 -75.4676 -25.0511 0 -68.2865 -22.4069 0 -61.7493 -20.0997 0 -55.8561 -18.0783 0 -50.6069 -16.2912 0 -46.0017 -14.6872 0 -41.8611 -13.2227 0 -38.0057 -11.8856 0 -34.4354 -10.6717 0 -31.1503 -9.57647 0 -28.1504 -8.59576 0 -25.4356 -7.72523 0 -22.9759 -6.96007 0 -20.6977 -6.29108 0 -18.5976 -5.70676 0 -16.6756 -5.19562 0 -14.9317 -4.74617 0 -13.366 -4.34691 0 -11.9649 -3.98658 0 -10.6475 -3.65949 0 -9.4004 -3.36554 0 -8.22358 -3.10484 0 -7.11702 -2.87751 0 -6.08072 -2.68369 0 -5.11349 -2.52349 0 -4.18894 -2.39583 0 -3.29627 -2.29731 0 -2.43548 -2.22426 0 -1.60658 -2.17303 0 -0.809554 -2.13994 0 -0.0444107 -2.12132 0 -2.29989 -474.941 0 37.9172 -476.587 0 77.0789 -482.321 0 115.185 -491.566 0 152.7 -503.896 0 190.364 -519.747 0 228.185 -539.866 0 266.53 -564.895 0 306.293 -594.553 0 347.515 -628.081 0 389.364 -664.827 0 428.713 -705.667 0 465.262 -752.57 0 500.251 -807.459 0 541.118 -870.547 0 589.102 -940.338 0 642.445 -1015.33 0 682.771 -1096.88 0 705.193 -1190.37 0 710.863 -1301.4 0 725.069 -1430.78 0 758.157 -1569.97 0 809.316 -1709.35 0 815.155 -1844.9 0 735.853 -1988.04 0 571.411 -2152.84 0 368.791 -2346.09 0 174.957 -2545.55 0 -10.0925 -2721.74 0 -166.705 -2845.93 0 -263.597 -2894.02 0 -300.369 -2843.59 0 -324.483 -2678.13 0 -451.954 -2432.57 0 -688.057 -2168.37 0 -983.444 -1943.54 0 -1152.56 -1766.71 0 -1177.64 -1610.9 0 -1081.7 -1449.26 0 -1002.8 -1276.28 0 -963.942 -1107.76 0 -960.199 -960.199 0 -940.066 -840.076 0 -889.844 -739.928 0 -810.949 -651.298 0 -734.542 -569.005 0 -673.37 -494.242 0 -627.29 -428.93 0 -585.027 -374.082 0 -539.5 -328.195 0 -490.708 -289.338 0 -443.411 -255.738 0 -402.367 -226.26 0 -367.575 -199.927 0 -337.199 -175.897 0 -308.316 -154.106 0 -280.887 -134.774 0 -255.074 -118.083 0 -231.268 -103.87 0 -209.486 -91.7969 0 -189.728 -81.5247 0 -171.995 -72.7138 0 -156.286 -65.0247 0 -142.466 -58.1244 0 -129.717 -51.8332 0 -117.904 -46.124 0 -107.026 -40.9764 0 -97.0842 -36.3701 0 -88.0778 -32.2849 0 -79.9961 -28.7001 0 -72.6009 -25.5837 0 -65.7946 -22.8806 0 -59.5773 -20.5329 0 -53.949 -18.4829 0 -48.9096 -16.6729 0 -44.4592 -15.0452 0 -40.4444 -13.5513 0 -36.7119 -12.1799 0 -33.2617 -10.9293 0 -30.0937 -9.79734 0 -27.208 -8.78222 0 -24.6045 -7.88198 0 -22.2506 -7.09393 0 -20.0661 -6.40859 0 -18.0473 -5.81299 0 -16.1943 -5.29413 0 -14.507 -4.83903 0 -12.9855 -4.43468 0 -11.6179 -4.06838 0 -10.3329 -3.73401 0 -9.1187 -3.43204 0 -7.97526 -3.16324 0 -6.9026 -2.92837 0 -5.90071 -2.72819 0 -4.96825 -2.56345 0 -4.07569 -2.43329 0 -3.21097 -2.33374 0 -2.37407 -2.2605 0 -1.56499 -2.20923 0 -0.783749 -2.1756 0 -0.0303333 -2.15531 0 -1.63135 -463.076 0 34.3478 -464.43 0 69.7321 -469.698 0 104.522 -478.522 0 138.836 -490.605 0 172.866 -505.997 0 206.613 -524.879 0 240.579 -547.453 0 275.986 -574.152 0 312.889 -605.526 0 350.4 -642.055 0 385.175 -683.302 0 416.893 -728.164 0 446.584 -775.643 0 480.418 -827.492 0 519.424 -888.211 0 562.126 -962.31 0 593.126 -1049.25 0 608.325 -1141.49 0 608.642 -1231.02 0 614.254 -1317.65 0 633.414 -1416.35 0 665.471 -1543.82 0 659.663 -1703.87 0 584.098 -1864.76 0 438.777 -1988.67 0 265.131 -2046.63 0 104.589 -2045.13 0 -42.848 -1999.51 0 -163.107 -1927.35 0 -233.784 -1859.21 0 -254.593 -1830.35 0 -266.008 -1868.41 0 -366.972 -1934.61 0 -561.98 -1955.99 0 -810.004 -1865.16 0 -956.77 -1674.08 0 -987.509 -1451.94 0 -920.459 -1267.08 0 -865.061 -1139.42 0 -839.554 -1040.48 0 -840.076 -940.066 0 -826.299 -826.299 0 -787.497 -712.703 0 -724.795 -614.609 0 -662.911 -539.666 0 -611.958 -480.604 0 -571.834 -428.443 0 -534.505 -377.091 0 -494.926 -328.424 0 -453.095 -285.688 0 -412.289 -251.144 0 -375.783 -223.121 0 -343.579 -198.965 0 -314.754 -176.386 0 -287.842 -155.203 0 -262.824 -136.002 0 -239.642 -119.304 0 -218.15 -105.065 0 -198.34 -92.9524 0 -180.214 -82.6284 0 -163.772 -73.7568 0 -149.012 -66.0011 0 -135.84 -59.0314 0 -123.681 -52.6699 0 -112.438 -46.8906 0 -102.112 -41.6745 0 -92.703 -37.0023 0 -84.2106 -32.8548 0 -76.6229 -29.2127 0 -69.6743 -26.0443 0 -63.2563 -23.2944 0 -57.3687 -20.9046 0 -52.0116 -18.8167 0 -47.1851 -16.9727 0 -42.889 -15.3142 0 -38.9984 -13.7925 0 -35.3883 -12.396 0 -32.0587 -11.1227 0 -29.0094 -9.97039 0 -26.2407 -8.93694 0 -23.7524 -8.02023 0 -21.5086 -7.21737 0 -19.4214 -6.51874 0 -17.4868 -5.91129 0 -15.7048 -5.38192 0 -14.0754 -4.91754 0 -12.5986 -4.50508 0 -11.2643 -4.13172 0 -10.0116 -3.79125 0 -8.83049 -3.48404 0 -7.72091 -3.21074 0 -6.68287 -2.97201 0 -5.71637 -2.7685 0 -4.81992 -2.60085 0 -3.96045 -2.46815 0 -3.12446 -2.36649 0 -2.31195 -2.2916 0 -1.52291 -2.23921 0 -0.757339 -2.20506 0 -0.0152473 -2.18488 0 -0.908975 -449.497 0 31.1409 -450.696 0 62.8731 -455.549 0 94.2875 -463.846 0 125.394 -475.392 0 156.206 -490.053 0 186.726 -507.72 0 217.213 -528.365 0 248.304 -552.662 0 280.028 -581.649 0 312.008 -616.241 0 342.827 -655.653 0 372.35 -697.876 0 400.682 -741.036 0 428.462 -787.002 0 455.797 -841.385 0 482.34 -909.811 0 504.468 -991.235 0 521.219 -1075.36 0 532.531 -1151.28 0 537.023 -1218.37 0 534.132 -1295.91 0 523.731 -1405.46 0 496.008 -1552.21 0 444.797 -1696.21 0 370.098 -1789.74 0 278.209 -1797.58 0 175.426 -1734.38 0 61.7491 -1627.29 0 -56.7674 -1505.65 0 -170.487 -1411.74 0 -279.286 -1392.51 0 -383.796 -1484.43 0 -485.562 -1632.39 0 -584.652 -1734.2 0 -675.765 -1695.02 0 -738.958 -1525.67 0 -772.324 -1313.09 0 -778.56 -1143.23 0 -773.861 -1040.8 0 -760.925 -969.231 0 -739.928 -889.844 0 -712.703 -787.497 0 -679.737 -679.737 0 -641.22 -586.435 0 -601.349 -517.837 0 -561.841 -465.483 0 -522.706 -418.772 0 -484.819 -370.58 0 -448.728 -323.398 0 -414.432 -281.362 0 -381.782 -247.472 0 -350.626 -220.178 0 -320.963 -196.794 0 -293.173 -174.991 0 -267.857 -154.53 0 -245.024 -135.925 0 -224.358 -119.637 0 -205.091 -105.627 0 -187.187 -93.6031 0 -170.648 -83.268 0 -155.473 -74.3258 0 -141.661 -66.4806 0 -129.154 -59.442 0 -117.6 -53.0472 0 -106.939 -47.2614 0 -97.1717 -42.0553 0 -88.2977 -37.3994 0 -80.3171 -33.2646 0 -73.2169 -29.6214 0 -66.709 -26.433 0 -60.6757 -23.6484 0 -55.1169 -21.2149 0 -50.0328 -19.0798 0 -45.4231 -17.1905 0 -41.2881 -15.4943 0 -37.5289 -13.9464 0 -34.0469 -12.5339 0 -30.842 -11.252 0 -27.9142 -10.0956 0 -25.2636 -9.05993 0 -22.8901 -8.13999 0 -20.7552 -7.3304 0 -18.7647 -6.62154 0 -16.9142 -6.00166 0 -15.2037 -5.45898 0 -13.6333 -4.98172 0 -12.203 -4.55811 0 -10.9042 -4.17661 0 -9.6857 -3.83124 0 -8.53907 -3.52154 0 -7.46427 -3.24734 0 -6.4613 -3.00843 0 -5.53016 -2.80462 0 -4.66922 -2.6357 0 -3.84253 -2.50043 0 -3.03537 -2.39554 0 -2.24774 -2.31755 0 -1.47966 -2.26297 0 -0.731108 -2.2283 0 -0.00209507 -2.21005 0 -0.291692 -434.245 0 28.1915 -435.423 0 56.5181 -439.909 0 84.688 -447.579 0 112.701 -458.309 0 140.558 -471.974 0 168.258 -488.451 0 195.757 -507.675 0 222.949 -530.112 0 249.829 -556.499 0 276.514 -587.509 0 303.45 -622.935 0 330.68 -661.938 0 357.576 -703.723 0 380.383 -748.923 0 398.475 -799.591 0 412.367 -857.795 0 427.435 -923.328 0 445.107 -992.829 0 464.6 -1062.73 0 468.627 -1132.48 0 450.12 -1207.38 0 409.346 -1293.4 0 367.233 -1390.96 0 336.931 -1485.21 0 318.439 -1558.64 0 290.717 -1597.9 0 232.726 -1606.19 0 144.466 -1590.83 0 26.4602 -1559.98 0 -120.459 -1526.65 0 -296.281 -1505.62 0 -471.396 -1508.42 0 -573.428 -1518.46 0 -599.086 -1504.64 0 -570.09 -1438.28 0 -568.11 -1324.73 0 -600.964 -1193.89 0 -659.826 -1075.34 0 -691.73 -978.827 0 -687.849 -894.291 0 -651.298 -810.949 0 -614.609 -724.795 0 -586.435 -641.22 0 -566.285 -566.285 0 -543.337 -503.067 0 -513.165 -448.847 0 -475.86 -400.245 0 -438.635 -354.9 0 -406.021 -313.274 0 -378.018 -276.312 0 -352.055 -244.61 0 -325.561 -217.363 0 -298.536 -193.419 0 -272.25 -171.756 0 -248.722 -152.129 0 -227.98 -134.569 0 -209.55 -119.091 0 -192.276 -105.558 0 -176.106 -93.7485 0 -161.039 -83.444 0 -147.076 -74.4245 0 -134.216 -66.4704 0 -122.429 -59.3653 0 -111.527 -52.9745 0 -101.48 -47.2441 0 -92.2872 -42.1242 0 -83.9487 -37.5644 0 -76.4646 -33.5146 0 -69.8216 -29.9248 0 -63.7259 -26.7474 0 -58.0572 -23.9405 0 -52.8157 -21.4625 0 -48.0012 -19.2719 0 -43.6138 -17.3271 0 -39.6535 -15.5868 0 -36.0416 -14.0146 0 -32.6995 -12.5951 0 -29.6272 -11.3182 0 -26.8246 -10.1736 0 -24.2917 -9.15121 0 -22.0286 -8.24083 0 -19.9958 -7.43236 0 -18.0969 -6.71632 0 -16.3275 -6.0836 0 -14.6877 -5.52505 0 -13.1773 -5.03156 0 -11.7964 -4.594 0 -10.5377 -4.20339 0 -9.3573 -3.8543 0 -8.24775 -3.54481 0 -7.2091 -3.27317 0 -6.24136 -3.03762 0 -5.34453 -2.83642 0 -4.5169 -2.66782 0 -3.72123 -2.52995 0 -2.94229 -2.42082 0 -2.18008 -2.33837 0 -1.4346 -2.28057 0 -0.705839 -2.24539 0 0.00619304 -2.23078 0 0.123658 -418.247 0 25.4278 -419.43 0 50.6703 -423.574 0 75.8511 -430.609 0 100.97 -440.47 0 126.028 -453.087 0 151.024 -468.393 0 175.742 -486.346 0 199.654 -507.148 0 222.736 -531.122 0 245.241 -558.594 0 268.122 -589.917 0 291.471 -625.466 0 314.612 -665.579 0 333.493 -709.796 0 347.44 -756.864 0 356.964 -805.533 0 367.419 -856.364 0 380.231 -912.438 0 394.683 -976.987 0 395.036 -1049.62 0 374.852 -1122.88 0 334.399 -1188.54 0 294.537 -1242.74 0 268.371 -1293.87 0 255.902 -1352.36 0 236.832 -1424.97 0 190.864 -1503.66 0 117.999 -1576.68 0 18.1875 -1631.93 0 -108.65 -1655.21 0 -262.513 -1631.57 0 -416.027 -1549.59 0 -502.274 -1428.63 0 -518.211 -1303.87 0 -484.486 -1208.26 0 -478.723 -1142.53 0 -508.357 -1084.19 0 -564.924 -1011.03 0 -597.653 -918.948 0 -598.08 -821.921 0 -569.005 -734.542 0 -539.666 -662.911 0 -517.837 -601.349 0 -503.067 -543.337 0 -485.395 -485.395 0 -460.749 -429.95 0 -429.212 -380.105 0 -397.433 -337.772 0 -369.589 -301.565 0 -345.679 -269.537 0 -323.28 -240.104 0 -299.967 -213.15 0 -275.74 -188.923 0 -251.935 -167.601 0 -230.68 -148.926 0 -212.001 -132.486 0 -195.434 -117.888 0 -179.841 -104.899 0 -165.17 -93.3746 0 -151.421 -83.1685 0 -138.595 -74.135 0 -126.691 -66.1284 0 -115.694 -59.0047 0 -105.506 -52.6563 0 -96.1133 -47.0122 0 -87.5141 -42.0031 0 -79.709 -37.5596 0 -72.698 -33.6122 0 -66.4685 -30.0918 0 -60.7436 -26.9413 0 -55.4098 -24.1272 0 -50.4674 -21.619 0 -45.9162 -19.3859 0 -41.7562 -17.3975 0 -37.9875 -15.623 0 -34.543 -14.0344 0 -31.3554 -12.614 0 -28.4248 -11.3468 0 -25.7513 -10.2177 0 -23.3347 -9.21161 0 -21.1752 -8.31354 0 -19.2346 -7.50897 0 -17.42 -6.78864 0 -15.727 -6.14593 0 -14.1558 -5.57426 0 -12.7063 -5.06702 0 -11.3785 -4.61764 0 -10.1657 -4.21959 0 -9.028 -3.86798 0 -7.95867 -3.55952 0 -6.95773 -3.29103 0 -6.02517 -3.05928 0 -5.161 -2.86107 0 -4.36356 -2.69321 0 -3.59643 -2.55328 0 -2.84471 -2.44045 0 -2.10838 -2.35404 0 -1.38746 -2.29337 0 -0.681948 -2.25777 0 0.00816249 -2.24657 0 0.360839 -401.883 0 22.8427 -403.052 0 45.3078 -406.866 0 67.7562 -413.3 0 90.1879 -422.331 0 112.603 -433.935 0 135.001 -448.088 0 157.102 -464.773 0 178.217 -484.034 0 198.315 -505.946 0 217.559 -530.615 0 236.554 -558.55 0 255.361 -590.555 0 273.638 -627.369 0 289.347 -668.21 0 302.148 -710.766 0 312.086 -752.725 0 319.631 -794.776 0 324.908 -841.768 0 327.692 -898.811 0 323.039 -965.552 0 308.926 -1031.03 0 285.407 -1083.07 0 256.686 -1116.81 0 225.402 -1147.59 0 191.557 -1194.22 0 150.716 -1269.53 0 98.4433 -1362.62 0 34.7398 -1456.63 0 -38.3699 -1533.97 0 -117.662 -1572.92 0 -203.096 -1550.23 0 -286.825 -1448.07 0 -349.668 -1295.74 0 -390.753 -1146.81 0 -414.617 -1051.29 0 -438.318 -1008.2 0 -463.491 -979.833 0 -488.391 -928.901 0 -502.559 -847.018 0 -504.252 -754.683 0 -494.242 -673.37 0 -480.604 -611.958 0 -465.483 -561.841 0 -448.847 -513.165 0 -429.95 -460.749 0 -408.487 -408.487 0 -384.489 -361.315 0 -360.379 -322.353 0 -337.679 -289.708 0 -316.388 -260.625 0 -295.649 -232.95 0 -274.603 -206.914 0 -253.251 -183.343 0 -232.488 -162.902 0 -213.74 -145.301 0 -197.026 -129.905 0 -182.001 -116.115 0 -167.82 -103.669 0 -154.445 -92.4758 0 -141.877 -82.4462 0 -130.115 -73.4906 0 -119.159 -65.5193 0 -108.999 -58.4431 0 -99.5671 -52.1762 0 -90.8532 -46.6365 0 -82.8572 -41.7419 0 -75.5791 -37.4106 0 -69.0188 -33.5605 0 -63.1652 -30.1098 0 -57.7759 -26.9954 0 -52.7514 -24.1906 0 -48.0919 -21.6727 0 -43.7972 -19.4193 0 -39.8674 -17.4078 0 -36.3025 -15.6156 0 -33.0401 -14.0209 0 -30.0179 -12.6045 0 -27.2358 -11.3481 0 -24.6938 -10.2332 0 -22.3919 -9.24145 0 -20.3302 -8.35433 0 -18.4738 -7.55441 0 -16.7373 -6.8326 0 -15.1169 -6.18411 0 -13.6126 -5.60419 0 -12.2244 -5.08808 0 -10.9523 -4.63102 0 -9.78986 -4.22828 0 -8.69849 -3.87536 0 -7.67176 -3.56803 0 -6.70966 -3.30208 0 -5.8122 -3.07327 0 -4.97938 -2.87739 0 -4.20965 -2.71024 0 -3.46905 -2.56901 0 -2.7437 -2.45369 0 -2.0336 -2.36456 0 -1.33875 -2.30191 0 -0.659138 -2.26603 0 0.00522476 -2.25722 0 0.457472 -385.152 0 20.4367 -386.29 0 40.406 -389.787 0 60.3653 -395.652 0 80.3146 -403.893 0 100.254 -414.518 0 120.183 -427.536 0 139.814 -442.954 0 158.441 -460.768 0 176.031 -480.967 0 192.615 -503.562 0 208.304 -528.819 0 223.107 -557.193 0 237.017 -589.107 0 249.983 -624.205 0 261.997 -661.351 0 272.683 -699.403 0 278.111 -738.535 0 277.236 -780.75 0 270.269 -828.164 0 261.814 -880.354 0 253.756 -931.966 0 245.957 -977.084 0 227.586 -1013.02 0 191.84 -1046.01 0 138.719 -1083.82 0 78.0001 -1131.55 0 19.4594 -1183.69 0 -36.903 -1232.05 0 -87.2006 -1268.22 0 -125.247 -1282.37 0 -150.963 -1264.15 0 -173.785 -1205.66 0 -216.782 -1120.47 0 -281.002 -1033.15 0 -356.627 -966.713 0 -406.736 -921.354 0 -427.796 -880.86 0 -424.06 -829.211 0 -421.043 -763.224 0 -422.998 -692.554 0 -428.93 -627.29 0 -428.443 -571.834 0 -418.772 -522.706 0 -400.245 -475.86 0 -380.105 -429.212 0 -361.315 -384.489 0 -343.858 -343.858 0 -326.377 -308.62 0 -308.022 -277.694 0 -288.792 -249.592 0 -269.357 -223.171 0 -250.389 -198.673 0 -231.888 -176.687 0 -214.203 -157.663 0 -197.889 -141.254 0 -182.954 -126.823 0 -169.218 -113.773 0 -156.24 -101.867 0 -143.999 -91.0522 0 -132.495 -81.2773 0 -121.729 -72.4913 0 -111.7 -64.6431 0 -102.395 -57.6805 0 -93.7364 -51.5342 0 -85.7096 -46.1169 0 -78.3152 -41.3407 0 -71.5531 -37.1175 0 -65.4232 -33.3595 0 -59.9168 -29.9788 0 -54.8362 -26.9099 0 -50.1009 -24.1306 0 -45.7109 -21.6237 0 -41.666 -19.3719 0 -37.9664 -17.358 0 -34.612 -15.5646 0 -31.5405 -13.9742 0 -28.6897 -12.5668 0 -26.0596 -11.3223 0 -23.6501 -10.2203 0 -21.4613 -9.24074 0 -19.4932 -8.3632 0 -17.7152 -7.56866 0 -16.0525 -6.84818 0 -14.5018 -6.19812 0 -13.063 -5.61485 0 -11.7363 -5.09473 0 -10.5214 -4.63415 0 -9.41211 -4.22946 0 -8.36935 -3.87644 0 -7.38669 -3.57033 0 -6.46411 -3.30631 0 -5.60162 -3.0796 0 -4.79922 -2.8854 0 -4.05553 -2.71891 0 -3.34014 -2.57713 0 -2.64059 -2.46053 0 -1.95689 -2.36993 0 -1.28904 -2.3062 0 -0.637033 -2.27018 0 -0.000879365 -2.26273 0 0.45118 -368.054 0 18.2104 -369.143 0 35.9402 -372.336 0 53.6405 -377.664 0 71.3114 -385.154 0 88.9528 -394.836 0 106.565 -406.738 0 123.87 -420.884 0 140.189 -437.263 0 155.493 -455.846 0 169.769 -476.604 0 182.971 -499.507 0 195.097 -524.528 0 206.203 -551.645 0 216.634 -581.017 0 226.448 -612.982 0 235.232 -647.869 0 238.689 -685.298 0 235.675 -723.903 0 226.463 -762.256 0 217.027 -799.86 0 209.812 -838.034 0 204.663 -878.304 0 189.4 -920.518 0 156.372 -959.887 0 105.58 -990.83 0 48.2791 -1009.03 0 -4.27562 -1015.22 0 -52.0841 -1011.4 0 -91.5045 -999.901 0 -116.74 -984.94 0 -127.716 -971.433 0 -136.012 -963.258 0 -169.938 -955.314 0 -230.779 -937.872 0 -307.212 -901.964 0 -356.659 -849.451 0 -375.045 -790.005 0 -367.212 -733.19 0 -362.22 -682.219 0 -364.913 -633.952 0 -374.082 -585.027 0 -377.091 -534.505 0 -370.58 -484.819 0 -354.9 -438.635 0 -337.772 -397.433 0 -322.353 -360.379 0 -308.62 -326.377 0 -294.602 -294.602 0 -279.065 -264.985 0 -262.008 -237.584 0 -244.599 -212.473 0 -228.006 -189.777 0 -212.228 -169.634 0 -197.256 -152.109 0 -183.074 -136.824 0 -169.681 -123.242 0 -157.053 -110.862 0 -145.125 -99.4936 0 -133.895 -89.1036 0 -123.363 -79.6617 0 -113.529 -71.1373 0 -104.393 -63.4997 0 -95.9357 -56.7171 0 -88.0419 -50.7304 0 -80.6923 -45.4536 0 -73.8867 -40.7994 0 -67.6253 -36.6803 0 -61.908 -33.0091 0 -56.728 -29.6987 0 -51.9379 -26.6847 0 -47.4773 -23.9474 0 -43.3462 -21.472 0 -39.5445 -19.2438 0 -36.0722 -17.2481 0 -32.9295 -15.4701 0 -30.0515 -13.8942 0 -27.3736 -12.5008 0 -24.8959 -11.2692 0 -22.6184 -10.1789 0 -20.5409 -9.20946 0 -18.6636 -8.34017 0 -16.9606 -7.55172 0 -15.3692 -6.8354 0 -13.8863 -6.18797 0 -12.5121 -5.60623 0 -11.2465 -5.08698 0 -10.0895 -4.62703 0 -9.03437 -4.22313 0 -8.04115 -3.87123 0 -7.10312 -3.56641 0 -6.22027 -3.30374 0 -5.39261 -3.07828 0 -4.62013 -2.88508 0 -3.90163 -2.71922 0 -3.21074 -2.57765 0 -2.53665 -2.46096 0 -1.87938 -2.37016 0 -1.23891 -2.30624 0 -0.615255 -2.27022 0 -0.00840912 -2.26309 0 0.379584 -350.59 0 16.1643 -351.611 0 31.8858 -354.514 0 47.544 -359.337 0 63.1391 -366.116 0 78.6709 -374.889 0 94.1395 -385.692 0 109.287 -398.557 0 123.485 -413.464 0 136.705 -430.369 0 148.957 -449.219 0 160.287 -469.852 0 170.698 -492.025 0 180.139 -515.52 0 188.301 -540.678 0 195.133 -568.398 0 200.436 -599.571 0 202.136 -633.594 0 199.683 -667.785 0 193.169 -699.331 0 184.647 -727.733 0 174.957 -756.98 0 164.037 -791.576 0 147.104 -832.477 0 121.155 -870.849 0 86.1896 -896.181 0 46.8458 -900.701 0 7.76219 -887.6 0 -31.0614 -862.811 0 -67.5578 -832.799 0 -98.4368 -807.145 0 -123.656 -796.557 0 -147.266 -809.371 0 -179.166 -833.256 0 -219.806 -845.242 0 -264.591 -824.022 0 -296.24 -772.068 0 -313.098 -708.989 0 -317.124 -654.174 0 -320.074 -613.209 0 -323.908 -577.882 0 -328.195 -539.5 0 -328.424 -494.926 0 -323.398 -448.728 0 -313.274 -406.021 0 -301.565 -369.589 0 -289.708 -337.679 0 -277.694 -308.022 0 -264.985 -279.065 0 -251.241 -251.241 0 -236.463 -225.322 0 -221.568 -201.928 0 -207.475 -181.072 0 -194.182 -162.613 0 -181.504 -146.382 0 -169.145 -132.034 0 -157.1 -119.162 0 -145.47 -107.383 0 -134.499 -96.5486 0 -124.199 -86.6301 0 -114.568 -77.5994 0 -105.608 -69.4284 0 -97.3177 -62.0892 0 -89.6714 -55.5527 0 -82.5112 -49.7648 0 -75.8109 -44.6466 0 -69.5705 -40.1179 0 -63.79 -36.0989 0 -58.4693 -32.5094 0 -53.604 -29.2695 0 -49.0943 -26.3198 0 -44.8995 -23.6408 0 -41.0195 -21.2175 0 -37.4543 -19.0349 0 -34.204 -17.0781 0 -31.2685 -15.332 0 -28.5804 -13.781 0 -26.0725 -12.4064 0 -23.7445 -11.1889 0 -21.5966 -10.1091 0 -19.6287 -9.14762 0 -17.8409 -8.28522 0 -16.2121 -7.5036 0 -14.691 -6.79425 0 -13.2752 -6.15366 0 -11.9648 -5.57834 0 -10.7597 -5.06483 0 -9.65988 -4.60965 0 -8.65856 -4.2093 0 -7.71447 -3.85972 0 -6.82073 -3.55628 0 -5.97735 -3.29435 0 -5.18433 -3.06929 0 -4.44166 -2.87644 0 -3.74833 -2.71117 0 -3.08189 -2.57057 0 -2.43319 -2.455 0 -1.80221 -2.36524 0 -1.18895 -2.30203 0 -0.593426 -2.26613 0 -0.0156237 -2.25832 0 0.280304 -332.759 0 14.2988 -333.694 0 28.2179 -336.32 0 42.0378 -340.67 0 55.7584 -346.778 0 69.3797 -354.677 0 82.9017 -364.4 0 96.0914 -375.974 0 108.379 -389.371 0 119.739 -404.536 0 130.219 -421.408 0 140.001 -439.852 0 149.102 -459.685 0 157.338 -480.733 0 163.604 -503.188 0 167.717 -527.599 0 169.72 -554.51 0 170.07 -583.422 0 168.889 -612.394 0 166.057 -639.391 0 158.983 -663.974 0 146.606 -688.804 0 128.969 -716.898 0 109.583 -748.899 0 90.6514 -778.901 0 72.1747 -799.875 0 51.4067 -806.569 0 25.6014 -800.829 0 -5.24104 -786.277 0 -40.7257 -766.918 0 -80.2236 -748.984 0 -123.727 -739.519 0 -166.691 -744 0 -198.009 -754.296 0 -217.176 -755.264 0 -227.247 -732.888 0 -239.707 -689.203 0 -255.655 -637.812 0 -273.757 -592.163 0 -285.996 -556.194 0 -291.037 -524.342 0 -289.338 -490.708 0 -285.688 -453.095 0 -281.362 -414.432 0 -276.312 -378.018 0 -269.537 -345.679 0 -260.625 -316.388 0 -249.592 -288.792 0 -237.584 -262.008 0 -225.322 -236.463 0 -212.806 -212.806 0 -200.46 -191.537 0 -188.707 -172.559 0 -177.547 -155.623 0 -166.747 -140.482 0 -155.934 -126.886 0 -145.103 -114.583 0 -134.438 -103.334 0 -124.389 -93.0321 0 -114.977 -83.6318 0 -106.2 -75.0904 0 -98.0588 -67.3647 0 -90.5541 -60.4116 0 -83.6542 -54.1873 0 -77.1717 -48.6373 0 -71.0754 -43.6957 0 -65.3653 -39.2964 0 -60.0415 -35.3734 0 -55.1038 -31.8603 0 -50.5497 -28.6912 0 -46.3187 -25.8152 0 -42.3863 -23.2109 0 -38.7525 -20.8603 0 -35.4173 -18.7453 0 -32.3807 -16.848 0 -29.6426 -15.1504 0 -27.1348 -13.6346 0 -24.7889 -12.2837 0 -22.6049 -11.0813 0 -20.5829 -10.0107 0 -18.7228 -9.05523 0 -17.0247 -8.19835 0 -15.4715 -7.42429 0 -14.0216 -6.72473 0 -12.6731 -6.09518 0 -11.4261 -5.53118 0 -10.2805 -5.02828 0 -9.23628 -4.58202 0 -8.2866 -4.18796 0 -7.38988 -3.84191 0 -6.5392 -3.53994 0 -5.73456 -3.27816 0 -4.97596 -3.05264 0 -4.26341 -2.85947 0 -3.59602 -2.69477 0 -2.95466 -2.55588 0 -2.3315 -2.44264 0 -1.72653 -2.35517 0 -1.13975 -2.29356 0 -0.571169 -2.25794 0 -0.0207824 -2.2484 0 0.184859 -314.979 0 12.6124 -315.822 0 24.912 -318.187 0 37.0836 -322.097 0 49.1274 -327.578 0 61.0433 -334.652 0 72.8313 -343.345 0 84.2832 -353.675 0 94.8901 -365.605 0 104.629 -379.074 0 113.557 -394.019 0 121.887 -410.396 0 129.639 -428.169 0 136.591 -447.303 0 141.406 -467.734 0 143.859 -489.366 0 144.096 -512.099 0 143.627 -535.663 0 142.855 -559.552 0 141.579 -583.241 0 135.404 -606.377 0 122.531 -628.928 0 103.045 -650.901 0 83.5516 -672.101 0 68.1999 -691.772 0 56.9903 -709.064 0 44.6889 -723.157 0 26.0619 -733.357 0 1.10929 -739.001 0 -30.584 -739.538 0 -69.6788 -735.06 0 -116.183 -725.896 0 -162.57 -712.32 0 -190.435 -694.138 0 -198.944 -670.914 0 -194.046 -642.323 0 -198.117 -609.539 0 -213.298 -574.82 0 -236.934 -540.391 0 -253.085 -507.219 0 -259.093 -475.007 0 -255.738 -443.411 0 -251.144 -412.289 0 -247.472 -381.782 0 -244.61 -352.055 0 -240.104 -323.28 0 -232.95 -295.649 0 -223.171 -269.357 0 -212.473 -244.599 0 -201.928 -221.568 0 -191.537 -200.46 0 -181.394 -181.394 0 -171.594 -164.198 0 -162.136 -148.625 0 -152.816 -134.443 0 -143.308 -121.514 0 -133.607 -109.732 0 -123.932 -98.9958 0 -114.815 -89.2274 0 -106.279 -80.3633 0 -98.3261 -72.3394 0 -90.9547 -65.0921 0 -84.1652 -58.5573 0 -77.926 -52.6717 0 -72.0467 -47.378 0 -66.4955 -42.6254 0 -61.2724 -38.3636 0 -56.3775 -34.542 0 -51.8108 -31.1101 0 -47.5706 -28.0177 0 -43.623 -25.2233 0 -39.9539 -22.7031 0 -36.5633 -20.4353 0 -33.4514 -18.3981 0 -30.6179 -16.5698 0 -28.0631 -14.9284 0 -25.721 -13.4537 0 -23.5259 -12.1308 0 -21.4777 -10.9462 0 -19.5766 -9.88655 0 -17.8224 -8.93844 0 -16.2151 -8.08843 0 -14.7407 -7.32365 0 -13.3641 -6.63599 0 -12.084 -6.01983 0 -10.9002 -5.46955 0 -9.8127 -4.97953 0 -8.82162 -4.54416 0 -7.92017 -4.15788 0 -7.06802 -3.81635 0 -6.25844 -3.51646 0 -5.49144 -3.25516 0 -4.76701 -3.02939 0 -4.08515 -2.8361 0 -3.4451 -2.67223 0 -2.8299 -2.53551 0 -2.23261 -2.42511 0 -1.65323 -2.3404 0 -1.09177 -2.28075 0 -0.548219 -2.2455 0 -0.0225824 -2.23403 0 0.100354 -297.669 0 11.0953 -298.425 0 21.9423 -300.547 0 32.6414 -304.05 0 43.1925 -308.952 0 53.5956 -315.267 0 63.8507 -323.013 0 73.7736 -332.199 0 82.9137 -342.786 0 91.2505 -354.708 0 98.8264 -367.903 0 105.8 -382.368 0 112.188 -398.14 0 117.803 -415.251 0 121.533 -433.503 0 123.193 -452.479 0 122.909 -471.754 0 122.021 -491.196 0 120.882 -511.076 0 119.32 -531.689 0 113.524 -552.737 0 101.937 -572.772 0 84.6269 -590.214 0 67.0533 -604.4 0 52.645 -617.194 0 41.4019 -630.899 0 29.5031 -646.988 0 13.128 -663.633 0 -7.72356 -678.182 0 -33.552 -687.94 0 -65.1542 -689.975 0 -102.54 -681.268 0 -139.732 -659.504 0 -162.114 -628.486 0 -169.022 -595.169 0 -165.402 -566.088 0 -169.844 -541.759 0 -184.13 -518.356 0 -205.93 -492.094 0 -221.277 -462.328 0 -227.843 -431.554 0 -226.26 -402.367 0 -223.121 -375.783 0 -220.178 -350.626 0 -217.363 -325.561 0 -213.15 -299.967 0 -206.914 -274.603 0 -198.673 -250.389 0 -189.777 -228.006 0 -181.072 -207.475 0 -172.559 -188.707 0 -164.198 -171.594 0 -155.952 -155.952 0 -147.821 -141.58 0 -139.667 -128.298 0 -131.271 -116.053 0 -122.632 -104.839 0 -113.961 -94.6457 0 -105.777 -85.4183 0 -98.1039 -77.0793 0 -90.9414 -69.5512 0 -84.2895 -62.7562 0 -78.1483 -56.6169 0 -72.4894 -51.0563 0 -67.1432 -46.017 0 -62.0812 -41.4601 0 -57.3034 -37.3481 0 -52.81 -33.643 0 -48.6008 -30.3071 0 -44.6751 -27.3027 0 -41.0128 -24.5964 0 -37.6059 -22.1627 0 -34.4545 -19.9775 0 -31.5584 -18.0164 0 -28.9177 -16.2552 0 -26.5325 -14.6695 0 -24.3424 -13.2373 0 -22.2871 -11.9455 0 -20.3668 -10.7831 0 -18.5813 -9.73939 0 -16.9307 -8.80342 0 -15.415 -7.96432 0 -14.0216 -7.21152 0 -12.72 -6.5372 0 -11.5086 -5.93492 0 -10.3876 -5.39826 0 -9.35685 -4.92079 0 -8.41644 -4.4961 0 -7.56003 -4.11783 0 -6.7498 -3.7816 0 -5.97944 -3.48491 0 -5.24894 -3.22538 0 -4.55831 -3.00062 0 -3.90754 -2.80822 0 -3.29593 -2.64582 0 -2.70773 -2.51138 0 -2.13652 -2.40364 0 -1.58228 -2.32141 0 -1.04503 -2.2635 0 -0.524761 -2.22872 0 -0.0214731 -2.21588 0 0.0277925 -280.828 0 9.73593 -281.503 0 19.2835 -283.4 0 28.6705 -286.53 0 37.897 -290.901 0 46.9629 -296.522 0 55.8682 -303.403 0 64.4508 -311.548 0 72.3141 -320.915 0 79.4401 -331.439 0 85.8498 -343.059 0 91.6223 -355.768 0 96.7652 -369.599 0 101.156 -384.575 0 104.057 -400.496 0 105.348 -416.938 0 105.093 -433.474 0 103.983 -450.02 0 102.202 -466.967 0 99.6459 -484.733 0 94.0187 -503.055 0 84.3815 -520.338 0 70.7701 -534.838 0 55.9635 -545.795 0 41.7076 -555.167 0 28.0024 -565.38 0 13.6807 -578.061 0 -2.42484 -591.657 0 -20.3142 -603.819 0 -40.2597 -612.124 0 -62.6948 -613.728 0 -87.6253 -605.635 0 -112.143 -585.553 0 -129.138 -557.342 0 -138.288 -528.028 0 -142.114 -504.184 0 -150.093 -485.863 0 -163.131 -468.421 0 -179.878 -447.271 0 -192.215 -421.522 0 -198.792 -393.98 0 -199.927 -367.575 0 -198.965 -343.579 0 -196.794 -320.963 0 -193.419 -298.536 0 -188.923 -275.74 0 -183.343 -253.251 0 -176.687 -231.888 0 -169.634 -212.228 0 -162.613 -194.182 0 -155.623 -177.547 0 -148.625 -162.136 0 -141.58 -147.821 0 -134.49 -134.49 0 -127.286 -122.047 0 -119.864 -110.503 0 -112.222 -99.9024 0 -104.543 -90.2841 0 -97.2733 -81.6047 0 -90.4324 -73.78 0 -84.0205 -66.7257 0 -78.0377 -60.3572 0 -72.4839 -54.5902 0 -67.3371 -49.3413 0 -62.464 -44.5543 0 -57.8425 -40.1999 0 -53.4726 -36.2499 0 -49.3543 -32.6765 0 -45.4876 -29.4513 0 -41.8718 -26.5464 0 -38.4924 -23.9344 0 -35.3434 -21.5898 0 -32.4247 -19.4869 0 -29.7365 -17.6002 0 -27.2786 -15.9043 0 -25.0512 -14.3736 0 -23.0014 -12.9853 0 -21.0766 -11.7278 0 -19.2769 -10.5921 0 -17.6021 -9.56921 0 -16.0524 -8.65016 0 -14.6277 -7.826 0 -13.3164 -7.08791 0 -12.09 -6.42836 0 -10.9472 -5.84045 0 -9.88807 -5.31731 0 -8.91257 -4.85206 0 -8.0207 -4.43782 0 -7.20673 -4.06782 0 -6.43622 -3.73765 0 -5.70343 -3.44529 0 -5.00837 -3.18882 0 -4.35104 -2.96631 0 -3.73143 -2.77585 0 -3.14885 -2.61551 0 -2.5881 -2.48349 0 -2.04295 -2.37823 0 -1.51339 -2.29818 0 -0.999443 -2.24181 0 -0.501092 -2.20758 0 -0.0183416 -2.19395 0 -0.0318245 -264.456 0 8.52241 -265.055 0 16.9099 -266.747 0 25.1306 -269.535 0 33.1845 -273.424 0 41.0716 -278.416 0 48.792 -284.515 0 56.203 -291.72 0 62.9563 -299.989 0 69.0359 -309.261 0 74.4488 -319.475 0 79.2213 -330.598 0 83.3559 -342.615 0 86.7738 -355.506 0 89.002 -369.134 0 89.9617 -383.244 0 89.6748 -397.58 0 88.3706 -412.052 0 86.1101 -426.8 0 82.842 -441.975 0 77.4404 -457.333 0 69.4449 -471.857 0 58.8672 -484.44 0 46.6298 -494.453 0 33.3122 -502.582 0 18.9145 -509.739 0 3.86806 -516.54 0 -11.3957 -522.416 0 -26.8768 -526.502 0 -42.6657 -527.897 0 -58.9062 -525.498 0 -75.6003 -518.123 0 -91.8248 -504.898 0 -105.323 -487.612 0 -115.993 -469.421 0 -124.671 -453.262 0 -134.503 -438.916 0 -145.791 -423.89 0 -157.927 -405.733 0 -167.276 -384.076 0 -173.23 -360.635 0 -175.897 -337.199 0 -176.386 -314.754 0 -174.991 -293.173 0 -171.756 -272.25 0 -167.601 -251.935 0 -162.902 -232.488 0 -157.663 -214.203 0 -152.109 -197.256 0 -146.382 -181.504 0 -140.482 -166.747 0 -134.443 -152.816 0 -128.298 -139.667 0 -122.047 -127.286 0 -115.668 -115.668 0 -109.127 -104.86 0 -102.422 -94.923 0 -95.6972 -85.9111 0 -89.3002 -77.7865 0 -83.2473 -70.4653 0 -77.5384 -63.8629 0 -72.1736 -57.8951 0 -67.1529 -52.4773 0 -62.4616 -47.5266 0 -58.012 -42.9899 0 -53.7895 -38.8446 0 -49.7941 -35.0692 0 -46.0258 -31.6424 0 -42.4846 -28.5426 0 -39.1698 -25.7486 0 -36.0661 -23.2375 0 -33.1671 -20.9843 0 -30.473 -18.9634 0 -27.9837 -17.1495 0 -25.6991 -15.517 0 -23.6194 -14.0406 0 -21.7004 -12.6978 0 -19.8982 -11.4779 0 -18.2127 -10.3732 0 -16.644 -9.376 0 -15.192 -8.47867 0 -13.8567 -7.67349 0 -12.627 -6.95282 0 -11.4751 -6.30946 0 -10.3999 -5.73641 0 -9.40138 -5.2267 0 -8.47954 -4.77333 0 -7.63437 -4.36934 0 -6.86078 -4.00783 0 -6.12824 -3.6845 0 -5.43166 -3.3976 0 -4.77104 -3.14547 0 -4.14637 -2.92647 0 -3.55766 -2.73897 0 -3.00423 -2.58131 0 -2.47094 -2.45184 0 -1.95163 -2.34887 0 -1.44629 -2.27072 0 -0.954912 -2.21569 0 -0.477509 -2.18209 0 -0.0140755 -2.16824 0 -0.0774946 -248.554 0 7.44302 -249.082 0 14.7958 -250.586 0 21.981 -253.067 0 28.9984 -256.522 0 35.8481 -260.95 0 42.5302 -266.349 0 48.9193 -272.716 0 54.7091 -280.007 0 59.8858 -288.166 0 64.4505 -297.134 0 68.4077 -306.86 0 71.7579 -317.3 0 74.4431 -328.408 0 76.1159 -340.088 0 76.7182 -352.195 0 76.254 -364.584 0 74.7624 -377.159 0 72.254 -389.896 0 68.7063 -402.776 0 63.6275 -415.579 0 56.8161 -427.701 0 48.2743 -438.493 0 38.1603 -447.454 0 26.5733 -454.488 0 13.5135 -459.57 0 -0.207878 -462.683 0 -13.7795 -463.845 0 -27.2012 -463.086 0 -40.4887 -460.423 0 -53.6665 -455.81 0 -66.7351 -449.178 0 -79.4417 -440.514 0 -91.1692 -430.29 0 -101.889 -419.231 0 -111.746 -407.989 0 -121.277 -396.243 0 -130.536 -382.972 0 -139.303 -367.18 0 -146.26 -348.839 0 -151.189 -328.892 0 -154.106 -308.316 0 -155.203 -287.842 0 -154.53 -267.857 0 -152.129 -248.722 0 -148.926 -230.68 0 -145.301 -213.74 0 -141.254 -197.889 0 -136.824 -183.074 0 -132.034 -169.145 0 -126.886 -155.934 0 -121.514 -143.308 0 -116.053 -131.271 0 -110.503 -119.864 0 -104.86 -109.127 0 -99.1183 -99.1183 0 -93.2781 -89.9005 0 -87.4407 -81.5266 0 -81.8546 -73.9639 0 -76.5311 -67.1351 0 -71.4701 -60.9629 0 -66.6717 -55.3698 0 -62.1358 -50.2783 0 -57.8556 -45.6121 0 -53.7901 -41.3238 0 -49.9323 -37.3943 0 -46.2823 -33.8058 0 -42.84 -30.5407 0 -39.6055 -27.5811 0 -36.5779 -24.9093 0 -33.738 -22.5056 0 -31.0781 -20.3462 0 -28.598 -18.4071 0 -26.298 -16.6642 0 -24.1778 -15.0935 0 -22.2376 -13.6707 0 -20.442 -12.3747 0 -18.7559 -11.1956 0 -17.1791 -10.1263 0 -15.7118 -9.15977 0 -14.354 -8.28895 0 -13.1055 -7.50678 0 -11.9553 -6.80625 0 -10.8762 -6.1805 0 -9.86682 -5.62281 0 -8.92723 -5.12642 0 -8.05742 -4.68462 0 -7.2574 -4.29064 0 -6.52273 -3.93787 0 -5.82686 -3.62216 0 -5.16536 -3.34183 0 -4.53824 -3.09534 0 -3.94548 -2.88111 0 -3.3871 -2.69759 0 -2.8624 -2.54323 0 -2.3562 -2.41644 0 -1.86229 -2.31558 0 -1.38068 -2.23902 0 -0.911347 -2.18512 0 -0.454309 -2.15225 0 -0.00956185 -2.13876 0 -0.108215 -233.121 0 6.48599 -233.583 0 12.9158 -234.919 0 19.1812 -237.125 0 25.2822 -240.194 0 31.2188 -244.123 0 36.991 -248.906 0 42.4887 -254.535 0 47.4428 -260.969 0 51.8411 -268.154 0 55.6835 -276.034 0 58.9702 -284.552 0 61.701 -293.655 0 63.8265 -303.286 0 65.0487 -313.367 0 65.3181 -323.802 0 64.6347 -334.491 0 62.9989 -345.337 0 60.4106 -356.248 0 56.8613 -367.128 0 52.1587 -377.792 0 46.2245 -387.874 0 39.0585 -396.99 0 30.6621 -404.76 0 21.036 -410.823 0 10.1803 -414.816 0 -1.32485 -416.493 0 -12.8993 -416.048 0 -24.5429 -413.79 0 -36.256 -410.024 0 -48.0386 -405.057 0 -59.8908 -399.191 0 -71.5468 -392.694 0 -82.3569 -385.519 0 -92.2915 -377.458 0 -101.352 -368.297 0 -109.542 -357.786 0 -116.863 -345.643 0 -123.259 -331.606 0 -128.404 -315.795 0 -132.242 -298.715 0 -134.774 -280.887 0 -136.002 -262.824 0 -135.925 -245.024 0 -134.569 -227.98 0 -132.486 -212.001 0 -129.905 -197.026 0 -126.823 -182.954 0 -123.242 -169.681 0 -119.162 -157.1 0 -114.583 -145.103 0 -109.732 -133.607 0 -104.839 -122.632 0 -99.9024 -112.222 0 -94.923 -102.422 0 -89.9005 -93.2781 0 -84.8348 -84.8348 0 -79.7921 -77.1307 0 -74.9335 -70.1367 0 -70.2663 -63.7896 0 -65.7905 -58.0256 0 -61.5062 -52.7813 0 -57.4134 -47.993 0 -53.5119 -43.598 0 -49.801 -39.5561 0 -46.2808 -35.849 0 -42.9512 -32.4599 0 -39.8122 -29.3715 0 -36.8637 -26.5668 0 -34.1048 -24.0286 0 -31.5124 -21.7386 0 -29.077 -19.6756 0 -26.7987 -17.818 0 -24.6774 -16.1445 0 -22.7132 -14.6336 0 -20.906 -13.2638 0 -19.2285 -12.0161 0 -17.6535 -10.881 0 -16.1808 -9.85151 0 -14.8106 -8.92051 0 -13.5429 -8.08099 0 -12.3775 -7.32588 0 -11.3036 -6.64819 0 -10.2942 -6.04149 0 -9.34812 -5.49964 0 -8.46535 -5.01649 0 -7.64589 -4.58591 0 -6.88975 -4.20174 0 -6.1931 -3.85795 0 -5.53305 -3.55062 0 -4.90577 -3.278 0 -4.31127 -3.03842 0 -3.74954 -2.83021 0 -3.22059 -2.65171 0 -2.72373 -2.50126 0 -2.24382 -2.37727 0 -1.77467 -2.27834 0 -1.31628 -2.20309 0 -0.868655 -2.15012 0 -0.431791 -2.11805 0 -0.00568813 -2.1055 0 -0.123305 -218.212 0 5.63976 -218.614 0 11.2449 -219.798 0 16.692 -221.757 0 21.9812 -224.484 0 27.1124 -227.97 0 32.0857 -232.208 0 36.8044 -237.187 0 41.0321 -242.869 0 44.7583 -249.2 0 47.9827 -256.129 0 50.7056 -263.603 0 52.9268 -271.569 0 54.602 -279.973 0 55.4655 -288.742 0 55.4729 -297.78 0 54.6243 -306.991 0 52.9195 -316.278 0 50.3587 -325.546 0 46.9401 -334.697 0 42.6268 -343.583 0 37.4037 -351.946 0 31.2709 -359.522 0 24.2282 -366.043 0 16.2757 -371.241 0 7.41343 -374.851 0 -2.05693 -376.675 0 -11.8337 -376.801 0 -21.9167 -375.383 0 -32.3062 -372.578 0 -43.002 -368.543 0 -54.0042 -363.433 0 -64.9359 -357.389 0 -74.876 -350.411 0 -83.7826 -342.426 0 -91.6558 -333.36 0 -98.4955 -323.142 0 -104.302 -311.698 0 -109.093 -298.962 0 -112.977 -285.064 0 -115.974 -270.325 0 -118.083 -255.074 0 -119.304 -239.642 0 -119.637 -224.358 0 -119.091 -209.55 0 -117.888 -195.434 0 -116.115 -182.001 0 -113.773 -169.218 0 -110.862 -157.053 0 -107.383 -145.47 0 -103.334 -134.438 0 -98.9958 -123.932 0 -94.6457 -113.961 0 -90.2841 -104.543 0 -85.9111 -95.6972 0 -81.5266 -87.4407 0 -77.1307 -79.7921 0 -72.7651 -72.7651 0 -68.5317 -66.3341 0 -64.4352 -60.4537 0 -60.4757 -55.0781 0 -56.653 -50.1616 0 -52.9673 -45.6583 0 -49.423 -41.5231 0 -46.047 -37.724 0 -42.8438 -34.2419 0 -39.8136 -31.0586 0 -36.9561 -28.1555 0 -34.2715 -25.5144 0 -31.7586 -23.1167 0 -29.3931 -20.9443 0 -27.1648 -18.979 0 -25.0739 -17.2029 0 -23.1203 -15.5979 0 -21.304 -14.1459 0 -19.625 -12.8289 0 -18.0622 -11.6306 0 -16.5946 -10.5418 0 -15.2222 -9.55512 0 -13.9449 -8.663 0 -12.7628 -7.85803 0 -11.6759 -7.13275 0 -10.6736 -6.47985 0 -9.72997 -5.89334 0 -8.84396 -5.36787 0 -8.01554 -4.89812 0 -7.24469 -4.47875 0 -6.53143 -4.10444 0 -5.87242 -3.76993 0 -5.24773 -3.47161 0 -4.65404 -3.20751 0 -4.09134 -2.97576 0 -3.55964 -2.77444 0 -3.05893 -2.60169 0 -2.58854 -2.4556 0 -2.13375 -2.33457 0 -1.68852 -2.23751 0 -1.25286 -2.16343 0 -0.826758 -2.11129 0 -0.410222 -2.0801 0 -0.00325194 -2.06883 0 -0.12486 -203.958 0 4.89417 -204.306 0 9.76405 -205.352 0 14.4848 -207.085 0 19.0564 -209.496 0 23.4788 -212.576 0 27.7521 -216.314 0 31.7915 -220.698 0 35.3896 -225.69 0 38.5371 -231.243 0 41.234 -237.306 0 43.4802 -243.831 0 45.2757 -250.767 0 46.5818 -258.065 0 47.1658 -265.652 0 46.9889 -273.437 0 46.0511 -281.325 0 44.3524 -289.222 0 41.8928 -297.034 0 38.6745 -304.667 0 34.746 -312.002 0 30.1271 -318.868 0 24.8177 -325.091 0 18.8179 -330.494 0 12.1277 -334.902 0 4.74704 -338.14 0 -3.17538 -340.066 0 -11.491 -340.669 0 -20.1997 -339.975 0 -29.3016 -338.006 0 -38.7966 -334.787 0 -48.6848 -330.342 0 -58.5652 -324.697 0 -67.4576 -317.906 0 -75.3175 -310.036 0 -82.1449 -301.156 0 -87.9398 -291.332 0 -92.7021 -280.633 0 -96.4818 -269.127 0 -99.578 -256.942 0 -102.041 -244.261 0 -103.87 -231.268 0 -105.065 -218.15 0 -105.627 -205.091 0 -105.558 -192.276 0 -104.899 -179.841 0 -103.669 -167.82 0 -101.867 -156.24 0 -99.4936 -145.125 0 -96.5486 -134.499 0 -93.0321 -124.389 0 -89.2274 -114.815 0 -85.4183 -105.777 0 -81.6047 -97.2733 0 -77.7865 -89.3002 0 -73.9639 -81.8546 0 -70.1367 -74.9335 0 -66.3341 -68.5317 0 -62.6272 -62.6272 0 -59.0191 -57.1891 0 -55.5098 -52.1864 0 -52.0994 -47.5884 0 -48.7878 -43.364 0 -45.582 -39.4826 0 -42.5234 -35.9191 0 -39.6188 -32.6542 0 -36.8682 -29.6688 0 -34.2716 -26.9438 0 -31.8291 -24.46 0 -29.5396 -22.1984 0 -27.3802 -20.1412 0 -25.3416 -18.2729 0 -23.4238 -16.5785 0 -21.6268 -15.043 0 -19.9506 -13.6511 0 -18.3952 -12.3879 0 -16.944 -11.2395 0 -15.5803 -10.197 0 -14.3043 -9.25268 0 -13.1158 -8.3989 0 -12.0149 -7.62798 0 -11.0016 -6.93224 0 -10.066 -6.30421 0 -9.18417 -5.7383 0 -8.35492 -5.22987 0 -7.57828 -4.77429 0 -6.85425 -4.36693 0 -6.18284 -4.00316 0 -5.56109 -3.67841 0 -4.97131 -3.38934 0 -4.41054 -3.13385 0 -3.8788 -2.90989 0 -3.37608 -2.71541 0 -2.90237 -2.54838 0 -2.45705 -2.40673 0 -2.02615 -2.28885 0 -1.60396 -2.19394 0 -1.19048 -2.12127 0 -0.785701 -2.07014 0 -0.389632 -2.03983 0 -0.00227044 -2.02963 0 -0.116413 -190.366 0 4.23983 -190.667 0 8.45746 -191.586 0 12.5365 -193.113 0 16.4769 -195.236 0 20.2787 -197.943 0 23.9419 -201.225 0 27.3921 -205.067 0 30.4476 -209.434 0 33.1 -214.28 0 35.3495 -219.56 0 37.196 -225.228 0 38.6395 -231.237 0 39.6467 -237.541 0 40.0183 -244.072 0 39.721 -250.741 0 38.7548 -257.459 0 37.1198 -264.134 0 34.816 -270.678 0 31.8469 -277 0 28.2931 -283.006 0 24.1876 -288.592 0 19.5304 -293.65 0 14.3215 -298.078 0 8.5609 -301.768 0 2.24855 -304.615 0 -4.52323 -306.52 0 -11.6621 -307.407 0 -19.1682 -307.207 0 -27.0413 -305.851 0 -35.2816 -303.269 0 -43.8891 -299.392 0 -52.5035 -294.167 0 -60.2447 -287.684 0 -67.0725 -280.104 0 -72.987 -271.593 0 -77.9882 -262.312 0 -82.0761 -252.425 0 -85.3017 -242.095 0 -87.9716 -231.442 0 -90.1366 -220.546 0 -91.7969 -209.486 0 -92.9524 -198.34 0 -93.6031 -187.187 0 -93.7485 -176.106 0 -93.3746 -165.17 0 -92.4758 -154.445 0 -91.0522 -143.999 0 -89.1036 -133.895 0 -86.6301 -124.199 0 -83.6318 -114.977 0 -80.3633 -106.279 0 -77.0793 -98.1039 0 -73.78 -90.4324 0 -70.4653 -83.2473 0 -67.1351 -76.5311 0 -63.7896 -70.2663 0 -60.4537 -64.4352 0 -57.1891 -59.0191 0 -53.9983 -53.9983 0 -50.8815 -49.3536 0 -47.8387 -45.0654 0 -44.8698 -41.1142 0 -41.9824 -37.4807 0 -39.2223 -34.1455 0 -36.5971 -31.0895 0 -34.1067 -28.2936 0 -31.7512 -25.7386 0 -29.5305 -23.4054 0 -27.4438 -21.275 0 -25.472 -19.3302 0 -23.6071 -17.5579 0 -21.8492 -15.9456 0 -20.1983 -14.4806 0 -18.6544 -13.1502 0 -17.2174 -11.9419 0 -15.8739 -10.8438 0 -14.6102 -9.84733 0 -13.4265 -8.94489 0 -12.3226 -8.12875 0 -11.2985 -7.3912 0 -10.3544 -6.72457 0 -9.48123 -6.12139 0 -8.65735 -5.57647 0 -7.88174 -5.08574 0 -7.15442 -4.64513 0 -6.47537 -4.25061 0 -5.84461 -3.8981 0 -5.25946 -3.5836 0 -4.7039 -3.30401 0 -4.17526 -3.05717 0 -3.67356 -2.84094 0 -3.19877 -2.6532 0 -2.75092 -2.49182 0 -2.3294 -2.35467 0 -1.92128 -2.24015 0 -1.52127 -2.14765 0 -1.12938 -2.07667 0 -0.745594 -2.02673 0 -0.369921 -1.99732 0 -0.0023589 -1.98796 0 -0.101505 -177.436 0 3.66735 -177.696 0 7.3092 -178.502 0 10.824 -179.841 0 14.2119 -181.702 0 17.4728 -184.073 0 20.6066 -186.942 0 23.5482 -190.294 0 26.1383 -194.098 0 28.3695 -198.311 0 30.2419 -202.891 0 31.7554 -207.794 0 32.91 -212.979 0 33.678 -218.403 0 33.8921 -224.002 0 33.5244 -229.693 0 32.575 -235.392 0 31.0439 -241.015 0 28.931 -246.478 0 26.2397 -251.697 0 23.0455 -256.596 0 19.3789 -261.116 0 15.24 -265.201 0 10.6289 -268.794 0 5.54547 -271.837 0 -0.0102455 -274.274 0 -5.93584 -276.037 0 -12.1289 -277.014 0 -18.5895 -277.08 0 -25.3175 -276.113 0 -32.3131 -273.989 0 -39.5761 -270.585 0 -46.8287 -265.801 0 -53.3916 -259.745 0 -59.2339 -252.629 0 -64.3556 -244.67 0 -68.7567 -236.08 0 -72.4373 -227.076 0 -75.4293 -217.866 0 -77.9252 -208.563 0 -79.957 -199.181 0 -81.5247 -189.728 0 -82.6284 -180.214 0 -83.268 -170.648 0 -83.444 -161.039 0 -83.1685 -151.421 0 -82.4462 -141.877 0 -81.2773 -132.495 0 -79.6617 -123.363 0 -77.5994 -114.568 0 -75.0904 -106.2 0 -72.3394 -98.3261 0 -69.5512 -90.9414 0 -66.7257 -84.0205 0 -63.8629 -77.5384 0 -60.9629 -71.4701 0 -58.0256 -65.7905 0 -55.0781 -60.4757 0 -52.1864 -55.5098 0 -49.3536 -50.8815 0 -46.5795 -46.5795 0 -43.8643 -42.5925 0 -41.2079 -38.9089 0 -38.6175 -35.5175 0 -36.1359 -32.4032 0 -33.7704 -29.5478 0 -31.5208 -26.9329 0 -29.3873 -24.5399 0 -27.3698 -22.3505 0 -25.4677 -20.3463 0 -23.6668 -18.5112 0 -21.9612 -16.8341 0 -20.3509 -15.3042 0 -18.8361 -13.9108 0 -17.4165 -12.6433 0 -16.0924 -11.4909 0 -14.852 -10.4434 0 -13.6839 -9.49287 0 -12.588 -8.63175 0 -11.5644 -7.85253 0 -10.6131 -7.14769 0 -9.73402 -6.50973 0 -8.91937 -5.9314 0 -8.15005 -5.40786 0 -7.42518 -4.93548 0 -6.74478 -4.51066 0 -6.10884 -4.12979 0 -5.51735 -3.78926 0 -4.96786 -3.48549 0 -4.44563 -3.21561 0 -3.94817 -2.97746 0 -3.47551 -2.7689 0 -3.02764 -2.58779 0 -2.60455 -2.43201 0 -2.20571 -2.29943 0 -1.81938 -2.18847 0 -1.44074 -2.09866 0 -1.0698 -2.02964 0 -0.706548 -1.98106 0 -0.350992 -1.95256 0 -0.00312929 -1.9438 0 -0.0836791 -165.168 0 3.16734 -165.393 0 6.30339 -166.098 0 9.32449 -167.269 0 12.2306 -168.895 0 15.0218 -170.964 0 17.698 -173.464 0 20.2021 -176.381 0 22.3942 -179.685 0 24.268 -183.336 0 25.8235 -187.298 0 27.0606 -191.529 0 27.9795 -195.993 0 28.5572 -200.65 0 28.6565 -205.441 0 28.2545 -210.292 0 27.3512 -215.126 0 25.9467 -219.865 0 24.0408 -224.434 0 21.6359 -228.757 0 18.7804 -232.77 0 15.4942 -236.443 0 11.7774 -239.743 0 7.62977 -242.643 0 3.05148 -245.112 0 -1.95752 -247.119 0 -7.24858 -248.619 0 -12.673 -249.489 0 -18.2309 -249.593 0 -23.9222 -248.791 0 -29.7469 -246.946 0 -35.705 -243.919 0 -41.6186 -239.598 0 -47.0529 -234.088 0 -51.9881 -227.611 0 -56.4242 -220.388 0 -60.3612 -212.638 0 -63.7992 -204.584 0 -66.7411 -196.44 0 -69.206 -188.307 0 -71.1969 -180.166 0 -72.7138 -171.995 0 -73.7568 -163.772 0 -74.3258 -155.473 0 -74.4245 -147.076 0 -74.135 -138.595 0 -73.4906 -130.115 0 -72.4913 -121.729 0 -71.1373 -113.529 0 -69.4284 -105.608 0 -67.3647 -98.0588 0 -65.0921 -90.9547 0 -62.7562 -84.2895 0 -60.3572 -78.0377 0 -57.8951 -72.1736 0 -55.3698 -66.6717 0 -52.7813 -61.5062 0 -50.1616 -56.653 0 -47.5884 -52.0994 0 -45.0654 -47.8387 0 -42.5925 -43.8643 0 -40.1697 -40.1697 0 -37.797 -36.7482 0 -35.4805 -33.5929 0 -33.2562 -30.6922 0 -31.1301 -28.0292 0 -29.1022 -25.5867 0 -27.1725 -23.3478 0 -25.3411 -21.2954 0 -23.6074 -19.4124 0 -21.9628 -17.6844 0 -20.4036 -16.1014 0 -18.9298 -14.6542 0 -17.5414 -13.3336 0 -16.2384 -12.1302 0 -15.0208 -11.0348 0 -13.8784 -10.0384 0 -12.801 -9.1336 0 -11.7884 -8.31326 0 -10.8408 -7.57026 0 -9.95804 -6.89745 0 -9.14024 -6.28773 0 -8.38065 -5.73423 0 -7.66281 -5.23245 0 -6.986 -4.7791 0 -6.35021 -4.37087 0 -5.75544 -4.00448 0 -5.20169 -3.67664 0 -4.68666 -3.38409 0 -4.19662 -3.12415 0 -3.72925 -2.89473 0 -3.28457 -2.69377 0 -2.86257 -2.5192 0 -2.46325 -2.36896 0 -2.08614 -2.241 0 -1.72071 -2.1338 0 -1.36266 -2.04695 0 -1.01198 -1.98016 0 -0.668673 -1.93313 0 -0.332745 -1.90556 0 -0.00419357 -1.89715 0 -0.0664769 -153.561 0 2.73041 -153.759 0 5.42416 -154.374 0 8.01477 -155.397 0 10.5022 -156.816 0 12.8866 -158.618 0 15.1678 -160.793 0 17.2956 -163.327 0 19.1476 -166.193 0 20.718 -169.356 0 22.0068 -172.781 0 23.0141 -176.434 0 23.7399 -180.279 0 24.1657 -184.282 0 24.1807 -188.39 0 23.7665 -192.538 0 22.9231 -196.658 0 21.6504 -200.684 0 19.9484 -204.546 0 17.818 -208.18 0 15.2753 -211.53 0 12.3271 -214.57 0 8.97332 -217.276 0 5.21396 -219.624 0 1.04902 -221.59 0 -3.52147 -223.15 0 -8.29681 -224.264 0 -13.0762 -224.834 0 -17.8598 -224.746 0 -22.6474 -223.886 0 -27.4392 -222.14 0 -32.235 -219.395 0 -36.9512 -215.557 0 -41.3832 -210.715 0 -45.5216 -205.05 0 -49.3664 -198.746 0 -52.9176 -191.985 0 -56.1753 -184.949 0 -59.1139 -177.817 0 -61.5811 -170.672 0 -63.5513 -163.501 0 -65.0247 -156.286 0 -66.0011 -149.012 0 -66.4806 -141.661 0 -66.4704 -134.216 0 -66.1284 -126.691 0 -65.5193 -119.159 0 -64.6431 -111.7 0 -63.4997 -104.393 0 -62.0892 -97.3177 0 -60.4116 -90.5541 0 -58.5573 -84.1652 0 -56.6169 -78.1483 0 -54.5902 -72.4839 0 -52.4773 -67.1529 0 -50.2783 -62.1358 0 -47.993 -57.4134 0 -45.6583 -52.9673 0 -43.364 -48.7878 0 -41.1142 -44.8698 0 -38.9089 -41.2079 0 -36.7482 -37.797 0 -34.6319 -34.6319 0 -32.5648 -31.7071 0 -30.5752 -29.0125 0 -28.6677 -26.5335 0 -26.8424 -24.255 0 -25.0992 -22.1622 0 -23.4382 -20.2399 0 -21.8591 -18.4733 0 -20.3583 -16.8496 0 -18.934 -15.3599 0 -17.5865 -13.9958 0 -16.3155 -12.7489 0 -15.1212 -11.611 0 -14.0036 -10.5736 0 -12.9532 -9.62875 0 -11.961 -8.76953 0 -11.0269 -7.98943 0 -10.1508 -7.28192 0 -9.33276 -6.64048 0 -8.57282 -6.05856 0 -7.86527 -5.52989 0 -7.19619 -5.05026 0 -6.56495 -4.61658 0 -5.97154 -4.22575 0 -5.41597 -3.87467 0 -4.89824 -3.56025 0 -4.4162 -3.2794 0 -3.95699 -3.02963 0 -3.51847 -2.80898 0 -3.10064 -2.61555 0 -2.70349 -2.44742 0 -2.32702 -2.30267 0 -1.97082 -2.17938 0 -1.62552 -2.07615 0 -1.2873 -1.99254 0 -0.956151 -1.92824 0 -0.632079 -1.88294 0 -0.315084 -1.85631 0 -0.00516371 -1.84803 0 -0.0533397 -142.607 0 2.34729 -142.783 0 4.65575 -143.322 0 6.87205 -144.214 0 8.99619 -145.45 0 11.0282 -147.019 0 12.968 -148.91 0 14.7716 -151.112 0 16.3315 -153.6 0 17.6427 -156.343 0 18.7053 -159.311 0 19.5192 -162.471 0 20.0845 -165.795 0 20.3863 -169.249 0 20.3356 -172.79 0 19.9177 -176.362 0 19.1324 -179.909 0 17.9798 -183.374 0 16.46 -186.7 0 14.5725 -189.831 0 12.3115 -192.716 0 9.67448 -195.318 0 6.66145 -197.6 0 3.27243 -199.526 0 -0.492606 -201.06 0 -4.63364 -202.164 0 -8.92151 -202.799 0 -13.127 -202.911 0 -17.2502 -202.444 0 -21.291 -201.341 0 -25.2494 -199.544 0 -29.1255 -196.996 0 -32.9009 -193.652 0 -36.5309 -189.568 0 -40.0134 -184.849 0 -43.3484 -179.604 0 -46.536 -173.94 0 -49.5761 -167.964 0 -52.4251 -161.781 0 -54.8213 -155.457 0 -56.7211 -149.011 0 -58.1244 -142.466 0 -59.0314 -135.84 0 -59.442 -129.154 0 -59.3653 -122.429 0 -59.0047 -115.694 0 -58.4431 -108.999 0 -57.6805 -102.395 0 -56.7171 -95.9357 0 -55.5527 -89.6714 0 -54.1873 -83.6542 0 -52.6717 -77.926 0 -51.0563 -72.4894 0 -49.3413 -67.3371 0 -47.5266 -62.4616 0 -45.6121 -57.8556 0 -43.598 -53.5119 0 -41.5231 -49.423 0 -39.4826 -45.582 0 -37.4807 -41.9824 0 -35.5175 -38.6175 0 -33.5929 -35.4805 0 -31.7071 -32.5648 0 -29.8636 -29.8636 0 -28.0849 -27.3674 0 -26.3747 -25.0641 0 -24.7331 -22.9413 0 -23.1599 -20.9867 0 -21.6552 -19.188 0 -20.2191 -17.533 0 -18.8515 -16.0107 0 -17.5524 -14.6129 0 -16.3218 -13.3317 0 -15.1597 -12.1592 0 -14.0662 -11.0876 0 -13.0413 -10.109 0 -12.0765 -9.21573 0 -11.1637 -8.40177 0 -10.3027 -7.66133 0 -9.49375 -6.98863 0 -8.73667 -6.3779 0 -8.03151 -5.82336 0 -7.37344 -5.31945 0 -6.7507 -4.86226 0 -6.16275 -4.44879 0 -5.60958 -4.07601 0 -5.0912 -3.74091 0 -4.60761 -3.44048 0 -4.15681 -3.17174 0 -3.72688 -2.93232 0 -3.31581 -2.72049 0 -2.92362 -2.53454 0 -2.55029 -2.37276 0 -2.19584 -2.23345 0 -1.85988 -2.11489 0 -1.53406 -2.01579 0 -1.21495 -1.93566 0 -0.902554 -1.87408 0 -0.596875 -1.83066 0 -0.297911 -1.80497 0 -0.00566312 -1.79663 0 -0.0453823 -132.253 0 2.01121 -132.408 0 3.9855 -132.878 0 5.8775 -133.653 0 7.68719 -134.725 0 9.41458 -136.085 0 11.0597 -137.721 0 12.5839 -139.625 0 13.8928 -141.775 0 14.9822 -144.143 0 15.8521 -146.701 0 16.5025 -149.423 0 16.9333 -152.281 0 17.1326 -155.247 0 17.0283 -158.285 0 16.6084 -161.347 0 15.8729 -164.386 0 14.8218 -167.356 0 13.4551 -170.209 0 11.7722 -172.899 0 9.76071 -175.377 0 7.41547 -177.598 0 4.73649 -179.513 0 1.72378 -181.075 0 -1.62266 -182.238 0 -5.30284 -182.953 0 -9.09309 -183.18 0 -12.7697 -182.905 0 -16.3328 -182.12 0 -19.7823 -180.816 0 -23.1181 -178.986 0 -26.3404 -176.622 0 -29.4602 -173.72 0 -32.5046 -170.306 0 -35.475 -166.423 0 -38.3712 -162.112 0 -41.1934 -157.416 0 -43.9414 -152.377 0 -46.5673 -147.039 0 -48.7819 -141.448 0 -50.5372 -135.657 0 -51.8332 -129.717 0 -52.6699 -123.681 0 -53.0472 -117.6 0 -52.9745 -111.527 0 -52.6563 -105.506 0 -52.1762 -99.5671 0 -51.5342 -93.7364 0 -50.7304 -88.0419 0 -49.7648 -82.5112 0 -48.6373 -77.1717 0 -47.378 -72.0467 0 -46.017 -67.1432 0 -44.5543 -62.464 0 -42.9899 -58.012 0 -41.3238 -53.7901 0 -39.5561 -49.801 0 -37.724 -46.047 0 -35.9191 -42.5234 0 -34.1455 -39.2223 0 -32.4032 -36.1359 0 -30.6922 -33.2562 0 -29.0125 -30.5752 0 -27.3674 -28.0849 0 -25.7765 -25.7765 0 -24.243 -23.64 0 -22.7669 -21.6656 0 -21.3482 -19.8432 0 -19.987 -18.163 0 -18.6833 -16.6151 0 -17.4395 -15.1902 0 -16.2565 -13.8809 0 -15.1345 -12.6797 0 -14.0732 -11.579 0 -13.0729 -10.5716 0 -12.1334 -9.64986 0 -11.2475 -8.80686 0 -10.4082 -8.03709 0 -9.61539 -7.33549 0 -8.86908 -6.69697 0 -8.16928 -6.11648 0 -7.51598 -5.58894 0 -6.90505 -5.10943 0 -6.3264 -4.67434 0 -5.77957 -4.28075 0 -5.26456 -3.92574 0 -4.78136 -3.6064 0 -4.32998 -3.3198 0 -3.9086 -3.06305 0 -3.5063 -2.83394 0 -3.12127 -2.63092 0 -2.75349 -2.45247 0 -2.40298 -2.29708 0 -2.06972 -2.16323 0 -1.75339 -2.04941 0 -1.44641 -1.95443 0 -1.1457 -1.87773 0 -0.851269 -1.81884 0 -0.563103 -1.77727 0 -0.281206 -1.75256 0 -0.00557884 -1.7442 0 -0.0413926 -122.489 0 1.71795 -122.625 0 3.40385 -123.032 0 5.01629 -123.703 0 6.55529 -124.628 0 8.02083 -125.8 0 9.41292 -127.21 0 10.6977 -128.848 0 11.7924 -130.695 0 12.6934 -132.728 0 13.4005 -134.921 0 13.9138 -137.252 0 14.2333 -139.695 0 14.3491 -142.227 0 14.2021 -144.816 0 13.7824 -147.422 0 13.09 -150.008 0 12.1249 -152.533 0 10.8871 -154.96 0 9.37631 -157.248 0 7.58536 -159.355 0 5.51136 -161.228 0 3.15432 -162.814 0 0.514221 -164.06 0 -2.40893 -164.912 0 -5.61512 -165.316 0 -8.91137 -165.234 0 -12.1047 -164.679 0 -15.195 -163.677 0 -18.1824 -162.255 0 -21.0668 -160.439 0 -23.8483 -158.257 0 -26.5398 -155.734 0 -29.1732 -152.874 0 -31.7501 -149.673 0 -34.2702 -146.127 0 -36.7338 -142.231 0 -39.1407 -137.982 0 -41.4486 -133.375 0 -43.4029 -128.445 0 -44.9614 -123.264 0 -46.124 -117.904 0 -46.8906 -112.438 0 -47.2614 -106.939 0 -47.2441 -101.48 0 -47.0122 -96.1133 0 -46.6365 -90.8532 0 -46.1169 -85.7096 0 -45.4536 -80.6923 0 -44.6466 -75.8109 0 -43.6957 -71.0754 0 -42.6254 -66.4955 0 -41.4601 -62.0812 0 -40.1999 -57.8425 0 -38.8446 -53.7895 0 -37.3943 -49.9323 0 -35.849 -46.2808 0 -34.2419 -42.8438 0 -32.6542 -39.6188 0 -31.0895 -36.5971 0 -29.5478 -33.7704 0 -28.0292 -31.1301 0 -26.5335 -28.6677 0 -25.0641 -26.3747 0 -23.64 -24.243 0 -22.2645 -22.2645 0 -20.9374 -20.4312 0 -19.6589 -18.7353 0 -18.4289 -17.1687 0 -17.2476 -15.7235 0 -16.1185 -14.3921 0 -15.043 -13.1674 0 -14.0213 -12.0426 0 -13.0532 -11.0107 0 -12.1387 -10.0647 0 -11.278 -9.19781 0 -10.4649 -8.40339 0 -9.69364 -7.6766 0 -8.96408 -7.01298 0 -8.27626 -6.40805 0 -7.63019 -5.85736 0 -7.02586 -5.35642 0 -6.45967 -4.9009 0 -5.92285 -4.48746 0 -5.41498 -4.11331 0 -4.93607 -3.77565 0 -4.48612 -3.47167 0 -4.06512 -3.1986 0 -3.67145 -2.95366 0 -3.29524 -2.73477 0 -2.93486 -2.54055 0 -2.5903 -2.36964 0 -2.26158 -2.2207 0 -1.94868 -2.09236 0 -1.6513 -1.98327 0 -1.36251 -1.89234 0 -1.07949 -1.819 0 -0.802234 -1.76271 0 -0.530744 -1.72295 0 -0.26502 -1.69921 0 -0.00506151 -1.69096 0 -0.0400578 -113.314 0 1.4634 -113.433 0 2.90135 -113.785 0 4.2738 -114.363 0 5.58076 -115.159 0 6.82221 -116.165 0 7.99815 -117.375 0 9.0789 -118.779 0 9.99184 -120.361 0 10.7337 -122.099 0 11.3044 -123.972 0 11.704 -125.959 0 11.9325 -128.038 0 11.9817 -130.189 0 11.802 -132.383 0 11.3852 -134.589 0 10.7314 -136.774 0 9.84048 -138.905 0 8.71249 -140.952 0 7.34768 -142.879 0 5.75174 -144.65 0 3.92701 -146.209 0 1.87347 -147.504 0 -0.408856 -148.479 0 -2.91999 -149.081 0 -5.65991 -149.254 0 -8.48179 -148.961 0 -11.2388 -148.233 0 -13.9309 -147.115 0 -16.5581 -145.657 0 -19.1204 -143.903 0 -21.6179 -141.901 0 -24.047 -139.693 0 -26.3996 -137.271 0 -28.6752 -134.601 0 -30.8738 -131.651 0 -32.9954 -128.387 0 -35.04 -124.776 0 -36.9777 -120.788 0 -38.628 -116.446 0 -39.9609 -111.832 0 -40.9764 -107.026 0 -41.6745 -102.112 0 -42.0553 -97.1717 0 -42.1242 -92.2872 0 -42.0031 -87.5141 0 -41.7419 -82.8572 0 -41.3407 -78.3152 0 -40.7994 -73.8867 0 -40.1179 -69.5705 0 -39.2964 -65.3653 0 -38.3636 -61.2724 0 -37.3481 -57.3034 0 -36.2499 -53.4726 0 -35.0692 -49.7941 0 -33.8058 -46.2823 0 -32.4599 -42.9512 0 -31.0586 -39.8136 0 -29.6688 -36.8682 0 -28.2936 -34.1067 0 -26.9329 -31.5208 0 -25.5867 -29.1022 0 -24.255 -26.8424 0 -22.9413 -24.7331 0 -21.6656 -22.7669 0 -20.4312 -20.9374 0 -19.2382 -19.2382 0 -18.0866 -17.6629 0 -16.9764 -16.2051 0 -15.9077 -14.8583 0 -14.8844 -13.6162 0 -13.9082 -12.4724 0 -12.9789 -11.4206 0 -12.0967 -10.4543 0 -11.2615 -9.56714 0 -10.4733 -8.75282 0 -9.72734 -8.00533 0 -9.01895 -7.32032 0 -8.34809 -6.69381 0 -7.71478 -6.12187 0 -7.119 -5.60052 0 -6.56076 -5.12581 0 -6.03688 -4.69387 0 -5.53959 -4.30164 0 -5.06854 -3.94647 0 -4.62372 -3.62572 0 -4.20513 -3.33674 0 -3.81278 -3.07689 0 -3.4452 -2.84356 0 -3.09363 -2.6348 0 -2.7566 -2.44937 0 -2.43411 -2.28604 0 -2.12616 -2.1436 0 -1.83275 -2.02081 0 -1.55359 -1.91645 0 -1.28229 -1.82953 0 -1.01622 -1.75945 0 -0.75538 -1.70569 0 -0.499777 -1.6677 0 -0.249408 -1.64495 0 -0.00427323 -1.63691 0 -0.0400647 -104.73 0 1.24342 -104.833 0 2.46857 -105.136 0 3.63539 -105.633 0 4.74387 -106.317 0 5.79401 -107.18 0 6.78582 -108.217 0 7.69322 -109.419 0 8.45248 -110.771 0 9.0607 -112.256 0 9.51787 -113.853 0 9.824 -115.544 0 9.9791 -117.309 0 9.97612 -119.131 0 9.77293 -120.986 0 9.36249 -122.846 0 8.7448 -124.684 0 7.91988 -126.473 0 6.8877 -128.185 0 5.64926 -129.792 0 4.22617 -131.261 0 2.62725 -132.541 0 0.85251 -133.582 0 -1.09805 -134.334 0 -3.22443 -134.745 0 -5.52663 -134.765 0 -7.90982 -134.36 0 -10.2792 -133.566 0 -12.6346 -132.436 0 -14.9763 -131.022 0 -17.3041 -129.377 0 -19.618 -127.553 0 -21.8891 -125.598 0 -24.0464 -123.496 0 -26.0867 -121.206 0 -28.0101 -118.682 0 -29.8164 -115.882 0 -31.5057 -112.761 0 -33.0633 -109.279 0 -34.4006 -105.453 0 -35.5029 -101.361 0 -36.3701 -97.0842 0 -37.0023 -92.703 0 -37.3994 -88.2977 0 -37.5644 -83.9487 0 -37.5596 -79.709 0 -37.4106 -75.5791 0 -37.1175 -71.5531 0 -36.6803 -67.6253 0 -36.0989 -63.79 0 -35.3734 -60.0415 0 -34.542 -56.3775 0 -33.643 -52.81 0 -32.6765 -49.3543 0 -31.6424 -46.0258 0 -30.5407 -42.84 0 -29.3715 -39.8122 0 -28.1555 -36.9561 0 -26.9438 -34.2716 0 -25.7386 -31.7512 0 -24.5399 -29.3873 0 -23.3478 -27.1725 0 -22.1622 -25.0992 0 -20.9867 -23.1599 0 -19.8432 -21.3482 0 -18.7353 -19.6589 0 -17.6629 -18.0866 0 -16.6261 -16.6261 0 -15.6249 -15.2722 0 -14.6594 -14.0195 0 -13.7334 -12.8626 0 -12.8483 -11.7959 0 -12.0041 -10.8135 0 -11.2009 -9.90973 0 -10.4386 -9.07878 0 -9.71727 -8.31489 0 -9.03329 -7.61268 0 -8.38311 -6.96823 0 -7.76671 -6.37799 0 -7.18412 -5.83842 0 -6.63532 -5.34597 0 -6.12031 -4.8971 0 -5.63625 -4.48833 0 -5.17618 -4.11687 0 -4.7398 -3.78023 0 -4.32709 -3.47597 0 -3.93806 -3.2016 0 -3.57271 -2.95468 0 -3.22974 -2.73276 0 -2.90144 -2.53405 0 -2.58651 -2.3574 0 -2.28495 -2.20168 0 -1.99677 -2.06579 0 -1.72195 -1.94859 0 -1.46024 -1.84897 0 -1.20567 -1.766 0 -0.955799 -1.69911 0 -0.710636 -1.64778 0 -0.470178 -1.61151 0 -0.234425 -1.58977 0 -0.00337611 -1.58204 0 -0.0401003 -96.7367 0 1.05391 -96.8249 0 2.09608 -97.086 0 3.08641 -97.5138 0 4.0249 -98.1022 0 4.91155 -98.8449 0 5.74636 -99.7358 0 6.50644 -100.768 0 7.13584 -101.928 0 7.63201 -103.199 0 7.99494 -104.563 0 8.22465 -106.006 0 8.32113 -107.509 0 8.27832 -109.055 0 8.05987 -110.625 0 7.65974 -112.194 0 7.07792 -113.739 0 6.31441 -115.235 0 5.36921 -116.659 0 4.24397 -117.987 0 2.97493 -119.188 0 1.57693 -120.223 0 0.0499692 -121.049 0 -1.60596 -121.623 0 -3.39085 -121.904 0 -5.3047 -121.85 0 -7.30089 -121.432 0 -9.33279 -120.68 0 -11.4004 -119.638 0 -13.5037 -118.351 0 -15.6427 -116.862 0 -17.8175 -115.215 0 -19.9732 -113.448 0 -21.9765 -111.551 0 -23.8213 -109.488 0 -25.5074 -107.222 0 -27.035 -104.717 0 -28.404 -101.937 0 -29.6143 -98.8471 0 -30.6646 -95.4635 0 -31.5548 -91.8512 0 -32.2849 -88.0778 0 -32.8548 -84.2106 0 -33.2646 -80.3171 0 -33.5146 -76.4646 0 -33.6122 -72.698 0 -33.5605 -69.0188 0 -33.3595 -65.4232 0 -33.0091 -61.908 0 -32.5094 -58.4693 0 -31.8603 -55.1038 0 -31.1101 -51.8108 0 -30.3071 -48.6008 0 -29.4513 -45.4876 0 -28.5426 -42.4846 0 -27.5811 -39.6055 0 -26.5668 -36.8637 0 -25.5144 -34.2715 0 -24.46 -31.8291 0 -23.4054 -29.5305 0 -22.3505 -27.3698 0 -21.2954 -25.3411 0 -20.2399 -23.4382 0 -19.188 -21.6552 0 -18.163 -19.987 0 -17.1687 -18.4289 0 -16.2051 -16.9764 0 -15.2722 -15.6249 0 -14.37 -14.37 0 -13.4986 -13.207 0 -12.6614 -12.1313 0 -11.8598 -11.1378 0 -11.0936 -10.2214 0 -10.3629 -9.37709 0 -9.66774 -8.59965 0 -9.00808 -7.88402 0 -8.38138 -7.22543 0 -7.7851 -6.62033 0 -7.21923 -6.0655 0 -6.68377 -5.5577 0 -6.17873 -5.09371 0 -5.70411 -4.67029 0 -5.25733 -4.28429 0 -4.83216 -3.93315 0 -4.42831 -3.6146 0 -4.04577 -3.32638 0 -3.68455 -3.06625 0 -3.34465 -2.83195 0 -3.02493 -2.62125 0 -2.71863 -2.4325 0 -2.42462 -2.26462 0 -2.14289 -2.11656 0 -1.87346 -1.98727 0 -1.61631 -1.87571 0 -1.3712 -1.78082 0 -1.13257 -1.70174 0 -0.89815 -1.63795 0 -0.667935 -1.58899 0 -0.441927 -1.55439 0 -0.220126 -1.53366 0 -0.00253225 -1.52635 0 -0.0388566 -89.3281 0 0.890742 -89.4031 0 1.77444 -89.6289 0 2.61224 -89.9997 0 3.40415 -90.5098 0 4.15015 -91.1535 0 4.85026 -91.9252 0 5.48439 -92.8185 0 6.00345 -93.8212 0 6.40523 -94.9183 0 6.6897 -96.0947 0 6.85689 -97.3352 0 6.90678 -98.6247 0 6.83418 -99.9479 0 6.60787 -101.286 0 6.22265 -102.618 0 5.67852 -103.922 0 4.97548 -105.176 0 4.11353 -106.358 0 3.09473 -107.445 0 1.96435 -108.415 0 0.740928 -109.238 0 -0.575545 -109.886 0 -1.98507 -110.329 0 -3.48764 -110.539 0 -5.08325 -110.485 0 -6.76009 -110.149 0 -8.50631 -109.542 0 -10.3219 -108.686 0 -12.2069 -107.603 0 -14.1612 -106.314 0 -16.185 -104.841 0 -18.207 -103.202 0 -20.0532 -101.398 0 -21.7157 -99.4156 0 -23.1946 -97.2444 0 -24.4899 -94.8725 0 -25.6015 -92.2885 0 -26.5394 -89.4822 0 -27.3635 -86.4694 0 -28.0837 -83.2928 0 -28.7001 -79.9961 0 -29.2127 -76.6229 0 -29.6214 -73.2169 0 -29.9248 -69.8216 0 -30.0918 -66.4685 0 -30.1098 -63.1652 0 -29.9788 -59.9168 0 -29.6987 -56.728 0 -29.2695 -53.604 0 -28.6912 -50.5497 0 -28.0177 -47.5706 0 -27.3027 -44.6751 0 -26.5464 -41.8718 0 -25.7486 -39.1698 0 -24.9093 -36.5779 0 -24.0286 -34.1048 0 -23.1167 -31.7586 0 -22.1984 -29.5396 0 -21.275 -27.4438 0 -20.3463 -25.4677 0 -19.4124 -23.6074 0 -18.4733 -21.8591 0 -17.533 -20.2191 0 -16.6151 -18.6833 0 -15.7235 -17.2476 0 -14.8583 -15.9077 0 -14.0195 -14.6594 0 -13.207 -13.4986 0 -12.421 -12.421 0 -11.6646 -11.4224 0 -10.9389 -10.4984 0 -10.244 -9.64454 0 -9.57983 -8.85652 0 -8.94644 -8.12995 0 -8.34381 -7.46042 0 -7.77021 -6.84379 0 -7.22391 -6.27683 0 -6.70492 -5.75652 0 -6.21323 -5.27987 0 -5.74885 -4.84386 0 -5.31177 -4.4455 0 -4.89971 -4.08185 0 -4.50708 -3.75057 0 -4.13363 -3.44964 0 -3.77936 -3.17705 0 -3.44427 -2.93077 0 -3.12835 -2.7088 0 -2.83062 -2.50912 0 -2.54514 -2.33023 0 -2.27093 -2.1711 0 -2.00797 -2.03072 0 -1.75628 -1.90809 0 -1.51586 -1.8022 0 -1.28646 -1.71203 0 -1.06293 -1.63679 0 -0.843183 -1.57603 0 -0.627205 -1.52935 0 -0.414999 -1.49637 0 -0.206565 -1.47668 0 -0.00190311 -1.46988 0 -0.0356458 -82.393 0 0.750356 -82.4563 0 1.49592 -82.6509 0 2.20105 -82.9716 0 2.86575 -83.4131 0 3.49 -83.9702 0 4.07383 -84.6377 0 4.59963 -85.4098 0 5.02445 -86.2755 0 5.34633 -87.2212 0 5.56526 -88.2333 0 5.68125 -89.2984 0 5.6943 -90.4026 0 5.60004 -91.5324 0 5.37224 -92.6707 0 5.00653 -93.7978 0 4.50291 -94.8933 0 3.86139 -95.9372 0 3.08195 -96.9093 0 2.16671 -97.7895 0 1.16208 -98.5588 0 0.0870473 -99.2001 0 -1.05839 -99.6967 0 -2.27424 -100.032 0 -3.5605 -100.189 0 -4.91716 -100.151 0 -6.3487 -99.9038 0 -7.85957 -99.4446 0 -9.44978 -98.7727 0 -11.1193 -97.8876 0 -12.8682 -96.7888 0 -14.6965 -95.4757 0 -16.5305 -93.9488 0 -18.1904 -92.2169 0 -19.668 -90.2929 0 -20.9634 -88.1899 0 -22.0766 -85.921 0 -23.0075 -83.4992 0 -23.7699 -80.9378 0 -24.4465 -78.2536 0 -25.0511 -75.4676 0 -25.5837 -72.6009 0 -26.0443 -69.6743 0 -26.433 -66.709 0 -26.7474 -63.7259 0 -26.9413 -60.7436 0 -26.9954 -57.7759 0 -26.9099 -54.8362 0 -26.6847 -51.9379 0 -26.3198 -49.0943 0 -25.8152 -46.3187 0 -25.2233 -43.623 0 -24.5964 -41.0128 0 -23.9344 -38.4924 0 -23.2375 -36.0661 0 -22.5056 -33.738 0 -21.7386 -31.5124 0 -20.9443 -29.3931 0 -20.1412 -27.3802 0 -19.3302 -25.472 0 -18.5112 -23.6668 0 -17.6844 -21.9628 0 -16.8496 -20.3583 0 -16.0107 -18.8515 0 -15.1902 -17.4395 0 -14.3921 -16.1185 0 -13.6162 -14.8844 0 -12.8626 -13.7334 0 -12.1313 -12.6614 0 -11.4224 -11.6646 0 -10.739 -10.739 0 -10.0823 -9.88084 0 -9.45225 -9.08647 0 -8.84897 -8.35214 0 -8.27239 -7.67412 0 -7.72254 -7.04869 0 -7.19824 -6.47227 0 -6.69834 -5.94191 0 -6.22285 -5.45481 0 -5.77175 -5.00817 0 -5.34505 -4.59918 0 -4.94275 -4.22503 0 -4.56285 -3.88301 0 -4.20044 -3.57098 0 -3.85531 -3.28716 0 -3.52745 -3.02976 0 -3.21686 -2.79697 0 -2.92355 -2.587 0 -2.64663 -2.39808 0 -2.38087 -2.22882 0 -2.12538 -2.07824 0 -1.88016 -1.94538 0 -1.64522 -1.82926 0 -1.42055 -1.72892 0 -1.20594 -1.6434 0 -0.99668 -1.57192 0 -0.79083 -1.51413 0 -0.588395 -1.4697 0 -0.389374 -1.43831 0 -0.193767 -1.41963 0 -0.00157418 -1.41334 0 -0.0309838 -75.8855 0 0.630245 -75.9387 0 1.25603 -76.1054 0 1.84636 -76.381 0 2.40125 -76.7606 0 2.92069 -77.2396 0 3.40469 -77.8131 0 3.83787 -78.4758 0 4.18271 -79.2181 0 4.43748 -80.0276 0 4.6022 -80.8923 0 4.67686 -81.7999 0 4.66145 -82.7383 0 4.55242 -83.6951 0 4.32828 -84.6551 0 3.98548 -85.6002 0 3.524 -86.5119 0 2.94386 -87.372 0 2.24504 -88.1621 0 1.42943 -88.864 0 0.538384 -89.4627 0 -0.411187 -89.9499 0 -1.41928 -90.3182 0 -2.4859 -90.56 0 -3.61105 -90.6677 0 -4.79471 -90.634 0 -6.04289 -90.4497 0 -7.36156 -90.1002 0 -8.75073 -89.5694 0 -10.2104 -88.8412 0 -11.7406 -87.8994 0 -13.3412 -86.728 0 -14.9475 -85.3141 0 -16.401 -83.6731 0 -17.6944 -81.835 0 -18.8278 -79.8299 0 -19.8011 -77.6879 0 -20.6143 -75.4392 0 -21.28 -73.1133 0 -21.8734 -70.7275 0 -22.4069 -68.2865 0 -22.8806 -65.7946 0 -23.2944 -63.2563 0 -23.6484 -60.6757 0 -23.9405 -58.0572 0 -24.1272 -55.4098 0 -24.1906 -52.7514 0 -24.1306 -50.1009 0 -23.9474 -47.4773 0 -23.6408 -44.8995 0 -23.2109 -42.3863 0 -22.7031 -39.9539 0 -22.1627 -37.6059 0 -21.5898 -35.3434 0 -20.9843 -33.1671 0 -20.3462 -31.0781 0 -19.6756 -29.077 0 -18.979 -27.1648 0 -18.2729 -25.3416 0 -17.5579 -23.6071 0 -16.8341 -21.9612 0 -16.1014 -20.4036 0 -15.3599 -18.934 0 -14.6129 -17.5524 0 -13.8809 -16.2565 0 -13.1674 -15.043 0 -12.4724 -13.9082 0 -11.7959 -12.8483 0 -11.1378 -11.8598 0 -10.4984 -10.9389 0 -9.88084 -10.0823 0 -9.2866 -9.2866 0 -8.71563 -8.54877 0 -8.16795 -7.86562 0 -7.64355 -7.23399 0 -7.14242 -6.6507 0 -6.66379 -6.11271 0 -6.20686 -5.61731 0 -5.77163 -5.16192 0 -5.35811 -4.74393 0 -4.96628 -4.36077 0 -4.59616 -4.00984 0 -4.24601 -3.6886 0 -3.91164 -3.39516 0 -3.59284 -3.1279 0 -3.28963 -2.88524 0 -3.00199 -2.66556 0 -2.72994 -2.46729 0 -2.47268 -2.28882 0 -2.22554 -2.12891 0 -1.98772 -1.98662 0 -1.75924 -1.86102 0 -1.54009 -1.75121 0 -1.33026 -1.65625 0 -1.12957 -1.57524 0 -0.933755 -1.50746 0 -0.741057 -1.45259 0 -0.551481 -1.41038 0 -0.365027 -1.38056 0 -0.181694 -1.36286 0 -0.00148332 -1.35702 0 -0.025525 -69.8056 0 0.528023 -69.8502 0 1.05064 -69.9924 0 1.54232 -70.2278 0 2.00306 -70.5523 0 2.43288 -70.9615 0 2.83176 -71.4512 0 3.18631 -72.0167 0 3.4638 -72.6491 0 3.66273 -73.3377 0 3.78312 -74.0715 0 3.82496 -74.8398 0 3.78824 -75.6317 0 3.67014 -76.4362 0 3.45358 -77.2397 0 3.13573 -78.0258 0 2.71659 -78.7782 0 2.19616 -79.4805 0 1.57444 -80.1161 0 0.852897 -80.6688 0 0.0638144 -81.1269 0 -0.779599 -81.488 0 -1.67734 -81.7507 0 -2.62942 -81.9136 0 -3.63582 -81.9754 0 -4.69656 -81.9346 0 -5.80908 -81.786 0 -6.97084 -81.5082 0 -8.18183 -81.0757 0 -9.44207 -80.4634 0 -10.7515 -79.6459 0 -12.1102 -78.5977 0 -13.4693 -77.2983 0 -14.7093 -75.7665 0 -15.8247 -74.0419 0 -16.8157 -72.1642 0 -17.6821 -70.1732 0 -18.424 -68.1085 0 -19.0492 -66.0089 0 -19.6052 -63.891 0 -20.0997 -61.7493 0 -20.5329 -59.5773 0 -20.9046 -57.3687 0 -21.2149 -55.1169 0 -21.4625 -52.8157 0 -21.619 -50.4674 0 -21.6727 -48.0919 0 -21.6237 -45.7109 0 -21.472 -43.3462 0 -21.2175 -41.0195 0 -20.8603 -38.7525 0 -20.4353 -36.5633 0 -19.9775 -34.4545 0 -19.4869 -32.4247 0 -18.9634 -30.473 0 -18.4071 -28.598 0 -17.818 -26.7987 0 -17.2029 -25.0739 0 -16.5785 -23.4238 0 -15.9456 -21.8492 0 -15.3042 -20.3509 0 -14.6542 -18.9298 0 -13.9958 -17.5865 0 -13.3317 -16.3218 0 -12.6797 -15.1345 0 -12.0426 -14.0213 0 -11.4206 -12.9789 0 -10.8135 -12.0041 0 -10.2214 -11.0936 0 -9.64454 -10.244 0 -9.08647 -9.45225 0 -8.54877 -8.71563 0 -8.03144 -8.03144 0 -7.53446 -7.39697 0 -7.05785 -6.80955 0 -6.6016 -6.26647 0 -6.16514 -5.7651 0 -5.74789 -5.30301 0 -5.34986 -4.87782 0 -4.97105 -4.48716 0 -4.61145 -4.12865 0 -4.27107 -3.79991 0 -3.94845 -3.49864 0 -3.64007 -3.22309 0 -3.34575 -2.97185 0 -3.06551 -2.74349 0 -2.79933 -2.53657 0 -2.54722 -2.34966 0 -2.30848 -2.18135 0 -2.07887 -2.0305 0 -1.85771 -1.89622 0 -1.64498 -1.77765 0 -1.44069 -1.67392 0 -1.24484 -1.58418 0 -1.05725 -1.50755 0 -0.874101 -1.44338 0 -0.693833 -1.3914 0 -0.516444 -1.35139 0 -0.341934 -1.32312 0 -0.170303 -1.30637 0 -0.00155143 -1.30092 0 -0.0199238 -64.1535 0 0.441309 -64.191 0 0.87564 -64.3117 0 1.28307 -64.5121 0 1.6636 -64.7881 0 2.01723 -65.1361 0 2.34395 -65.5522 0 2.63213 -66.0322 0 2.85328 -66.5685 0 3.00611 -67.1513 0 3.09062 -67.771 0 3.10681 -68.4181 0 3.05468 -69.0829 0 2.93204 -69.7556 0 2.72572 -70.4243 0 2.43354 -71.0746 0 2.05549 -71.6921 0 1.59157 -72.2625 0 1.04179 -72.7712 0 0.407113 -73.204 0 -0.291069 -73.5515 0 -1.04401 -73.8143 0 -1.85171 -73.9941 0 -2.71417 -74.0926 0 -3.63138 -74.1116 0 -4.60335 -74.0528 0 -5.61368 -73.9129 0 -6.64594 -73.6686 0 -7.70015 -73.2919 0 -8.77631 -72.7545 0 -9.87441 -72.0282 0 -10.9945 -71.0849 0 -12.1069 -69.9013 0 -13.1395 -68.497 0 -14.0889 -66.9136 0 -14.9552 -65.1929 0 -15.7384 -63.3768 0 -16.4384 -61.5071 0 -17.0568 -59.6244 0 -17.6029 -57.7441 0 -18.0783 -55.8561 0 -18.4829 -53.949 0 -18.8167 -52.0116 0 -19.0798 -50.0328 0 -19.2719 -48.0012 0 -19.3859 -45.9162 0 -19.4193 -43.7972 0 -19.3719 -41.666 0 -19.2438 -39.5445 0 -19.0349 -37.4543 0 -18.7453 -35.4173 0 -18.3981 -33.4514 0 -18.0164 -31.5584 0 -17.6002 -29.7365 0 -17.1495 -27.9837 0 -16.6642 -26.298 0 -16.1445 -24.6774 0 -15.5979 -23.1203 0 -15.043 -21.6268 0 -14.4806 -20.1983 0 -13.9108 -18.8361 0 -13.3336 -17.5414 0 -12.7489 -16.3155 0 -12.1592 -15.1597 0 -11.579 -14.0732 0 -11.0107 -13.0532 0 -10.4543 -12.0967 0 -9.90973 -11.2009 0 -9.37709 -10.3629 0 -8.85652 -9.57983 0 -8.35214 -8.84897 0 -7.86562 -8.16795 0 -7.39697 -7.53446 0 -6.94618 -6.94618 0 -6.51326 -6.4008 0 -6.0982 -5.89599 0 -5.70055 -5.42946 0 -5.31985 -4.99902 0 -4.9561 -4.60254 0 -4.6093 -4.23785 0 -4.27946 -3.90281 0 -3.96656 -3.59526 0 -3.66942 -3.31311 0 -3.38513 -3.05479 0 -3.11355 -2.81902 0 -2.85468 -2.60451 0 -2.60853 -2.40997 0 -2.37509 -2.23412 0 -2.15372 -2.07567 0 -1.9406 -1.93358 0 -1.73507 -1.80704 0 -1.53716 -1.69525 0 -1.34684 -1.59741 0 -1.16413 -1.5127 0 -0.988867 -1.44034 0 -0.817662 -1.37971 0 -0.649128 -1.33057 0 -0.483265 -1.29273 0 -0.320072 -1.266 0 -0.159551 -1.25016 0 -0.00169942 -1.24503 0 -0.0148344 -58.929 0 0.367716 -58.9609 0 0.726916 -59.0636 0 1.06276 -59.2337 0 1.37526 -59.468 0 1.66441 -59.7632 0 1.9302 -60.116 0 2.16255 -60.5226 0 2.33674 -60.9763 0 2.45166 -61.4685 0 2.5073 -61.9908 0 2.50368 -62.5348 0 2.44078 -63.0918 0 2.31696 -63.6533 0 2.12229 -64.209 0 1.85514 -64.7466 0 1.51549 -65.2537 0 1.10335 -65.7181 0 0.618721 -66.1275 0 0.0620896 -66.4695 0 -0.555709 -66.7364 0 -1.23024 -66.9288 0 -1.96151 -67.0485 0 -2.74952 -67.0972 0 -3.59426 -67.0766 0 -4.49574 -66.9885 0 -5.42308 -66.8302 0 -6.34542 -66.5815 0 -7.26277 -66.2177 0 -8.17511 -65.7142 0 -9.08245 -65.0463 0 -9.9848 -64.1894 0 -10.8713 -63.1232 0 -11.7157 -61.8647 0 -12.5167 -60.4501 0 -13.2743 -58.916 0 -13.9885 -57.2988 0 -14.6594 -55.6349 0 -15.2821 -53.9599 0 -15.8276 -52.287 0 -16.2912 -50.6069 0 -16.6729 -48.9096 0 -16.9727 -47.1851 0 -17.1905 -45.4231 0 -17.3271 -43.6138 0 -17.3975 -41.7562 0 -17.4078 -39.8674 0 -17.358 -37.9664 0 -17.2481 -36.0722 0 -17.0781 -34.204 0 -16.848 -32.3807 0 -16.5698 -30.6179 0 -16.2552 -28.9177 0 -15.9043 -27.2786 0 -15.517 -25.6991 0 -15.0935 -24.1778 0 -14.6336 -22.7132 0 -14.1459 -21.304 0 -13.6511 -19.9506 0 -13.1502 -18.6544 0 -12.6433 -17.4165 0 -12.1302 -16.2384 0 -11.611 -15.1212 0 -11.0876 -14.0662 0 -10.5716 -13.0729 0 -10.0647 -12.1387 0 -9.56714 -11.2615 0 -9.07878 -10.4386 0 -8.59965 -9.66774 0 -8.12995 -8.94644 0 -7.67412 -8.27239 0 -7.23399 -7.64355 0 -6.80955 -7.05785 0 -6.4008 -6.51326 0 -6.00774 -6.00774 0 -5.63038 -5.53925 0 -5.26832 -5.10577 0 -4.92117 -4.70535 0 -4.58893 -4.33607 0 -4.27161 -3.99601 0 -3.96921 -3.68325 0 -3.68171 -3.39588 0 -3.40816 -3.13201 0 -3.14621 -2.89025 0 -2.89574 -2.6694 0 -2.65675 -2.46831 0 -2.42925 -2.28579 0 -2.21324 -2.12066 0 -2.00812 -1.97178 0 -1.81042 -1.83817 0 -1.61956 -1.7191 0 -1.43553 -1.61384 0 -1.25834 -1.52166 0 -1.08799 -1.44182 0 -0.924332 -1.3736 0 -0.764382 -1.31643 0 -0.606913 -1.2701 0 -0.451925 -1.23441 0 -0.299418 -1.20918 0 -0.149393 -1.19423 0 -0.0018482 -1.18937 0 -0.0109113 -54.1322 0 0.304863 -54.16 0 0.60035 -54.2479 0 0.875549 -54.3928 0 1.13046 -54.5922 0 1.36509 -54.843 0 1.57942 -55.1426 0 1.76475 -55.4877 0 1.89973 -55.8725 0 1.9834 -56.2894 0 2.01576 -56.7309 0 1.99681 -57.1898 0 1.92654 -57.6584 0 1.80373 -58.1294 0 1.62089 -58.5938 0 1.37678 -59.0417 0 1.07141 -59.463 0 0.704775 -59.8474 0 0.276873 -60.1849 0 -0.212167 -60.4654 0 -0.759546 -60.6816 0 -1.36412 -60.8315 0 -2.02589 -60.9138 0 -2.74485 -60.9271 0 -3.52101 -60.8702 0 -4.35436 -60.7417 0 -5.2037 -60.5381 0 -6.02783 -60.2469 0 -6.82675 -59.8533 0 -7.60045 -59.3427 0 -8.34895 -58.7003 0 -9.07222 -57.9114 0 -9.77381 -56.964 0 -10.4623 -55.8695 0 -11.138 -54.6514 0 -11.8011 -53.3334 0 -12.4514 -51.9391 0 -13.089 -50.4921 0 -13.7043 -49.0154 0 -14.2403 -47.5195 0 -14.6872 -46.0017 0 -15.0452 -44.4592 0 -15.3142 -42.889 0 -15.4943 -41.2881 0 -15.5868 -39.6535 0 -15.623 -37.9875 0 -15.6156 -36.3025 0 -15.5646 -34.612 0 -15.4701 -32.9295 0 -15.332 -31.2685 0 -15.1504 -29.6426 0 -14.9284 -28.0631 0 -14.6695 -26.5325 0 -14.3736 -25.0512 0 -14.0406 -23.6194 0 -13.6707 -22.2376 0 -13.2638 -20.906 0 -12.8289 -19.625 0 -12.3879 -18.3952 0 -11.9419 -17.2174 0 -11.4909 -16.0924 0 -11.0348 -15.0208 0 -10.5736 -14.0036 0 -10.109 -13.0413 0 -9.64986 -12.1334 0 -9.19781 -11.278 0 -8.75282 -10.4733 0 -8.31489 -9.71727 0 -7.88402 -9.00808 0 -7.46042 -8.34381 0 -7.04869 -7.72254 0 -6.6507 -7.14242 0 -6.26647 -6.6016 0 -5.89599 -6.0982 0 -5.53925 -5.63038 0 -5.19627 -5.19627 0 -4.86671 -4.79404 0 -4.55027 -4.42197 0 -4.24693 -4.0784 0 -3.95671 -3.76163 0 -3.6796 -3.46998 0 -3.4156 -3.20177 0 -3.16393 -2.95535 0 -2.92271 -2.72946 0 -2.69184 -2.523 0 -2.47132 -2.33487 0 -2.26116 -2.164 0 -2.06136 -2.00929 0 -1.87138 -1.86967 0 -1.68807 -1.74426 0 -1.51091 -1.63239 0 -1.33988 -1.53342 0 -1.175 -1.44669 0 -1.01626 -1.37155 0 -0.863543 -1.30734 0 -0.714202 -1.25355 0 -0.567156 -1.20998 0 -0.422404 -1.17642 0 -0.279947 -1.15268 0 -0.139786 -1.13858 0 -0.00191866 -1.13392 0 -0.0086273 -49.6897 0 0.250638 -49.7142 0 0.492203 -49.7895 0 0.716067 -49.9129 0 0.922231 -50.0823 0 1.11069 -50.2952 0 1.28146 -50.5493 0 1.42703 -50.8419 0 1.52908 -51.1677 0 1.5868 -51.5205 0 1.60017 -51.8935 0 1.5692 -52.2804 0 1.49389 -52.6746 0 1.37325 -53.0696 0 1.20139 -53.458 0 0.97732 -53.832 0 0.70105 -54.1834 0 0.372574 -54.5041 0 -0.00810607 -54.7862 0 -0.44104 -55.0214 0 -0.927316 -55.2027 0 -1.46738 -55.3246 0 -2.06122 -55.3818 0 -2.70885 -55.369 0 -3.41027 -55.2809 0 -4.16547 -55.1123 0 -4.93062 -54.8581 0 -5.66188 -54.515 0 -6.35924 -54.0797 0 -7.02271 -53.5491 0 -7.6523 -52.9199 0 -8.24798 -52.1892 0 -8.82023 -51.3545 0 -9.39456 -50.4209 0 -9.97213 -49.3975 0 -10.553 -48.293 0 -11.137 -47.1165 0 -11.7244 -45.877 0 -12.3036 -44.5832 0 -12.8068 -43.2426 0 -13.2227 -41.8611 0 -13.5513 -40.4444 0 -13.7925 -38.9984 0 -13.9464 -37.5289 0 -14.0146 -36.0416 0 -14.0344 -34.543 0 -14.0209 -33.0401 0 -13.9742 -31.5405 0 -13.8942 -30.0515 0 -13.781 -28.5804 0 -13.6346 -27.1348 0 -13.4537 -25.721 0 -13.2373 -24.3424 0 -12.9853 -23.0014 0 -12.6978 -21.7004 0 -12.3747 -20.442 0 -12.0161 -19.2285 0 -11.6306 -18.0622 0 -11.2395 -16.944 0 -10.8438 -15.8739 0 -10.4434 -14.852 0 -10.0384 -13.8784 0 -9.62875 -12.9532 0 -9.21573 -12.0765 0 -8.80686 -11.2475 0 -8.40339 -10.4649 0 -8.00533 -9.72734 0 -7.61268 -9.03329 0 -7.22543 -8.38138 0 -6.84379 -7.77021 0 -6.47227 -7.19824 0 -6.11271 -6.66379 0 -5.7651 -6.16514 0 -5.42946 -5.70055 0 -5.10577 -5.26832 0 -4.79404 -4.86671 0 -4.49406 -4.49406 0 -4.20562 -4.14885 0 -3.92873 -3.82965 0 -3.66338 -3.53498 0 -3.40958 -3.2634 0 -3.16732 -3.01344 0 -2.93598 -2.7837 0 -2.71401 -2.573 0 -2.50134 -2.38033 0 -2.29797 -2.20468 0 -2.1039 -2.04503 0 -1.91914 -1.90036 0 -1.7432 -1.76966 0 -1.57327 -1.65215 0 -1.40886 -1.54723 0 -1.24998 -1.45432 0 -1.09663 -1.37285 0 -0.948804 -1.30224 0 -0.806398 -1.24192 0 -0.667057 -1.19142 0 -0.529816 -1.15053 0 -0.394675 -1.11904 0 -0.261634 -1.09675 0 -0.130693 -1.08348 0 -0.00185188 -1.07901 0 -0.00772938 -45.5278 0 0.204029 -45.5494 0 0.400256 -45.6133 0 0.580954 -45.7176 0 0.746121 -45.8604 0 0.895758 -46.0396 0 1.02986 -46.2533 0 1.14204 -46.4992 0 1.21665 -46.7728 0 1.25298 -47.0685 0 1.25103 -47.3807 0 1.21081 -47.7038 0 1.1323 -48.032 0 1.01467 -48.3597 0 0.852866 -48.681 0 0.646043 -48.9894 0 0.394202 -49.2786 0 0.0973433 -49.5423 0 -0.244534 -49.7739 0 -0.631492 -49.9673 0 -1.06492 -50.1155 0 -1.5454 -50.2105 0 -2.07292 -50.2445 0 -2.64748 -50.2094 0 -3.26908 -50.0972 0 -3.93773 -49.9 0 -4.61361 -49.6119 0 -5.25693 -49.2361 0 -5.86769 -48.7778 0 -6.44588 -48.2424 0 -6.9915 -47.6351 0 -7.50456 -46.9612 0 -7.99603 -46.2255 0 -8.49273 -45.4284 0 -8.99588 -44.568 0 -9.50548 -43.6424 0 -10.0215 -42.6497 0 -10.544 -41.5879 0 -11.0624 -40.4556 0 -11.5131 -39.2576 0 -11.8856 -38.0057 0 -12.1799 -36.7119 0 -12.396 -35.3883 0 -12.5339 -34.0469 0 -12.5951 -32.6995 0 -12.614 -31.3554 0 -12.6045 -30.0179 0 -12.5668 -28.6897 0 -12.5008 -27.3736 0 -12.4064 -26.0725 0 -12.2837 -24.7889 0 -12.1308 -23.5259 0 -11.9455 -22.2871 0 -11.7278 -21.0766 0 -11.4779 -19.8982 0 -11.1956 -18.7559 0 -10.881 -17.6535 0 -10.5418 -16.5946 0 -10.197 -15.5803 0 -9.84733 -14.6102 0 -9.49287 -13.6839 0 -9.1336 -12.801 0 -8.76953 -11.961 0 -8.40177 -11.1637 0 -8.03709 -10.4082 0 -7.6766 -9.69364 0 -7.32032 -9.01895 0 -6.96823 -8.38311 0 -6.62033 -7.7851 0 -6.27683 -7.22391 0 -5.94191 -6.69834 0 -5.61731 -6.20686 0 -5.30301 -5.74789 0 -4.99902 -5.31985 0 -4.70535 -4.92117 0 -4.42197 -4.55027 0 -4.14885 -4.20562 0 -3.88592 -3.88592 0 -3.63318 -3.58991 0 -3.39063 -3.31633 0 -3.15827 -3.06392 0 -2.9361 -2.83142 0 -2.72359 -2.6176 0 -2.51946 -2.42142 0 -2.32366 -2.24193 0 -2.13618 -2.07819 0 -1.95703 -1.92926 0 -1.78619 -1.7942 0 -1.62326 -1.67208 0 -1.46574 -1.56216 0 -1.31319 -1.46393 0 -1.16564 -1.37688 0 -1.02306 -1.3005 0 -0.885475 -1.23428 0 -0.752774 -1.17771 0 -0.62284 -1.13038 0 -0.494807 -1.09206 0 -0.368673 -1.06256 0 -0.244439 -1.04167 0 -0.122104 -1.02919 0 -0.00166959 -1.02493 0 -0.00778301 -41.6468 0 0.164294 -41.6654 0 0.322668 -41.7193 0 0.467339 -41.8069 0 0.598306 -41.9264 0 0.71557 -42.0762 0 0.81913 -42.2546 0 0.903551 -42.4597 0 0.955542 -42.6876 0 0.9745 -42.9336 0 0.960424 -43.1926 0 0.913315 -43.4599 0 0.833173 -43.7306 0 0.71921 -43.9998 0 0.566697 -44.2626 0 0.374849 -44.5139 0 0.143663 -44.7486 0 -0.126858 -44.9618 0 -0.436717 -45.1483 0 -0.785877 -45.3031 0 -1.17357 -45.4197 0 -1.59949 -45.4891 0 -2.06363 -45.5017 0 -2.56599 -45.4481 0 -3.10658 -45.319 0 -3.68538 -45.1047 0 -4.27113 -44.7994 0 -4.83254 -44.4101 0 -5.3696 -43.9477 0 -5.88233 -43.4227 0 -6.37072 -42.8457 0 -6.83476 -42.2274 0 -7.28151 -41.5771 0 -7.72817 -40.8919 0 -8.17554 -40.1631 0 -8.6236 -39.3817 0 -9.07237 -38.5387 0 -9.52183 -37.6251 0 -9.96388 -36.6325 0 -10.3499 -35.5642 0 -10.6717 -34.4354 0 -10.9293 -33.2617 0 -11.1227 -32.0587 0 -11.252 -30.842 0 -11.3182 -29.6272 0 -11.3468 -28.4248 0 -11.3481 -27.2358 0 -11.3223 -26.0596 0 -11.2692 -24.8959 0 -11.1889 -23.7445 0 -11.0813 -22.6049 0 -10.9462 -21.4777 0 -10.7831 -20.3668 0 -10.5921 -19.2769 0 -10.3732 -18.2127 0 -10.1263 -17.1791 0 -9.85151 -16.1808 0 -9.55512 -15.2222 0 -9.25268 -14.3043 0 -8.94489 -13.4265 0 -8.63175 -12.588 0 -8.31326 -11.7884 0 -7.98943 -11.0269 0 -7.66133 -10.3027 0 -7.33549 -9.61539 0 -7.01298 -8.96408 0 -6.69381 -8.34809 0 -6.37799 -7.76671 0 -6.0655 -7.21923 0 -5.75652 -6.70492 0 -5.45481 -6.22285 0 -5.16192 -5.77163 0 -4.87782 -5.34986 0 -4.60254 -4.9561 0 -4.33607 -4.58893 0 -4.0784 -4.24693 0 -3.82965 -3.92873 0 -3.58991 -3.63318 0 -3.35919 -3.35919 0 -3.13749 -3.10568 0 -2.92481 -2.87154 0 -2.72115 -2.6557 0 -2.52606 -2.45707 0 -2.33843 -2.27473 0 -2.15823 -2.1078 0 -1.98544 -1.95541 0 -1.82007 -1.81671 0 -1.66212 -1.69083 0 -1.51123 -1.5769 0 -1.3652 -1.47428 0 -1.22368 -1.3825 0 -1.08666 -1.30111 0 -0.954148 -1.22965 0 -0.826137 -1.16767 0 -0.702542 -1.11472 0 -0.581436 -1.07043 0 -0.462031 -1.03458 0 -0.344326 -1.00698 0 -0.228321 -0.987432 0 -0.114017 -0.975734 0 -0.00141369 -0.971692 0 -0.00835365 -38.0465 0 0.130696 -38.0624 0 0.257599 -38.1076 0 0.372354 -38.1807 0 0.474963 -38.2803 0 0.565425 -38.405 0 0.64374 -38.5532 0 0.705304 -38.7234 0 0.73886 -38.9123 0 0.743898 -39.1156 0 0.720418 -39.3292 0 0.668418 -39.5489 0 0.5879 -39.7705 0 0.47808 -39.9899 0 0.334253 -40.2029 0 0.155635 -40.4055 0 -0.0577732 -40.5934 0 -0.305972 -40.7627 0 -0.588961 -40.9092 0 -0.906547 -41.0287 0 -1.25446 -41.1155 0 -1.63095 -41.1603 0 -2.03602 -41.1535 0 -2.46966 -41.0853 0 -2.93189 -40.9463 0 -3.42269 -40.7266 0 -3.92162 -40.4206 0 -4.40822 -40.0372 0 -4.8825 -39.5893 0 -5.34445 -39.0899 0 -5.79407 -38.5518 0 -6.23137 -37.9878 0 -6.65694 -37.4092 0 -7.07226 -36.8115 0 -7.47738 -36.1828 0 -7.87231 -35.5108 0 -8.25704 -34.7834 0 -8.63159 -33.9883 0 -8.99124 -33.114 0 -9.30777 -32.1626 0 -9.57647 -31.1503 0 -9.79734 -30.0937 0 -9.97039 -29.0094 0 -10.0956 -27.9142 0 -10.1736 -26.8246 0 -10.2177 -25.7513 0 -10.2332 -24.6938 0 -10.2203 -23.6501 0 -10.1789 -22.6184 0 -10.1091 -21.5966 0 -10.0107 -20.5829 0 -9.88655 -19.5766 0 -9.73939 -18.5813 0 -9.56921 -17.6021 0 -9.376 -16.644 0 -9.15977 -15.7118 0 -8.92051 -14.8106 0 -8.663 -13.9449 0 -8.3989 -13.1158 0 -8.12875 -12.3226 0 -7.85253 -11.5644 0 -7.57026 -10.8408 0 -7.28192 -10.1508 0 -6.98863 -9.49375 0 -6.69697 -8.86908 0 -6.40805 -8.27626 0 -6.12187 -7.71478 0 -5.83842 -7.18412 0 -5.5577 -6.68377 0 -5.27987 -6.21323 0 -5.00817 -5.77175 0 -4.74393 -5.35811 0 -4.48716 -4.97105 0 -4.23785 -4.6093 0 -3.99601 -4.27161 0 -3.76163 -3.95671 0 -3.53498 -3.66338 0 -3.31633 -3.39063 0 -3.10568 -3.13749 0 -2.90303 -2.90303 0 -2.70837 -2.68627 0 -2.52172 -2.48628 0 -2.34267 -2.30211 0 -2.17026 -2.13292 0 -2.00444 -1.97792 0 -1.84521 -1.83633 0 -1.69258 -1.70737 0 -1.54653 -1.59023 0 -1.40677 -1.48415 0 -1.2714 -1.38852 0 -1.1401 -1.30294 0 -1.01287 -1.227 0 -0.889726 -1.16029 0 -0.770653 -1.10241 0 -0.655575 -1.05295 0 -0.542729 -1.01158 0 -0.431391 -0.978093 0 -0.321561 -0.952307 0 -0.213241 -0.934035 0 -0.106429 -0.923093 0 -0.00112606 -0.919293 0 -0.00900678 -34.727 0 0.102494 -34.7402 0 0.203206 -34.7781 0 0.293131 -34.8391 0 0.372268 -34.9222 0 0.440617 -35.026 0 0.498178 -35.1492 0 0.541054 -35.2904 0 0.559714 -35.4467 0 0.553726 -35.6145 0 0.523089 -35.7904 0 0.467805 -35.9706 0 0.387872 -36.1517 0 0.282496 -36.33 0 0.146904 -36.502 0 -0.0196992 -36.6642 0 -0.217313 -36.813 0 -0.445938 -36.945 0 -0.705574 -37.0566 0 -0.995857 -37.1443 0 -1.30878 -37.2029 0 -1.64107 -37.2243 0 -1.99273 -37.1998 0 -2.36376 -37.1209 0 -2.75415 -36.9791 0 -3.16391 -36.7657 0 -3.58354 -36.4755 0 -4.00353 -36.1172 0 -4.42389 -35.7028 0 -4.84463 -35.2442 0 -5.26573 -34.7534 0 -5.68719 -34.2425 0 -6.10262 -33.7218 0 -6.49635 -33.1872 0 -6.86767 -32.6271 0 -7.21657 -32.0298 0 -7.54306 -31.3839 0 -7.84714 -30.6777 0 -8.12764 -29.9 0 -8.37757 -29.0528 0 -8.59576 -28.1504 0 -8.78222 -27.208 0 -8.93694 -26.2407 0 -9.05993 -25.2636 0 -9.15121 -24.2917 0 -9.21161 -23.3347 0 -9.24145 -22.3919 0 -9.24074 -21.4613 0 -9.20946 -20.5409 0 -9.14762 -19.6287 0 -9.05523 -18.7228 0 -8.93844 -17.8224 0 -8.80342 -16.9307 0 -8.65016 -16.0524 0 -8.47867 -15.192 0 -8.28895 -14.354 0 -8.08099 -13.5429 0 -7.85803 -12.7628 0 -7.62798 -12.0149 0 -7.3912 -11.2985 0 -7.14769 -10.6131 0 -6.89745 -9.95804 0 -6.64048 -9.33276 0 -6.3779 -8.73667 0 -6.11648 -8.16928 0 -5.85736 -7.63019 0 -5.60052 -7.119 0 -5.34597 -6.63532 0 -5.09371 -6.17873 0 -4.84386 -5.74885 0 -4.59918 -5.34505 0 -4.36077 -4.96628 0 -4.12865 -4.61145 0 -3.90281 -4.27946 0 -3.68325 -3.96921 0 -3.46998 -3.6796 0 -3.2634 -3.40958 0 -3.06392 -3.15827 0 -2.87154 -2.92481 0 -2.68627 -2.70837 0 -2.5081 -2.5081 0 -2.33704 -2.32316 0 -2.17272 -2.15271 0 -2.01429 -1.99599 0 -1.86171 -1.85232 0 -1.71497 -1.72096 0 -1.57407 -1.60123 0 -1.43903 -1.49241 0 -1.30955 -1.39381 0 -1.18404 -1.30488 0 -1.06222 -1.22525 0 -0.944085 -1.15456 0 -0.82964 -1.09243 0 -0.718885 -1.0385 0 -0.611746 -0.992395 0 -0.506601 -0.95382 0 -0.402788 -0.922587 0 -0.300306 -0.898531 0 -0.199155 -0.881482 0 -0.0993363 -0.871272 0 -0.000848594 -0.867734 0 -0.00930788 -31.6882 0 0.0789475 -31.699 0 0.15765 -31.7307 0 0.226799 -31.7821 0 0.286396 -31.852 0 0.336439 -31.9392 0 0.37693 -32.0425 0 0.404553 -32.1605 0 0.41121 -32.2909 0 0.39653 -32.4305 0 0.360516 -32.5762 0 0.303166 -32.7251 0 0.22448 -32.8741 0 0.123672 -33.02 0 -0.0039775 -33.1597 0 -0.159256 -33.2899 0 -0.342162 -33.4074 0 -0.552698 -33.5087 0 -0.790862 -33.5905 0 -1.05616 -33.6497 0 -1.33774 -33.6818 0 -1.63117 -33.6809 0 -1.93643 -33.6408 0 -2.25354 -33.555 0 -2.5825 -33.4174 0 -2.92329 -33.2218 0 -3.27532 -32.9642 0 -3.63799 -32.6502 0 -4.0113 -32.2879 0 -4.39524 -31.8854 0 -4.78981 -31.4505 0 -5.19502 -30.9914 0 -5.59883 -30.515 0 -5.97183 -30.0189 0 -6.31267 -29.4958 0 -6.62137 -28.9387 0 -6.89791 -28.3402 0 -7.1423 -27.6932 0 -7.35624 -26.9907 0 -7.54999 -26.2346 0 -7.72523 -25.4356 0 -7.88198 -24.6045 0 -8.02023 -23.7524 0 -8.13999 -22.8901 0 -8.24083 -22.0286 0 -8.31354 -21.1752 0 -8.35433 -20.3302 0 -8.3632 -19.4932 0 -8.34017 -18.6636 0 -8.28522 -17.8409 0 -8.19835 -17.0247 0 -8.08843 -16.2151 0 -7.96432 -15.415 0 -7.826 -14.6277 0 -7.67349 -13.8567 0 -7.50678 -13.1055 0 -7.32588 -12.3775 0 -7.13275 -11.6759 0 -6.93224 -11.0016 0 -6.72457 -10.3544 0 -6.50973 -9.73402 0 -6.28773 -9.14024 0 -6.05856 -8.57282 0 -5.82336 -8.03151 0 -5.58894 -7.51598 0 -5.35642 -7.02586 0 -5.12581 -6.56076 0 -4.8971 -6.12031 0 -4.67029 -5.70411 0 -4.4455 -5.31177 0 -4.22503 -4.94275 0 -4.00984 -4.59616 0 -3.79991 -4.27107 0 -3.59526 -3.96656 0 -3.39588 -3.68171 0 -3.20177 -3.4156 0 -3.01344 -3.16732 0 -2.83142 -2.9361 0 -2.6557 -2.72115 0 -2.48628 -2.52172 0 -2.32316 -2.33704 0 -2.16634 -2.16634 0 -2.01551 -2.00887 0 -1.86989 -1.86395 0 -1.72945 -1.73097 0 -1.59419 -1.6093 0 -1.46411 -1.49831 0 -1.33921 -1.39738 0 -1.21925 -1.30589 0 -1.10287 -1.22335 0 -0.989822 -1.14943 0 -0.880111 -1.08378 0 -0.773735 -1.02606 0 -0.670696 -0.975932 0 -0.570926 -0.933056 0 -0.472938 -0.897154 0 -0.376125 -0.868068 0 -0.280487 -0.845655 0 -0.186024 -0.829771 0 -0.0927364 -0.820272 0 -0.000623195 -0.817014 0 -0.00887136 -28.8985 0 0.0593383 -28.9071 0 0.119172 -28.9338 0 0.170629 -28.9774 0 0.21371 -29.0368 0 0.248415 -29.1108 0 0.274744 -29.1983 0 0.289851 -29.298 0 0.286778 -29.4077 0 0.265208 -29.5249 0 0.225144 -29.6469 0 0.166583 -29.771 0 0.089526 -29.8947 0 -0.00675302 -30.0153 0 -0.126613 -30.1298 0 -0.27078 -30.2349 0 -0.439254 -30.3273 0 -0.632036 -30.4037 0 -0.849125 -30.4606 0 -1.08998 -30.4949 0 -1.3428 -30.5031 0 -1.60273 -30.4821 0 -1.86978 -30.4285 0 -2.14396 -30.3392 0 -2.42525 -30.2108 0 -2.71367 -30.0401 0 -3.01349 -29.8247 0 -3.32901 -29.5661 0 -3.66021 -29.2664 0 -4.00711 -28.9278 0 -4.3697 -28.5526 0 -4.74799 -28.143 0 -5.12743 -27.701 0 -5.47249 -27.227 0 -5.78156 -26.7204 0 -6.05464 -26.1804 0 -6.29172 -25.6066 0 -6.49282 -24.9983 0 -6.66112 -24.355 0 -6.8158 -23.6792 0 -6.96007 -22.9759 0 -7.09393 -22.2506 0 -7.21737 -21.5086 0 -7.3304 -20.7552 0 -7.43236 -19.9958 0 -7.50897 -19.2346 0 -7.55441 -18.4738 0 -7.56866 -17.7152 0 -7.55172 -16.9606 0 -7.5036 -16.2121 0 -7.42429 -15.4715 0 -7.32365 -14.7407 0 -7.21152 -14.0216 0 -7.08791 -13.3164 0 -6.95282 -12.627 0 -6.80625 -11.9553 0 -6.64819 -11.3036 0 -6.47985 -10.6736 0 -6.30421 -10.066 0 -6.12139 -9.48123 0 -5.9314 -8.91937 0 -5.73423 -8.38065 0 -5.52989 -7.86527 0 -5.31945 -7.37344 0 -5.10943 -6.90505 0 -4.9009 -6.45967 0 -4.69387 -6.03688 0 -4.48833 -5.63625 0 -4.28429 -5.25733 0 -4.08185 -4.89971 0 -3.88301 -4.56285 0 -3.6886 -4.24601 0 -3.49864 -3.94845 0 -3.31311 -3.66942 0 -3.13201 -3.40816 0 -2.95535 -3.16393 0 -2.7837 -2.93598 0 -2.6176 -2.72359 0 -2.45707 -2.52606 0 -2.30211 -2.34267 0 -2.15271 -2.17272 0 -2.00887 -2.01551 0 -1.87032 -1.87032 0 -1.7364 -1.73657 0 -1.60708 -1.61372 0 -1.48235 -1.50122 0 -1.36222 -1.39852 0 -1.24668 -1.30508 0 -1.13554 -1.22036 0 -1.02761 -1.14393 0 -0.922684 -1.07548 0 -0.820765 -1.01466 0 -0.721853 -0.961183 0 -0.625948 -0.914711 0 -0.532988 -0.874932 0 -0.441626 -0.84159 0 -0.351308 -0.814555 0 -0.262035 -0.79371 0 -0.173807 -0.77894 0 -0.0866246 -0.770127 0 -0.000487009 -0.767156 0 -0.00773784 -26.2804 0 0.0431207 -26.2871 0 0.0867302 -26.3094 0 0.123091 -26.3461 0 0.152202 -26.3961 0 0.174064 -26.4583 0 0.188678 -26.5317 0 0.193562 -26.6151 0 0.182658 -26.7065 0 0.155688 -26.8038 0 0.112653 -26.9047 0 0.0535534 -27.0069 0 -0.0216113 -27.1083 0 -0.113458 -27.2065 0 -0.225688 -27.2988 0 -0.358917 -27.3819 0 -0.513147 -27.4526 0 -0.688376 -27.5076 0 -0.884606 -27.5437 0 -1.10134 -27.5575 0 -1.32764 -27.5466 0 -1.55903 -27.5099 0 -1.79551 -27.4464 0 -2.03708 -27.3552 0 -2.28375 -27.2355 0 -2.5355 -27.0861 0 -2.79761 -26.9061 0 -3.07531 -26.6935 0 -3.36861 -26.4461 0 -3.6775 -26.1617 0 -4.002 -25.8382 0 -4.3421 -25.4734 0 -4.68385 -25.0657 0 -4.99321 -24.6172 0 -5.2686 -24.1324 0 -5.51005 -23.6157 0 -5.71754 -23.0714 0 -5.89108 -22.504 0 -6.03398 -21.9177 0 -6.16621 -21.3152 0 -6.29108 -20.6977 0 -6.40859 -20.0661 0 -6.51874 -19.4214 0 -6.62154 -18.7647 0 -6.71632 -18.0969 0 -6.78864 -17.42 0 -6.8326 -16.7373 0 -6.84818 -16.0525 0 -6.8354 -15.3692 0 -6.79425 -14.691 0 -6.72473 -14.0216 0 -6.63599 -13.3641 0 -6.5372 -12.72 0 -6.42836 -12.09 0 -6.30946 -11.4751 0 -6.1805 -10.8762 0 -6.04149 -10.2942 0 -5.89334 -9.72997 0 -5.7383 -9.18417 0 -5.57647 -8.65735 0 -5.40786 -8.15005 0 -5.23245 -7.66281 0 -5.05026 -7.19619 0 -4.86226 -6.7507 0 -4.67434 -6.3264 0 -4.48746 -5.92285 0 -4.30164 -5.53959 0 -4.11687 -5.17618 0 -3.93315 -4.83216 0 -3.75057 -4.50708 0 -3.57098 -4.20044 0 -3.39516 -3.91164 0 -3.22309 -3.64007 0 -3.05479 -3.38513 0 -2.89025 -3.14621 0 -2.72946 -2.92271 0 -2.573 -2.71401 0 -2.42142 -2.51946 0 -2.27473 -2.33843 0 -2.13292 -2.17026 0 -1.99599 -2.01429 0 -1.86395 -1.86989 0 -1.73657 -1.7364 0 -1.61331 -1.61331 0 -1.49413 -1.50014 0 -1.37904 -1.39641 0 -1.26804 -1.30166 0 -1.16113 -1.2154 0 -1.05813 -1.13718 0 -0.958011 -1.06661 0 -0.860586 -1.00339 0 -0.765861 -0.947213 0 -0.673834 -0.897792 0 -0.584506 -0.854828 0 -0.497822 -0.818025 0 -0.412573 -0.787151 0 -0.328265 -0.762097 0 -0.244897 -0.74277 0 -0.16247 -0.729076 0 -0.0809825 -0.720922 0 -0.000435889 -0.718213 0 -0.00616733 -23.8304 0 0.0298396 -23.8356 0 0.0596532 -23.854 0 0.0832733 -23.8845 0 0.1007 -23.9262 0 0.111933 -23.9779 0 0.116973 -24.0388 0 0.113628 -24.1078 0 0.0965368 -24.1831 0 0.0654573 -24.2629 0 0.0203893 -24.3453 0 -0.0386672 -24.4283 0 -0.111712 -24.5101 0 -0.199224 -24.5887 0 -0.304066 -24.6615 0 -0.426716 -24.7256 0 -0.567175 -24.7778 0 -0.725442 -24.815 0 -0.901518 -24.8341 0 -1.095 -24.832 0 -1.2971 -24.8069 0 -1.50422 -24.759 0 -1.71636 -24.6891 0 -1.93351 -24.5979 0 -2.15569 -24.4859 0 -2.38288 -24.3539 0 -2.61852 -24.2015 0 -2.86604 -24.0247 0 -3.12543 -23.8184 0 -3.39669 -23.5777 0 -3.67983 -23.2974 0 -3.97485 -22.9726 0 -4.27058 -22.5991 0 -4.53972 -22.1805 0 -4.78103 -21.7243 0 -4.99452 -21.2382 0 -5.18019 -20.7296 0 -5.33802 -20.2061 0 -5.47052 -19.6751 0 -5.5926 -19.1395 0 -5.70676 -18.5976 0 -5.81299 -18.0473 0 -5.91129 -17.4868 0 -6.00166 -16.9142 0 -6.0836 -16.3275 0 -6.14593 -15.727 0 -6.18411 -15.1169 0 -6.19812 -14.5018 0 -6.18797 -13.8863 0 -6.15366 -13.2752 0 -6.09518 -12.6731 0 -6.01983 -12.084 0 -5.93492 -11.5086 0 -5.84045 -10.9472 0 -5.73641 -10.3999 0 -5.62281 -9.86682 0 -5.49964 -9.34812 0 -5.36787 -8.84396 0 -5.22987 -8.35492 0 -5.08574 -7.88174 0 -4.93548 -7.42518 0 -4.7791 -6.986 0 -4.61658 -6.56495 0 -4.44879 -6.16275 0 -4.28075 -5.77957 0 -4.11331 -5.41498 0 -3.94647 -5.06854 0 -3.78023 -4.7398 0 -3.6146 -4.42831 0 -3.44964 -4.13363 0 -3.28716 -3.85531 0 -3.1279 -3.59284 0 -2.97185 -3.34575 0 -2.81902 -3.11355 0 -2.6694 -2.89574 0 -2.523 -2.69184 0 -2.38033 -2.50134 0 -2.24193 -2.32366 0 -2.1078 -2.15823 0 -1.97792 -2.00444 0 -1.85232 -1.86171 0 -1.73097 -1.72945 0 -1.61372 -1.60708 0 -1.50014 -1.49413 0 -1.3902 -1.3902 0 -1.28391 -1.29486 0 -1.18126 -1.20772 0 -1.08227 -1.12835 0 -0.986766 -1.05636 0 -0.893832 -0.991385 0 -0.803312 -0.933166 0 -0.715205 -0.881424 0 -0.629513 -0.835887 0 -0.546235 -0.796281 0 -0.465321 -0.762335 0 -0.385702 -0.733836 0 -0.306939 -0.710696 0 -0.229032 -0.692838 0 -0.15198 -0.680185 0 -0.0757844 -0.672661 0 -0.000444428 -0.67019 0 -0.00442169 -21.5485 0 0.0190405 -21.5525 0 0.0372715 -21.5676 0 0.0502714 -21.5927 0 0.0580402 -21.6271 0 0.0605778 -21.6697 0 0.0578842 -21.7197 0 0.047996 -21.776 0 0.0261134 -21.8374 0 -0.00798171 -21.9022 0 -0.0542894 -21.9686 0 -0.11281 -22.0352 0 -0.183543 -22.1001 0 -0.266816 -22.1618 0 -0.364597 -22.2181 0 -0.477213 -22.266 0 -0.604664 -22.3028 0 -0.746951 -22.3257 0 -0.904074 -22.3318 0 -1.07576 -22.3183 0 -1.25605 -22.2838 0 -1.44249 -22.2294 0 -1.63509 -22.1567 0 -1.83385 -22.0671 0 -2.03876 -21.9622 0 -2.24983 -21.8434 0 -2.46701 -21.7109 0 -2.69025 -21.5596 0 -2.91954 -21.3834 0 -3.15489 -21.1756 0 -3.3963 -20.9301 0 -3.64376 -20.6405 0 -3.89011 -20.3014 0 -4.11785 -19.917 0 -4.32618 -19.4961 0 -4.51509 -19.0478 0 -4.68459 -18.581 0 -4.83468 -18.1047 0 -4.96644 -17.6275 0 -5.08639 -17.1522 0 -5.19562 -16.6756 0 -5.29413 -16.1943 0 -5.38192 -15.7048 0 -5.45898 -15.2037 0 -5.52505 -14.6877 0 -5.57426 -14.1558 0 -5.60419 -13.6126 0 -5.61485 -13.063 0 -5.60623 -12.5121 0 -5.57834 -11.9648 0 -5.53118 -11.4261 0 -5.46955 -10.9002 0 -5.39826 -10.3876 0 -5.31731 -9.88807 0 -5.2267 -9.40138 0 -5.12642 -8.92723 0 -5.01649 -8.46535 0 -4.89812 -8.01554 0 -4.77429 -7.57828 0 -4.64513 -7.15442 0 -4.51066 -6.74478 0 -4.37087 -6.35021 0 -4.22575 -5.97154 0 -4.07601 -5.60958 0 -3.92574 -5.26456 0 -3.77565 -4.93607 0 -3.62572 -4.62372 0 -3.47597 -4.32709 0 -3.32638 -4.04577 0 -3.17705 -3.77936 0 -3.02976 -3.52745 0 -2.88524 -3.28963 0 -2.74349 -3.06551 0 -2.60451 -2.85468 0 -2.46831 -2.65675 0 -2.33487 -2.47132 0 -2.20468 -2.29797 0 -2.07819 -2.13618 0 -1.95541 -1.98544 0 -1.83633 -1.84521 0 -1.72096 -1.71497 0 -1.6093 -1.59419 0 -1.50122 -1.48235 0 -1.39641 -1.37904 0 -1.29486 -1.28391 0 -1.19658 -1.19658 0 -1.10156 -1.11671 0 -1.00981 -1.04392 0 -0.921173 -0.977874 0 -0.834832 -0.918253 0 -0.750644 -0.864811 0 -0.668609 -0.817298 0 -0.588728 -0.775468 0 -0.510999 -0.739072 0 -0.435381 -0.707861 0 -0.360934 -0.681647 0 -0.287272 -0.660353 0 -0.214397 -0.643913 0 -0.142308 -0.632265 0 -0.0710044 -0.625343 0 -0.000487042 -0.623084 0 -0.00276274 -19.4346 0 0.0102688 -19.4378 0 0.0189162 -19.4501 0 0.0231793 -19.4707 0 0.0230581 -19.4988 0 0.0185527 -19.5335 0 0.0096631 -19.5742 0 -0.00538223 -19.6199 0 -0.0309135 -19.6696 0 -0.0671277 -19.7217 0 -0.114025 -19.7748 0 -0.171604 -19.8275 0 -0.239867 -19.8784 0 -0.319 -19.926 0 -0.410129 -19.9684 0 -0.513443 -20.0031 0 -0.62894 -20.0278 0 -0.756622 -20.0398 0 -0.896487 -20.0369 0 -1.0484 -20.0165 0 -1.20932 -19.9775 0 -1.378 -19.9212 0 -1.55445 -19.8491 0 -1.73867 -19.7629 0 -1.93065 -19.6642 0 -2.13039 -19.5545 0 -2.33386 -19.4342 0 -2.537 -19.2983 0 -2.73982 -19.1409 0 -2.94231 -18.9556 0 -3.14448 -18.7364 0 -3.34633 -18.477 0 -3.54498 -18.1725 0 -3.73343 -17.8266 0 -3.91137 -17.4478 0 -4.07878 -17.0447 0 -4.23568 -16.6259 0 -4.38207 -16.1997 0 -4.51745 -15.7746 0 -4.63898 -15.3531 0 -4.74617 -14.9317 0 -4.83903 -14.507 0 -4.91754 -14.0754 0 -4.98172 -13.6333 0 -5.03156 -13.1773 0 -5.06702 -12.7063 0 -5.08808 -12.2244 0 -5.09473 -11.7363 0 -5.08698 -11.2465 0 -5.06483 -10.7597 0 -5.02828 -10.2805 0 -4.97953 -9.8127 0 -4.92079 -9.35685 0 -4.85206 -8.91257 0 -4.77333 -8.47954 0 -4.68462 -8.05742 0 -4.58591 -7.64589 0 -4.47875 -7.24469 0 -4.36693 -6.85425 0 -4.25061 -6.47537 0 -4.12979 -6.10884 0 -4.00448 -5.75544 0 -3.87467 -5.41597 0 -3.74091 -5.0912 0 -3.6064 -4.78136 0 -3.47167 -4.48612 0 -3.33674 -4.20513 0 -3.2016 -3.93806 0 -3.06625 -3.68455 0 -2.93077 -3.44427 0 -2.79697 -3.21686 0 -2.66556 -3.00199 0 -2.53657 -2.79933 0 -2.40997 -2.60853 0 -2.28579 -2.42925 0 -2.164 -2.26116 0 -2.04503 -2.1039 0 -1.92926 -1.95703 0 -1.81671 -1.82007 0 -1.70737 -1.69258 0 -1.60123 -1.57407 0 -1.49831 -1.46411 0 -1.39852 -1.36222 0 -1.30166 -1.26804 0 -1.20772 -1.18126 0 -1.11671 -1.10156 0 -1.02862 -1.02862 0 -0.943457 -0.962118 0 -0.861092 -0.90174 0 -0.780771 -0.847216 0 -0.702367 -0.798322 0 -0.625882 -0.754835 0 -0.551315 -0.716535 0 -0.478665 -0.683198 0 -0.407897 -0.654604 0 -0.338189 -0.630583 0 -0.269207 -0.611067 0 -0.200951 -0.595997 0 -0.133421 -0.585317 0 -0.0666167 -0.57897 0 -0.000538146 -0.576898 0 -0.00145233 -17.4888 0 0.00307018 -17.4916 0 0.00391804 -17.5017 0 0.00109125 -17.5185 0 -0.00541019 -17.5413 0 -0.0155863 -17.5695 0 -0.029437 -17.6024 0 -0.0485573 -17.6395 0 -0.0768455 -17.6795 0 -0.114479 -17.7213 0 -0.161458 -17.7637 0 -0.217782 -17.8052 0 -0.283451 -17.8448 0 -0.358542 -17.8811 0 -0.443513 -17.9124 0 -0.538442 -17.9369 0 -0.643328 -17.9526 0 -0.75817 -17.9574 0 -0.88297 -17.9494 0 -1.0177 -17.9266 0 -1.16177 -17.8879 0 -1.31494 -17.8342 0 -1.47721 -17.7663 0 -1.64857 -17.6853 0 -1.82904 -17.5919 0 -2.0186 -17.4873 0 -2.20985 -17.3714 0 -2.39536 -17.2408 0 -2.57513 -17.091 0 -2.74918 -16.9176 0 -2.91749 -16.7161 0 -3.08006 -16.4823 0 -3.23769 -16.2124 0 -3.39228 -15.9093 0 -3.54393 -15.5794 0 -3.69263 -15.2288 0 -3.83839 -14.864 0 -3.98121 -14.4912 0 -4.11927 -14.1167 0 -4.24177 -13.7423 0 -4.34691 -13.366 0 -4.43468 -12.9855 0 -4.50508 -12.5986 0 -4.55811 -12.203 0 -4.594 -11.7964 0 -4.61764 -11.3785 0 -4.63102 -10.9523 0 -4.63415 -10.5214 0 -4.62703 -10.0895 0 -4.60965 -9.65988 0 -4.58202 -9.23628 0 -4.54416 -8.82162 0 -4.4961 -8.41644 0 -4.43782 -8.0207 0 -4.36934 -7.63437 0 -4.29064 -7.2574 0 -4.20174 -6.88975 0 -4.10444 -6.53143 0 -4.00316 -6.18284 0 -3.8981 -5.84461 0 -3.78926 -5.51735 0 -3.67664 -5.20169 0 -3.56025 -4.89824 0 -3.44048 -4.60761 0 -3.3198 -4.32998 0 -3.1986 -4.06512 0 -3.07689 -3.81278 0 -2.95468 -3.57271 0 -2.83195 -3.34465 0 -2.7088 -3.12835 0 -2.587 -2.92355 0 -2.46729 -2.72994 0 -2.34966 -2.54722 0 -2.23412 -2.37509 0 -2.12066 -2.21324 0 -2.00929 -2.06136 0 -1.90036 -1.91914 0 -1.7942 -1.78619 0 -1.69083 -1.66212 0 -1.59023 -1.54653 0 -1.49241 -1.43903 0 -1.39738 -1.33921 0 -1.30508 -1.24668 0 -1.2154 -1.16113 0 -1.12835 -1.08227 0 -1.04392 -1.00981 0 -0.962118 -0.943457 0 -0.882935 -0.882935 0 -0.806259 -0.827954 0 -0.731407 -0.778274 0 -0.658265 -0.733699 0 -0.586833 -0.694035 0 -0.51711 -0.659088 0 -0.449097 -0.628662 0 -0.382762 -0.602564 0 -0.317389 -0.580645 0 -0.252686 -0.562838 0 -0.188652 -0.549088 0 -0.125289 -0.539341 0 -0.0625957 -0.53354 0 -0.000572158 -0.53163 0 -0.000742419 -15.7009 0 -0.00300149 -15.7036 0 -0.00838369 -15.712 0 -0.016889 -15.7257 0 -0.0285175 -15.7442 0 -0.0432691 -15.7671 0 -0.0611438 -15.7938 0 -0.0835545 -15.8239 0 -0.113955 -15.8564 0 -0.152503 -15.8902 0 -0.199197 -15.9241 0 -0.254039 -15.9571 0 -0.317027 -15.9879 0 -0.388176 -16.0154 0 -0.467564 -16.0383 0 -0.555205 -16.0553 0 -0.6511 -16.0648 0 -0.755247 -16.0655 0 -0.867647 -16.0559 0 -0.988338 -16.0346 0 -1.11813 -16.0005 0 -1.25736 -15.9532 0 -1.40603 -15.8925 0 -1.56414 -15.818 0 -1.73169 -15.7295 0 -1.90867 -15.6266 0 -2.08603 -15.5089 0 -2.25469 -15.3751 0 -2.41468 -15.2237 0 -2.56597 -15.0534 0 -2.70857 -14.8627 0 -2.84249 -14.6501 0 -2.9706 -14.4145 0 -3.09996 -14.1573 0 -3.23087 -13.881 0 -3.36334 -13.5884 0 -3.49738 -13.2819 0 -3.63297 -12.9644 0 -3.76763 -12.6383 0 -3.88633 -12.305 0 -3.98658 -11.9649 0 -4.06838 -11.6179 0 -4.13172 -11.2643 0 -4.17661 -10.9042 0 -4.20339 -10.5377 0 -4.21959 -10.1657 0 -4.22828 -9.78986 0 -4.22946 -9.41211 0 -4.22313 -9.03437 0 -4.2093 -8.65856 0 -4.18796 -8.2866 0 -4.15788 -7.92017 0 -4.11783 -7.56003 0 -4.06782 -7.20673 0 -4.00783 -6.86078 0 -3.93787 -6.52273 0 -3.85795 -6.1931 0 -3.76993 -5.87242 0 -3.67841 -5.56109 0 -3.5836 -5.25946 0 -3.48549 -4.96786 0 -3.38409 -4.68666 0 -3.2794 -4.4162 0 -3.17174 -4.15681 0 -3.06305 -3.9086 0 -2.95366 -3.67145 0 -2.84356 -3.4452 0 -2.73276 -3.22974 0 -2.62125 -3.02493 0 -2.50912 -2.83062 0 -2.39808 -2.64663 0 -2.28882 -2.47268 0 -2.18135 -2.30848 0 -2.07567 -2.15372 0 -1.97178 -2.00812 0 -1.86967 -1.87138 0 -1.76966 -1.7432 0 -1.67208 -1.62326 0 -1.5769 -1.51123 0 -1.48415 -1.40677 0 -1.39381 -1.30955 0 -1.30589 -1.21925 0 -1.22036 -1.13554 0 -1.13718 -1.05813 0 -1.05636 -0.986766 0 -0.977874 -0.921173 0 -0.90174 -0.861092 0 -0.827954 -0.806259 0 -0.756412 -0.756412 0 -0.686503 -0.711337 0 -0.618123 -0.670866 0 -0.551273 -0.634833 0 -0.485953 -0.603071 0 -0.422163 -0.575415 0 -0.359873 -0.5517 0 -0.298455 -0.531794 0 -0.23765 -0.51563 0 -0.177459 -0.503152 0 -0.117881 -0.494302 0 -0.0589158 -0.48902 0 -0.000564388 -0.487251 0 -0.000657955 -14.0102 0 -0.00819799 -14.0127 0 -0.0184607 -14.0197 0 -0.0314461 -14.0307 0 -0.0471541 -14.0456 0 -0.0655848 -14.0639 0 -0.0867382 -14.0852 0 -0.111835 -14.1093 0 -0.14386 -14.1354 0 -0.182948 -14.1623 0 -0.229099 -14.189 0 -0.282314 -14.2146 0 -0.342592 -14.238 0 -0.409933 -14.2582 0 -0.484337 -14.2742 0 -0.565804 -14.2851 0 -0.654333 -14.2897 0 -0.749924 -14.2873 0 -0.852578 -14.2767 0 -0.962343 -14.2571 0 -1.08028 -14.2273 0 -1.20683 -14.1861 0 -1.34198 -14.1323 0 -1.48574 -14.0644 0 -1.63811 -13.9812 0 -1.79908 -13.8814 0 -1.95994 -13.764 0 -2.11195 -13.6298 0 -2.25511 -13.4797 0 -2.38943 -13.3146 0 -2.51489 -13.1355 0 -2.63151 -12.9434 0 -2.74251 -12.7392 0 -2.85576 -12.5229 0 -2.97162 -12.2943 0 -3.09009 -12.0528 0 -3.21117 -11.7982 0 -3.33486 -11.5301 0 -3.45868 -11.2482 0 -3.56772 -10.9533 0 -3.65949 -10.6475 0 -3.73401 -10.3329 0 -3.79125 -10.0116 0 -3.83124 -9.6857 0 -3.8543 -9.3573 0 -3.86798 -9.028 0 -3.87536 -8.69849 0 -3.87644 -8.36935 0 -3.87123 -8.04115 0 -3.85972 -7.71447 0 -3.84191 -7.38988 0 -3.81635 -7.06802 0 -3.7816 -6.7498 0 -3.73765 -6.43622 0 -3.6845 -6.12824 0 -3.62216 -5.82686 0 -3.55062 -5.53305 0 -3.47161 -5.24773 0 -3.38934 -4.97131 0 -3.30401 -4.7039 0 -3.21561 -4.44563 0 -3.12415 -4.19662 0 -3.02963 -3.95699 0 -2.93232 -3.72688 0 -2.83394 -3.5063 0 -2.73477 -3.29524 0 -2.6348 -3.09363 0 -2.53405 -2.90144 0 -2.4325 -2.71863 0 -2.33023 -2.54514 0 -2.22882 -2.38087 0 -2.12891 -2.22554 0 -2.0305 -2.07887 0 -1.93358 -1.9406 0 -1.83817 -1.81042 0 -1.74426 -1.68807 0 -1.65215 -1.57327 0 -1.56216 -1.46574 0 -1.47428 -1.3652 0 -1.38852 -1.2714 0 -1.30488 -1.18404 0 -1.22335 -1.10287 0 -1.14393 -1.02761 0 -1.06661 -0.958011 0 -0.991385 -0.893832 0 -0.918253 -0.834832 0 -0.847216 -0.780771 0 -0.778274 -0.731407 0 -0.711337 -0.686503 0 -0.645867 -0.645867 0 -0.581774 -0.609358 0 -0.519057 -0.576833 0 -0.457718 -0.548154 0 -0.397755 -0.523178 0 -0.339143 -0.501766 0 -0.281317 -0.483804 0 -0.224046 -0.469226 0 -0.16733 -0.457974 0 -0.111169 -0.449989 0 -0.0555624 -0.445213 0 -0.000510729 -0.443587 0 -0.000996835 -12.4065 0 -0.0125768 -12.4088 0 -0.0265953 -12.4144 0 -0.0430524 -12.4232 0 -0.061948 -12.4349 0 -0.0832822 -12.4493 0 -0.107055 -12.4661 0 -0.134295 -12.4851 0 -0.16752 -12.5055 0 -0.206843 -12.5265 0 -0.252265 -12.5471 0 -0.303785 -12.5665 0 -0.361403 -12.5837 0 -0.425142 -12.5979 0 -0.495128 -12.6082 0 -0.571383 -12.6141 0 -0.653907 -12.6149 0 -0.7427 -12.6099 0 -0.837763 -12.5986 0 -0.939116 -12.5803 0 -1.04725 -12.5539 0 -1.16236 -12.5177 0 -1.28445 -12.4697 0 -1.41352 -12.4081 0 -1.54957 -12.3309 0 -1.6926 -12.2363 0 -1.83561 -12.1231 0 -1.9716 -11.9931 0 -2.10057 -11.8488 0 -2.22253 -11.6929 0 -2.33747 -11.5277 0 -2.4454 -11.3559 0 -2.54861 -11.1797 0 -2.65274 -10.9982 0 -2.75804 -10.8092 0 -2.86452 -10.6104 0 -2.97217 -10.3992 0 -3.081 -10.1735 0 -3.18904 -9.93107 0 -3.28454 -9.67229 0 -3.36554 -9.4004 0 -3.43204 -9.1187 0 -3.48404 -8.83049 0 -3.52154 -8.53907 0 -3.54481 -8.24775 0 -3.55952 -7.95867 0 -3.56803 -7.67176 0 -3.57033 -7.38669 0 -3.56641 -7.10312 0 -3.55628 -6.82073 0 -3.53994 -6.5392 0 -3.51646 -6.25844 0 -3.48491 -5.97944 0 -3.44529 -5.70343 0 -3.3976 -5.43166 0 -3.34183 -5.16536 0 -3.278 -4.90577 0 -3.20751 -4.65404 0 -3.13385 -4.41054 0 -3.05717 -4.17526 0 -2.97746 -3.94817 0 -2.89473 -3.72925 0 -2.80898 -3.51847 0 -2.72049 -3.31581 0 -2.63092 -3.12127 0 -2.54055 -2.93486 0 -2.44937 -2.7566 0 -2.3574 -2.58651 0 -2.26462 -2.42462 0 -2.1711 -2.27093 0 -2.07824 -2.12538 0 -1.98662 -1.98772 0 -1.89622 -1.85771 0 -1.80704 -1.73507 0 -1.7191 -1.61956 0 -1.63239 -1.51091 0 -1.54723 -1.40886 0 -1.46393 -1.31319 0 -1.3825 -1.22368 0 -1.30294 -1.1401 0 -1.22525 -1.06222 0 -1.14943 -0.989822 0 -1.07548 -0.922684 0 -1.00339 -0.860586 0 -0.933166 -0.803312 0 -0.864811 -0.750644 0 -0.798322 -0.702367 0 -0.733699 -0.658265 0 -0.670866 -0.618123 0 -0.609358 -0.581774 0 -0.549096 -0.549096 0 -0.490082 -0.519971 0 -0.432316 -0.49428 0 -0.375797 -0.471903 0 -0.320501 -0.452723 0 -0.265914 -0.436638 0 -0.211823 -0.423589 0 -0.158229 -0.413518 0 -0.105132 -0.406369 0 -0.0525313 -0.402084 0 -0.000427658 -0.400608 0 -0.00154709 -10.8899 0 -0.0161871 -10.8918 0 -0.0330619 -10.8963 0 -0.0521714 -10.9032 0 -0.0735158 -10.9123 0 -0.0970949 -10.9234 0 -0.122909 -10.9365 0 -0.151808 -10.9511 0 -0.185869 -10.9669 0 -0.225188 -10.9829 0 -0.269764 -10.9984 0 -0.319597 -11.0127 0 -0.374688 -11.0249 0 -0.435098 -11.0343 0 -0.501197 -11.0403 0 -0.573048 -11.0424 0 -0.65065 -11.0403 0 -0.734004 -11.0335 0 -0.82311 -11.0216 0 -0.917942 -11.0041 0 -1.01795 -10.9802 0 -1.12289 -10.9478 0 -1.23279 -10.9048 0 -1.34763 -10.8492 0 -1.46741 -10.7788 0 -1.59214 -10.6915 0 -1.71732 -10.586 0 -1.83844 -10.4649 0 -1.95552 -10.3312 0 -2.06854 -10.1883 0 -2.17751 -10.0394 0 -2.28243 -9.88773 0 -2.38395 -9.7361 0 -2.48368 -9.58328 0 -2.58168 -9.42602 0 -2.67796 -9.26103 0 -2.77252 -9.08503 0 -2.86535 -8.89473 0 -2.95532 -8.687 0 -3.03553 -8.46208 0 -3.10484 -8.22358 0 -3.16324 -7.97526 0 -3.21074 -7.72091 0 -3.24734 -7.46427 0 -3.27317 -7.2091 0 -3.29103 -6.95773 0 -3.30208 -6.70966 0 -3.30631 -6.46411 0 -3.30374 -6.22027 0 -3.29435 -5.97735 0 -3.27816 -5.73456 0 -3.25516 -5.49144 0 -3.22538 -5.24894 0 -3.18882 -5.00837 0 -3.14547 -4.77104 0 -3.09534 -4.53824 0 -3.03842 -4.31127 0 -2.97576 -4.09134 0 -2.90989 -3.8788 0 -2.84094 -3.67356 0 -2.7689 -3.47551 0 -2.69377 -3.28457 0 -2.61555 -3.10064 0 -2.53454 -2.92362 0 -2.45247 -2.75349 0 -2.36964 -2.5903 0 -2.28604 -2.43411 0 -2.20168 -2.28495 0 -2.11656 -2.14289 0 -2.03072 -2.00797 0 -1.94538 -1.88016 0 -1.86102 -1.75924 0 -1.77765 -1.64498 0 -1.69525 -1.53716 0 -1.61384 -1.43553 0 -1.53342 -1.33988 0 -1.45432 -1.24998 0 -1.37688 -1.16564 0 -1.30111 -1.08666 0 -1.227 -1.01287 0 -1.15456 -0.944085 0 -1.08378 -0.880111 0 -1.01466 -0.820765 0 -0.947213 -0.765861 0 -0.881424 -0.715205 0 -0.817298 -0.668609 0 -0.754835 -0.625882 0 -0.694035 -0.586833 0 -0.634833 -0.551273 0 -0.576833 -0.519057 0 -0.519971 -0.490082 0 -0.464247 -0.464247 0 -0.40966 -0.44145 0 -0.356211 -0.421591 0 -0.303878 -0.404568 0 -0.252182 -0.390296 0 -0.200928 -0.378719 0 -0.150117 -0.369785 0 -0.0997467 -0.363441 0 -0.0498186 -0.359635 0 -0.000332546 -0.358314 0 -0.00209675 -9.4602 0 -0.0190779 -9.46173 0 -0.0381344 -9.46525 0 -0.0592665 -9.47061 0 -0.082474 -9.47767 0 -0.107757 -9.48628 0 -0.135115 -9.49629 0 -0.165244 -9.5075 0 -0.19984 -9.51945 0 -0.238981 -9.53147 0 -0.282666 -9.54293 0 -0.330897 -9.55318 0 -0.383672 -9.56156 0 -0.441098 -9.56745 0 -0.503806 -9.57036 0 -0.571904 -9.56995 0 -0.64539 -9.56589 0 -0.724265 -9.55786 0 -0.808528 -9.54554 0 -0.898103 -9.5286 0 -0.991277 -9.5062 0 -1.08735 -9.47653 0 -1.18633 -9.43768 0 -1.2882 -9.38773 0 -1.39298 -9.32476 0 -1.50066 -9.24684 0 -1.60938 -9.15291 0 -1.7173 -9.04521 0 -1.82441 -8.92685 0 -1.93071 -8.80094 0 -2.0362 -8.67056 0 -2.14089 -8.53882 0 -2.24358 -8.40837 0 -2.34135 -8.27802 0 -2.43407 -8.14458 0 -2.52173 -8.00484 0 -2.60435 -7.8556 0 -2.68191 -7.69366 0 -2.75415 -7.51596 0 -2.81944 -7.32263 0 -2.87751 -7.11702 0 -2.92837 -6.9026 0 -2.97201 -6.68287 0 -3.00843 -6.4613 0 -3.03762 -6.24136 0 -3.05928 -6.02517 0 -3.07327 -5.8122 0 -3.0796 -5.60162 0 -3.07828 -5.39261 0 -3.06929 -5.18433 0 -3.05264 -4.97596 0 -3.02939 -4.76701 0 -3.00062 -4.55831 0 -2.96631 -4.35104 0 -2.92647 -4.14637 0 -2.88111 -3.94548 0 -2.83021 -3.74954 0 -2.77444 -3.55964 0 -2.71541 -3.37608 0 -2.6532 -3.19877 0 -2.58779 -3.02764 0 -2.5192 -2.86257 0 -2.44742 -2.70349 0 -2.37276 -2.55029 0 -2.29708 -2.40298 0 -2.2207 -2.26158 0 -2.1436 -2.12616 0 -2.06579 -1.99677 0 -1.98727 -1.87346 0 -1.90809 -1.75628 0 -1.82926 -1.64522 0 -1.75121 -1.54009 0 -1.67392 -1.44069 0 -1.59741 -1.34684 0 -1.52166 -1.25834 0 -1.44669 -1.175 0 -1.37285 -1.09663 0 -1.3005 -1.02306 0 -1.22965 -0.954148 0 -1.16029 -0.889726 0 -1.09243 -0.82964 0 -1.02606 -0.773735 0 -0.961183 -0.721853 0 -0.897792 -0.673834 0 -0.835887 -0.629513 0 -0.775468 -0.588728 0 -0.716535 -0.551315 0 -0.659088 -0.51711 0 -0.603071 -0.485953 0 -0.548154 -0.457718 0 -0.49428 -0.432316 0 -0.44145 -0.40966 0 -0.389664 -0.389664 0 -0.338922 -0.372241 0 -0.289204 -0.357304 0 -0.240062 -0.344778 0 -0.191312 -0.334617 0 -0.142955 -0.326774 0 -0.0949915 -0.321204 0 -0.0474207 -0.317863 0 -0.000242764 -0.316706 0 -0.00243385 -8.11755 0 -0.0212982 -8.11859 0 -0.0420872 -8.1213 0 -0.0648008 -8.12551 0 -0.0894391 -8.13106 0 -0.116002 -8.1378 0 -0.144489 -8.14557 0 -0.175476 -8.15418 0 -0.210364 -8.16324 0 -0.249219 -8.17224 0 -0.292041 -8.18066 0 -0.338828 -8.188 0 -0.389582 -8.19375 0 -0.444438 -8.1974 0 -0.504218 -8.19852 0 -0.569056 -8.19675 0 -0.638954 -8.19174 0 -0.713911 -8.18313 0 -0.793928 -8.17058 0 -0.878884 -8.15373 0 -0.966153 -8.13191 0 -1.05466 -8.10385 0 -1.14441 -8.06822 0 -1.23539 -8.02366 0 -1.32761 -7.96885 0 -1.42107 -7.90244 0 -1.51609 -7.82367 0 -1.61296 -7.73406 0 -1.7117 -7.63571 0 -1.81229 -7.53072 0 -1.91476 -7.42117 0 -2.01908 -7.30917 0 -2.12255 -7.19653 0 -2.21854 -7.08247 0 -2.30674 -6.96491 0 -2.38716 -6.84176 0 -2.45979 -6.71093 0 -2.52463 -6.57032 0 -2.58214 -6.41793 0 -2.63501 -6.25395 0 -2.68369 -6.08072 0 -2.72819 -5.90071 0 -2.7685 -5.71637 0 -2.80462 -5.53016 0 -2.83642 -5.34453 0 -2.86107 -5.161 0 -2.87739 -4.97938 0 -2.8854 -4.79922 0 -2.88508 -4.62013 0 -2.87644 -4.44166 0 -2.85947 -4.26341 0 -2.8361 -4.08515 0 -2.80822 -3.90754 0 -2.77585 -3.73143 0 -2.73897 -3.55766 0 -2.69759 -3.3871 0 -2.65171 -3.22059 0 -2.60169 -3.05893 0 -2.54838 -2.90237 0 -2.49182 -2.75092 0 -2.43201 -2.60455 0 -2.36896 -2.46325 0 -2.30267 -2.32702 0 -2.23345 -2.19584 0 -2.16323 -2.06972 0 -2.09236 -1.94868 0 -2.02081 -1.83275 0 -1.94859 -1.72195 0 -1.87571 -1.61631 0 -1.8022 -1.51586 0 -1.72892 -1.42055 0 -1.65625 -1.33026 0 -1.58418 -1.24484 0 -1.5127 -1.16413 0 -1.44182 -1.08799 0 -1.37155 -1.01626 0 -1.30224 -0.948804 0 -1.23428 -0.885475 0 -1.16767 -0.826137 0 -1.10241 -0.770653 0 -1.0385 -0.718885 0 -0.975932 -0.670696 0 -0.914711 -0.625948 0 -0.854828 -0.584506 0 -0.796281 -0.546235 0 -0.739072 -0.510999 0 -0.683198 -0.478665 0 -0.628662 -0.449097 0 -0.575415 -0.422163 0 -0.523178 -0.397755 0 -0.471903 -0.375797 0 -0.421591 -0.356211 0 -0.372241 -0.338922 0 -0.323854 -0.323854 0 -0.27641 -0.310929 0 -0.22949 -0.300084 0 -0.182922 -0.291281 0 -0.136707 -0.284485 0 -0.0908441 -0.27966 0 -0.0453337 -0.276771 0 -0.000175682 -0.275783 0 -0.00234776 -6.86008 0 -0.0228976 -6.86058 0 -0.0451939 -6.86263 0 -0.0692367 -6.86605 0 -0.095026 -6.87062 0 -0.122562 -6.87615 0 -0.151844 -6.88244 0 -0.183373 -6.88927 0 -0.218374 -6.89632 0 -0.256901 -6.90323 0 -0.298954 -6.90963 0 -0.344534 -6.91514 0 -0.393641 -6.9194 0 -0.446413 -6.92204 0 -0.503689 -6.92261 0 -0.565607 -6.92064 0 -0.632169 -6.91563 0 -0.703373 -6.90708 0 -0.77922 -6.8945 0 -0.859575 -6.87739 0 -0.941488 -6.85529 0 -1.02375 -6.82781 0 -1.10637 -6.79456 0 -1.18933 -6.75514 0 -1.27265 -6.70917 0 -1.35632 -6.65624 0 -1.44171 -6.5961 0 -1.53021 -6.5289 0 -1.62182 -6.45495 0 -1.71653 -6.37453 0 -1.81435 -6.28793 0 -1.91528 -6.19545 0 -2.01593 -6.09735 0 -2.10806 -5.99372 0 -2.19128 -5.88452 0 -2.2656 -5.76975 0 -2.33101 -5.64938 0 -2.38753 -5.52339 0 -2.43593 -5.39179 0 -2.48099 -5.25492 0 -2.52349 -5.11349 0 -2.56345 -4.96825 0 -2.60085 -4.81992 0 -2.6357 -4.66922 0 -2.66782 -4.5169 0 -2.69321 -4.36356 0 -2.71024 -4.20965 0 -2.71891 -4.05553 0 -2.71922 -3.90163 0 -2.71117 -3.74833 0 -2.69477 -3.59602 0 -2.67223 -3.4451 0 -2.64582 -3.29593 0 -2.61551 -3.14885 0 -2.58131 -3.00423 0 -2.54323 -2.8624 0 -2.50126 -2.72373 0 -2.4556 -2.58854 0 -2.40673 -2.45705 0 -2.35467 -2.3294 0 -2.29943 -2.20571 0 -2.241 -2.08614 0 -2.17938 -1.97082 0 -2.11489 -1.85988 0 -2.04941 -1.75339 0 -1.98327 -1.6513 0 -1.91645 -1.55359 0 -1.84897 -1.46024 0 -1.78082 -1.3712 0 -1.71203 -1.28646 0 -1.6434 -1.20594 0 -1.57524 -1.12957 0 -1.50755 -1.05725 0 -1.44034 -0.988867 0 -1.3736 -0.924332 0 -1.30734 -0.863543 0 -1.24192 -0.806398 0 -1.17771 -0.752774 0 -1.11472 -0.702542 0 -1.05295 -0.655575 0 -0.992395 -0.611746 0 -0.933056 -0.570926 0 -0.874932 -0.532988 0 -0.818025 -0.497822 0 -0.762335 -0.465321 0 -0.707861 -0.435381 0 -0.654604 -0.407897 0 -0.602564 -0.382762 0 -0.5517 -0.359873 0 -0.501766 -0.339143 0 -0.452723 -0.320501 0 -0.404568 -0.303878 0 -0.357304 -0.289204 0 -0.310929 -0.27641 0 -0.265426 -0.265426 0 -0.220405 -0.256197 0 -0.175708 -0.248698 0 -0.131333 -0.242905 0 -0.0872821 -0.238795 0 -0.0435538 -0.236345 0 -0.000148564 -0.235532 0 -0.00178969 -5.64778 0 -0.0239602 -5.64787 0 -0.0476606 -5.6494 0 -0.0728908 -5.65214 0 -0.0996507 -5.65588 0 -0.127941 -5.66039 0 -0.15776 -5.66544 0 -0.189584 -5.67081 0 -0.224573 -5.67625 0 -0.26278 -5.68151 0 -0.304205 -5.68633 0 -0.348847 -5.69047 0 -0.396707 -5.69366 0 -0.447894 -5.69564 0 -0.503063 -5.696 0 -0.562323 -5.69415 0 -0.625675 -5.6895 0 -0.693118 -5.68146 0 -0.764652 -5.66944 0 -0.840161 -5.65285 0 -0.917095 -5.6314 0 -0.994409 -5.60543 0 -1.0721 -5.5753 0 -1.15018 -5.5414 0 -1.22863 -5.50412 0 -1.30747 -5.46384 0 -1.38779 -5.42068 0 -1.4707 -5.37371 0 -1.5562 -5.32175 0 -1.64429 -5.26359 0 -1.73497 -5.19806 0 -1.82824 -5.12396 0 -1.92113 -5.0403 0 -2.00634 -4.94785 0 -2.08356 -4.84828 0 -2.15279 -4.74325 0 -2.21401 -4.63446 0 -2.26724 -4.52357 0 -2.31314 -4.41222 0 -2.35578 -4.30089 0 -2.39583 -4.18894 0 -2.43329 -4.07569 0 -2.46815 -3.96045 0 -2.50043 -3.84253 0 -2.52995 -3.72123 0 -2.55328 -3.59643 0 -2.56901 -3.46905 0 -2.57713 -3.34014 0 -2.57765 -3.21074 0 -2.57057 -3.08189 0 -2.55588 -2.95466 0 -2.53551 -2.8299 0 -2.51138 -2.70773 0 -2.48349 -2.5881 0 -2.45184 -2.47094 0 -2.41644 -2.3562 0 -2.37727 -2.24382 0 -2.33457 -2.13375 0 -2.28885 -2.02615 0 -2.24015 -1.92128 0 -2.18847 -1.81938 0 -2.1338 -1.72071 0 -2.07615 -1.62552 0 -2.01579 -1.53406 0 -1.95443 -1.44641 0 -1.89234 -1.36251 0 -1.82953 -1.28229 0 -1.766 -1.20567 0 -1.70174 -1.13257 0 -1.63679 -1.06293 0 -1.57192 -0.99668 0 -1.50746 -0.933755 0 -1.44338 -0.874101 0 -1.37971 -0.817662 0 -1.31643 -0.764382 0 -1.25355 -0.714202 0 -1.19142 -0.667057 0 -1.13038 -0.62284 0 -1.07043 -0.581436 0 -1.01158 -0.542729 0 -0.95382 -0.506601 0 -0.897154 -0.472938 0 -0.84159 -0.441626 0 -0.787151 -0.412573 0 -0.733836 -0.385702 0 -0.681647 -0.360934 0 -0.630583 -0.338189 0 -0.580645 -0.317389 0 -0.531794 -0.298455 0 -0.483804 -0.281317 0 -0.436638 -0.265914 0 -0.390296 -0.252182 0 -0.344778 -0.240062 0 -0.300084 -0.22949 0 -0.256197 -0.220405 0 -0.212762 -0.212762 0 -0.169632 -0.206543 0 -0.126807 -0.201737 0 -0.084288 -0.198329 0 -0.0420741 -0.196306 0 -0.000165553 -0.195657 0 -0.00102519 -4.46427 0 -0.0246384 -4.46417 0 -0.0495624 -4.46528 0 -0.0757972 -4.46738 0 -0.103343 -4.47028 0 -0.132199 -4.47375 0 -0.162367 -4.47761 0 -0.194322 -4.48164 0 -0.229231 -4.48566 0 -0.267146 -4.4895 0 -0.308068 -4.49298 0 -0.351997 -4.49593 0 -0.398933 -4.49817 0 -0.448936 -4.49952 0 -0.502377 -4.4996 0 -0.559316 -4.49785 0 -0.619754 -4.4937 0 -0.683689 -4.48655 0 -0.751123 -4.47584 0 -0.821978 -4.46099 0 -0.894524 -4.44186 0 -0.968057 -4.4191 0 -1.04258 -4.39348 0 -1.11808 -4.36576 0 -1.19457 -4.3367 0 -1.27205 -4.30706 0 -1.35051 -4.27717 0 -1.42996 -4.24558 0 -1.5104 -4.21041 0 -1.59182 -4.16977 0 -1.67423 -4.12178 0 -1.75763 -4.06455 0 -1.8401 -3.99651 0 -1.91691 -3.91872 0 -1.98787 -3.83362 0 -2.05296 -3.74365 0 -2.1122 -3.65125 0 -2.16557 -3.55887 0 -2.21336 -3.46887 0 -2.25718 -3.38178 0 -2.29731 -3.29627 0 -2.33374 -3.21097 0 -2.36649 -3.12446 0 -2.39554 -3.03537 0 -2.42082 -2.94229 0 -2.44045 -2.84471 0 -2.45369 -2.7437 0 -2.46053 -2.64059 0 -2.46096 -2.53665 0 -2.455 -2.43319 0 -2.44264 -2.3315 0 -2.42511 -2.23261 0 -2.40364 -2.13652 0 -2.37823 -2.04295 0 -2.34887 -1.95163 0 -2.31558 -1.86229 0 -2.27834 -1.77467 0 -2.23751 -1.68852 0 -2.19394 -1.60396 0 -2.14765 -1.52127 0 -2.09866 -1.44074 0 -2.04695 -1.36266 0 -1.99254 -1.2873 0 -1.93566 -1.21495 0 -1.87773 -1.1457 0 -1.819 -1.07949 0 -1.75945 -1.01622 0 -1.69911 -0.955799 0 -1.63795 -0.89815 0 -1.57603 -0.843183 0 -1.51413 -0.79083 0 -1.45259 -0.741057 0 -1.3914 -0.693833 0 -1.33057 -0.649128 0 -1.2701 -0.606913 0 -1.20998 -0.567156 0 -1.15053 -0.529816 0 -1.09206 -0.494807 0 -1.03458 -0.462031 0 -0.978093 -0.431391 0 -0.922587 -0.402788 0 -0.868068 -0.376125 0 -0.814555 -0.351308 0 -0.762097 -0.328265 0 -0.710696 -0.306939 0 -0.660353 -0.287272 0 -0.611067 -0.269207 0 -0.562838 -0.252686 0 -0.51563 -0.23765 0 -0.469226 -0.224046 0 -0.423589 -0.211823 0 -0.378719 -0.200928 0 -0.334617 -0.191312 0 -0.291281 -0.182922 0 -0.248698 -0.175708 0 -0.206543 -0.169632 0 -0.164684 -0.164684 0 -0.123121 -0.160858 0 -0.0818535 -0.158146 0 -0.0408816 -0.156541 0 -0.000205315 -0.156037 0 -0.000355933 -3.30954 0 -0.025092 -3.30949 0 -0.0509592 -3.31028 0 -0.0779577 -3.31177 0 -0.106087 -3.31381 0 -0.135348 -3.31625 0 -0.165741 -3.31896 0 -0.197749 -3.32177 0 -0.232562 -3.32457 0 -0.270232 -3.32721 0 -0.310759 -3.32957 0 -0.354144 -3.33152 0 -0.400387 -3.33293 0 -0.449501 -3.33365 0 -0.501575 -3.33341 0 -0.556623 -3.33174 0 -0.614644 -3.32821 0 -0.675639 -3.32235 0 -0.739608 -3.3137 0 -0.806513 -3.30183 0 -0.875528 -3.28665 0 -0.946313 -3.26883 0 -1.01887 -3.2491 0 -1.0932 -3.22821 0 -1.1693 -3.2069 0 -1.24716 -3.18592 0 -1.32546 -3.16558 0 -1.40284 -3.14451 0 -1.47931 -3.12094 0 -1.55486 -3.09306 0 -1.6295 -3.05908 0 -1.70322 -3.01722 0 -1.77532 -2.96598 0 -1.84408 -2.90633 0 -1.90942 -2.84056 0 -1.97134 -2.77094 0 -2.02984 -2.69976 0 -2.08492 -2.6293 0 -2.13636 -2.56176 0 -2.18288 -2.49759 0 -2.22426 -2.43548 0 -2.2605 -2.37407 0 -2.2916 -2.31195 0 -2.31755 -2.24774 0 -2.33837 -2.18008 0 -2.35404 -2.10838 0 -2.36456 -2.0336 0 -2.36993 -1.95689 0 -2.37016 -1.87938 0 -2.36524 -1.80221 0 -2.35517 -1.72653 0 -2.3404 -1.65323 0 -2.32141 -1.58228 0 -2.29818 -1.51339 0 -2.27072 -1.44629 0 -2.23902 -1.38068 0 -2.20309 -1.31628 0 -2.16343 -1.25286 0 -2.12127 -1.19048 0 -2.07667 -1.12938 0 -2.02964 -1.0698 0 -1.98016 -1.01198 0 -1.92824 -0.956151 0 -1.87408 -0.902554 0 -1.81884 -0.851269 0 -1.76271 -0.802234 0 -1.70569 -0.75538 0 -1.64778 -0.710636 0 -1.58899 -0.667935 0 -1.52935 -0.627205 0 -1.4697 -0.588395 0 -1.41038 -0.551481 0 -1.35139 -0.516444 0 -1.29273 -0.483265 0 -1.23441 -0.451925 0 -1.17642 -0.422404 0 -1.11904 -0.394675 0 -1.06256 -0.368673 0 -1.00698 -0.344326 0 -0.952307 -0.321561 0 -0.898531 -0.300306 0 -0.845655 -0.280487 0 -0.79371 -0.262035 0 -0.74277 -0.244897 0 -0.692838 -0.229032 0 -0.643913 -0.214397 0 -0.595997 -0.200951 0 -0.549088 -0.188652 0 -0.503152 -0.177459 0 -0.457974 -0.16733 0 -0.413518 -0.158229 0 -0.369785 -0.150117 0 -0.326774 -0.142955 0 -0.284485 -0.136707 0 -0.242905 -0.131333 0 -0.201737 -0.126807 0 -0.160858 -0.123121 0 -0.12027 -0.12027 0 -0.079971 -0.118248 0 -0.0399623 -0.11705 0 -0.000243587 -0.116672 0 -8.35726e-05 -2.1836 0 -0.0254811 -2.18382 0 -0.0519113 -2.1844 0 -0.0793742 -2.18531 0 -0.10787 -2.18648 0 -0.137398 -2.18788 0 -0.167959 -2.18947 0 -0.200031 -2.1912 0 -0.234784 -2.19296 0 -0.272272 -2.19464 0 -0.312493 -2.19611 0 -0.355449 -2.19725 0 -0.401139 -2.19794 0 -0.44955 -2.19806 0 -0.500601 -2.19742 0 -0.55428 -2.19583 0 -0.610586 -2.19304 0 -0.669519 -2.18885 0 -0.73108 -2.18302 0 -0.795259 -2.17535 0 -0.861858 -2.16579 0 -0.930796 -2.15462 0 -1.00207 -2.14217 0 -1.07569 -2.12876 0 -1.15164 -2.11473 0 -1.22993 -2.1004 0 -1.30823 -2.0859 0 -1.3842 -2.07051 0 -1.45783 -2.05333 0 -1.52914 -2.03345 0 -1.59812 -2.00997 0 -1.66476 -1.98198 0 -1.72928 -1.9487 0 -1.79217 -1.91068 0 -1.85346 -1.86909 0 -1.91314 -1.82513 0 -1.97121 -1.77998 0 -2.02768 -1.73484 0 -2.08196 -1.69087 0 -2.1306 -1.64832 0 -2.17303 -1.60658 0 -2.20923 -1.56499 0 -2.23921 -1.52291 0 -2.26297 -1.47966 0 -2.28057 -1.4346 0 -2.29337 -1.38746 0 -2.30191 -1.33875 0 -2.3062 -1.28904 0 -2.30624 -1.23891 0 -2.30203 -1.18895 0 -2.29356 -1.13975 0 -2.28075 -1.09177 0 -2.2635 -1.04503 0 -2.24181 -0.999443 0 -2.21569 -0.954912 0 -2.18512 -0.911347 0 -2.15012 -0.868655 0 -2.11129 -0.826758 0 -2.07014 -0.785701 0 -2.02673 -0.745594 0 -1.98106 -0.706548 0 -1.93313 -0.668673 0 -1.88294 -0.632079 0 -1.83066 -0.596875 0 -1.77727 -0.563103 0 -1.72295 -0.530744 0 -1.6677 -0.499777 0 -1.61151 -0.470178 0 -1.55439 -0.441927 0 -1.49637 -0.414999 0 -1.43831 -0.389374 0 -1.38056 -0.365027 0 -1.32312 -0.341934 0 -1.266 -0.320072 0 -1.20918 -0.299418 0 -1.15268 -0.279947 0 -1.09675 -0.261634 0 -1.04167 -0.244439 0 -0.987432 -0.228321 0 -0.934035 -0.213241 0 -0.881482 -0.199155 0 -0.829771 -0.186024 0 -0.77894 -0.173807 0 -0.729076 -0.16247 0 -0.680185 -0.15198 0 -0.632265 -0.142308 0 -0.585317 -0.133421 0 -0.539341 -0.125289 0 -0.494302 -0.117881 0 -0.449989 -0.111169 0 -0.406369 -0.105132 0 -0.363441 -0.0997467 0 -0.321204 -0.0949915 0 -0.27966 -0.0908441 0 -0.238795 -0.0872821 0 -0.198329 -0.084288 0 -0.158146 -0.0818535 0 -0.118248 -0.079971 0 -0.0786331 -0.0786331 0 -0.0393026 -0.0778325 0 -0.000256106 -0.0775616 0 -0.000509775 -1.08644 0 -0.0259656 -1.08717 0 -0.0524784 -1.08765 0 -0.0800482 -1.08799 0 -0.108675 -1.08829 0 -0.138359 -1.08865 0 -0.169099 -1.08916 0 -0.201331 -1.08991 0 -0.236115 -1.09084 0 -0.2735 -1.09178 0 -0.313486 -1.09259 0 -0.356072 -1.09311 0 -0.401259 -1.09321 0 -0.449043 -1.09272 0 -0.499399 -1.09165 0 -0.552325 -1.0901 0 -0.607819 -1.08819 0 -0.665881 -1.08605 0 -0.726513 -1.08381 0 -0.789705 -1.08157 0 -0.855267 -1.07927 0 -0.923121 -1.07647 0 -0.993267 -1.07268 0 -1.06571 -1.06741 0 -1.14044 -1.06019 0 -1.21746 -1.05052 0 -1.2944 -1.03813 0 -1.36886 -1.02356 0 -1.44086 -1.00759 0 -1.51038 -0.990964 0 -1.57744 -0.974451 0 -1.64203 -0.95881 0 -1.70446 -0.944689 0 -1.76551 -0.931765 0 -1.82522 -0.919213 0 -1.88357 -0.906206 0 -1.94058 -0.891916 0 -1.99624 -0.875513 0 -2.04995 -0.856204 0 -2.09805 -0.833967 0 -2.13994 -0.809554 0 -2.1756 -0.783749 0 -2.20506 -0.757339 0 -2.2283 -0.731108 0 -2.24539 -0.705839 0 -2.25777 -0.681948 0 -2.26603 -0.659138 0 -2.27018 -0.637033 0 -2.27022 -0.615255 0 -2.26613 -0.593426 0 -2.25794 -0.571169 0 -2.2455 -0.548219 0 -2.22872 -0.524761 0 -2.20758 -0.501092 0 -2.18209 -0.477509 0 -2.15225 -0.454309 0 -2.11805 -0.431791 0 -2.0801 -0.410222 0 -2.03983 -0.389632 0 -1.99732 -0.369921 0 -1.95256 -0.350992 0 -1.90556 -0.332745 0 -1.85631 -0.315084 0 -1.80497 -0.297911 0 -1.75256 -0.281206 0 -1.69921 -0.26502 0 -1.64495 -0.249408 0 -1.58977 -0.234425 0 -1.53366 -0.220126 0 -1.47668 -0.206565 0 -1.41963 -0.193767 0 -1.36286 -0.181694 0 -1.30637 -0.170303 0 -1.25016 -0.159551 0 -1.19423 -0.149393 0 -1.13858 -0.139786 0 -1.08348 -0.130693 0 -1.02919 -0.122104 0 -0.975734 -0.114017 0 -0.923093 -0.106429 0 -0.871272 -0.0993363 0 -0.820272 -0.0927364 0 -0.770127 -0.0866246 0 -0.720922 -0.0809825 0 -0.672661 -0.0757844 0 -0.625343 -0.0710044 0 -0.57897 -0.0666167 0 -0.53354 -0.0625957 0 -0.48902 -0.0589158 0 -0.445213 -0.0555624 0 -0.402084 -0.0525313 0 -0.359635 -0.0498186 0 -0.317863 -0.0474207 0 -0.276771 -0.0453337 0 -0.236345 -0.0435538 0 -0.196306 -0.0420741 0 -0.156541 -0.0408816 0 -0.11705 -0.0399623 0 -0.0778325 -0.0393026 0 -0.0388887 -0.0388887 0 -0.000218612 -0.0387067 0 -0.0019362 -0.0180746 0 -0.0267057 -0.0195249 0 -0.0527208 -0.0200117 0 -0.0799816 -0.0198198 0 -0.108488 -0.019234 0 -0.13824 -0.0185392 0 -0.169238 -0.0180202 0 -0.201812 -0.0179269 0 -0.236771 -0.0182032 0 -0.27415 -0.018636 0 -0.313951 -0.0190106 0 -0.356173 -0.0191125 0 -0.400817 -0.0187272 0 -0.447942 -0.0176564 0 -0.497914 -0.0160802 0 -0.550794 -0.0145566 0 -0.606582 -0.0136599 0 -0.665278 -0.0139647 0 -0.726881 -0.0160454 0 -0.79134 -0.0204705 0 -0.857505 -0.0270937 0 -0.924905 -0.0343798 0 -0.993541 -0.0406345 0 -1.06341 -0.0441632 0 -1.13452 -0.0432713 0 -1.20686 -0.0362645 0 -1.27955 -0.0222667 0 -1.35169 -0.00367625 0 -1.42328 0.0162899 0 -1.49433 0.034415 0 -1.56483 0.047482 0 -1.63478 0.0522742 0 -1.70334 0.0460662 0 -1.76842 0.0304129 0 -1.82992 0.00907241 0 -1.88786 -0.0141786 0 -1.94222 -0.0355636 0 -1.99301 -0.0513061 0 -2.04012 -0.0577696 0 -2.08293 -0.0545369 0 -2.12132 -0.0444107 0 -2.15531 -0.0303333 0 -2.18488 -0.0152473 0 -2.21005 -0.00209507 0 -2.23078 0.00619304 0 -2.24657 0.00816249 0 -2.25722 0.00522476 0 -2.26273 -0.000879365 0 -2.26309 -0.00840912 0 -2.25832 -0.0156237 0 -2.2484 -0.0207824 0 -2.23403 -0.0225824 0 -2.21588 -0.0214731 0 -2.19395 -0.0183416 0 -2.16824 -0.0140755 0 -2.13876 -0.00956185 0 -2.1055 -0.00568813 0 -2.06883 -0.00325194 0 -2.02963 -0.00227044 0 -1.98796 -0.0023589 0 -1.9438 -0.00312929 0 -1.89715 -0.00419357 0 -1.84803 -0.00516371 0 -1.79663 -0.00566312 0 -1.7442 -0.00557884 0 -1.69096 -0.00506151 0 -1.63691 -0.00427323 0 -1.58204 -0.00337611 0 -1.52635 -0.00253225 0 -1.46988 -0.00190311 0 -1.41334 -0.00157418 0 -1.35702 -0.00148332 0 -1.30092 -0.00155143 0 -1.24503 -0.00169942 0 -1.18937 -0.0018482 0 -1.13392 -0.00191866 0 -1.07901 -0.00185188 0 -1.02493 -0.00166959 0 -0.971692 -0.00141369 0 -0.919293 -0.00112606 0 -0.867734 -0.000848594 0 -0.817014 -0.000623195 0 -0.767156 -0.000487009 0 -0.718213 -0.000435889 0 -0.67019 -0.000444428 0 -0.623084 -0.000487042 0 -0.576898 -0.000538146 0 -0.53163 -0.000572158 0 -0.487251 -0.000564388 0 -0.443587 -0.000510729 0 -0.400608 -0.000427658 0 -0.358314 -0.000332546 0 -0.316706 -0.000242764 0 -0.275783 -0.000175682 0 -0.235532 -0.000148564 0 -0.195657 -0.000165553 0 -0.156037 -0.000205315 0 -0.116672 -0.000243587 0 -0.0775616 -0.000256106 0 -0.0387067 -0.000218612 0 -0.000106841 -0.000106841 0 </DataArray> 
</PointData> 
<Points> 
<DataArray type="Float32" NumberOfComponents="3"> 
0 0 0 0.1 0 0 0.2 0 0 0.3 0 0 0.4 0 0 0.5 0 0 0.6 0 0 0.7 0 0 0.8 0 0 0.9 0 0 1 0 0 1.1 0 0 1.2 0 0 1.3 0 0 1.4 0 0 1.5 0 0 1.6 0 0 1.7 0 0 1.8 0 0 1.9 0 0 2 0 0 2.1 0 0 2.2 0 0 2.3 0 0 2.4 0 0 2.5 0 0 2.6 0 0 2.7 0 0 2.8 0 0 2.9 0 0 3 0 0 3.1 0 0 3.2 0 0 3.3 0 0 3.4 0 0 3.5 0 0 3.6 0 0 3.7 0 0 3.8 0 0 3.9 0 0 4 0 0 4.1 0 0 4.2 0 0 4.3 0 0 4.4 0 0 4.5 0 0 4.6 0 0 4.7 0 0 4.8 0 0 4.9 0 0 5 0 0 5.1 0 0 5.2 0 0 5.3 0 0 5.4 0 0 5.5 0 0 5.6 0 0 5.7 0 0 5.8 0 0 5.9 0 0 6 0 0 6.1 0 0 6.2 0 0 6.3 0 0 6.4 0 0 6.5 0 0 6.6 0 0 6.7 0 0 6.8 0 0 6.9 0 0 7 0 0 7.1 0 0 7.2 0 0 7.3 0 0 7.4 0 0 7.5 0 0 7.6 0 0 7.7 0 0 7.8 0 0 7.9 0 0 8 0 0 8.1 0 0 8.2 0 0 8.3 0 0 8.4 0 0 8.5 0 0 8.6 0 0 8.7 0 0 8.8 0 0 8.9 0 0 9 0 0 9.1 0 0 9.2 0 0 9.3 0 0 9.4 0 0 9.5 0 0 9.6 0 0 9.7 0 0 9.8 0 0 9.9 0 0 10 0 0 0 0.1 0 0.1 0.1 0 0.2 0.1 0 0.3 0.1 0 0.4 0.1 0 0.5 0.1 0 0.6 0.1 0 0.7 0.1 0 0.8 0.1 0 0.9 0.1 0 1 0.1 0 1.1 0.1 0 1.2 0.1 0 1.3 0.1 0 1.4 0.1 0 1.5 0.1 0 1.6 0.1 0 1.7 0.1 0 1.8 0.1 0 1.9 0.1 0 2 0.1 0 2.1 0.1 0 2.2 0.1 0 2.3 0.1 0 2.4 0.1 0 2.5 0.1 0 2.6 0.1 0 2.7 0.1 0 2.8 0.1 0 2.9 0.1 0 3 0.1 0 3.1 0.1 0 3.2 0.1 0 3.3 0.1 0 3.4 0.1 0 3.5 0.1 0 3.6 0.1 0 3.7 0.1 0 3.8 0.1 0 3.9 0.1 0 4 0.1 0 4.1 0.1 0 4.2 0.1 0 4.3 0.1 0 4.4 0.1 0 4.5 0.1 0 4.6 0.1 0 4.7 0.1 0 4.8 0.1 0 4.9 0.1 0 5 0.1 0 5.1 0.1 0 5.2 0.1 0 5.3 0.1 0 5.4 0.1 0 5.5 0.1 0 5.6 0.1 0 5.7 0.1 0 5.8 0.1 0 5.9 0.1 0 6 0.1 0 6.1 0.1 0 6.2 0.1 0 6.3 0.1 0 6.4 0.1 0 6.5 0.1 0 6.6 0.1 0 6.7 0.1 0 6.8 0.1 0 6.9 0.1 0 7 0.1 0 7.1 0.1 0 7.2 0.1 0 7.3 0.1 0 7.4 0.1 0 7.5 0.1 0 7.6 0.1 0 7.7 0.1 0 7.8 0.1 0 7.9 0.1 0 8 0.1 0 8.1 0.1 0 8.2 0.1 0 8.3 0.1 0 8.4 0.1 0 8.5 0.1 0 8.6 0.1 0 8.7 0.1 0 8.8 0.1 0 8.9 0.1 0 9 0.1 0 9.1 0.1 0 9.2 0.1 0 9.3 0.1 0 9.4 0.1 0 9.5 0.1 0 9.6 0.1 0 9.7 0.1 0 9.8 0.1 0 9.9 0.1 0 10 0.1 0 0 0.2 0 0.1 0.2 0 0.2 0.2 0 0.3 0.2 0 0.4 0.2 0 0.5 0.2 0 0.6 0.2 0 0.7 0.2 0 0.8 0.2 0 0.9 0.2 0 1 0.2 0 1.1 0.2 0 1.2 0.2 0 1.3 0.2 0 1.4 0.2 0 1.5 0.2 0 1.6 0.2 0 1.7 0.2 0 1.8 0.2 0 1.9 0.2 0 2 0.2 0 2.1 0.2 0 2.2 0.2 0 2.3 0.2 0 2.4 0.2 0 2.5 0.2 0 2.6 0.2 0 2.7 0.2 0 2.8 0.2 0 2.9 0.2 0 3 0.2 0 3.1 0.2 0 3.2 0.2 0 3.3 0.2 0 3.4 0.2 0 3.5 0.2 0 3.6 0.2 0 3.7 0.2 0 3.8 0.2 0 3.9 0.2 0 4 0.2 0 4.1 0.2 0 4.2 0.2 0 4.3 0.2 0 4.4 0.2 0 4.5 0.2 0 4.6 0.2 0 4.7 0.2 0 4.8 0.2 0 4.9 0.2 0 5 0.2 0 5.1 0.2 0 5.2 0.2 0 5.3 0.2 0 5.4 0.2 0 5.5 0.2 0 5.6 0.2 0 5.7 0.2 0 5.8 0.2 0 5.9 0.2 0 6 0.2 0 6.1 0.2 0 6.2 0.2 0 6.3 0.2 0 6.4 0.2 0 6.5 0.2 0 6.6 0.2 0 6.7 0.2 0 6.8 0.2 0 6.9 0.2 0 7 0.2 0 7.1 0.2 0 7.2 0.2 0 7.3 0.2 0 7.4 0.2 0 7.5 0.2 0 7.6 0.2 0 7.7 0.2 0 7.8 0.2 0 7.9 0.2 0 8 0.2 0 8.1 0.2 0 8.2 0.2 0 8.3 0.2 0 8.4 0.2 0 8.5 0.2 0 8.6 0.2 0 8.7 0.2 0 8.8 0.2 0 8.9 0.2 0 9 0.2 0 9.1 0.2 0 9.2 0.2 0 9.3 0.2 0 9.4 0.2 0 9.5 0.2 0 9.6 0.2 0 9.7 0.2 0 9.8 0.2 0 9.9 0.2 0 10 0.2 0 0 0.3 0 0.1 0.3 0 0.2 0.3 0 0.3 0.3 0 0.4 0.3 0 0.5 0.3 0 0.6 0.3 0 0.7 0.3 0 0.8 0.3 0 0.9 0.3 0 1 0.3 0 1.1 0.3 0 1.2 0.3 0 1.3 0.3 0 1.4 0.3 0 1.5 0.3 0 1.6 0.3 0 1.7 0.3 0 1.8 0.3 0 1.9 0.3 0 2 0.3 0 2.1 0.3 0 2.2 0.3 0 2.3 0.3 0 2.4 0.3 0 2.5 0.3 0 2.6 0.3 0 2.7 0.3 0 2.8 0.3 0 2.9 0.3 0 3 0.3 0 3.1 0.3 0 3.2 0.3 0 3.3 0.3 0 3.4 0.3 0 3.5 0.3 0 3.6 0.3 0 3.7 0.3 0 3.8 0.3 0 3.9 0.3 0 4 0.3 0 4.1 0.3 0 4.2 0.3 0 4.3 0.3 0 4.4 0.3 0 4.5 0.3 0 4.6 0.3 0 4.7 0.3 0 4.8 0.3 0 4.9 0.3 0 5 0.3 0 5.1 0.3 0 5.2 0.3 0 5.3 0.3 0 5.4 0.3 0 5.5 0.3 0 5.6 0.3 0 5.7 0.3 0 5.8 0.3 0 5.9 0.3 0 6 0.3 0 6.1 0.3 0 6.2 0.3 0 6.3 0.3 0 6.4 0.3 0 6.5 0.3 0 6.6 0.3 0 6.7 0.3 0 6.8 0.3 0 6.9 0.3 0 7 0.3 0 7.1 0.3 0 7.2 0.3 0 7.3 0.3 0 7.4 0.3 0 7.5 0.3 0 7.6 0.3 0 7.7 0.3 0 7.8 0.3 0 7.9 0.3 0 8 0.3 0 8.1 0.3 0 8.2 0.3 0 8.3 0.3 0 8.4 0.3 0 8.5 0.3 0 8.6 0.3 0 8.7 0.3 0 8.8 0.3 0 8.9 0.3 0 9 0.3 0 9.1 0.3 0 9.2 0.3 0 9.3 0.3 0 9.4 0.3 0 9.5 0.3 0 9.6 0.3 0 9.7 0.3 0 9.8 0.3 0 9.9 0.3 0 10 0.3 0 0 0.4 0 0.1 0.4 0 0.2 0.4 0 0.3 0.4 0 0.4 0.4 0 0.5 0.4 0 0.6 0.4 0 0.7 0.4 0 0.8 0.4 0 0.9 0.4 0 1 0.4 0 1.1 0.4 0 1.2 0.4 0 1.3 0.4 0 1.4 0.4 0 1.5 0.4 0 1.6 0.4 0 1.7 0.4 0 1.8 0.4 0 1.9 0.4 0 2 0.4 0 2.1 0.4 0 2.2 0.4 0 2.3 0.4 0 2.4 0.4 0 2.5 0.4 0 2.6 0.4 0 2.7 0.4 0 2.8 0.4 0 2.9 0.4 0 3 0.4 0 3.1 0.4 0 3.2 0.4 0 3.3 0.4 0 3.4 0.4 0 3.5 0.4 0 3.6 0.4 0 3.7 0.4 0 3.8 0.4 0 3.9 0.4 0 4 0.4 0 4.1 0.4 0 4.2 0.4 0 4.3 0.4 0 4.4 0.4 0 4.5 0.4 0 4.6 0.4 0 4.7 0.4 0 4.8 0.4 0 4.9 0.4 0 5 0.4 0 5.1 0.4 0 5.2 0.4 0 5.3 0.4 0 5.4 0.4 0 5.5 0.4 0 5.6 0.4 0 5.7 0.4 0 5.8 0.4 0 5.9 0.4 0 6 0.4 0 6.1 0.4 0 6.2 0.4 0 6.3 0.4 0 6.4 0.4 0 6.5 0.4 0 6.6 0.4 0 6.7 0.4 0 6.8 0.4 0 6.9 0.4 0 7 0.4 0 7.1 0.4 0 7.2 0.4 0 7.3 0.4 0 7.4 0.4 0 7.5 0.4 0 7.6 0.4 0 7.7 0.4 0 7.8 0.4 0 7.9 0.4 0 8 0.4 0 8.1 0.4 0 8.2 0.4 0 8.3 0.4 0 8.4 0.4 0 8.5 0.4 0 8.6 0.4 0 8.7 0.4 0 8.8 0.4 0 8.9 0.4 0 9 0.4 0 9.1 0.4 0 9.2 0.4 0 9.3 0.4 0 9.4 0.4 0 9.5 0.4 0 9.6 0.4 0 9.7 0.4 0 9.8 0.4 0 9.9 0.4 0 10 0.4 0 0 0.5 0 0.1 0.5 0 0.2 0.5 0 0.3 0.5 0 0.4 0.5 0 0.5 0.5 0 0.6 0.5 0 0.7 0.5 0 0.8 0.5 0 0.9 0.5 0 1 0.5 0 1.1 0.5 0 1.2 0.5 0 1.3 0.5 0 1.4 0.5 0 1.5 0.5 0 1.6 0.5 0 1.7 0.5 0 1.8 0.5 0 1.9 0.5 0 2 0.5 0 2.1 0.5 0 2.2 0.5 0 2.3 0.5 0 2.4 0.5 0 2.5 0.5 0 2.6 0.5 0 2.7 0.5 0 2.8 0.5 0 2.9 0.5 0 3 0.5 0 3.1 0.5 0 3.2 0.5 0 3.3 0.5 0 3.4 0.5 0 3.5 0.5 0 3.6 0.5 0 3.7 0.5 0 3.8 0.5 0 3.9 0.5 0 4 0.5 0 4.1 0.5 0 4.2 0.5 0 4.3 0.5 0 4.4 0.5 0 4.5 0.5 0 4.6 0.5 0 4.7 0.5 0 4.8 0.5 0 4.9 0.5 0 5 0.5 0 5.1 0.5 0 5.2 0.5 0 5.3 0.5 0 5.4 0.5 0 5.5 0.5 0 5.6 0.5 0 5.7 0.5 0 5.8 0.5 0 5.9 0.5 0 6 0.5 0 6.1 0.5 0 6.2 0.5 0 6.3 0.5 0 6.4 0.5 0 6.5 0.5 0 6.6 0.5 0 6.7 0.5 0 6.8 0.5 0 6.9 0.5 0 7 0.5 0 7.1 0.5 0 7.2 0.5 0 7.3 0.5 0 7.4 0.5 0 7.5 0.5 0 7.6 0.5 0 7.7 0.5 0 7.8 0.5 0 7.9 0.5 0 8 0.5 0 8.1 0.5 0 8.2 0.5 0 8.3 0.5 0 8.4 0.5 0 8.5 0.5 0 8.6 0.5 0 8.7 0.5 0 8.8 0.5 0 8.9 0.5 0 9 0.5 0 9.1 0.5 0 9.2 0.5 0 9.3 0.5 0 9.4 0.5 0 9.5 0.5 0 9.6 0.5 0 9.7 0.5 0 9.8 0.5 0 9.9 0.5 0 10 0.5 0 0 0.6 0 0.1 0.6 0 0.2 0.6 0 0.3 0.6 0 0.4 0.6 0 0.5 0.6 0 0.6 0.6 0 0.7 0.6 0 0.8 0.6 0 0.9 0.6 0 1 0.6 0 1.1 0.6 0 1.2 0.6 0 1.3 0.6 0 1.4 0.6 0 1.5 0.6 0 1.6 0.6 0 1.7 0.6 0 1.8 0.6 0 1.9 0.6 0 2 0.6 0 2.1 0.6 0 2.2 0.6 0 2.3 0.6 0 2.4 0.6 0 2.5 0.6 0 2.6 0.6 0 2.7 0.6 0 2.8 0.6 0 2.9 0.6 0 3 0.6 0 3.1 0.6 0 3.2 0.6 0 3.3 0.6 0 3.4 0.6 0 3.5 0.6 0 3.6 0.6 0 3.7 0.6 0 3.8 0.6 0 3.9 0.6 0 4 0.6 0 4.1 0.6 0 4.2 0.6 0 4.3 0.6 0 4.4 0.6 0 4.5 0.6 0 4.6 0.6 0 4.7 0.6 0 4.8 0.6 0 4.9 0.6 0 5 0.6 0 5.1 0.6 0 5.2 0.6 0 5.3 0.6 0 5.4 0.6 0 5.5 0.6 0 5.6 0.6 0 5.7 0.6 0 5.8 0.6 0 5.9 0.6 0 6 0.6 0 6.1 0.6 0 6.2 0.6 0 6.3 0.6 0 6.4 0.6 0 6.5 0.6 0 6.6 0.6 0 6.7 0.6 0 6.8 0.6 0 6.9 0.6 0 7 0.6 0 7.1 0.6 0 7.2 0.6 0 7.3 0.6 0 7.4 0.6 0 7.5 0.6 0 7.6 0.6 0 7.7 0.6 0 7.8 0.6 0 7.9 0.6 0 8 0.6 0 8.1 0.6 0 8.2 0.6 0 8.3 0.6 0 8.4 0.6 0 8.5 0.6 0 8.6 0.6 0 8.7 0.6 0 8.8 0.6 0 8.9 0.6 0 9 0.6 0 9.1 0.6 0 9.2 0.6 0 9.3 0.6 0 9.4 0.6 0 9.5 0.6 0 9.6 0.6 0 9.7 0.6 0 9.8 0.6 0 9.9 0.6 0 10 0.6 0 0 0.7 0 0.1 0.7 0 0.2 0.7 0 0.3 0.7 0 0.4 0.7 0 0.5 0.7 0 0.6 0.7 0 0.7 0.7 0 0.8 0.7 0 0.9 0.7 0 1 0.7 0 1.1 0.7 0 1.2 0.7 0 1.3 0.7 0 1.4 0.7 0 1.5 0.7 0 1.6 0.7 0 1.7 0.7 0 1.8 0.7 0 1.9 0.7 0 2 0.7 0 2.1 0.7 0 2.2 0.7 0 2.3 0.7 0 2.4 0.7 0 2.5 0.7 0 2.6 0.7 0 2.7 0.7 0 2.8 0.7 0 2.9 0.7 0 3 0.7 0 3.1 0.7 0 3.2 0.7 0 3.3 0.7 0 3.4 0.7 0 3.5 0.7 0 3.6 0.7 0 3.7 0.7 0 3.8 0.7 0 3.9 0.7 0 4 0.7 0 4.1 0.7 0 4.2 0.7 0 4.3 0.7 0 4.4 0.7 0 4.5 0.7 0 4.6 0.7 0 4.7 0.7 0 4.8 0.7 0 4.9 0.7 0 5 0.7 0 5.1 0.7 0 5.2 0.7 0 5.3 0.7 0 5.4 0.7 0 5.5 0.7 0 5.6 0.7 0 5.7 0.7 0 5.8 0.7 0 5.9 0.7 0 6 0.7 0 6.1 0.7 0 6.2 0.7 0 6.3 0.7 0 6.4 0.7 0 6.5 0.7 0 6.6 0.7 0 6.7 0.7 0 6.8 0.7 0 6.9 0.7 0 7 0.7 0 7.1 0.7 0 7.2 0.7 0 7.3 0.7 0 7.4 0.7 0 7.5 0.7 0 7.6 0.7 0 7.7 0.7 0 7.8 0.7 0 7.9 0.7 0 8 0.7 0 8.1 0.7 0 8.2 0.7 0 8.3 0.7 0 8.4 0.7 0 8.5 0.7 0 8.6 0.7 0 8.7 0.7 0 8.8 0.7 0 8.9 0.7 0 9 0.7 0 9.1 0.7 0 9.2 0.7 0 9.3 0.7 0 9.4 0.7 0 9.5 0.7 0 9.6 0.7 0 9.7 0.7 0 9.8 0.7 0 9.9 0.7 0 10 0.7 0 0 0.8 0 0.1 0.8 0 0.2 0.8 0 0.3 0.8 0 0.4 0.8 0 0.5 0.8 0 0.6 0.8 0 0.7 0.8 0 0.8 0.8 0 0.9 0.8 0 1 0.8 0 1.1 0.8 0 1.2 0.8 0 1.3 0.8 0 1.4 0.8 0 1.5 0.8 0 1.6 0.8 0 1.7 0.8 0 1.8 0.8 0 1.9 0.8 0 2 0.8 0 2.1 0.8 0 2.2 0.8 0 2.3 0.8 0 2.4 0.8 0 2.5 0.8 0 2.6 0.8 0 2.7 0.8 0 2.8 0.8 0 2.9 0.8 0 3 0.8 0 3.1 0.8 0 3.2 0.8 0 3.3 0.8 0 3.4 0.8 0 3.5 0.8 0 3.6 0.8 0 3.7 0.8 0 3.8 0.8 0 3.9 0.8 0 4 0.8 0 4.1 0.8 0 4.2 0.8 0 4.3 0.8 0 4.4 0.8 0 4.5 0.8 0 4.6 0.8 0 4.7 0.8 0 4.8 0.8 0 4.9 0.8 0 5 0.8 0 5.1 0.8 0 5.2 0.8 0 5.3 0.8 0 5.4 0.8 0 5.5 0.8 0 5.6 0.8 0 5.7 0.8 0 5.8 0.8 0 5.9 0.8 0 6 0.8 0 6.1 0.8 0 6.2 0.8 0 6.3 0.8 0 6.4 0.8 0 6.5 0.8 0 6.6 0.8 0 6.7 0.8 0 6.8 0.8 0 6.9 0.8 0 7 0.8 0 7.1 0.8 0 7.2 0.8 0 7.3 0.8 0 7.4 0.8 0 7.5 0.8 0 7.6 0.8 0 7.7 0.8 0 7.8 0.8 0 7.9 0.8 0 8 0.8 0 8.1 0.8 0 8.2 0.8 0 8.3 0.8 0 8.4 0.8 0 8.5 0.8 0 8.6 0.8 0 8.7 0.8 0 8.8 0.8 0 8.9 0.8 0 9 0.8 0 9.1 0.8 0 9.2 0.8 0 9.3 0.8 0 9.4 0.8 0 9.5 0.8 0 9.6 0.8 0 9.7 0.8 0 9.8 0.8 0 9.9 0.8 0 10 0.8 0 0 0.9 0 0.1 0.9 0 0.2 0.9 0 0.3 0.9 0 0.4 0.9 0 0.5 0.9 0 0.6 0.9 0 0.7 0.9 0 0.8 0.9 0 0.9 0.9 0 1 0.9 0 1.1 0.9 0 1.2 0.9 0 1.3 0.9 0 1.4 0.9 0 1.5 0.9 0 1.6 0.9 0 1.7 0.9 0 1.8 0.9 0 1.9 0.9 0 2 0.9 0 2.1 0.9 0 2.2 0.9 0 2.3 0.9 0 2.4 0.9 0 2.5 0.9 0 2.6 0.9 0 2.7 0.9 0 2.8 0.9 0 2.9 0.9 0 3 0.9 0 3.1 0.9 0 3.2 0.9 0 3.3 0.9 0 3.4 0.9 0 3.5 0.9 0 3.6 0.9 0 3.7 0.9 0 3.8 0.9 0 3.9 0.9 0 4 0.9 0 4.1 0.9 0 4.2 0.9 0 4.3 0.9 0 4.4 0.9 0 4.5 0.9 0 4.6 0.9 0 4.7 0.9 0 4.8 0.9 0 4.9 0.9 0 5 0.9 0 5.1 0.9 0 5.2 0.9 0 5.3 0.9 0 5.4 0.9 0 5.5 0.9 0 5.6 0.9 0 5.7 0.9 0 5.8 0.9 0 5.9 0.9 0 6 0.9 0 6.1 0.9 0 6.2 0.9 0 6.3 0.9 0 6.4 0.9 0 6.5 0.9 0 6.6 0.9 0 6.7 0.9 0 6.8 0.9 0 6.9 0.9 0 7 0.9 0 7.1 0.9 0 7.2 0.9 0 7.3 0.9 0 7.4 0.9 0 7.5 0.9 0 7.6 0.9 0 7.7 0.9 0 7.8 0.9 0 7.9 0.9 0 8 0.9 0 8.1 0.9 0 8.2 0.9 0 8.3 0.9 0 8.4 0.9 0 8.5 0.9 0 8.6 0.9 0 8.7 0.9 0 8.8 0.9 0 8.9 0.9 0 9 0.9 0 9.1 0.9 0 9.2 0.9 0 9.3 0.9 0 9.4 0.9 0 9.5 0.9 0 9.6 0.9 0 9.7 0.9 0 9.8 0.9 0 9.9 0.9 0 10 0.9 0 0 1 0 0.1 1 0 0.2 1 0 0.3 1 0 0.4 1 0 0.5 1 0 0.6 1 0 0.7 1 0 0.8 1 0 0.9 1 0 1 1 0 1.1 1 0 1.2 1 0 1.3 1 0 1.4 1 0 1.5 1 0 1.6 1 0 1.7 1 0 1.8 1 0 1.9 1 0 2 1 0 2.1 1 0 2.2 1 0 2.3 1 0 2.4 1 0 2.5 1 0 2.6 1 0 2.7 1 0 2.8 1 0 2.9 1 0 3 1 0 3.1 1 0 3.2 1 0 3.3 1 0 3.4 1 0 3.5 1 0 3.6 1 0 3.7 1 0 3.8 1 0 3.9 1 0 4 1 0 4.1 1 0 4.2 1 0 4.3 1 0 4.4 1 0 4.5 1 0 4.6 1 0 4.7 1 0 4.8 1 0 4.9 1 0 5 1 0 5.1 1 0 5.2 1 0 5.3 1 0 5.4 1 0 5.5 1 0 5.6 1 0 5.7 1 0 5.8 1 0 5.9 1 0 6 1 0 6.1 1 0 6.2 1 0 6.3 1 0 6.4 1 0 6.5 1 0 6.6 1 0 6.7 1 0 6.8 1 0 6.9 1 0 7 1 0 7.1 1 0 7.2 1 0 7.3 1 0 7.4 1 0 7.5 1 0 7.6 1 0 7.7 1 0 7.8 1 0 7.9 1 0 8 1 0 8.1 1 0 8.2 1 0 8.3 1 0 8.4 1 0 8.5 1 0 8.6 1 0 8.7 1 0 8.8 1 0 8.9 1 0 9 1 0 9.1 1 0 9.2 1 0 9.3 1 0 9.4 1 0 9.5 1 0 9.6 1 0 9.7 1 0 9.8 1 0 9.9 1 0 10 1 0 0 1.1 0 0.1 1.1 0 0.2 1.1 0 0.3 1.1 0 0.4 1.1 0 0.5 1.1 0 0.6 1.1 0 0.7 1.1 0 0.8 1.1 0 0.9 1.1 0 1 1.1 0 1.1 1.1 0 1.2 1.1 0 1.3 1.1 0 1.4 1.1 0 1.5 1.1 0 1.6 1.1 0 1.7 1.1 0 1.8 1.1 0 1.9 1.1 0 2 1.1 0 2.1 1.1 0 2.2 1.1 0 2.3 1.1 0 2.4 1.1 0 2.5 1.1 0 2.6 1.1 0 2.7 1.1 0 2.8 1.1 0 2.9 1.1 0 3 1.1 0 3.1 1.1 0 3.2 1.1 0 3.3 1.1 0 3.4 1.1 0 3.5 1.1 0 3.6 1.1 0 3.7 1.1 0 3.8 1.1 0 3.9 1.1 0 4 1.1 0 4.1 1.1 0 4.2 1.1 0 4.3 1.1 0 4.4 1.1 0 4.5 1.1 0 4.6 1.1 0 4.7 1.1 0 4.8 1.1 0 4.9 1.1 0 5 1.1 0 5.1 1.1 0 5.2 1.1 0 5.3 1.1 0 5.4 1.1 0 5.5 1.1 0 5.6 1.1 0 5.7 1.1 0 5.8 1.1 0 5.9 1.1 0 6 1.1 0 6.1 1.1 0 6.2 1.1 0 6.3 1.1 0 6.4 1.1 0 6.5 1.1 0 6.6 1.1 0 6.7 1.1 0 6.8 1.1 0 6.9 1.1 0 7 1.1 0 7.1 1.1 0 7.2 1.1 0 7.3 1.1 0 7.4 1.1 0 7.5 1.1 0 7.6 1.1 0 7.7 1.1 0 7.8 1.1 0 7.9 1.1 0 8 1.1 0 8.1 1.1 0 8.2 1.1 0 8.3 1.1 0 8.4 1.1 0 8.5 1.1 0 8.6 1.1 0 8.7 1.1 0 8.8 1.1 0 8.9 1.1 0 9 1.1 0 9.1 1.1 0 9.2 1.1 0 9.3 1.1 0 9.4 1.1 0 9.5 1.1 0 9.6 1.1 0 9.7 1.1 0 9.8 1.1 0 9.9 1.1 0 10 1.1 0 0 1.2 0 0.1 1.2 0 0.2 1.2 0 0.3 1.2 0 0.4 1.2 0 0.5 1.2 0 0.6 1.2 0 0.7 1.2 0 0.8 1.2 0 0.9 1.2 0 1 1.2 0 1.1 1.2 0 1.2 1.2 0 1.3 1.2 0 1.4 1.2 0 1.5 1.2 0 1.6 1.2 0 1.7 1.2 0 1.8 1.2 0 1.9 1.2 0 2 1.2 0 2.1 1.2 0 2.2 1.2 0 2.3 1.2 0 2.4 1.2 0 2.5 1.2 0 2.6 1.2 0 2.7 1.2 0 2.8 1.2 0 2.9 1.2 0 3 1.2 0 3.1 1.2 0 3.2 1.2 0 3.3 1.2 0 3.4 1.2 0 3.5 1.2 0 3.6 1.2 0 3.7 1.2 0 3.8 1.2 0 3.9 1.2 0 4 1.2 0 4.1 1.2 0 4.2 1.2 0 4.3 1.2 0 4.4 1.2 0 4.5 1.2 0 4.6 1.2 0 4.7 1.2 0 4.8 1.2 0 4.9 1.2 0 5 1.2 0 5.1 1.2 0 5.2 1.2 0 5.3 1.2 0 5.4 1.2 0 5.5 1.2 0 5.6 1.2 0 5.7 1.2 0 5.8 1.2 0 5.9 1.2 0 6 1.2 0 6.1 1.2 0 6.2 1.2 0 6.3 1.2 0 6.4 1.2 0 6.5 1.2 0 6.6 1.2 0 6.7 1.2 0 6.8 1.2 0 6.9 1.2 0 7 1.2 0 7.1 1.2 0 7.2 1.2 0 7.3 1.2 0 7.4 1.2 0 7.5 1.2 0 7.6 1.2 0 7.7 1.2 0 7.8 1.2 0 7.9 1.2 0 8 1.2 0 8.1 1.2 0 8.2 1.2 0 8.3 1.2 0 8.4 1.2 0 8.5 1.2 0 8.6 1.2 0 8.7 1.2 0 8.8 1.2 0 8.9 1.2 0 9 1.2 0 9.1 1.2 0 9.2 1.2 0 9.3 1.2 0 9.4 1.2 0 9.5 1.2 0 9.6 1.2 0 9.7 1.2 0 9.8 1.2 0 9.9 1.2 0 10 1.2 0 0 1.3 0 0.1 1.3 0 0.2 1.3 0 0.3 1.3 0 0.4 1.3 0 0.5 1.3 0 0.6 1.3 0 0.7 1.3 0 0.8 1.3 0 0.9 1.3 0 1 1.3 0 1.1 1.3 0 1.2 1.3 0 1.3 1.3 0 1.4 1.3 0 1.5 1.3 0 1.6 1.3 0 1.7 1.3 0 1.8 1.3 0 1.9 1.3 0 2 1.3 0 2.1 1.3 0 2.2 1.3 0 2.3 1.3 0 2.4 1.3 0 2.5 1.3 0 2.6 1.3 0 2.7 1.3 0 2.8 1.3 0 2.9 1.3 0 3 1.3 0 3.1 1.3 0 3.2 1.3 0 3.3 1.3 0 3.4 1.3 0 3.5 1.3 0 3.6 1.3 0 3.7 1.3 0 3.8 1.3 0 3.9 1.3 0 4 1.3 0 4.1 1.3 0 4.2 1.3 0 4.3 1.3 0 4.4 1.3 0 4.5 1.3 0 4.6 1.3 0 4.7 1.3 0 4.8 1.3 0 4.9 1.3 0 5 1.3 0 5.1 1.3 0 5.2 1.3 0 5.3 1.3 0 5.4 1.3 0 5.5 1.3 0 5.6 1.3 0 5.7 1.3 0 5.8 1.3 0 5.9 1.3 0 6 1.3 0 6.1 1.3 0 6.2 1.3 0 6.3 1.3 0 6.4 1.3 0 6.5 1.3 0 6.6 1.3 0 6.7 1.3 0 6.8 1.3 0 6.9 1.3 0 7 1.3 0 7.1 1.3 0 7.2 1.3 0 7.3 1.3 0 7.4 1.3 0 7.5 1.3 0 7.6 1.3 0 7.7 1.3 0 7.8 1.3 0 7.9 1.3 0 8 1.3 0 8.1 1.3 0 8.2 1.3 0 8.3 1.3 0 8.4 1.3 0 8.5 1.3 0 8.6 1.3 0 8.7 1.3 0 8.8 1.3 0 8.9 1.3 0 9 1.3 0 9.1 1.3 0 9.2 1.3 0 9.3 1.3 0 9.4 1.3 0 9.5 1.3 0 9.6 1.3 0 9.7 1.3 0 9.8 1.3 0 9.9 1.3 0 10 1.3 0 0 1.4 0 0.1 1.4 0 0.2 1.4 0 0.3 1.4 0 0.4 1.4 0 0.5 1.4 0 0.6 1.4 0 0.7 1.4 0 0.8 1.4 0 0.9 1.4 0 1 1.4 0 1.1 1.4 0 1.2 1.4 0 1.3 1.4 0 1.4 1.4 0 1.5 1.4 0 1.6 1.4 0 1.7 1.4 0 1.8 1.4 0 1.9 1.4 0 2 1.4 0 2.1 1.4 0 2.2 1.4 0 2.3 1.4 0 2.4 1.4 0 2.5 1.4 0 2.6 1.4 0 2.7 1.4 0 2.8 1.4 0 2.9 1.4 0 3 1.4 0 3.1 1.4 0 3.2 1.4 0 3.3 1.4 0 3.4 1.4 0 3.5 1.4 0 3.6 1.4 0 3.7 1.4 0 3.8 1.4 0 3.9 1.4 0 4 1.4 0 4.1 1.4 0 4.2 1.4 0 4.3 1.4 0 4.4 1.4 0 4.5 1.4 0 4.6 1.4 0 4.7 1.4 0 4.8 1.4 0 4.9 1.4 0 5 1.4 0 5.1 1.4 0 5.2 1.4 0 5.3 1.4 0 5.4 1.4 0 5.5 1.4 0 5.6 1.4 0 5.7 1.4 0 5.8 1.4 0 5.9 1.4 0 6 1.4 0 6.1 1.4 0 6.2 1.4 0 6.3 1.4 0 6.4 1.4 0 6.5 1.4 0 6.6 1.4 0 6.7 1.4 0 6.8 1.4 0 6.9 1.4 0 7 1.4 0 7.1 1.4 0 7.2 1.4 0 7.3 1.4 0 7.4 1.4 0 7.5 1.4 0 7.6 1.4 0 7.7 1.4 0 7.8 1.4 0 7.9 1.4 0 8 1.4 0 8.1 1.4 0 8.2 1.4 0 8.3 1.4 0 8.4 1.4 0 8.5 1.4 0 8.6 1.4 0 8.7 1.4 0 8.8 1.4 0 8.9 1.4 0 9 1.4 0 9.1 1.4 0 9.2 1.4 0 9.3 1.4 0 9.4 1.4 0 9.5 1.4 0 9.6 1.4 0 9.7 1.4 0 9.8 1.4 0 9.9 1.4 0 10 1.4 0 0 1.5 0 0.1 1.5 0 0.2 1.5 0 0.3 1.5 0 0.4 1.5 0 0.5 1.5 0 0.6 1.5 0 0.7 1.5 0 0.8 1.5 0 0.9 1.5 0 1 1.5 0 1.1 1.5 0 1.2 1.5 0 1.3 1.5 0 1.4 1.5 0 1.5 1.5 0 1.6 1.5 0 1.7 1.5 0 1.8 1.5 0 1.9 1.5 0 2 1.5 0 2.1 1.5 0 2.2 1.5 0 2.3 1.5 0 2.4 1.5 0 2.5 1.5 0 2.6 1.5 0 2.7 1.5 0 2.8 1.5 0 2.9 1.5 0 3 1.5 0 3.1 1.5 0 3.2 1.5 0 3.3 1.5 0 3.4 1.5 0 3.5 1.5 0 3.6 1.5 0 3.7 1.5 0 3.8 1.5 0 3.9 1.5 0 4 1.5 0 4.1 1.5 0 4.2 1.5 0 4.3 1.5 0 4.4 1.5 0 4.5 1.5 0 4.6 1.5 0 4.7 1.5 0 4.8 1.5 0 4.9 1.5 0 5 1.5 0 5.1 1.5 0 5.2 1.5 0 5.3 1.5 0 5.4 1.5 0 5.5 1.5 0 5.6 1.5 0 5.7 1.5 0 5.8 1.5 0 5.9 1.5 0 6 1.5 0 6.1 1.5 0 6.2 1.5 0 6.3 1.5 0 6.4 1.5 0 6.5 1.5 0 6.6 1.5 0 6.7 1.5 0 6.8 1.5 0 6.9 1.5 0 7 1.5 0 7.1 1.5 0 7.2 1.5 0 7.3 1.5 0 7.4 1.5 0 7.5 1.5 0 7.6 1.5 0 7.7 1.5 0 7.8 1.5 0 7.9 1.5 0 8 1.5 0 8.1 1.5 0 8.2 1.5 0 8.3 1.5 0 8.4 1.5 0 8.5 1.5 0 8.6 1.5 0 8.7 1.5 0 8.8 1.5 0 8.9 1.5 0 9 1.5 0 9.1 1.5 0 9.2 1.5 0 9.3 1.5 0 9.4 1.5 0 9.5 1.5 0 9.6 1.5 0 9.7 1.5 0 9.8 1.5 0 9.9 1.5 0 10 1.5 0 0 1.6 0 0.1 1.6 0 0.2 1.6 0 0.3 1.6 0 0.4 1.6 0 0.5 1.6 0 0.6 1.6 0 0.7 1.6 0 0.8 1.6 0 0.9 1.6 0 1 1.6 0 1.1 1.6 0 1.2 1.6 0 1.3 1.6 0 1.4 1.6 0 1.5 1.6 0 1.6 1.6 0 1.7 1.6 0 1.8 1.6 0 1.9 1.6 0 2 1.6 0 2.1 1.6 0 2.2 1.6 0 2.3 1.6 0 2.4 1.6 0 2.5 1.6 0 2.6 1.6 0 2.7 1.6 0 2.8 1.6 0 2.9 1.6 0 3 1.6 0 3.1 1.6 0 3.2 1.6 0 3.3 1.6 0 3.4 1.6 0 3.5 1.6 0 3.6 1.6 0 3.7 1.6 0 3.8 1.6 0 3.9 1.6 0 4 1.6 0 4.1 1.6 0 4.2 1.6 0 4.3 1.6 0 4.4 1.6 0 4.5 1.6 0 4.6 1.6 0 4.7 1.6 0 4.8 1.6 0 4.9 1.6 0 5 1.6 0 5.1 1.6 0 5.2 1.6 0 5.3 1.6 0 5.4 1.6 0 5.5 1.6 0 5.6 1.6 0 5.7 1.6 0 5.8 1.6 0 5.9 1.6 0 6 1.6 0 6.1 1.6 0 6.2 1.6 0 6.3 1.6 0 6.4 1.6 0 6.5 1.6 0 6.6 1.6 0 6.7 1.6 0 6.8 1.6 0 6.9 1.6 0 7 1.6 0 7.1 1.6 0 7.2 1.6 0 7.3 1.6 0 7.4 1.6 0 7.5 1.6 0 7.6 1.6 0 7.7 1.6 0 7.8 1.6 0 7.9 1.6 0 8 1.6 0 8.1 1.6 0 8.2 1.6 0 8.3 1.6 0 8.4 1.6 0 8.5 1.6 0 8.6 1.6 0 8.7 1.6 0 8.8 1.6 0 8.9 1.6 0 9 1.6 0 9.1 1.6 0 9.2 1.6 0 9.3 1.6 0 9.4 1.6 0 9.5 1.6 0 9.6 1.6 0 9.7 1.6 0 9.8 1.6 0 9.9 1.6 0 10 1.6 0 0 1.7 0 0.1 1.7 0 0.2 1.7 0 0.3 1.7 0 0.4 1.7 0 0.5 1.7 0 0.6 1.7 0 0.7 1.7 0 0.8 1.7 0 0.9 1.7 0 1 1.7 0 1.1 1.7 0 1.2 1.7 0 1.3 1.7 0 1.4 1.7 0 1.5 1.7 0 1.6 1.7 0 1.7 1.7 0 1.8 1.7 0 1.9 1.7 0 2 1.7 0 2.1 1.7 0 2.2 1.7 0 2.3 1.7 0 2.4 1.7 0 2.5 1.7 0 2.6 1.7 0 2.7 1.7 0 2.8 1.7 0 2.9 1.7 0 3 1.7 0 3.1 1.7 0 3.2 1.7 0 3.3 1.7 0 3.4 1.7 0 3.5 1.7 0 3.6 1.7 0 3.7 1.7 0 3.8 1.7 0 3.9 1.7 0 4 1.7 0 4.1 1.7 0 4.2 1.7 0 4.3 1.7 0 4.4 1.7 0 4.5 1.7 0 4.6 1.7 0 4.7 1.7 0 4.8 1.7 0 4.9 1.7 0 5 1.7 0 5.1 1.7 0 5.2 1.7 0 5.3 1.7 0 5.4 1.7 0 5.5 1.7 0 5.6 1.7 0 5.7 1.7 0 5.8 1.7 0 5.9 1.7 0 6 1.7 0 6.1 1.7 0 6.2 1.7 0 6.3 1.7 0 6.4 1.7 0 6.5 1.7 0 6.6 1.7 0 6.7 1.7 0 6.8 1.7 0 6.9 1.7 0 7 1.7 0 7.1 1.7 0 7.2 1.7 0 7.3 1.7 0 7.4 1.7 0 7.5 1.7 0 7.6 1.7 0 7.7 1.7 0 7.8 1.7 0 7.9 1.7 0 8 1.7 0 8.1 1.7 0 8.2 1.7 0 8.3 1.7 0 8.4 1.7 0 8.5 1.7 0 8.6 1.7 0 8.7 1.7 0 8.8 1.7 0 8.9 1.7 0 9 1.7 0 9.1 1.7 0 9.2 1.7 0 9.3 1.7 0 9.4 1.7 0 9.5 1.7 0 9.6 1.7 0 9.7 1.7 0 9.8 1.7 0 9.9 1.7 0 10 1.7 0 0 1.8 0 0.1 1.8 0 0.2 1.8 0 0.3 1.8 0 0.4 1.8 0 0.5 1.8 0 0.6 1.8 0 0.7 1.8 0 0.8 1.8 0 0.9 1.8 0 1 1.8 0 1.1 1.8 0 1.2 1.8 0 1.3 1.8 0 1.4 1.8 0 1.5 1.8 0 1.6 1.8 0 1.7 1.8 0 1.8 1.8 0 1.9 1.8 0 2 1.8 0 2.1 1.8 0 2.2 1.8 0 2.3 1.8 0 2.4 1.8 0 2.5 1.8 0 2.6 1.8 0 2.7 1.8 0 2.8 1.8 0 2.9 1.8 0 3 1.8 0 3.1 1.8 0 3.2 1.8 0 3.3 1.8 0 3.4 1.8 0 3.5 1.8 0 3.6 1.8 0 3.7 1.8 0 3.8 1.8 0 3.9 1.8 0 4 1.8 0 4.1 1.8 0 4.2 1.8 0 4.3 1.8 0 4.4 1.8 0 4.5 1.8 0 4.6 1.8 0 4.7 1.8 0 4.8 1.8 0 4.9 1.8 0 5 1.8 0 5.1 1.8 0 5.2 1.8 0 5.3 1.8 0 5.4 1.8 0 5.5 1.8 0 5.6 1.8 0 5.7 1.8 0 5.8 1.8 0 5.9 1.8 0 6 1.8 0 6.1 1.8 0 6.2 1.8 0 6.3 1.8 0 6.4 1.8 0 6.5 1.8 0 6.6 1.8 0 6.7 1.8 0 6.8 1.8 0 6.9 1.8 0 7 1.8 0 7.1 1.8 0 7.2 1.8 0 7.3 1.8 0 7.4 1.8 0 7.5 1.8 0 7.6 1.8 0 7.7 1.8 0 7.8 1.8 0 7.9 1.8 0 8 1.8 0 8.1 1.8 0 8.2 1.8 0 8.3 1.8 0 8.4 1.8 0 8.5 1.8 0 8.6 1.8 0 8.7 1.8 0 8.8 1.8 0 8.9 1.8 0 9 1.8 0 9.1 1.8 0 9.2 1.8 0 9.3 1.8 0 9.4 1.8 0 9.5 1.8 0 9.6 1.8 0 9.7 1.8 0 9.8 1.8 0 9.9 1.8 0 10 1.8 0 0 1.9 0 0.1 1.9 0 0.2 1.9 0 0.3 1.9 0 0.4 1.9 0 0.5 1.9 0 0.6 1.9 0 0.7 1.9 0 0.8 1.9 0 0.9 1.9 0 1 1.9 0 1.1 1.9 0 1.2 1.9 0 1.3 1.9 0 1.4 1.9 0 1.5 1.9 0 1.6 1.9 0 1.7 1.9 0 1.8 1.9 0 1.9 1.9 0 2 1.9 0 2.1 1.9 0 2.2 1.9 0 2.3 1.9 0 2.4 1.9 0 2.5 1.9 0 2.6 1.9 0 2.7 1.9 0 2.8 1.9 0 2.9 1.9 0 3 1.9 0 3.1 1.9 0 3.2 1.9 0 3.3 1.9 0 3.4 1.9 0 3.5 1.9 0 3.6 1.9 0 3.7 1.9 0 3.8 1.9 0 3.9 1.9 0 4 1.9 0 4.1 1.9 0 4.2 1.9 0 4.3 1.9 0 4.4 1.9 0 4.5 1.9 0 4.6 1.9 0 4.7 1.9 0 4.8 1.9 0 4.9 1.9 0 5 1.9 0 5.1 1.9 0 5.2 1.9 0 5.3 1.9 0 5.4 1.9 0 5.5 1.9 0 5.6 1.9 0 5.7 1.9 0 5.8 1.9 0 5.9 1.9 0 6 1.9 0 6.1 1.9 0 6.2 1.9 0 6.3 1.9 0 6.4 1.9 0 6.5 1.9 0 6.6 1.9 0 6.7 1.9 0 6.8 1.9 0 6.9 1.9 0 7 1.9 0 7.1 1.9 0 7.2 1.9 0 7.3 1.9 0 7.4 1.9 0 7.5 1.9 0 7.6 1.9 0 7.7 1.9 0 7.8 1.9 0 7.9 1.9 0 8 1.9 0 8.1 1.9 0 8.2 1.9 0 8.3 1.9 0 8.4 1.9 0 8.5 1.9 0 8.6 1.9 0 8.7 1.9 0 8.8 1.9 0 8.9 1.9 0 9 1.9 0 9.1 1.9 0 9.2 1.9 0 9.3 1.9 0 9.4 1.9 0 9.5 1.9 0 9.6 1.9 0 9.7 1.9 0 9.8 1.9 0 9.9 1.9 0 10 1.9 0 0 2 0 0.1 2 0 0.2 2 0 0.3 2 0 0.4 2 0 0.5 2 0 0.6 2 0 0.7 2 0 0.8 2 0 0.9 2 0 1 2 0 1.1 2 0 1.2 2 0 1.3 2 0 1.4 2 0 1.5 2 0 1.6 2 0 1.7 2 0 1.8 2 0 1.9 2 0 2 2 0 2.1 2 0 2.2 2 0 2.3 2 0 2.4 2 0 2.5 2 0 2.6 2 0 2.7 2 0 2.8 2 0 2.9 2 0 3 2 0 3.1 2 0 3.2 2 0 3.3 2 0 3.4 2 0 3.5 2 0 3.6 2 0 3.7 2 0 3.8 2 0 3.9 2 0 4 2 0 4.1 2 0 4.2 2 0 4.3 2 0 4.4 2 0 4.5 2 0 4.6 2 0 4.7 2 0 4.8 2 0 4.9 2 0 5 2 0 5.1 2 0 5.2 2 0 5.3 2 0 5.4 2 0 5.5 2 0 5.6 2 0 5.7 2 0 5.8 2 0 5.9 2 0 6 2 0 6.1 2 0 6.2 2 0 6.3 2 0 6.4 2 0 6.5 2 0 6.6 2 0 6.7 2 0 6.8 2 0 6.9 2 0 7 2 0 7.1 2 0 7.2 2 0 7.3 2 0 7.4 2 0 7.5 2 0 7.6 2 0 7.7 2 0 7.8 2 0 7.9 2 0 8 2 0 8.1 2 0 8.2 2 0 8.3 2 0 8.4 2 0 8.5 2 0 8.6 2 0 8.7 2 0 8.8 2 0 8.9 2 0 9 2 0 9.1 2 0 9.2 2 0 9.3 2 0 9.4 2 0 9.5 2 0 9.6 2 0 9.7 2 0 9.8 2 0 9.9 2 0 10 2 0 0 2.1 0 0.1 2.1 0 0.2 2.1 0 0.3 2.1 0 0.4 2.1 0 0.5 2.1 0 0.6 2.1 0 0.7 2.1 0 0.8 2.1 0 0.9 2.1 0 1 2.1 0 1.1 2.1 0 1.2 2.1 0 1.3 2.1 0 1.4 2.1 0 1.5 2.1 0 1.6 2.1 0 1.7 2.1 0 1.8 2.1 0 1.9 2.1 0 2 2.1 0 2.1 2.1 0 2.2 2.1 0 2.3 2.1 0 2.4 2.1 0 2.5 2.1 0 2.6 2.1 0 2.7 2.1 0 2.8 2.1 0 2.9 2.1 0 3 2.1 0 3.1 2.1 0 3.2 2.1 0 3.3 2.1 0 3.4 2.1 0 3.5 2.1 0 3.6 2.1 0 3.7 2.1 0 3.8 2.1 0 3.9 2.1 0 4 2.1 0 4.1 2.1 0 4.2 2.1 0 4.3 2.1 0 4.4 2.1 0 4.5 2.1 0 4.6 2.1 0 4.7 2.1 0 4.8 2.1 0 4.9 2.1 0 5 2.1 0 5.1 2.1 0 5.2 2.1 0 5.3 2.1 0 5.4 2.1 0 5.5 2.1 0 5.6 2.1 0 5.7 2.1 0 5.8 2.1 0 5.9 2.1 0 6 2.1 0 6.1 2.1 0 6.2 2.1 0 6.3 2.1 0 6.4 2.1 0 6.5 2.1 0 6.6 2.1 0 6.7 2.1 0 6.8 2.1 0 6.9 2.1 0 7 2.1 0 7.1 2.1 0 7.2 2.1 0 7.3 2.1 0 7.4 2.1 0 7.5 2.1 0 7.6 2.1 0 7.7 2.1 0 7.8 2.1 0 7.9 2.1 0 8 2.1 0 8.1 2.1 0 8.2 2.1 0 8.3 2.1 0 8.4 2.1 0 8.5 2.1 0 8.6 2.1 0 8.7 2.1 0 8.8 2.1 0 8.9 2.1 0 9 2.1 0 9.1 2.1 0 9.2 2.1 0 9.3 2.1 0 9.4 2.1 0 9.5 2.1 0 9.6 2.1 0 9.7 2.1 0 9.8 2.1 0 9.9 2.1 0 10 2.1 0 0 2.2 0 0.1 2.2 0 0.2 2.2 0 0.3 2.2 0 0.4 2.2 0 0.5 2.2 0 0.6 2.2 0 0.7 2.2 0 0.8 2.2 0 0.9 2.2 0 1 2.2 0 1.1 2.2 0 1.2 2.2 0 1.3 2.2 0 1.4 2.2 0 1.5 2.2 0 1.6 2.2 0 1.7 2.2 0 1.8 2.2 0 1.9 2.2 0 2 2.2 0 2.1 2.2 0 2.2 2.2 0 2.3 2.2 0 2.4 2.2 0 2.5 2.2 0 2.6 2.2 0 2.7 2.2 0 2.8 2.2 0 2.9 2.2 0 3 2.2 0 3.1 2.2 0 3.2 2.2 0 3.3 2.2 0 3.4 2.2 0 3.5 2.2 0 3.6 2.2 0 3.7 2.2 0 3.8 2.2 0 3.9 2.2 0 4 2.2 0 4.1 2.2 0 4.2 2.2 0 4.3 2.2 0 4.4 2.2 0 4.5 2.2 0 4.6 2.2 0 4.7 2.2 0 4.8 2.2 0 4.9 2.2 0 5 2.2 0 5.1 2.2 0 5.2 2.2 0 5.3 2.2 0 5.4 2.2 0 5.5 2.2 0 5.6 2.2 0 5.7 2.2 0 5.8 2.2 0 5.9 2.2 0 6 2.2 0 6.1 2.2 0 6.2 2.2 0 6.3 2.2 0 6.4 2.2 0 6.5 2.2 0 6.6 2.2 0 6.7 2.2 0 6.8 2.2 0 6.9 2.2 0 7 2.2 0 7.1 2.2 0 7.2 2.2 0 7.3 2.2 0 7.4 2.2 0 7.5 2.2 0 7.6 2.2 0 7.7 2.2 0 7.8 2.2 0 7.9 2.2 0 8 2.2 0 8.1 2.2 0 8.2 2.2 0 8.3 2.2 0 8.4 2.2 0 8.5 2.2 0 8.6 2.2 0 8.7 2.2 0 8.8 2.2 0 8.9 2.2 0 9 2.2 0 9.1 2.2 0 9.2 2.2 0 9.3 2.2 0 9.4 2.2 0 9.5 2.2 0 9.6 2.2 0 9.7 2.2 0 9.8 2.2 0 9.9 2.2 0 10 2.2 0 0 2.3 0 0.1 2.3 0 0.2 2.3 0 0.3 2.3 0 0.4 2.3 0 0.5 2.3 0 0.6 2.3 0 0.7 2.3 0 0.8 2.3 0 0.9 2.3 0 1 2.3 0 1.1 2.3 0 1.2 2.3 0 1.3 2.3 0 1.4 2.3 0 1.5 2.3 0 1.6 2.3 0 1.7 2.3 0 1.8 2.3 0 1.9 2.3 0 2 2.3 0 2.1 2.3 0 2.2 2.3 0 2.3 2.3 0 2.4 2.3 0 2.5 2.3 0 2.6 2.3 0 2.7 2.3 0 2.8 2.3 0 2.9 2.3 0 3 2.3 0 3.1 2.3 0 3.2 2.3 0 3.3 2.3 0 3.4 2.3 0 3.5 2.3 0 3.6 2.3 0 3.7 2.3 0 3.8 2.3 0 3.9 2.3 0 4 2.3 0 4.1 2.3 0 4.2 2.3 0 4.3 2.3 0 4.4 2.3 0 4.5 2.3 0 4.6 2.3 0 4.7 2.3 0 4.8 2.3 0 4.9 2.3 0 5 2.3 0 5.1 2.3 0 5.2 2.3 0 5.3 2.3 0 5.4 2.3 0 5.5 2.3 0 5.6 2.3 0 5.7 2.3 0 5.8 2.3 0 5.9 2.3 0 6 2.3 0 6.1 2.3 0 6.2 2.3 0 6.3 2.3 0 6.4 2.3 0 6.5 2.3 0 6.6 2.3 0 6.7 2.3 0 6.8 2.3 0 6.9 2.3 0 7 2.3 0 7.1 2.3 0 7.2 2.3 0 7.3 2.3 0 7.4 2.3 0 7.5 2.3 0 7.6 2.3 0 7.7 2.3 0 7.8 2.3 0 7.9 2.3 0 8 2.3 0 8.1 2.3 0 8.2 2.3 0 8.3 2.3 0 8.4 2.3 0 8.5 2.3 0 8.6 2.3 0 8.7 2.3 0 8.8 2.3 0 8.9 2.3 0 9 2.3 0 9.1 2.3 0 9.2 2.3 0 9.3 2.3 0 9.4 2.3 0 9.5 2.3 0 9.6 2.3 0 9.7 2.3 0 9.8 2.3 0 9.9 2.3 0 10 2.3 0 0 2.4 0 0.1 2.4 0 0.2 2.4 0 0.3 2.4 0 0.4 2.4 0 0.5 2.4 0 0.6 2.4 0 0.7 2.4 0 0.8 2.4 0 0.9 2.4 0 1 2.4 0 1.1 2.4 0 1.2 2.4 0 1.3 2.4 0 1.4 2.4 0 1.5 2.4 0 1.6 2.4 0 1.7 2.4 0 1.8 2.4 0 1.9 2.4 0 2 2.4 0 2.1 2.4 0 2.2 2.4 0 2.3 2.4 0 2.4 2.4 0 2.5 2.4 0 2.6 2.4 0 2.7 2.4 0 2.8 2.4 0 2.9 2.4 0 3 2.4 0 3.1 2.4 0 3.2 2.4 0 3.3 2.4 0 3.4 2.4 0 3.5 2.4 0 3.6 2.4 0 3.7 2.4 0 3.8 2.4 0 3.9 2.4 0 4 2.4 0 4.1 2.4 0 4.2 2.4 0 4.3 2.4 0 4.4 2.4 0 4.5 2.4 0 4.6 2.4 0 4.7 2.4 0 4.8 2.4 0 4.9 2.4 0 5 2.4 0 5.1 2.4 0 5.2 2.4 0 5.3 2.4 0 5.4 2.4 0 5.5 2.4 0 5.6 2.4 0 5.7 2.4 0 5.8 2.4 0 5.9 2.4 0 6 2.4 0 6.1 2.4 0 6.2 2.4 0 6.3 2.4 0 6.4 2.4 0 6.5 2.4 0 6.6 2.4 0 6.7 2.4 0 6.8 2.4 0 6.9 2.4 0 7 2.4 0 7.1 2.4 0 7.2 2.4 0 7.3 2.4 0 7.4 2.4 0 7.5 2.4 0 7.6 2.4 0 7.7 2.4 0 7.8 2.4 0 7.9 2.4 0 8 2.4 0 8.1 2.4 0 8.2 2.4 0 8.3 2.4 0 8.4 2.4 0 8.5 2.4 0 8.6 2.4 0 8.7 2.4 0 8.8 2.4 0 8.9 2.4 0 9 2.4 0 9.1 2.4 0 9.2 2.4 0 9.3 2.4 0 9.4 2.4 0 9.5 2.4 0 9.6 2.4 0 9.7 2.4 0 9.8 2.4 0 9.9 2.4 0 10 2.4 0 0 2.5 0 0.1 2.5 0 0.2 2.5 0 0.3 2.5 0 0.4 2.5 0 0.5 2.5 0 0.6 2.5 0 0.7 2.5 0 0.8 2.5 0 0.9 2.5 0 1 2.5 0 1.1 2.5 0 1.2 2.5 0 1.3 2.5 0 1.4 2.5 0 1.5 2.5 0 1.6 2.5 0 1.7 2.5 0 1.8 2.5 0 1.9 2.5 0 2 2.5 0 2.1 2.5 0 2.2 2.5 0 2.3 2.5 0 2.4 2.5 0 2.5 2.5 0 2.6 2.5 0 2.7 2.5 0 2.8 2.5 0 2.9 2.5 0 3 2.5 0 3.1 2.5 0 3.2 2.5 0 3.3 2.5 0 3.4 2.5 0 3.5 2.5 0 3.6 2.5 0 3.7 2.5 0 3.8 2.5 0 3.9 2.5 0 4 2.5 0 4.1 2.5 0 4.2 2.5 0 4.3 2.5 0 4.4 2.5 0 4.5 2.5 0 4.6 2.5 0 4.7 2.5 0 4.8 2.5 0 4.9 2.5 0 5 2.5 0 5.1 2.5 0 5.2 2.5 0 5.3 2.5 0 5.4 2.5 0 5.5 2.5 0 5.6 2.5 0 5.7 2.5 0 5.8 2.5 0 5.9 2.5 0 6 2.5 0 6.1 2.5 0 6.2 2.5 0 6.3 2.5 0 6.4 2.5 0 6.5 2.5 0 6.6 2.5 0 6.7 2.5 0 6.8 2.5 0 6.9 2.5 0 7 2.5 0 7.1 2.5 0 7.2 2.5 0 7.3 2.5 0 7.4 2.5 0 7.5 2.5 0 7.6 2.5 0 7.7 2.5 0 7.8 2.5 0 7.9 2.5 0 8 2.5 0 8.1 2.5 0 8.2 2.5 0 8.3 2.5 0 8.4 2.5 0 8.5 2.5 0 8.6 2.5 0 8.7 2.5 0 8.8 2.5 0 8.9 2.5 0 9 2.5 0 9.1 2.5 0 9.2 2.5 0 9.3 2.5 0 9.4 2.5 0 9.5 2.5 0 9.6 2.5 0 9.7 2.5 0 9.8 2.5 0 9.9 2.5 0 10 2.5 0 0 2.6 0 0.1 2.6 0 0.2 2.6 0 0.3 2.6 0 0.4 2.6 0 0.5 2.6 0 0.6 2.6 0 0.7 2.6 0 0.8 2.6 0 0.9 2.6 0 1 2.6 0 1.1 2.6 0 1.2 2.6 0 1.3 2.6 0 1.4 2.6 0 1.5 2.6 0 1.6 2.6 0 1.7 2.6 0 1.8 2.6 0 1.9 2.6 0 2 2.6 0 2.1 2.6 0 2.2 2.6 0 2.3 2.6 0 2.4 2.6 0 2.5 2.6 0 2.6 2.6 0 2.7 2.6 0 2.8 2.6 0 2.9 2.6 0 3 2.6 0 3.1 2.6 0 3.2 2.6 0 3.3 2.6 0 3.4 2.6 0 3.5 2.6 0 3.6 2.6 0 3.7 2.6 0 3.8 2.6 0 3.9 2.6 0 4 2.6 0 4.1 2.6 0 4.2 2.6 0 4.3 2.6 0 4.4 2.6 0 4.5 2.6 0 4.6 2.6 0 4.7 2.6 0 4.8 2.6 0 4.9 2.6 0 5 2.6 0 5.1 2.6 0 5.2 2.6 0 5.3 2.6 0 5.4 2.6 0 5.5 2.6 0 5.6 2.6 0 5.7 2.6 0 5.8 2.6 0 5.9 2.6 0 6 2.6 0 6.1 2.6 0 6.2 2.6 0 6.3 2.6 0 6.4 2.6 0 6.5 2.6 0 6.6 2.6 0 6.7 2.6 0 6.8 2.6 0 6.9 2.6 0 7 2.6 0 7.1 2.6 0 7.2 2.6 0 7.3 2.6 0 7.4 2.6 0 7.5 2.6 0 7.6 2.6 0 7.7 2.6 0 7.8 2.6 0 7.9 2.6 0 8 2.6 0 8.1 2.6 0 8.2 2.6 0 8.3 2.6 0 8.4 2.6 0 8.5 2.6 0 8.6 2.6 0 8.7 2.6 0 8.8 2.6 0 8.9 2.6 0 9 2.6 0 9.1 2.6 0 9.2 2.6 0 9.3 2.6 0 9.4 2.6 0 9.5 2.6 0 9.6 2.6 0 9.7 2.6 0 9.8 2.6 0 9.9 2.6 0 10 2.6 0 0 2.7 0 0.1 2.7 0 0.2 2.7 0 0.3 2.7 0 0.4 2.7 0 0.5 2.7 0 0.6 2.7 0 0.7 2.7 0 0.8 2.7 0 0.9 2.7 0 1 2.7 0 1.1 2.7 0 1.2 2.7 0 1.3 2.7 0 1.4 2.7 0 1.5 2.7 0 1.6 2.7 0 1.7 2.7 0 1.8 2.7 0 1.9 2.7 0 2 2.7 0 2.1 2.7 0 2.2 2.7 0 2.3 2.7 0 2.4 2.7 0 2.5 2.7 0 2.6 2.7 0 2.7 2.7 0 2.8 2.7 0 2.9 2.7 0 3 2.7 0 3.1 2.7 0 3.2 2.7 0 3.3 2.7 0 3.4 2.7 0 3.5 2.7 0 3.6 2.7 0 3.7 2.7 0 3.8 2.7 0 3.9 2.7 0 4 2.7 0 4.1 2.7 0 4.2 2.7 0 4.3 2.7 0 4.4 2.7 0 4.5 2.7 0 4.6 2.7 0 4.7 2.7 0 4.8 2.7 0 4.9 2.7 0 5 2.7 0 5.1 2.7 0 5.2 2.7 0 5.3 2.7 0 5.4 2.7 0 5.5 2.7 0 5.6 2.7 0 5.7 2.7 0 5.8 2.7 0 5.9 2.7 0 6 2.7 0 6.1 2.7 0 6.2 2.7 0 6.3 2.7 0 6.4 2.7 0 6.5 2.7 0 6.6 2.7 0 6.7 2.7 0 6.8 2.7 0 6.9 2.7 0 7 2.7 0 7.1 2.7 0 7.2 2.7 0 7.3 2.7 0 7.4 2.7 0 7.5 2.7 0 7.6 2.7 0 7.7 2.7 0 7.8 2.7 0 7.9 2.7 0 8 2.7 0 8.1 2.7 0 8.2 2.7 0 8.3 2.7 0 8.4 2.7 0 8.5 2.7 0 8.6 2.7 0 8.7 2.7 0 8.8 2.7 0 8.9 2.7 0 9 2.7 0 9.1 2.7 0 9.2 2.7 0 9.3 2.7 0 9.4 2.7 0 9.5 2.7 0 9.6 2.7 0 9.7 2.7 0 9.8 2.7 0 9.9 2.7 0 10 2.7 0 0 2.8 0 0.1 2.8 0 0.2 2.8 0 0.3 2.8 0 0.4 2.8 0 0.5 2.8 0 0.6 2.8 0 0.7 2.8 0 0.8 2.8 0 0.9 2.8 0 1 2.8 0 1.1 2.8 0 1.2 2.8 0 1.3 2.8 0 1.4 2.8 0 1.5 2.8 0 1.6 2.8 0 1.7 2.8 0 1.8 2.8 0 1.9 2.8 0 2 2.8 0 2.1 2.8 0 2.2 2.8 0 2.3 2.8 0 2.4 2.8 0 2.5 2.8 0 2.6 2.8 0 2.7 2.8 0 2.8 2.8 0 2.9 2.8 0 3 2.8 0 3.1 2.8 0 3.2 2.8 0 3.3 2.8 0 3.4 2.8 0 3.5 2.8 0 3.6 2.8 0 3.7 2.8 0 3.8 2.8 0 3.9 2.8 0 4 2.8 0 4.1 2.8 0 4.2 2.8 0 4.3 2.8 0 4.4 2.8 0 4.5 2.8 0 4.6 2.8 0 4.7 2.8 0 4.8 2.8 0 4.9 2.8 0 5 2.8 0 5.1 2.8 0 5.2 2.8 0 5.3 2.8 0 5.4 2.8 0 5.5 2.8 0 5.6 2.8 0 5.7 2.8 0 5.8 2.8 0 5.9 2.8 0 6 2.8 0 6.1 2.8 0 6.2 2.8 0 6.3 2.8 0 6.4 2.8 0 6.5 2.8 0 6.6 2.8 0 6.7 2.8 0 6.8 2.8 0 6.9 2.8 0 7 2.8 0 7.1 2.8 0 7.2 2.8 0 7.3 2.8 0 7.4 2.8 0 7.5 2.8 0 7.6 2.8 0 7.7 2.8 0 7.8 2.8 0 7.9 2.8 0 8 2.8 0 8.1 2.8 0 8.2 2.8 0 8.3 2.8 0 8.4 2.8 0 8.5 2.8 0 8.6 2.8 0 8.7 2.8 0 8.8 2.8 0 8.9 2.8 0 9 2.8 0 9.1 2.8 0 9.2 2.8 0 9.3 2.8 0 9.4 2.8 0 9.5 2.8 0 9.6 2.8 0 9.7 2.8 0 9.8 2.8 0 9.9 2.8 0 10 2.8 0 0 2.9 0 0.1 2.9 0 0.2 2.9 0 0.3 2.9 0 0.4 2.9 0 0.5 2.9 0 0.6 2.9 0 0.7 2.9 0 0.8 2.9 0 0.9 2.9 0 1 2.9 0 1.1 2.9 0 1.2 2.9 0 1.3 2.9 0 1.4 2.9 0 1.5 2.9 0 1.6 2.9 0 1.7 2.9 0 1.8 2.9 0 1.9 2.9 0 2 2.9 0 2.1 2.9 0 2.2 2.9 0 2.3 2.9 0 2.4 2.9 0 2.5 2.9 0 2.6 2.9 0 2.7 2.9 0 2.8 2.9 0 2.9 2.9 0 3 2.9 0 3.1 2.9 0 3.2 2.9 0 3.3 2.9 0 3.4 2.9 0 3.5 2.9 0 3.6 2.9 0 3.7 2.9 0 3.8 2.9 0 3.9 2.9 0 4 2.9 0 4.1 2.9 0 4.2 2.9 0 4.3 2.9 0 4.4 2.9 0 4.5 2.9 0 4.6 2.9 0 4.7 2.9 0 4.8 2.9 0 4.9 2.9 0 5 2.9 0 5.1 2.9 0 5.2 2.9 0 5.3 2.9 0 5.4 2.9 0 5.5 2.9 0 5.6 2.9 0 5.7 2.9 0 5.8 2.9 0 5.9 2.9 0 6 2.9 0 6.1 2.9 0 6.2 2.9 0 6.3 2.9 0 6.4 2.9 0 6.5 2.9 0 6.6 2.9 0 6.7 2.9 0 6.8 2.9 0 6.9 2.9 0 7 2.9 0 7.1 2.9 0 7.2 2.9 0 7.3 2.9 0 7.4 2.9 0 7.5 2.9 0 7.6 2.9 0 7.7 2.9 0 7.8 2.9 0 7.9 2.9 0 8 2.9 0 8.1 2.9 0 8.2 2.9 0 8.3 2.9 0 8.4 2.9 0 8.5 2.9 0 8.6 2.9 0 8.7 2.9 0 8.8 2.9 0 8.9 2.9 0 9 2.9 0 9.1 2.9 0 9.2 2.9 0 9.3 2.9 0 9.4 2.9 0 9.5 2.9 0 9.6 2.9 0 9.7 2.9 0 9.8 2.9 0 9.9 2.9 0 10 2.9 0 0 3 0 0.1 3 0 0.2 3 0 0.3 3 0 0.4 3 0 0.5 3 0 0.6 3 0 0.7 3 0 0.8 3 0 0.9 3 0 1 3 0 1.1 3 0 1.2 3 0 1.3 3 0 1.4 3 0 1.5 3 0 1.6 3 0 1.7 3 0 1.8 3 0 1.9 3 0 2 3 0 2.1 3 0 2.2 3 0 2.3 3 0 2.4 3 0 2.5 3 0 2.6 3 0 2.7 3 0 2.8 3 0 2.9 3 0 3 3 0 3.1 3 0 3.2 3 0 3.3 3 0 3.4 3 0 3.5 3 0 3.6 3 0 3.7 3 0 3.8 3 0 3.9 3 0 4 3 0 4.1 3 0 4.2 3 0 4.3 3 0 4.4 3 0 4.5 3 0 4.6 3 0 4.7 3 0 4.8 3 0 4.9 3 0 5 3 0 5.1 3 0 5.2 3 0 5.3 3 0 5.4 3 0 5.5 3 0 5.6 3 0 5.7 3 0 5.8 3 0 5.9 3 0 6 3 0 6.1 3 0 6.2 3 0 6.3 3 0 6.4 3 0 6.5 3 0 6.6 3 0 6.7 3 0 6.8 3 0 6.9 3 0 7 3 0 7.1 3 0 7.2 3 0 7.3 3 0 7.4 3 0 7.5 3 0 7.6 3 0 7.7 3 0 7.8 3 0 7.9 3 0 8 3 0 8.1 3 0 8.2 3 0 8.3 3 0 8.4 3 0 8.5 3 0 8.6 3 0 8.7 3 0 8.8 3 0 8.9 3 0 9 3 0 9.1 3 0 9.2 3 0 9.3 3 0 9.4 3 0 9.5 3 0 9.6 3 0 9.7 3 0 9.8 3 0 9.9 3 0 10 3 0 0 3.1 0 0.1 3.1 0 0.2 3.1 0 0.3 3.1 0 0.4 3.1 0 0.5 3.1 0 0.6 3.1 0 0.7 3.1 0 0.8 3.1 0 0.9 3.1 0 1 3.1 0 1.1 3.1 0 1.2 3.1 0 1.3 3.1 0 1.4 3.1 0 1.5 3.1 0 1.6 3.1 0 1.7 3.1 0 1.8 3.1 0 1.9 3.1 0 2 3.1 0 2.1 3.1 0 2.2 3.1 0 2.3 3.1 0 2.4 3.1 0 2.5 3.1 0 2.6 3.1 0 2.7 3.1 0 2.8 3.1 0 2.9 3.1 0 3 3.1 0 3.1 3.1 0 3.2 3.1 0 3.3 3.1 0 3.4 3.1 0 3.5 3.1 0 3.6 3.1 0 3.7 3.1 0 3.8 3.1 0 3.9 3.1 0 4 3.1 0 4.1 3.1 0 4.2 3.1 0 4.3 3.1 0 4.4 3.1 0 4.5 3.1 0 4.6 3.1 0 4.7 3.1 0 4.8 3.1 0 4.9 3.1 0 5 3.1 0 5.1 3.1 0 5.2 3.1 0 5.3 3.1 0 5.4 3.1 0 5.5 3.1 0 5.6 3.1 0 5.7 3.1 0 5.8 3.1 0 5.9 3.1 0 6 3.1 0 6.1 3.1 0 6.2 3.1 0 6.3 3.1 0 6.4 3.1 0 6.5 3.1 0 6.6 3.1 0 6.7 3.1 0 6.8 3.1 0 6.9 3.1 0 7 3.1 0 7.1 3.1 0 7.2 3.1 0 7.3 3.1 0 7.4 3.1 0 7.5 3.1 0 7.6 3.1 0 7.7 3.1 0 7.8 3.1 0 7.9 3.1 0 8 3.1 0 8.1 3.1 0 8.2 3.1 0 8.3 3.1 0 8.4 3.1 0 8.5 3.1 0 8.6 3.1 0 8.7 3.1 0 8.8 3.1 0 8.9 3.1 0 9 3.1 0 9.1 3.1 0 9.2 3.1 0 9.3 3.1 0 9.4 3.1 0 9.5 3.1 0 9.6 3.1 0 9.7 3.1 0 9.8 3.1 0 9.9 3.1 0 10 3.1 0 0 3.2 0 0.1 3.2 0 0.2 3.2 0 0.3 3.2 0 0.4 3.2 0 0.5 3.2 0 0.6 3.2 0 0.7 3.2 0 0.8 3.2 0 0.9 3.2 0 1 3.2 0 1.1 3.2 0 1.2 3.2 0 1.3 3.2 0 1.4 3.2 0 1.5 3.2 0 1.6 3.2 0 1.7 3.2 0 1.8 3.2 0 1.9 3.2 0 2 3.2 0 2.1 3.2 0 2.2 3.2 0 2.3 3.2 0 2.4 3.2 0 2.5 3.2 0 2.6 3.2 0 2.7 3.2 0 2.8 3.2 0 2.9 3.2 0 3 3.2 0 3.1 3.2 0 3.2 3.2 0 3.3 3.2 0 3.4 3.2 0 3.5 3.2 0 3.6 3.2 0 3.7 3.2 0 3.8 3.2 0 3.9 3.2 0 4 3.2 0 4.1 3.2 0 4.2 3.2 0 4.3 3.2 0 4.4 3.2 0 4.5 3.2 0 4.6 3.2 0 4.7 3.2 0 4.8 3.2 0 4.9 3.2 0 5 3.2 0 5.1 3.2 0 5.2 3.2 0 5.3 3.2 0 5.4 3.2 0 5.5 3.2 0 5.6 3.2 0 5.7 3.2 0 5.8 3.2 0 5.9 3.2 0 6 3.2 0 6.1 3.2 0 6.2 3.2 0 6.3 3.2 0 6.4 3.2 0 6.5 3.2 0 6.6 3.2 0 6.7 3.2 0 6.8 3.2 0 6.9 3.2 0 7 3.2 0 7.1 3.2 0 7.2 3.2 0 7.3 3.2 0 7.4 3.2 0 7.5 3.2 0 7.6 3.2 0 7.7 3.2 0 7.8 3.2 0 7.9 3.2 0 8 3.2 0 8.1 3.2 0 8.2 3.2 0 8.3 3.2 0 8.4 3.2 0 8.5 3.2 0 8.6 3.2 0 8.7 3.2 0 8.8 3.2 0 8.9 3.2 0 9 3.2 0 9.1 3.2 0 9.2 3.2 0 9.3 3.2 0 9.4 3.2 0 9.5 3.2 0 9.6 3.2 0 9.7 3.2 0 9.8 3.2 0 9.9 3.2 0 10 3.2 0 0 3.3 0 0.1 3.3 0 0.2 3.3 0 0.3 3.3 0 0.4 3.3 0 0.5 3.3 0 0.6 3.3 0 0.7 3.3 0 0.8 3.3 0 0.9 3.3 0 1 3.3 0 1.1 3.3 0 1.2 3.3 0 1.3 3.3 0 1.4 3.3 0 1.5 3.3 0 1.6 3.3 0 1.7 3.3 0 1.8 3.3 0 1.9 3.3 0 2 3.3 0 2.1 3.3 0 2.2 3.3 0 2.3 3.3 0 2.4 3.3 0 2.5 3.3 0 2.6 3.3 0 2.7 3.3 0 2.8 3.3 0 2.9 3.3 0 3 3.3 0 3.1 3.3 0 3.2 3.3 0 3.3 3.3 0 3.4 3.3 0 3.5 3.3 0 3.6 3.3 0 3.7 3.3 0 3.8 3.3 0 3.9 3.3 0 4 3.3 0 4.1 3.3 0 4.2 3.3 0 4.3 3.3 0 4.4 3.3 0 4.5 3.3 0 4.6 3.3 0 4.7 3.3 0 4.8 3.3 0 4.9 3.3 0 5 3.3 0 5.1 3.3 0 5.2 3.3 0 5.3 3.3 0 5.4 3.3 0 5.5 3.3 0 5.6 3.3 0 5.7 3.3 0 5.8 3.3 0 5.9 3.3 0 6 3.3 0 6.1 3.3 0 6.2 3.3 0 6.3 3.3 0 6.4 3.3 0 6.5 3.3 0 6.6 3.3 0 6.7 3.3 0 6.8 3.3 0 6.9 3.3 0 7 3.3 0 7.1 3.3 0 7.2 3.3 0 7.3 3.3 0 7.4 3.3 0 7.5 3.3 0 7.6 3.3 0 7.7 3.3 0 7.8 3.3 0 7.9 3.3 0 8 3.3 0 8.1 3.3 0 8.2 3.3 0 8.3 3.3 0 8.4 3.3 0 8.5 3.3 0 8.6 3.3 0 8.7 3.3 0 8.8 3.3 0 8.9 3.3 0 9 3.3 0 9.1 3.3 0 9.2 3.3 0 9.3 3.3 0 9.4 3.3 0 9.5 3.3 0 9.6 3.3 0 9.7 3.3 0 9.8 3.3 0 9.9 3.3 0 10 3.3 0 0 3.4 0 0.1 3.4 0 0.2 3.4 0 0.3 3.4 0 0.4 3.4 0 0.5 3.4 0 0.6 3.4 0 0.7 3.4 0 0.8 3.4 0 0.9 3.4 0 1 3.4 0 1.1 3.4 0 1.2 3.4 0 1.3 3.4 0 1.4 3.4 0 1.5 3.4 0 1.6 3.4 0 1.7 3.4 0 1.8 3.4 0 1.9 3.4 0 2 3.4 0 2.1 3.4 0 2.2 3.4 0 2.3 3.4 0 2.4 3.4 0 2.5 3.4 0 2.6 3.4 0 2.7 3.4 0 2.8 3.4 0 2.9 3.4 0 3 3.4 0 3.1 3.4 0 3.2 3.4 0 3.3 3.4 0 3.4 3.4 0 3.5 3.4 0 3.6 3.4 0 3.7 3.4 0 3.8 3.4 0 3.9 3.4 0 4 3.4 0 4.1 3.4 0 4.2 3.4 0 4.3 3.4 0 4.4 3.4 0 4.5 3.4 0 4.6 3.4 0 4.7 3.4 0 4.8 3.4 0 4.9 3.4 0 5 3.4 0 5.1 3.4 0 5.2 3.4 0 5.3 3.4 0 5.4 3.4 0 5.5 3.4 0 5.6 3.4 0 5.7 3.4 0 5.8 3.4 0 5.9 3.4 0 6 3.4 0 6.1 3.4 0 6.2 3.4 0 6.3 3.4 0 6.4 3.4 0 6.5 3.4 0 6.6 3.4 0 6.7 3.4 0 6.8 3.4 0 6.9 3.4 0 7 3.4 0 7.1 3.4 0 7.2 3.4 0 7.3 3.4 0 7.4 3.4 0 7.5 3.4 0 7.6 3.4 0 7.7 3.4 0 7.8 3.4 0 7.9 3.4 0 8 3.4 0 8.1 3.4 0 8.2 3.4 0 8.3 3.4 0 8.4 3.4 0 8.5 3.4 0 8.6 3.4 0 8.7 3.4 0 8.8 3.4 0 8.9 3.4 0 9 3.4 0 9.1 3.4 0 9.2 3.4 0 9.3 3.4 0 9.4 3.4 0 9.5 3.4 0 9.6 3.4 0 9.7 3.4 0 9.8 3.4 0 9.9 3.4 0 10 3.4 0 0 3.5 0 0.1 3.5 0 0.2 3.5 0 0.3 3.5 0 0.4 3.5 0 0.5 3.5 0 0.6 3.5 0 0.7 3.5 0 0.8 3.5 0 0.9 3.5 0 1 3.5 0 1.1 3.5 0 1.2 3.5 0 1.3 3.5 0 1.4 3.5 0 1.5 3.5 0 1.6 3.5 0 1.7 3.5 0 1.8 3.5 0 1.9 3.5 0 2 3.5 0 2.1 3.5 0 2.2 3.5 0 2.3 3.5 0 2.4 3.5 0 2.5 3.5 0 2.6 3.5 0 2.7 3.5 0 2.8 3.5 0 2.9 3.5 0 3 3.5 0 3.1 3.5 0 3.2 3.5 0 3.3 3.5 0 3.4 3.5 0 3.5 3.5 0 3.6 3.5 0 3.7 3.5 0 3.8 3.5 0 3.9 3.5 0 4 3.5 0 4.1 3.5 0 4.2 3.5 0 4.3 3.5 0 4.4 3.5 0 4.5 3.5 0 4.6 3.5 0 4.7 3.5 0 4.8 3.5 0 4.9 3.5 0 5 3.5 0 5.1 3.5 0 5.2 3.5 0 5.3 3.5 0 5.4 3.5 0 5.5 3.5 0 5.6 3.5 0 5.7 3.5 0 5.8 3.5 0 5.9 3.5 0 6 3.5 0 6.1 3.5 0 6.2 3.5 0 6.3 3.5 0 6.4 3.5 0 6.5 3.5 0 6.6 3.5 0 6.7 3.5 0 6.8 3.5 0 6.9 3.5 0 7 3.5 0 7.1 3.5 0 7.2 3.5 0 7.3 3.5 0 7.4 3.5 0 7.5 3.5 0 7.6 3.5 0 7.7 3.5 0 7.8 3.5 0 7.9 3.5 0 8 3.5 0 8.1 3.5 0 8.2 3.5 0 8.3 3.5 0 8.4 3.5 0 8.5 3.5 0 8.6 3.5 0 8.7 3.5 0 8.8 3.5 0 8.9 3.5 0 9 3.5 0 9.1 3.5 0 9.2 3.5 0 9.3 3.5 0 9.4 3.5 0 9.5 3.5 0 9.6 3.5 0 9.7 3.5 0 9.8 3.5 0 9.9 3.5 0 10 3.5 0 0 3.6 0 0.1 3.6 0 0.2 3.6 0 0.3 3.6 0 0.4 3.6 0 0.5 3.6 0 0.6 3.6 0 0.7 3.6 0 0.8 3.6 0 0.9 3.6 0 1 3.6 0 1.1 3.6 0 1.2 3.6 0 1.3 3.6 0 1.4 3.6 0 1.5 3.6 0 1.6 3.6 0 1.7 3.6 0 1.8 3.6 0 1.9 3.6 0 2 3.6 0 2.1 3.6 0 2.2 3.6 0 2.3 3.6 0 2.4 3.6 0 2.5 3.6 0 2.6 3.6 0 2.7 3.6 0 2.8 3.6 0 2.9 3.6 0 3 3.6 0 3.1 3.6 0 3.2 3.6 0 3.3 3.6 0 3.4 3.6 0 3.5 3.6 0 3.6 3.6 0 3.7 3.6 0 3.8 3.6 0 3.9 3.6 0 4 3.6 0 4.1 3.6 0 4.2 3.6 0 4.3 3.6 0 4.4 3.6 0 4.5 3.6 0 4.6 3.6 0 4.7 3.6 0 4.8 3.6 0 4.9 3.6 0 5 3.6 0 5.1 3.6 0 5.2 3.6 0 5.3 3.6 0 5.4 3.6 0 5.5 3.6 0 5.6 3.6 0 5.7 3.6 0 5.8 3.6 0 5.9 3.6 0 6 3.6 0 6.1 3.6 0 6.2 3.6 0 6.3 3.6 0 6.4 3.6 0 6.5 3.6 0 6.6 3.6 0 6.7 3.6 0 6.8 3.6 0 6.9 3.6 0 7 3.6 0 7.1 3.6 0 7.2 3.6 0 7.3 3.6 0 7.4 3.6 0 7.5 3.6 0 7.6 3.6 0 7.7 3.6 0 7.8 3.6 0 7.9 3.6 0 8 3.6 0 8.1 3.6 0 8.2 3.6 0 8.3 3.6 0 8.4 3.6 0 8.5 3.6 0 8.6 3.6 0 8.7 3.6 0 8.8 3.6 0 8.9 3.6 0 9 3.6 0 9.1 3.6 0 9.2 3.6 0 9.3 3.6 0 9.4 3.6 0 9.5 3.6 0 9.6 3.6 0 9.7 3.6 0 9.8 3.6 0 9.9 3.6 0 10 3.6 0 0 3.7 0 0.1 3.7 0 0.2 3.7 0 0.3 3.7 0 0.4 3.7 0 0.5 3.7 0 0.6 3.7 0 0.7 3.7 0 0.8 3.7 0 0.9 3.7 0 1 3.7 0 1.1 3.7 0 1.2 3.7 0 1.3 3.7 0 1.4 3.7 0 1.5 3.7 0 1.6 3.7 0 1.7 3.7 0 1.8 3.7 0 1.9 3.7 0 2 3.7 0 2.1 3.7 0 2.2 3.7 0 2.3 3.7 0 2.4 3.7 0 2.5 3.7 0 2.6 3.7 0 2.7 3.7 0 2.8 3.7 0 2.9 3.7 0 3 3.7 0 3.1 3.7 0 3.2 3.7 0 3.3 3.7 0 3.4 3.7 0 3.5 3.7 0 3.6 3.7 0 3.7 3.7 0 3.8 3.7 0 3.9 3.7 0 4 3.7 0 4.1 3.7 0 4.2 3.7 0 4.3 3.7 0 4.4 3.7 0 4.5 3.7 0 4.6 3.7 0 4.7 3.7 0 4.8 3.7 0 4.9 3.7 0 5 3.7 0 5.1 3.7 0 5.2 3.7 0 5.3 3.7 0 5.4 3.7 0 5.5 3.7 0 5.6 3.7 0 5.7 3.7 0 5.8 3.7 0 5.9 3.7 0 6 3.7 0 6.1 3.7 0 6.2 3.7 0 6.3 3.7 0 6.4 3.7 0 6.5 3.7 0 6.6 3.7 0 6.7 3.7 0 6.8 3.7 0 6.9 3.7 0 7 3.7 0 7.1 3.7 0 7.2 3.7 0 7.3 3.7 0 7.4 3.7 0 7.5 3.7 0 7.6 3.7 0 7.7 3.7 0 7.8 3.7 0 7.9 3.7 0 8 3.7 0 8.1 3.7 0 8.2 3.7 0 8.3 3.7 0 8.4 3.7 0 8.5 3.7 0 8.6 3.7 0 8.7 3.7 0 8.8 3.7 0 8.9 3.7 0 9 3.7 0 9.1 3.7 0 9.2 3.7 0 9.3 3.7 0 9.4 3.7 0 9.5 3.7 0 9.6 3.7 0 9.7 3.7 0 9.8 3.7 0 9.9 3.7 0 10 3.7 0 0 3.8 0 0.1 3.8 0 0.2 3.8 0 0.3 3.8 0 0.4 3.8 0 0.5 3.8 0 0.6 3.8 0 0.7 3.8 0 0.8 3.8 0 0.9 3.8 0 1 3.8 0 1.1 3.8 0 1.2 3.8 0 1.3 3.8 0 1.4 3.8 0 1.5 3.8 0 1.6 3.8 0 1.7 3.8 0 1.8 3.8 0 1.9 3.8 0 2 3.8 0 2.1 3.8 0 2.2 3.8 0 2.3 3.8 0 2.4 3.8 0 2.5 3.8 0 2.6 3.8 0 2.7 3.8 0 2.8 3.8 0 2.9 3.8 0 3 3.8 0 3.1 3.8 0 3.2 3.8 0 3.3 3.8 0 3.4 3.8 0 3.5 3.8 0 3.6 3.8 0 3.7 3.8 0 3.8 3.8 0 3.9 3.8 0 4 3.8 0 4.1 3.8 0 4.2 3.8 0 4.3 3.8 0 4.4 3.8 0 4.5 3.8 0 4.6 3.8 0 4.7 3.8 0 4.8 3.8 0 4.9 3.8 0 5 3.8 0 5.1 3.8 0 5.2 3.8 0 5.3 3.8 0 5.4 3.8 0 5.5 3.8 0 5.6 3.8 0 5.7 3.8 0 5.8 3.8 0 5.9 3.8 0 6 3.8 0 6.1 3.8 0 6.2 3.8 0 6.3 3.8 0 6.4 3.8 0 6.5 3.8 0 6.6 3.8 0 6.7 3.8 0 6.8 3.8 0 6.9 3.8 0 7 3.8 0 7.1 3.8 0 7.2 3.8 0 7.3 3.8 0 7.4 3.8 0 7.5 3.8 0 7.6 3.8 0 7.7 3.8 0 7.8 3.8 0 7.9 3.8 0 8 3.8 0 8.1 3.8 0 8.2 3.8 0 8.3 3.8 0 8.4 3.8 0 8.5 3.8 0 8.6 3.8 0 8.7 3.8 0 8.8 3.8 0 8.9 3.8 0 9 3.8 0 9.1 3.8 0 9.2 3.8 0 9.3 3.8 0 9.4 3.8 0 9.5 3.8 0 9.6 3.8 0 9.7 3.8 0 9.8 3.8 0 9.9 3.8 0 10 3.8 0 0 3.9 0 0.1 3.9 0 0.2 3.9 0 0.3 3.9 0 0.4 3.9 0 0.5 3.9 0 0.6 3.9 0 0.7 3.9 0 0.8 3.9 0 0.9 3.9 0 1 3.9 0 1.1 3.9 0 1.2 3.9 0 1.3 3.9 0 1.4 3.9 0 1.5 3.9 0 1.6 3.9 0 1.7 3.9 0 1.8 3.9 0 1.9 3.9 0 2 3.9 0 2.1 3.9 0 2.2 3.9 0 2.3 3.9 0 2.4 3.9 0 2.5 3.9 0 2.6 3.9 0 2.7 3.9 0 2.8 3.9 0 2.9 3.9 0 3 3.9 0 3.1 3.9 0 3.2 3.9 0 3.3 3.9 0 3.4 3.9 0 3.5 3.9 0 3.6 3.9 0 3.7 3.9 0 3.8 3.9 0 3.9 3.9 0 4 3.9 0 4.1 3.9 0 4.2 3.9 0 4.3 3.9 0 4.4 3.9 0 4.5 3.9 0 4.6 3.9 0 4.7 3.9 0 4.8 3.9 0 4.9 3.9 0 5 3.9 0 5.1 3.9 0 5.2 3.9 0 5.3 3.9 0 5.4 3.9 0 5.5 3.9 0 5.6 3.9 0 5.7 3.9 0 5.8 3.9 0 5.9 3.9 0 6 3.9 0 6.1 3.9 0 6.2 3.9 0 6.3 3.9 0 6.4 3.9 0 6.5 3.9 0 6.6 3.9 0 6.7 3.9 0 6.8 3.9 0 6.9 3.9 0 7 3.9 0 7.1 3.9 0 7.2 3.9 0 7.3 3.9 0 7.4 3.9 0 7.5 3.9 0 7.6 3.9 0 7.7 3.9 0 7.8 3.9 0 7.9 3.9 0 8 3.9 0 8.1 3.9 0 8.2 3.9 0 8.3 3.9 0 8.4 3.9 0 8.5 3.9 0 8.6 3.9 0 8.7 3.9 0 8.8 3.9 0 8.9 3.9 0 9 3.9 0 9.1 3.9 0 9.2 3.9 0 9.3 3.9 0 9.4 3.9 0 9.5 3.9 0 9.6 3.9 0 9.7 3.9 0 9.8 3.9 0 9.9 3.9 0 10 3.9 0 0 4 0 0.1 4 0 0.2 4 0 0.3 4 0 0.4 4 0 0.5 4 0 0.6 4 0 0.7 4 0 0.8 4 0 0.9 4 0 1 4 0 1.1 4 0 1.2 4 0 1.3 4 0 1.4 4 0 1.5 4 0 1.6 4 0 1.7 4 0 1.8 4 0 1.9 4 0 2 4 0 2.1 4 0 2.2 4 0 2.3 4 0 2.4 4 0 2.5 4 0 2.6 4 0 2.7 4 0 2.8 4 0 2.9 4 0 3 4 0 3.1 4 0 3.2 4 0 3.3 4 0 3.4 4 0 3.5 4 0 3.6 4 0 3.7 4 0 3.8 4 0 3.9 4 0 4 4 0 4.1 4 0 4.2 4 0 4.3 4 0 4.4 4 0 4.5 4 0 4.6 4 0 4.7 4 0 4.8 4 0 4.9 4 0 5 4 0 5.1 4 0 5.2 4 0 5.3 4 0 5.4 4 0 5.5 4 0 5.6 4 0 5.7 4 0 5.8 4 0 5.9 4 0 6 4 0 6.1 4 0 6.2 4 0 6.3 4 0 6.4 4 0 6.5 4 0 6.6 4 0 6.7 4 0 6.8 4 0 6.9 4 0 7 4 0 7.1 4 0 7.2 4 0 7.3 4 0 7.4 4 0 7.5 4 0 7.6 4 0 7.7 4 0 7.8 4 0 7.9 4 0 8 4 0 8.1 4 0 8.2 4 0 8.3 4 0 8.4 4 0 8.5 4 0 8.6 4 0 8.7 4 0 8.8 4 0 8.9 4 0 9 4 0 9.1 4 0 9.2 4 0 9.3 4 0 9.4 4 0 9.5 4 0 9.6 4 0 9.7 4 0 9.8 4 0 9.9 4 0 10 4 0 0 4.1 0 0.1 4.1 0 0.2 4.1 0 0.3 4.1 0 0.4 4.1 0 0.5 4.1 0 0.6 4.1 0 0.7 4.1 0 0.8 4.1 0 0.9 4.1 0 1 4.1 0 1.1 4.1 0 1.2 4.1 0 1.3 4.1 0 1.4 4.1 0 1.5 4.1 0 1.6 4.1 0 1.7 4.1 0 1.8 4.1 0 1.9 4.1 0 2 4.1 0 2.1 4.1 0 2.2 4.1 0 2.3 4.1 0 2.4 4.1 0 2.5 4.1 0 2.6 4.1 0 2.7 4.1 0 2.8 4.1 0 2.9 4.1 0 3 4.1 0 3.1 4.1 0 3.2 4.1 0 3.3 4.1 0 3.4 4.1 0 3.5 4.1 0 3.6 4.1 0 3.7 4.1 0 3.8 4.1 0 3.9 4.1 0 4 4.1 0 4.1 4.1 0 4.2 4.1 0 4.3 4.1 0 4.4 4.1 0 4.5 4.1 0 4.6 4.1 0 4.7 4.1 0 4.8 4.1 0 4.9 4.1 0 5 4.1 0 5.1 4.1 0 5.2 4.1 0 5.3 4.1 0 5.4 4.1 0 5.5 4.1 0 5.6 4.1 0 5.7 4.1 0 5.8 4.1 0 5.9 4.1 0 6 4.1 0 6.1 4.1 0 6.2 4.1 0 6.3 4.1 0 6.4 4.1 0 6.5 4.1 0 6.6 4.1 0 6.7 4.1 0 6.8 4.1 0 6.9 4.1 0 7 4.1 0 7.1 4.1 0 7.2 4.1 0 7.3 4.1 0 7.4 4.1 0 7.5 4.1 0 7.6 4.1 0 7.7 4.1 0 7.8 4.1 0 7.9 4.1 0 8 4.1 0 8.1 4.1 0 8.2 4.1 0 8.3 4.1 0 8.4 4.1 0 8.5 4.1 0 8.6 4.1 0 8.7 4.1 0 8.8 4.1 0 8.9 4.1 0 9 4.1 0 9.1 4.1 0 9.2 4.1 0 9.3 4.1 0 9.4 4.1 0 9.5 4.1 0 9.6 4.1 0 9.7 4.1 0 9.8 4.1 0 9.9 4.1 0 10 4.1 0 0 4.2 0 0.1 4.2 0 0.2 4.2 0 0.3 4.2 0 0.4 4.2 0 0.5 4.2 0 0.6 4.2 0 0.7 4.2 0 0.8 4.2 0 0.9 4.2 0 1 4.2 0 1.1 4.2 0 1.2 4.2 0 1.3 4.2 0 1.4 4.2 0 1.5 4.2 0 1.6 4.2 0 1.7 4.2 0 1.8 4.2 0 1.9 4.2 0 2 4.2 0 2.1 4.2 0 2.2 4.2 0 2.3 4.2 0 2.4 4.2 0 2.5 4.2 0 2.6 4.2 0 2.7 4.2 0 2.8 4.2 0 2.9 4.2 0 3 4.2 0 3.1 4.2 0 3.2 4.2 0 3.3 4.2 0 3.4 4.2 0 3.5 4.2 0 3.6 4.2 0 3.7 4.2 0 3.8 4.2 0 3.9 4.2 0 4 4.2 0 4.1 4.2 0 4.2 4.2 0 4.3 4.2 0 4.4 4.2 0 4.5 4.2 0 4.6 4.2 0 4.7 4.2 0 4.8 4.2 0 4.9 4.2 0 5 4.2 0 5.1 4.2 0 5.2 4.2 0 5.3 4.2 0 5.4 4.2 0 5.5 4.2 0 5.6 4.2 0 5.7 4.2 0 5.8 4.2 0 5.9 4.2 0 6 4.2 0 6.1 4.2 0 6.2 4.2 0 6.3 4.2 0 6.4 4.2 0 6.5 4.2 0 6.6 4.2 0 6.7 4.2 0 6.8 4.2 0 6.9 4.2 0 7 4.2 0 7.1 4.2 0 7.2 4.2 0 7.3 4.2 0 7.4 4.2 0 7.5 4.2 0 7.6 4.2 0 7.7 4.2 0 7.8 4.2 0 7.9 4.2 0 8 4.2 0 8.1 4.2 0 8.2 4.2 0 8.3 4.2 0 8.4 4.2 0 8.5 4.2 0 8.6 4.2 0 8.7 4.2 0 8.8 4.2 0 8.9 4.2 0 9 4.2 0 9.1 4.2 0 9.2 4.2 0 9.3 4.2 0 9.4 4.2 0 9.5 4.2 0 9.6 4.2 0 9.7 4.2 0 9.8 4.2 0 9.9 4.2 0 10 4.2 0 0 4.3 0 0.1 4.3 0 0.2 4.3 0 0.3 4.3 0 0.4 4.3 0 0.5 4.3 0 0.6 4.3 0 0.7 4.3 0 0.8 4.3 0 0.9 4.3 0 1 4.3 0 1.1 4.3 0 1.2 4.3 0 1.3 4.3 0 1.4 4.3 0 1.5 4.3 0 1.6 4.3 0 1.7 4.3 0 1.8 4.3 0 1.9 4.3 0 2 4.3 0 2.1 4.3 0 2.2 4.3 0 2.3 4.3 0 2.4 4.3 0 2.5 4.3 0 2.6 4.3 0 2.7 4.3 0 2.8 4.3 0 2.9 4.3 0 3 4.3 0 3.1 4.3 0 3.2 4.3 0 3.3 4.3 0 3.4 4.3 0 3.5 4.3 0 3.6 4.3 0 3.7 4.3 0 3.8 4.3 0 3.9 4.3 0 4 4.3 0 4.1 4.3 0 4.2 4.3 0 4.3 4.3 0 4.4 4.3 0 4.5 4.3 0 4.6 4.3 0 4.7 4.3 0 4.8 4.3 0 4.9 4.3 0 5 4.3 0 5.1 4.3 0 5.2 4.3 0 5.3 4.3 0 5.4 4.3 0 5.5 4.3 0 5.6 4.3 0 5.7 4.3 0 5.8 4.3 0 5.9 4.3 0 6 4.3 0 6.1 4.3 0 6.2 4.3 0 6.3 4.3 0 6.4 4.3 0 6.5 4.3 0 6.6 4.3 0 6.7 4.3 0 6.8 4.3 0 6.9 4.3 0 7 4.3 0 7.1 4.3 0 7.2 4.3 0 7.3 4.3 0 7.4 4.3 0 7.5 4.3 0 7.6 4.3 0 7.7 4.3 0 7.8 4.3 0 7.9 4.3 0 8 4.3 0 8.1 4.3 0 8.2 4.3 0 8.3 4.3 0 8.4 4.3 0 8.5 4.3 0 8.6 4.3 0 8.7 4.3 0 8.8 4.3 0 8.9 4.3 0 9 4.3 0 9.1 4.3 0 9.2 4.3 0 9.3 4.3 0 9.4 4.3 0 9.5 4.3 0 9.6 4.3 0 9.7 4.3 0 9.8 4.3 0 9.9 4.3 0 10 4.3 0 0 4.4 0 0.1 4.4 0 0.2 4.4 0 0.3 4.4 0 0.4 4.4 0 0.5 4.4 0 0.6 4.4 0 0.7 4.4 0 0.8 4.4 0 0.9 4.4 0 1 4.4 0 1.1 4.4 0 1.2 4.4 0 1.3 4.4 0 1.4 4.4 0 1.5 4.4 0 1.6 4.4 0 1.7 4.4 0 1.8 4.4 0 1.9 4.4 0 2 4.4 0 2.1 4.4 0 2.2 4.4 0 2.3 4.4 0 2.4 4.4 0 2.5 4.4 0 2.6 4.4 0 2.7 4.4 0 2.8 4.4 0 2.9 4.4 0 3 4.4 0 3.1 4.4 0 3.2 4.4 0 3.3 4.4 0 3.4 4.4 0 3.5 4.4 0 3.6 4.4 0 3.7 4.4 0 3.8 4.4 0 3.9 4.4 0 4 4.4 0 4.1 4.4 0 4.2 4.4 0 4.3 4.4 0 4.4 4.4 0 4.5 4.4 0 4.6 4.4 0 4.7 4.4 0 4.8 4.4 0 4.9 4.4 0 5 4.4 0 5.1 4.4 0 5.2 4.4 0 5.3 4.4 0 5.4 4.4 0 5.5 4.4 0 5.6 4.4 0 5.7 4.4 0 5.8 4.4 0 5.9 4.4 0 6 4.4 0 6.1 4.4 0 6.2 4.4 0 6.3 4.4 0 6.4 4.4 0 6.5 4.4 0 6.6 4.4 0 6.7 4.4 0 6.8 4.4 0 6.9 4.4 0 7 4.4 0 7.1 4.4 0 7.2 4.4 0 7.3 4.4 0 7.4 4.4 0 7.5 4.4 0 7.6 4.4 0 7.7 4.4 0 7.8 4.4 0 7.9 4.4 0 8 4.4 0 8.1 4.4 0 8.2 4.4 0 8.3 4.4 0 8.4 4.4 0 8.5 4.4 0 8.6 4.4 0 8.7 4.4 0 8.8 4.4 0 8.9 4.4 0 9 4.4 0 9.1 4.4 0 9.2 4.4 0 9.3 4.4 0 9.4 4.4 0 9.5 4.4 0 9.6 4.4 0 9.7 4.4 0 9.8 4.4 0 9.9 4.4 0 10 4.4 0 0 4.5 0 0.1 4.5 0 0.2 4.5 0 0.3 4.5 0 0.4 4.5 0 0.5 4.5 0 0.6 4.5 0 0.7 4.5 0 0.8 4.5 0 0.9 4.5 0 1 4.5 0 1.1 4.5 0 1.2 4.5 0 1.3 4.5 0 1.4 4.5 0 1.5 4.5 0 1.6 4.5 0 1.7 4.5 0 1.8 4.5 0 1.9 4.5 0 2 4.5 0 2.1 4.5 0 2.2 4.5 0 2.3 4.5 0 2.4 4.5 0 2.5 4.5 0 2.6 4.5 0 2.7 4.5 0 2.8 4.5 0 2.9 4.5 0 3 4.5 0 3.1 4.5 0 3.2 4.5 0 3.3 4.5 0 3.4 4.5 0 3.5 4.5 0 3.6 4.5 0 3.7 4.5 0 3.8 4.5 0 3.9 4.5 0 4 4.5 0 4.1 4.5 0 4.2 4.5 0 4.3 4.5 0 4.4 4.5 0 4.5 4.5 0 4.6 4.5 0 4.7 4.5 0 4.8 4.5 0 4.9 4.5 0 5 4.5 0 5.1 4.5 0 5.2 4.5 0 5.3 4.5 0 5.4 4.5 0 5.5 4.5 0 5.6 4.5 0 5.7 4.5 0 5.8 4.5 0 5.9 4.5 0 6 4.5 0 6.1 4.5 0 6.2 4.5 0 6.3 4.5 0 6.4 4.5 0 6.5 4.5 0 6.6 4.5 0 6.7 4.5 0 6.8 4.5 0 6.9 4.5 0 7 4.5 0 7.1 4.5 0 7.2 4.5 0 7.3 4.5 0 7.4 4.5 0 7.5 4.5 0 7.6 4.5 0 7.7 4.5 0 7.8 4.5 0 7.9 4.5 0 8 4.5 0 8.1 4.5 0 8.2 4.5 0 8.3 4.5 0 8.4 4.5 0 8.5 4.5 0 8.6 4.5 0 8.7 4.5 0 8.8 4.5 0 8.9 4.5 0 9 4.5 0 9.1 4.5 0 9.2 4.5 0 9.3 4.5 0 9.4 4.5 0 9.5 4.5 0 9.6 4.5 0 9.7 4.5 0 9.8 4.5 0 9.9 4.5 0 10 4.5 0 0 4.6 0 0.1 4.6 0 0.2 4.6 0 0.3 4.6 0 0.4 4.6 0 0.5 4.6 0 0.6 4.6 0 0.7 4.6 0 0.8 4.6 0 0.9 4.6 0 1 4.6 0 1.1 4.6 0 1.2 4.6 0 1.3 4.6 0 1.4 4.6 0 1.5 4.6 0 1.6 4.6 0 1.7 4.6 0 1.8 4.6 0 1.9 4.6 0 2 4.6 0 2.1 4.6 0 2.2 4.6 0 2.3 4.6 0 2.4 4.6 0 2.5 4.6 0 2.6 4.6 0 2.7 4.6 0 2.8 4.6 0 2.9 4.6 0 3 4.6 0 3.1 4.6 0 3.2 4.6 0 3.3 4.6 0 3.4 4.6 0 3.5 4.6 0 3.6 4.6 0 3.7 4.6 0 3.8 4.6 0 3.9 4.6 0 4 4.6 0 4.1 4.6 0 4.2 4.6 0 4.3 4.6 0 4.4 4.6 0 4.5 4.6 0 4.6 4.6 0 4.7 4.6 0 4.8 4.6 0 4.9 4.6 0 5 4.6 0 5.1 4.6 0 5.2 4.6 0 5.3 4.6 0 5.4 4.6 0 5.5 4.6 0 5.6 4.6 0 5.7 4.6 0 5.8 4.6 0 5.9 4.6 0 6 4.6 0 6.1 4.6 0 6.2 4.6 0 6.3 4.6 0 6.4 4.6 0 6.5 4.6 0 6.6 4.6 0 6.7 4.6 0 6.8 4.6 0 6.9 4.6 0 7 4.6 0 7.1 4.6 0 7.2 4.6 0 7.3 4.6 0 7.4 4.6 0 7.5 4.6 0 7.6 4.6 0 7.7 4.6 0 7.8 4.6 0 7.9 4.6 0 8 4.6 0 8.1 4.6 0 8.2 4.6 0 8.3 4.6 0 8.4 4.6 0 8.5 4.6 0 8.6 4.6 0 8.7 4.6 0 8.8 4.6 0 8.9 4.6 0 9 4.6 0 9.1 4.6 0 9.2 4.6 0 9.3 4.6 0 9.4 4.6 0 9.5 4.6 0 9.6 4.6 0 9.7 4.6 0 9.8 4.6 0 9.9 4.6 0 10 4.6 0 0 4.7 0 0.1 4.7 0 0.2 4.7 0 0.3 4.7 0 0.4 4.7 0 0.5 4.7 0 0.6 4.7 0 0.7 4.7 0 0.8 4.7 0 0.9 4.7 0 1 4.7 0 1.1 4.7 0 1.2 4.7 0 1.3 4.7 0 1.4 4.7 0 1.5 4.7 0 1.6 4.7 0 1.7 4.7 0 1.8 4.7 0 1.9 4.7 0 2 4.7 0 2.1 4.7 0 2.2 4.7 0 2.3 4.7 0 2.4 4.7 0 2.5 4.7 0 2.6 4.7 0 2.7 4.7 0 2.8 4.7 0 2.9 4.7 0 3 4.7 0 3.1 4.7 0 3.2 4.7 0 3.3 4.7 0 3.4 4.7 0 3.5 4.7 0 3.6 4.7 0 3.7 4.7 0 3.8 4.7 0 3.9 4.7 0 4 4.7 0 4.1 4.7 0 4.2 4.7 0 4.3 4.7 0 4.4 4.7 0 4.5 4.7 0 4.6 4.7 0 4.7 4.7 0 4.8 4.7 0 4.9 4.7 0 5 4.7 0 5.1 4.7 0 5.2 4.7 0 5.3 4.7 0 5.4 4.7 0 5.5 4.7 0 5.6 4.7 0 5.7 4.7 0 5.8 4.7 0 5.9 4.7 0 6 4.7 0 6.1 4.7 0 6.2 4.7 0 6.3 4.7 0 6.4 4.7 0 6.5 4.7 0 6.6 4.7 0 6.7 4.7 0 6.8 4.7 0 6.9 4.7 0 7 4.7 0 7.1 4.7 0 7.2 4.7 0 7.3 4.7 0 7.4 4.7 0 7.5 4.7 0 7.6 4.7 0 7.7 4.7 0 7.8 4.7 0 7.9 4.7 0 8 4.7 0 8.1 4.7 0 8.2 4.7 0 8.3 4.7 0 8.4 4.7 0 8.5 4.7 0 8.6 4.7 0 8.7 4.7 0 8.8 4.7 0 8.9 4.7 0 9 4.7 0 9.1 4.7 0 9.2 4.7 0 9.3 4.7 0 9.4 4.7 0 9.5 4.7 0 9.6 4.7 0 9.7 4.7 0 9.8 4.7 0 9.9 4.7 0 10 4.7 0 0 4.8 0 0.1 4.8 0 0.2 4.8 0 0.3 4.8 0 0.4 4.8 0 0.5 4.8 0 0.6 4.8 0 0.7 4.8 0 0.8 4.8 0 0.9 4.8 0 1 4.8 0 1.1 4.8 0 1.2 4.8 0 1.3 4.8 0 1.4 4.8 0 1.5 4.8 0 1.6 4.8 0 1.7 4.8 0 1.8 4.8 0 1.9 4.8 0 2 4.8 0 2.1 4.8 0 2.2 4.8 0 2.3 4.8 0 2.4 4.8 0 2.5 4.8 0 2.6 4.8 0 2.7 4.8 0 2.8 4.8 0 2.9 4.8 0 3 4.8 0 3.1 4.8 0 3.2 4.8 0 3.3 4.8 0 3.4 4.8 0 3.5 4.8 0 3.6 4.8 0 3.7 4.8 0 3.8 4.8 0 3.9 4.8 0 4 4.8 0 4.1 4.8 0 4.2 4.8 0 4.3 4.8 0 4.4 4.8 0 4.5 4.8 0 4.6 4.8 0 4.7 4.8 0 4.8 4.8 0 4.9 4.8 0 5 4.8 0 5.1 4.8 0 5.2 4.8 0 5.3 4.8 0 5.4 4.8 0 5.5 4.8 0 5.6 4.8 0 5.7 4.8 0 5.8 4.8 0 5.9 4.8 0 6 4.8 0 6.1 4.8 0 6.2 4.8 0 6.3 4.8 0 6.4 4.8 0 6.5 4.8 0 6.6 4.8 0 6.7 4.8 0 6.8 4.8 0 6.9 4.8 0 7 4.8 0 7.1 4.8 0 7.2 4.8 0 7.3 4.8 0 7.4 4.8 0 7.5 4.8 0 7.6 4.8 0 7.7 4.8 0 7.8 4.8 0 7.9 4.8 0 8 4.8 0 8.1 4.8 0 8.2 4.8 0 8.3 4.8 0 8.4 4.8 0 8.5 4.8 0 8.6 4.8 0 8.7 4.8 0 8.8 4.8 0 8.9 4.8 0 9 4.8 0 9.1 4.8 0 9.2 4.8 0 9.3 4.8 0 9.4 4.8 0 9.5 4.8 0 9.6 4.8 0 9.7 4.8 0 9.8 4.8 0 9.9 4.8 0 10 4.8 0 0 4.9 0 0.1 4.9 0 0.2 4.9 0 0.3 4.9 0 0.4 4.9 0 0.5 4.9 0 0.6 4.9 0 0.7 4.9 0 0.8 4.9 0 0.9 4.9 0 1 4.9 0 1.1 4.9 0 1.2 4.9 0 1.3 4.9 0 1.4 4.9 0 1.5 4.9 0 1.6 4.9 0 1.7 4.9 0 1.8 4.9 0 1.9 4.9 0 2 4.9 0 2.1 4.9 0 2.2 4.9 0 2.3 4.9 0 2.4 4.9 0 2.5 4.9 0 2.6 4.9 0 2.7 4.9 0 2.8 4.9 0 2.9 4.9 0 3 4.9 0 3.1 4.9 0 3.2 4.9 0 3.3 4.9 0 3.4 4.9 0 3.5 4.9 0 3.6 4.9 0 3.7 4.9 0 3.8 4.9 0 3.9 4.9 0 4 4.9 0 4.1 4.9 0 4.2 4.9 0 4.3 4.9 0 4.4 4.9 0 4.5 4.9 0 4.6 4.9 0 4.7 4.9 0 4.8 4.9 0 4.9 4.9 0 5 4.9 0 5.1 4.9 0 5.2 4.9 0 5.3 4.9 0 5.4 4.9 0 5.5 4.9 0 5.6 4.9 0 5.7 4.9 0 5.8 4.9 0 5.9 4.9 0 6 4.9 0 6.1 4.9 0 6.2 4.9 0 6.3 4.9 0 6.4 4.9 0 6.5 4.9 0 6.6 4.9 0 6.7 4.9 0 6.8 4.9 0 6.9 4.9 0 7 4.9 0 7.1 4.9 0 7.2 4.9 0 7.3 4.9 0 7.4 4.9 0 7.5 4.9 0 7.6 4.9 0 7.7 4.9 0 7.8 4.9 0 7.9 4.9 0 8 4.9 0 8.1 4.9 0 8.2 4.9 0 8.3 4.9 0 8.4 4.9 0 8.5 4.9 0 8.6 4.9 0 8.7 4.9 0 8.8 4.9 0 8.9 4.9 0 9 4.9 0 9.1 4.9 0 9.2 4.9 0 9.3 4.9 0 9.4 4.9 0 9.5 4.9 0 9.6 4.9 0 9.7 4.9 0 9.8 4.9 0 9.9 4.9 0 10 4.9 0 0 5 0 0.1 5 0 0.2 5 0 0.3 5 0 0.4 5 0 0.5 5 0 0.6 5 0 0.7 5 0 0.8 5 0 0.9 5 0 1 5 0 1.1 5 0 1.2 5 0 1.3 5 0 1.4 5 0 1.5 5 0 1.6 5 0 1.7 5 0 1.8 5 0 1.9 5 0 2 5 0 2.1 5 0 2.2 5 0 2.3 5 0 2.4 5 0 2.5 5 0 2.6 5 0 2.7 5 0 2.8 5 0 2.9 5 0 3 5 0 3.1 5 0 3.2 5 0 3.3 5 0 3.4 5 0 3.5 5 0 3.6 5 0 3.7 5 0 3.8 5 0 3.9 5 0 4 5 0 4.1 5 0 4.2 5 0 4.3 5 0 4.4 5 0 4.5 5 0 4.6 5 0 4.7 5 0 4.8 5 0 4.9 5 0 5 5 0 5.1 5 0 5.2 5 0 5.3 5 0 5.4 5 0 5.5 5 0 5.6 5 0 5.7 5 0 5.8 5 0 5.9 5 0 6 5 0 6.1 5 0 6.2 5 0 6.3 5 0 6.4 5 0 6.5 5 0 6.6 5 0 6.7 5 0 6.8 5 0 6.9 5 0 7 5 0 7.1 5 0 7.2 5 0 7.3 5 0 7.4 5 0 7.5 5 0 7.6 5 0 7.7 5 0 7.8 5 0 7.9 5 0 8 5 0 8.1 5 0 8.2 5 0 8.3 5 0 8.4 5 0 8.5 5 0 8.6 5 0 8.7 5 0 8.8 5 0 8.9 5 0 9 5 0 9.1 5 0 9.2 5 0 9.3 5 0 9.4 5 0 9.5 5 0 9.6 5 0 9.7 5 0 9.8 5 0 9.9 5 0 10 5 0 0 5.1 0 0.1 5.1 0 0.2 5.1 0 0.3 5.1 0 0.4 5.1 0 0.5 5.1 0 0.6 5.1 0 0.7 5.1 0 0.8 5.1 0 0.9 5.1 0 1 5.1 0 1.1 5.1 0 1.2 5.1 0 1.3 5.1 0 1.4 5.1 0 1.5 5.1 0 1.6 5.1 0 1.7 5.1 0 1.8 5.1 0 1.9 5.1 0 2 5.1 0 2.1 5.1 0 2.2 5.1 0 2.3 5.1 0 2.4 5.1 0 2.5 5.1 0 2.6 5.1 0 2.7 5.1 0 2.8 5.1 0 2.9 5.1 0 3 5.1 0 3.1 5.1 0 3.2 5.1 0 3.3 5.1 0 3.4 5.1 0 3.5 5.1 0 3.6 5.1 0 3.7 5.1 0 3.8 5.1 0 3.9 5.1 0 4 5.1 0 4.1 5.1 0 4.2 5.1 0 4.3 5.1 0 4.4 5.1 0 4.5 5.1 0 4.6 5.1 0 4.7 5.1 0 4.8 5.1 0 4.9 5.1 0 5 5.1 0 5.1 5.1 0 5.2 5.1 0 5.3 5.1 0 5.4 5.1 0 5.5 5.1 0 5.6 5.1 0 5.7 5.1 0 5.8 5.1 0 5.9 5.1 0 6 5.1 0 6.1 5.1 0 6.2 5.1 0 6.3 5.1 0 6.4 5.1 0 6.5 5.1 0 6.6 5.1 0 6.7 5.1 0 6.8 5.1 0 6.9 5.1 0 7 5.1 0 7.1 5.1 0 7.2 5.1 0 7.3 5.1 0 7.4 5.1 0 7.5 5.1 0 7.6 5.1 0 7.7 5.1 0 7.8 5.1 0 7.9 5.1 0 8 5.1 0 8.1 5.1 0 8.2 5.1 0 8.3 5.1 0 8.4 5.1 0 8.5 5.1 0 8.6 5.1 0 8.7 5.1 0 8.8 5.1 0 8.9 5.1 0 9 5.1 0 9.1 5.1 0 9.2 5.1 0 9.3 5.1 0 9.4 5.1 0 9.5 5.1 0 9.6 5.1 0 9.7 5.1 0 9.8 5.1 0 9.9 5.1 0 10 5.1 0 0 5.2 0 0.1 5.2 0 0.2 5.2 0 0.3 5.2 0 0.4 5.2 0 0.5 5.2 0 0.6 5.2 0 0.7 5.2 0 0.8 5.2 0 0.9 5.2 0 1 5.2 0 1.1 5.2 0 1.2 5.2 0 1.3 5.2 0 1.4 5.2 0 1.5 5.2 0 1.6 5.2 0 1.7 5.2 0 1.8 5.2 0 1.9 5.2 0 2 5.2 0 2.1 5.2 0 2.2 5.2 0 2.3 5.2 0 2.4 5.2 0 2.5 5.2 0 2.6 5.2 0 2.7 5.2 0 2.8 5.2 0 2.9 5.2 0 3 5.2 0 3.1 5.2 0 3.2 5.2 0 3.3 5.2 0 3.4 5.2 0 3.5 5.2 0 3.6 5.2 0 3.7 5.2 0 3.8 5.2 0 3.9 5.2 0 4 5.2 0 4.1 5.2 0 4.2 5.2 0 4.3 5.2 0 4.4 5.2 0 4.5 5.2 0 4.6 5.2 0 4.7 5.2 0 4.8 5.2 0 4.9 5.2 0 5 5.2 0 5.1 5.2 0 5.2 5.2 0 5.3 5.2 0 5.4 5.2 0 5.5 5.2 0 5.6 5.2 0 5.7 5.2 0 5.8 5.2 0 5.9 5.2 0 6 5.2 0 6.1 5.2 0 6.2 5.2 0 6.3 5.2 0 6.4 5.2 0 6.5 5.2 0 6.6 5.2 0 6.7 5.2 0 6.8 5.2 0 6.9 5.2 0 7 5.2 0 7.1 5.2 0 7.2 5.2 0 7.3 5.2 0 7.4 5.2 0 7.5 5.2 0 7.6 5.2 0 7.7 5.2 0 7.8 5.2 0 7.9 5.2 0 8 5.2 0 8.1 5.2 0 8.2 5.2 0 8.3 5.2 0 8.4 5.2 0 8.5 5.2 0 8.6 5.2 0 8.7 5.2 0 8.8 5.2 0 8.9 5.2 0 9 5.2 0 9.1 5.2 0 9.2 5.2 0 9.3 5.2 0 9.4 5.2 0 9.5 5.2 0 9.6 5.2 0 9.7 5.2 0 9.8 5.2 0 9.9 5.2 0 10 5.2 0 0 5.3 0 0.1 5.3 0 0.2 5.3 0 0.3 5.3 0 0.4 5.3 0 0.5 5.3 0 0.6 5.3 0 0.7 5.3 0 0.8 5.3 0 0.9 5.3 0 1 5.3 0 1.1 5.3 0 1.2 5.3 0 1.3 5.3 0 1.4 5.3 0 1.5 5.3 0 1.6 5.3 0 1.7 5.3 0 1.8 5.3 0 1.9 5.3 0 2 5.3 0 2.1 5.3 0 2.2 5.3 0 2.3 5.3 0 2.4 5.3 0 2.5 5.3 0 2.6 5.3 0 2.7 5.3 0 2.8 5.3 0 2.9 5.3 0 3 5.3 0 3.1 5.3 0 3.2 5.3 0 3.3 5.3 0 3.4 5.3 0 3.5 5.3 0 3.6 5.3 0 3.7 5.3 0 3.8 5.3 0 3.9 5.3 0 4 5.3 0 4.1 5.3 0 4.2 5.3 0 4.3 5.3 0 4.4 5.3 0 4.5 5.3 0 4.6 5.3 0 4.7 5.3 0 4.8 5.3 0 4.9 5.3 0 5 5.3 0 5.1 5.3 0 5.2 5.3 0 5.3 5.3 0 5.4 5.3 0 5.5 5.3 0 5.6 5.3 0 5.7 5.3 0 5.8 5.3 0 5.9 5.3 0 6 5.3 0 6.1 5.3 0 6.2 5.3 0 6.3 5.3 0 6.4 5.3 0 6.5 5.3 0 6.6 5.3 0 6.7 5.3 0 6.8 5.3 0 6.9 5.3 0 7 5.3 0 7.1 5.3 0 7.2 5.3 0 7.3 5.3 0 7.4 5.3 0 7.5 5.3 0 7.6 5.3 0 7.7 5.3 0 7.8 5.3 0 7.9 5.3 0 8 5.3 0 8.1 5.3 0 8.2 5.3 0 8.3 5.3 0 8.4 5.3 0 8.5 5.3 0 8.6 5.3 0 8.7 5.3 0 8.8 5.3 0 8.9 5.3 0 9 5.3 0 9.1 5.3 0 9.2 5.3 0 9.3 5.3 0 9.4 5.3 0 9.5 5.3 0 9.6 5.3 0 9.7 5.3 0 9.8 5.3 0 9.9 5.3 0 10 5.3 0 0 5.4 0 0.1 5.4 0 0.2 5.4 0 0.3 5.4 0 0.4 5.4 0 0.5 5.4 0 0.6 5.4 0 0.7 5.4 0 0.8 5.4 0 0.9 5.4 0 1 5.4 0 1.1 5.4 0 1.2 5.4 0 1.3 5.4 0 1.4 5.4 0 1.5 5.4 0 1.6 5.4 0 1.7 5.4 0 1.8 5.4 0 1.9 5.4 0 2 5.4 0 2.1 5.4 0 2.2 5.4 0 2.3 5.4 0 2.4 5.4 0 2.5 5.4 0 2.6 5.4 0 2.7 5.4 0 2.8 5.4 0 2.9 5.4 0 3 5.4 0 3.1 5.4 0 3.2 5.4 0 3.3 5.4 0 3.4 5.4 0 3.5 5.4 0 3.6 5.4 0 3.7 5.4 0 3.8 5.4 0 3.9 5.4 0 4 5.4 0 4.1 5.4 0 4.2 5.4 0 4.3 5.4 0 4.4 5.4 0 4.5 5.4 0 4.6 5.4 0 4.7 5.4 0 4.8 5.4 0 4.9 5.4 0 5 5.4 0 5.1 5.4 0 5.2 5.4 0 5.3 5.4 0 5.4 5.4 0 5.5 5.4 0 5.6 5.4 0 5.7 5.4 0 5.8 5.4 0 5.9 5.4 0 6 5.4 0 6.1 5.4 0 6.2 5.4 0 6.3 5.4 0 6.4 5.4 0 6.5 5.4 0 6.6 5.4 0 6.7 5.4 0 6.8 5.4 0 6.9 5.4 0 7 5.4 0 7.1 5.4 0 7.2 5.4 0 7.3 5.4 0 7.4 5.4 0 7.5 5.4 0 7.6 5.4 0 7.7 5.4 0 7.8 5.4 0 7.9 5.4 0 8 5.4 0 8.1 5.4 0 8.2 5.4 0 8.3 5.4 0 8.4 5.4 0 8.5 5.4 0 8.6 5.4 0 8.7 5.4 0 8.8 5.4 0 8.9 5.4 0 9 5.4 0 9.1 5.4 0 9.2 5.4 0 9.3 5.4 0 9.4 5.4 0 9.5 5.4 0 9.6 5.4 0 9.7 5.4 0 9.8 5.4 0 9.9 5.4 0 10 5.4 0 0 5.5 0 0.1 5.5 0 0.2 5.5 0 0.3 5.5 0 0.4 5.5 0 0.5 5.5 0 0.6 5.5 0 0.7 5.5 0 0.8 5.5 0 0.9 5.5 0 1 5.5 0 1.1 5.5 0 1.2 5.5 0 1.3 5.5 0 1.4 5.5 0 1.5 5.5 0 1.6 5.5 0 1.7 5.5 0 1.8 5.5 0 1.9 5.5 0 2 5.5 0 2.1 5.5 0 2.2 5.5 0 2.3 5.5 0 2.4 5.5 0 2.5 5.5 0 2.6 5.5 0 2.7 5.5 0 2.8 5.5 0 2.9 5.5 0 3 5.5 0 3.1 5.5 0 3.2 5.5 0 3.3 5.5 0 3.4 5.5 0 3.5 5.5 0 3.6 5.5 0 3.7 5.5 0 3.8 5.5 0 3.9 5.5 0 4 5.5 0 4.1 5.5 0 4.2 5.5 0 4.3 5.5 0 4.4 5.5 0 4.5 5.5 0 4.6 5.5 0 4.7 5.5 0 4.8 5.5 0 4.9 5.5 0 5 5.5 0 5.1 5.5 0 5.2 5.5 0 5.3 5.5 0 5.4 5.5 0 5.5 5.5 0 5.6 5.5 0 5.7 5.5 0 5.8 5.5 0 5.9 5.5 0 6 5.5 0 6.1 5.5 0 6.2 5.5 0 6.3 5.5 0 6.4 5.5 0 6.5 5.5 0 6.6 5.5 0 6.7 5.5 0 6.8 5.5 0 6.9 5.5 0 7 5.5 0 7.1 5.5 0 7.2 5.5 0 7.3 5.5 0 7.4 5.5 0 7.5 5.5 0 7.6 5.5 0 7.7 5.5 0 7.8 5.5 0 7.9 5.5 0 8 5.5 0 8.1 5.5 0 8.2 5.5 0 8.3 5.5 0 8.4 5.5 0 8.5 5.5 0 8.6 5.5 0 8.7 5.5 0 8.8 5.5 0 8.9 5.5 0 9 5.5 0 9.1 5.5 0 9.2 5.5 0 9.3 5.5 0 9.4 5.5 0 9.5 5.5 0 9.6 5.5 0 9.7 5.5 0 9.8 5.5 0 9.9 5.5 0 10 5.5 0 0 5.6 0 0.1 5.6 0 0.2 5.6 0 0.3 5.6 0 0.4 5.6 0 0.5 5.6 0 0.6 5.6 0 0.7 5.6 0 0.8 5.6 0 0.9 5.6 0 1 5.6 0 1.1 5.6 0 1.2 5.6 0 1.3 5.6 0 1.4 5.6 0 1.5 5.6 0 1.6 5.6 0 1.7 5.6 0 1.8 5.6 0 1.9 5.6 0 2 5.6 0 2.1 5.6 0 2.2 5.6 0 2.3 5.6 0 2.4 5.6 0 2.5 5.6 0 2.6 5.6 0 2.7 5.6 0 2.8 5.6 0 2.9 5.6 0 3 5.6 0 3.1 5.6 0 3.2 5.6 0 3.3 5.6 0 3.4 5.6 0 3.5 5.6 0 3.6 5.6 0 3.7 5.6 0 3.8 5.6 0 3.9 5.6 0 4 5.6 0 4.1 5.6 0 4.2 5.6 0 4.3 5.6 0 4.4 5.6 0 4.5 5.6 0 4.6 5.6 0 4.7 5.6 0 4.8 5.6 0 4.9 5.6 0 5 5.6 0 5.1 5.6 0 5.2 5.6 0 5.3 5.6 0 5.4 5.6 0 5.5 5.6 0 5.6 5.6 0 5.7 5.6 0 5.8 5.6 0 5.9 5.6 0 6 5.6 0 6.1 5.6 0 6.2 5.6 0 6.3 5.6 0 6.4 5.6 0 6.5 5.6 0 6.6 5.6 0 6.7 5.6 0 6.8 5.6 0 6.9 5.6 0 7 5.6 0 7.1 5.6 0 7.2 5.6 0 7.3 5.6 0 7.4 5.6 0 7.5 5.6 0 7.6 5.6 0 7.7 5.6 0 7.8 5.6 0 7.9 5.6 0 8 5.6 0 8.1 5.6 0 8.2 5.6 0 8.3 5.6 0 8.4 5.6 0 8.5 5.6 0 8.6 5.6 0 8.7 5.6 0 8.8 5.6 0 8.9 5.6 0 9 5.6 0 9.1 5.6 0 9.2 5.6 0 9.3 5.6 0 9.4 5.6 0 9.5 5.6 0 9.6 5.6 0 9.7 5.6 0 9.8 5.6 0 9.9 5.6 0 10 5.6 0 0 5.7 0 0.1 5.7 0 0.2 5.7 0 0.3 5.7 0 0.4 5.7 0 0.5 5.7 0 0.6 5.7 0 0.7 5.7 0 0.8 5.7 0 0.9 5.7 0 1 5.7 0 1.1 5.7 0 1.2 5.7 0 1.3 5.7 0 1.4 5.7 0 1.5 5.7 0 1.6 5.7 0 1.7 5.7 0 1.8 5.7 0 1.9 5.7 0 2 5.7 0 2.1 5.7 0 2.2 5.7 0 2.3 5.7 0 2.4 5.7 0 2.5 5.7 0 2.6 5.7 0 2.7 5.7 0 2.8 5.7 0 2.9 5.7 0 3 5.7 0 3.1 5.7 0 3.2 5.7 0 3.3 5.7 0 3.4 5.7 0 3.5 5.7 0 3.6 5.7 0 3.7 5.7 0 3.8 5.7 0 3.9 5.7 0 4 5.7 0 4.1 5.7 0 4.2 5.7 0 4.3 5.7 0 4.4 5.7 0 4.5 5.7 0 4.6 5.7 0 4.7 5.7 0 4.8 5.7 0 4.9 5.7 0 5 5.7 0 5.1 5.7 0 5.2 5.7 0 5.3 5.7 0 5.4 5.7 0 5.5 5.7 0 5.6 5.7 0 5.7 5.7 0 5.8 5.7 0 5.9 5.7 0 6 5.7 0 6.1 5.7 0 6.2 5.7 0 6.3 5.7 0 6.4 5.7 0 6.5 5.7 0 6.6 5.7 0 6.7 5.7 0 6.8 5.7 0 6.9 5.7 0 7 5.7 0 7.1 5.7 0 7.2 5.7 0 7.3 5.7 0 7.4 5.7 0 7.5 5.7 0 7.6 5.7 0 7.7 5.7 0 7.8 5.7 0 7.9 5.7 0 8 5.7 0 8.1 5.7 0 8.2 5.7 0 8.3 5.7 0 8.4 5.7 0 8.5 5.7 0 8.6 5.7 0 8.7 5.7 0 8.8 5.7 0 8.9 5.7 0 9 5.7 0 9.1 5.7 0 9.2 5.7 0 9.3 5.7 0 9.4 5.7 0 9.5 5.7 0 9.6 5.7 0 9.7 5.7 0 9.8 5.7 0 9.9 5.7 0 10 5.7 0 0 5.8 0 0.1 5.8 0 0.2 5.8 0 0.3 5.8 0 0.4 5.8 0 0.5 5.8 0 0.6 5.8 0 0.7 5.8 0 0.8 5.8 0 0.9 5.8 0 1 5.8 0 1.1 5.8 0 1.2 5.8 0 1.3 5.8 0 1.4 5.8 0 1.5 5.8 0 1.6 5.8 0 1.7 5.8 0 1.8 5.8 0 1.9 5.8 0 2 5.8 0 2.1 5.8 0 2.2 5.8 0 2.3 5.8 0 2.4 5.8 0 2.5 5.8 0 2.6 5.8 0 2.7 5.8 0 2.8 5.8 0 2.9 5.8 0 3 5.8 0 3.1 5.8 0 3.2 5.8 0 3.3 5.8 0 3.4 5.8 0 3.5 5.8 0 3.6 5.8 0 3.7 5.8 0 3.8 5.8 0 3.9 5.8 0 4 5.8 0 4.1 5.8 0 4.2 5.8 0 4.3 5.8 0 4.4 5.8 0 4.5 5.8 0 4.6 5.8 0 4.7 5.8 0 4.8 5.8 0 4.9 5.8 0 5 5.8 0 5.1 5.8 0 5.2 5.8 0 5.3 5.8 0 5.4 5.8 0 5.5 5.8 0 5.6 5.8 0 5.7 5.8 0 5.8 5.8 0 5.9 5.8 0 6 5.8 0 6.1 5.8 0 6.2 5.8 0 6.3 5.8 0 6.4 5.8 0 6.5 5.8 0 6.6 5.8 0 6.7 5.8 0 6.8 5.8 0 6.9 5.8 0 7 5.8 0 7.1 5.8 0 7.2 5.8 0 7.3 5.8 0 7.4 5.8 0 7.5 5.8 0 7.6 5.8 0 7.7 5.8 0 7.8 5.8 0 7.9 5.8 0 8 5.8 0 8.1 5.8 0 8.2 5.8 0 8.3 5.8 0 8.4 5.8 0 8.5 5.8 0 8.6 5.8 0 8.7 5.8 0 8.8 5.8 0 8.9 5.8 0 9 5.8 0 9.1 5.8 0 9.2 5.8 0 9.3 5.8 0 9.4 5.8 0 9.5 5.8 0 9.6 5.8 0 9.7 5.8 0 9.8 5.8 0 9.9 5.8 0 10 5.8 0 0 5.9 0 0.1 5.9 0 0.2 5.9 0 0.3 5.9 0 0.4 5.9 0 0.5 5.9 0 0.6 5.9 0 0.7 5.9 0 0.8 5.9 0 0.9 5.9 0 1 5.9 0 1.1 5.9 0 1.2 5.9 0 1.3 5.9 0 1.4 5.9 0 1.5 5.9 0 1.6 5.9 0 1.7 5.9 0 1.8 5.9 0 1.9 5.9 0 2 5.9 0 2.1 5.9 0 2.2 5.9 0 2.3 5.9 0 2.4 5.9 0 2.5 5.9 0 2.6 5.9 0 2.7 5.9 0 2.8 5.9 0 2.9 5.9 0 3 5.9 0 3.1 5.9 0 3.2 5.9 0 3.3 5.9 0 3.4 5.9 0 3.5 5.9 0 3.6 5.9 0 3.7 5.9 0 3.8 5.9 0 3.9 5.9 0 4 5.9 0 4.1 5.9 0 4.2 5.9 0 4.3 5.9 0 4.4 5.9 0 4.5 5.9 0 4.6 5.9 0 4.7 5.9 0 4.8 5.9 0 4.9 5.9 0 5 5.9 0 5.1 5.9 0 5.2 5.9 0 5.3 5.9 0 5.4 5.9 0 5.5 5.9 0 5.6 5.9 0 5.7 5.9 0 5.8 5.9 0 5.9 5.9 0 6 5.9 0 6.1 5.9 0 6.2 5.9 0 6.3 5.9 0 6.4 5.9 0 6.5 5.9 0 6.6 5.9 0 6.7 5.9 0 6.8 5.9 0 6.9 5.9 0 7 5.9 0 7.1 5.9 0 7.2 5.9 0 7.3 5.9 0 7.4 5.9 0 7.5 5.9 0 7.6 5.9 0 7.7 5.9 0 7.8 5.9 0 7.9 5.9 0 8 5.9 0 8.1 5.9 0 8.2 5.9 0 8.3 5.9 0 8.4 5.9 0 8.5 5.9 0 8.6 5.9 0 8.7 5.9 0 8.8 5.9 0 8.9 5.9 0 9 5.9 0 9.1 5.9 0 9.2 5.9 0 9.3 5.9 0 9.4 5.9 0 9.5 5.9 0 9.6 5.9 0 9.7 5.9 0 9.8 5.9 0 9.9 5.9 0 10 5.9 0 0 6 0 0.1 6 0 0.2 6 0 0.3 6 0 0.4 6 0 0.5 6 0 0.6 6 0 0.7 6 0 0.8 6 0 0.9 6 0 1 6 0 1.1 6 0 1.2 6 0 1.3 6 0 1.4 6 0 1.5 6 0 1.6 6 0 1.7 6 0 1.8 6 0 1.9 6 0 2 6 0 2.1 6 0 2.2 6 0 2.3 6 0 2.4 6 0 2.5 6 0 2.6 6 0 2.7 6 0 2.8 6 0 2.9 6 0 3 6 0 3.1 6 0 3.2 6 0 3.3 6 0 3.4 6 0 3.5 6 0 3.6 6 0 3.7 6 0 3.8 6 0 3.9 6 0 4 6 0 4.1 6 0 4.2 6 0 4.3 6 0 4.4 6 0 4.5 6 0 4.6 6 0 4.7 6 0 4.8 6 0 4.9 6 0 5 6 0 5.1 6 0 5.2 6 0 5.3 6 0 5.4 6 0 5.5 6 0 5.6 6 0 5.7 6 0 5.8 6 0 5.9 6 0 6 6 0 6.1 6 0 6.2 6 0 6.3 6 0 6.4 6 0 6.5 6 0 6.6 6 0 6.7 6 0 6.8 6 0 6.9 6 0 7 6 0 7.1 6 0 7.2 6 0 7.3 6 0 7.4 6 0 7.5 6 0 7.6 6 0 7.7 6 0 7.8 6 0 7.9 6 0 8 6 0 8.1 6 0 8.2 6 0 8.3 6 0 8.4 6 0 8.5 6 0 8.6 6 0 8.7 6 0 8.8 6 0 8.9 6 0 9 6 0 9.1 6 0 9.2 6 0 9.3 6 0 9.4 6 0 9.5 6 0 9.6 6 0 9.7 6 0 9.8 6 0 9.9 6 0 10 6 0 0 6.1 0 0.1 6.1 0 0.2 6.1 0 0.3 6.1 0 0.4 6.1 0 0.5 6.1 0 0.6 6.1 0 0.7 6.1 0 0.8 6.1 0 0.9 6.1 0 1 6.1 0 1.1 6.1 0 1.2 6.1 0 1.3 6.1 0 1.4 6.1 0 1.5 6.1 0 1.6 6.1 0 1.7 6.1 0 1.8 6.1 0 1.9 6.1 0 2 6.1 0 2.1 6.1 0 2.2 6.1 0 2.3 6.1 0 2.4 6.1 0 2.5 6.1 0 2.6 6.1 0 2.7 6.1 0 2.8 6.1 0 2.9 6.1 0 3 6.1 0 3.1 6.1 0 3.2 6.1 0 3.3 6.1 0 3.4 6.1 0 3.5 6.1 0 3.6 6.1 0 3.7 6.1 0 3.8 6.1 0 3.9 6.1 0 4 6.1 0 4.1 6.1 0 4.2 6.1 0 4.3 6.1 0 4.4 6.1 0 4.5 6.1 0 4.6 6.1 0 4.7 6.1 0 4.8 6.1 0 4.9 6.1 0 5 6.1 0 5.1 6.1 0 5.2 6.1 0 5.3 6.1 0 5.4 6.1 0 5.5 6.1 0 5.6 6.1 0 5.7 6.1 0 5.8 6.1 0 5.9 6.1 0 6 6.1 0 6.1 6.1 0 6.2 6.1 0 6.3 6.1 0 6.4 6.1 0 6.5 6.1 0 6.6 6.1 0 6.7 6.1 0 6.8 6.1 0 6.9 6.1 0 7 6.1 0 7.1 6.1 0 7.2 6.1 0 7.3 6.1 0 7.4 6.1 0 7.5 6.1 0 7.6 6.1 0 7.7 6.1 0 7.8 6.1 0 7.9 6.1 0 8 6.1 0 8.1 6.1 0 8.2 6.1 0 8.3 6.1 0 8.4 6.1 0 8.5 6.1 0 8.6 6.1 0 8.7 6.1 0 8.8 6.1 0 8.9 6.1 0 9 6.1 0 9.1 6.1 0 9.2 6.1 0 9.3 6.1 0 9.4 6.1 0 9.5 6.1 0 9.6 6.1 0 9.7 6.1 0 9.8 6.1 0 9.9 6.1 0 10 6.1 0 0 6.2 0 0.1 6.2 0 0.2 6.2 0 0.3 6.2 0 0.4 6.2 0 0.5 6.2 0 0.6 6.2 0 0.7 6.2 0 0.8 6.2 0 0.9 6.2 0 1 6.2 0 1.1 6.2 0 1.2 6.2 0 1.3 6.2 0 1.4 6.2 0 1.5 6.2 0 1.6 6.2 0 1.7 6.2 0 1.8 6.2 0 1.9 6.2 0 2 6.2 0 2.1 6.2 0 2.2 6.2 0 2.3 6.2 0 2.4 6.2 0 2.5 6.2 0 2.6 6.2 0 2.7 6.2 0 2.8 6.2 0 2.9 6.2 0 3 6.2 0 3.1 6.2 0 3.2 6.2 0 3.3 6.2 0 3.4 6.2 0 3.5 6.2 0 3.6 6.2 0 3.7 6.2 0 3.8 6.2 0 3.9 6.2 0 4 6.2 0 4.1 6.2 0 4.2 6.2 0 4.3 6.2 0 4.4 6.2 0 4.5 6.2 0 4.6 6.2 0 4.7 6.2 0 4.8 6.2 0 4.9 6.2 0 5 6.2 0 5.1 6.2 0 5.2 6.2 0 5.3 6.2 0 5.4 6.2 0 5.5 6.2 0 5.6 6.2 0 5.7 6.2 0 5.8 6.2 0 5.9 6.2 0 6 6.2 0 6.1 6.2 0 6.2 6.2 0 6.3 6.2 0 6.4 6.2 0 6.5 6.2 0 6.6 6.2 0 6.7 6.2 0 6.8 6.2 0 6.9 6.2 0 7 6.2 0 7.1 6.2 0 7.2 6.2 0 7.3 6.2 0 7.4 6.2 0 7.5 6.2 0 7.6 6.2 0 7.7 6.2 0 7.8 6.2 0 7.9 6.2 0 8 6.2 0 8.1 6.2 0 8.2 6.2 0 8.3 6.2 0 8.4 6.2 0 8.5 6.2 0 8.6 6.2 0 8.7 6.2 0 8.8 6.2 0 8.9 6.2 0 9 6.2 0 9.1 6.2 0 9.2 6.2 0 9.3 6.2 0 9.4 6.2 0 9.5 6.2 0 9.6 6.2 0 9.7 6.2 0 9.8 6.2 0 9.9 6.2 0 10 6.2 0 0 6.3 0 0.1 6.3 0 0.2 6.3 0 0.3 6.3 0 0.4 6.3 0 0.5 6.3 0 0.6 6.3 0 0.7 6.3 0 0.8 6.3 0 0.9 6.3 0 1 6.3 0 1.1 6.3 0 1.2 6.3 0 1.3 6.3 0 1.4 6.3 0 1.5 6.3 0 1.6 6.3 0 1.7 6.3 0 1.8 6.3 0 1.9 6.3 0 2 6.3 0 2.1 6.3 0 2.2 6.3 0 2.3 6.3 0 2.4 6.3 0 2.5 6.3 0 2.6 6.3 0 2.7 6.3 0 2.8 6.3 0 2.9 6.3 0 3 6.3 0 3.1 6.3 0 3.2 6.3 0 3.3 6.3 0 3.4 6.3 0 3.5 6.3 0 3.6 6.3 0 3.7 6.3 0 3.8 6.3 0 3.9 6.3 0 4 6.3 0 4.1 6.3 0 4.2 6.3 0 4.3 6.3 0 4.4 6.3 0 4.5 6.3 0 4.6 6.3 0 4.7 6.3 0 4.8 6.3 0 4.9 6.3 0 5 6.3 0 5.1 6.3 0 5.2 6.3 0 5.3 6.3 0 5.4 6.3 0 5.5 6.3 0 5.6 6.3 0 5.7 6.3 0 5.8 6.3 0 5.9 6.3 0 6 6.3 0 6.1 6.3 0 6.2 6.3 0 6.3 6.3 0 6.4 6.3 0 6.5 6.3 0 6.6 6.3 0 6.7 6.3 0 6.8 6.3 0 6.9 6.3 0 7 6.3 0 7.1 6.3 0 7.2 6.3 0 7.3 6.3 0 7.4 6.3 0 7.5 6.3 0 7.6 6.3 0 7.7 6.3 0 7.8 6.3 0 7.9 6.3 0 8 6.3 0 8.1 6.3 0 8.2 6.3 0 8.3 6.3 0 8.4 6.3 0 8.5 6.3 0 8.6 6.3 0 8.7 6.3 0 8.8 6.3 0 8.9 6.3 0 9 6.3 0 9.1 6.3 0 9.2 6.3 0 9.3 6.3 0 9.4 6.3 0 9.5 6.3 0 9.6 6.3 0 9.7 6.3 0 9.8 6.3 0 9.9 6.3 0 10 6.3 0 0 6.4 0 0.1 6.4 0 0.2 6.4 0 0.3 6.4 0 0.4 6.4 0 0.5 6.4 0 0.6 6.4 0 0.7 6.4 0 0.8 6.4 0 0.9 6.4 0 1 6.4 0 1.1 6.4 0 1.2 6.4 0 1.3 6.4 0 1.4 6.4 0 1.5 6.4 0 1.6 6.4 0 1.7 6.4 0 1.8 6.4 0 1.9 6.4 0 2 6.4 0 2.1 6.4 0 2.2 6.4 0 2.3 6.4 0 2.4 6.4 0 2.5 6.4 0 2.6 6.4 0 2.7 6.4 0 2.8 6.4 0 2.9 6.4 0 3 6.4 0 3.1 6.4 0 3.2 6.4 0 3.3 6.4 0 3.4 6.4 0 3.5 6.4 0 3.6 6.4 0 3.7 6.4 0 3.8 6.4 0 3.9 6.4 0 4 6.4 0 4.1 6.4 0 4.2 6.4 0 4.3 6.4 0 4.4 6.4 0 4.5 6.4 0 4.6 6.4 0 4.7 6.4 0 4.8 6.4 0 4.9 6.4 0 5 6.4 0 5.1 6.4 0 5.2 6.4 0 5.3 6.4 0 5.4 6.4 0 5.5 6.4 0 5.6 6.4 0 5.7 6.4 0 5.8 6.4 0 5.9 6.4 0 6 6.4 0 6.1 6.4 0 6.2 6.4 0 6.3 6.4 0 6.4 6.4 0 6.5 6.4 0 6.6 6.4 0 6.7 6.4 0 6.8 6.4 0 6.9 6.4 0 7 6.4 0 7.1 6.4 0 7.2 6.4 0 7.3 6.4 0 7.4 6.4 0 7.5 6.4 0 7.6 6.4 0 7.7 6.4 0 7.8 6.4 0 7.9 6.4 0 8 6.4 0 8.1 6.4 0 8.2 6.4 0 8.3 6.4 0 8.4 6.4 0 8.5 6.4 0 8.6 6.4 0 8.7 6.4 0 8.8 6.4 0 8.9 6.4 0 9 6.4 0 9.1 6.4 0 9.2 6.4 0 9.3 6.4 0 9.4 6.4 0 9.5 6.4 0 9.6 6.4 0 9.7 6.4 0 9.8 6.4 0 9.9 6.4 0 10 6.4 0 0 6.5 0 0.1 6.5 0 0.2 6.5 0 0.3 6.5 0 0.4 6.5 0 0.5 6.5 0 0.6 6.5 0 0.7 6.5 0 0.8 6.5 0 0.9 6.5 0 1 6.5 0 1.1 6.5 0 1.2 6.5 0 1.3 6.5 0 1.4 6.5 0 1.5 6.5 0 1.6 6.5 0 1.7 6.5 0 1.8 6.5 0 1.9 6.5 0 2 6.5 0 2.1 6.5 0 2.2 6.5 0 2.3 6.5 0 2.4 6.5 0 2.5 6.5 0 2.6 6.5 0 2.7 6.5 0 2.8 6.5 0 2.9 6.5 0 3 6.5 0 3.1 6.5 0 3.2 6.5 0 3.3 6.5 0 3.4 6.5 0 3.5 6.5 0 3.6 6.5 0 3.7 6.5 0 3.8 6.5 0 3.9 6.5 0 4 6.5 0 4.1 6.5 0 4.2 6.5 0 4.3 6.5 0 4.4 6.5 0 4.5 6.5 0 4.6 6.5 0 4.7 6.5 0 4.8 6.5 0 4.9 6.5 0 5 6.5 0 5.1 6.5 0 5.2 6.5 0 5.3 6.5 0 5.4 6.5 0 5.5 6.5 0 5.6 6.5 0 5.7 6.5 0 5.8 6.5 0 5.9 6.5 0 6 6.5 0 6.1 6.5 0 6.2 6.5 0 6.3 6.5 0 6.4 6.5 0 6.5 6.5 0 6.6 6.5 0 6.7 6.5 0 6.8 6.5 0 6.9 6.5 0 7 6.5 0 7.1 6.5 0 7.2 6.5 0 7.3 6.5 0 7.4 6.5 0 7.5 6.5 0 7.6 6.5 0 7.7 6.5 0 7.8 6.5 0 7.9 6.5 0 8 6.5 0 8.1 6.5 0 8.2 6.5 0 8.3 6.5 0 8.4 6.5 0 8.5 6.5 0 8.6 6.5 0 8.7 6.5 0 8.8 6.5 0 8.9 6.5 0 9 6.5 0 9.1 6.5 0 9.2 6.5 0 9.3 6.5 0 9.4 6.5 0 9.5 6.5 0 9.6 6.5 0 9.7 6.5 0 9.8 6.5 0 9.9 6.5 0 10 6.5 0 0 6.6 0 0.1 6.6 0 0.2 6.6 0 0.3 6.6 0 0.4 6.6 0 0.5 6.6 0 0.6 6.6 0 0.7 6.6 0 0.8 6.6 0 0.9 6.6 0 1 6.6 0 1.1 6.6 0 1.2 6.6 0 1.3 6.6 0 1.4 6.6 0 1.5 6.6 0 1.6 6.6 0 1.7 6.6 0 1.8 6.6 0 1.9 6.6 0 2 6.6 0 2.1 6.6 0 2.2 6.6 0 2.3 6.6 0 2.4 6.6 0 2.5 6.6 0 2.6 6.6 0 2.7 6.6 0 2.8 6.6 0 2.9 6.6 0 3 6.6 0 3.1 6.6 0 3.2 6.6 0 3.3 6.6 0 3.4 6.6 0 3.5 6.6 0 3.6 6.6 0 3.7 6.6 0 3.8 6.6 0 3.9 6.6 0 4 6.6 0 4.1 6.6 0 4.2 6.6 0 4.3 6.6 0 4.4 6.6 0 4.5 6.6 0 4.6 6.6 0 4.7 6.6 0 4.8 6.6 0 4.9 6.6 0 5 6.6 0 5.1 6.6 0 5.2 6.6 0 5.3 6.6 0 5.4 6.6 0 5.5 6.6 0 5.6 6.6 0 5.7 6.6 0 5.8 6.6 0 5.9 6.6 0 6 6.6 0 6.1 6.6 0 6.2 6.6 0 6.3 6.6 0 6.4 6.6 0 6.5 6.6 0 6.6 6.6 0 6.7 6.6 0 6.8 6.6 0 6.9 6.6 0 7 6.6 0 7.1 6.6 0 7.2 6.6 0 7.3 6.6 0 7.4 6.6 0 7.5 6.6 0 7.6 6.6 0 7.7 6.6 0 7.8 6.6 0 7.9 6.6 0 8 6.6 0 8.1 6.6 0 8.2 6.6 0 8.3 6.6 0 8.4 6.6 0 8.5 6.6 0 8.6 6.6 0 8.7 6.6 0 8.8 6.6 0 8.9 6.6 0 9 6.6 0 9.1 6.6 0 9.2 6.6 0 9.3 6.6 0 9.4 6.6 0 9.5 6.6 0 9.6 6.6 0 9.7 6.6 0 9.8 6.6 0 9.9 6.6 0 10 6.6 0 0 6.7 0 0.1 6.7 0 0.2 6.7 0 0.3 6.7 0 0.4 6.7 0 0.5 6.7 0 0.6 6.7 0 0.7 6.7 0 0.8 6.7 0 0.9 6.7 0 1 6.7 0 1.1 6.7 0 1.2 6.7 0 1.3 6.7 0 1.4 6.7 0 1.5 6.7 0 1.6 6.7 0 1.7 6.7 0 1.8 6.7 0 1.9 6.7 0 2 6.7 0 2.1 6.7 0 2.2 6.7 0 2.3 6.7 0 2.4 6.7 0 2.5 6.7 0 2.6 6.7 0 2.7 6.7 0 2.8 6.7 0 2.9 6.7 0 3 6.7 0 3.1 6.7 0 3.2 6.7 0 3.3 6.7 0 3.4 6.7 0 3.5 6.7 0 3.6 6.7 0 3.7 6.7 0 3.8 6.7 0 3.9 6.7 0 4 6.7 0 4.1 6.7 0 4.2 6.7 0 4.3 6.7 0 4.4 6.7 0 4.5 6.7 0 4.6 6.7 0 4.7 6.7 0 4.8 6.7 0 4.9 6.7 0 5 6.7 0 5.1 6.7 0 5.2 6.7 0 5.3 6.7 0 5.4 6.7 0 5.5 6.7 0 5.6 6.7 0 5.7 6.7 0 5.8 6.7 0 5.9 6.7 0 6 6.7 0 6.1 6.7 0 6.2 6.7 0 6.3 6.7 0 6.4 6.7 0 6.5 6.7 0 6.6 6.7 0 6.7 6.7 0 6.8 6.7 0 6.9 6.7 0 7 6.7 0 7.1 6.7 0 7.2 6.7 0 7.3 6.7 0 7.4 6.7 0 7.5 6.7 0 7.6 6.7 0 7.7 6.7 0 7.8 6.7 0 7.9 6.7 0 8 6.7 0 8.1 6.7 0 8.2 6.7 0 8.3 6.7 0 8.4 6.7 0 8.5 6.7 0 8.6 6.7 0 8.7 6.7 0 8.8 6.7 0 8.9 6.7 0 9 6.7 0 9.1 6.7 0 9.2 6.7 0 9.3 6.7 0 9.4 6.7 0 9.5 6.7 0 9.6 6.7 0 9.7 6.7 0 9.8 6.7 0 9.9 6.7 0 10 6.7 0 0 6.8 0 0.1 6.8 0 0.2 6.8 0 0.3 6.8 0 0.4 6.8 0 0.5 6.8 0 0.6 6.8 0 0.7 6.8 0 0.8 6.8 0 0.9 6.8 0 1 6.8 0 1.1 6.8 0 1.2 6.8 0 1.3 6.8 0 1.4 6.8 0 1.5 6.8 0 1.6 6.8 0 1.7 6.8 0 1.8 6.8 0 1.9 6.8 0 2 6.8 0 2.1 6.8 0 2.2 6.8 0 2.3 6.8 0 2.4 6.8 0 2.5 6.8 0 2.6 6.8 0 2.7 6.8 0 2.8 6.8 0 2.9 6.8 0 3 6.8 0 3.1 6.8 0 3.2 6.8 0 3.3 6.8 0 3.4 6.8 0 3.5 6.8 0 3.6 6.8 0 3.7 6.8 0 3.8 6.8 0 3.9 6.8 0 4 6.8 0 4.1 6.8 0 4.2 6.8 0 4.3 6.8 0 4.4 6.8 0 4.5 6.8 0 4.6 6.8 0 4.7 6.8 0 4.8 6.8 0 4.9 6.8 0 5 6.8 0 5.1 6.8 0 5.2 6.8 0 5.3 6.8 0 5.4 6.8 0 5.5 6.8 0 5.6 6.8 0 5.7 6.8 0 5.8 6.8 0 5.9 6.8 0 6 6.8 0 6.1 6.8 0 6.2 6.8 0 6.3 6.8 0 6.4 6.8 0 6.5 6.8 0 6.6 6.8 0 6.7 6.8 0 6.8 6.8 0 6.9 6.8 0 7 6.8 0 7.1 6.8 0 7.2 6.8 0 7.3 6.8 0 7.4 6.8 0 7.5 6.8 0 7.6 6.8 0 7.7 6.8 0 7.8 6.8 0 7.9 6.8 0 8 6.8 0 8.1 6.8 0 8.2 6.8 0 8.3 6.8 0 8.4 6.8 0 8.5 6.8 0 8.6 6.8 0 8.7 6.8 0 8.8 6.8 0 8.9 6.8 0 9 6.8 0 9.1 6.8 0 9.2 6.8 0 9.3 6.8 0 9.4 6.8 0 9.5 6.8 0 9.6 6.8 0 9.7 6.8 0 9.8 6.8 0 9.9 6.8 0 10 6.8 0 0 6.9 0 0.1 6.9 0 0.2 6.9 0 0.3 6.9 0 0.4 6.9 0 0.5 6.9 0 0.6 6.9 0 0.7 6.9 0 0.8 6.9 0 0.9 6.9 0 1 6.9 0 1.1 6.9 0 1.2 6.9 0 1.3 6.9 0 1.4 6.9 0 1.5 6.9 0 1.6 6.9 0 1.7 6.9 0 1.8 6.9 0 1.9 6.9 0 2 6.9 0 2.1 6.9 0 2.2 6.9 0 2.3 6.9 0 2.4 6.9 0 2.5 6.9 0 2.6 6.9 0 2.7 6.9 0 2.8 6.9 0 2.9 6.9 0 3 6.9 0 3.1 6.9 0 3.2 6.9 0 3.3 6.9 0 3.4 6.9 0 3.5 6.9 0 3.6 6.9 0 3.7 6.9 0 3.8 6.9 0 3.9 6.9 0 4 6.9 0 4.1 6.9 0 4.2 6.9 0 4.3 6.9 0 4.4 6.9 0 4.5 6.9 0 4.6 6.9 0 4.7 6.9 0 4.8 6.9 0 4.9 6.9 0 5 6.9 0 5.1 6.9 0 5.2 6.9 0 5.3 6.9 0 5.4 6.9 0 5.5 6.9 0 5.6 6.9 0 5.7 6.9 0 5.8 6.9 0 5.9 6.9 0 6 6.9 0 6.1 6.9 0 6.2 6.9 0 6.3 6.9 0 6.4 6.9 0 6.5 6.9 0 6.6 6.9 0 6.7 6.9 0 6.8 6.9 0 6.9 6.9 0 7 6.9 0 7.1 6.9 0 7.2 6.9 0 7.3 6.9 0 7.4 6.9 0 7.5 6.9 0 7.6 6.9 0 7.7 6.9 0 7.8 6.9 0 7.9 6.9 0 8 6.9 0 8.1 6.9 0 8.2 6.9 0 8.3 6.9 0 8.4 6.9 0 8.5 6.9 0 8.6 6.9 0 8.7 6.9 0 8.8 6.9 0 8.9 6.9 0 9 6.9 0 9.1 6.9 0 9.2 6.9 0 9.3 6.9 0 9.4 6.9 0 9.5 6.9 0 9.6 6.9 0 9.7 6.9 0 9.8 6.9 0 9.9 6.9 0 10 6.9 0 0 7 0 0.1 7 0 0.2 7 0 0.3 7 0 0.4 7 0 0.5 7 0 0.6 7 0 0.7 7 0 0.8 7 0 0.9 7 0 1 7 0 1.1 7 0 1.2 7 0 1.3 7 0 1.4 7 0 1.5 7 0 1.6 7 0 1.7 7 0 1.8 7 0 1.9 7 0 2 7 0 2.1 7 0 2.2 7 0 2.3 7 0 2.4 7 0 2.5 7 0 2.6 7 0 2.7 7 0 2.8 7 0 2.9 7 0 3 7 0 3.1 7 0 3.2 7 0 3.3 7 0 3.4 7 0 3.5 7 0 3.6 7 0 3.7 7 0 3.8 7 0 3.9 7 0 4 7 0 4.1 7 0 4.2 7 0 4.3 7 0 4.4 7 0 4.5 7 0 4.6 7 0 4.7 7 0 4.8 7 0 4.9 7 0 5 7 0 5.1 7 0 5.2 7 0 5.3 7 0 5.4 7 0 5.5 7 0 5.6 7 0 5.7 7 0 5.8 7 0 5.9 7 0 6 7 0 6.1 7 0 6.2 7 0 6.3 7 0 6.4 7 0 6.5 7 0 6.6 7 0 6.7 7 0 6.8 7 0 6.9 7 0 7 7 0 7.1 7 0 7.2 7 0 7.3 7 0 7.4 7 0 7.5 7 0 7.6 7 0 7.7 7 0 7.8 7 0 7.9 7 0 8 7 0 8.1 7 0 8.2 7 0 8.3 7 0 8.4 7 0 8.5 7 0 8.6 7 0 8.7 7 0 8.8 7 0 8.9 7 0 9 7 0 9.1 7 0 9.2 7 0 9.3 7 0 9.4 7 0 9.5 7 0 9.6 7 0 9.7 7 0 9.8 7 0 9.9 7 0 10 7 0 0 7.1 0 0.1 7.1 0 0.2 7.1 0 0.3 7.1 0 0.4 7.1 0 0.5 7.1 0 0.6 7.1 0 0.7 7.1 0 0.8 7.1 0 0.9 7.1 0 1 7.1 0 1.1 7.1 0 1.2 7.1 0 1.3 7.1 0 1.4 7.1 0 1.5 7.1 0 1.6 7.1 0 1.7 7.1 0 1.8 7.1 0 1.9 7.1 0 2 7.1 0 2.1 7.1 0 2.2 7.1 0 2.3 7.1 0 2.4 7.1 0 2.5 7.1 0 2.6 7.1 0 2.7 7.1 0 2.8 7.1 0 2.9 7.1 0 3 7.1 0 3.1 7.1 0 3.2 7.1 0 3.3 7.1 0 3.4 7.1 0 3.5 7.1 0 3.6 7.1 0 3.7 7.1 0 3.8 7.1 0 3.9 7.1 0 4 7.1 0 4.1 7.1 0 4.2 7.1 0 4.3 7.1 0 4.4 7.1 0 4.5 7.1 0 4.6 7.1 0 4.7 7.1 0 4.8 7.1 0 4.9 7.1 0 5 7.1 0 5.1 7.1 0 5.2 7.1 0 5.3 7.1 0 5.4 7.1 0 5.5 7.1 0 5.6 7.1 0 5.7 7.1 0 5.8 7.1 0 5.9 7.1 0 6 7.1 0 6.1 7.1 0 6.2 7.1 0 6.3 7.1 0 6.4 7.1 0 6.5 7.1 0 6.6 7.1 0 6.7 7.1 0 6.8 7.1 0 6.9 7.1 0 7 7.1 0 7.1 7.1 0 7.2 7.1 0 7.3 7.1 0 7.4 7.1 0 7.5 7.1 0 7.6 7.1 0 7.7 7.1 0 7.8 7.1 0 7.9 7.1 0 8 7.1 0 8.1 7.1 0 8.2 7.1 0 8.3 7.1 0 8.4 7.1 0 8.5 7.1 0 8.6 7.1 0 8.7 7.1 0 8.8 7.1 0 8.9 7.1 0 9 7.1 0 9.1 7.1 0 9.2 7.1 0 9.3 7.1 0 9.4 7.1 0 9.5 7.1 0 9.6 7.1 0 9.7 7.1 0 9.8 7.1 0 9.9 7.1 0 10 7.1 0 0 7.2 0 0.1 7.2 0 0.2 7.2 0 0.3 7.2 0 0.4 7.2 0 0.5 7.2 0 0.6 7.2 0 0.7 7.2 0 0.8 7.2 0 0.9 7.2 0 1 7.2 0 1.1 7.2 0 1.2 7.2 0 1.3 7.2 0 1.4 7.2 0 1.5 7.2 0 1.6 7.2 0 1.7 7.2 0 1.8 7.2 0 1.9 7.2 0 2 7.2 0 2.1 7.2 0 2.2 7.2 0 2.3 7.2 0 2.4 7.2 0 2.5 7.2 0 2.6 7.2 0 2.7 7.2 0 2.8 7.2 0 2.9 7.2 0 3 7.2 0 3.1 7.2 0 3.2 7.2 0 3.3 7.2 0 3.4 7.2 0 3.5 7.2 0 3.6 7.2 0 3.7 7.2 0 3.8 7.2 0 3.9 7.2 0 4 7.2 0 4.1 7.2 0 4.2 7.2 0 4.3 7.2 0 4.4 7.2 0 4.5 7.2 0 4.6 7.2 0 4.7 7.2 0 4.8 7.2 0 4.9 7.2 0 5 7.2 0 5.1 7.2 0 5.2 7.2 0 5.3 7.2 0 5.4 7.2 0 5.5 7.2 0 5.6 7.2 0 5.7 7.2 0 5.8 7.2 0 5.9 7.2 0 6 7.2 0 6.1 7.2 0 6.2 7.2 0 6.3 7.2 0 6.4 7.2 0 6.5 7.2 0 6.6 7.2 0 6.7 7.2 0 6.8 7.2 0 6.9 7.2 0 7 7.2 0 7.1 7.2 0 7.2 7.2 0 7.3 7.2 0 7.4 7.2 0 7.5 7.2 0 7.6 7.2 0 7.7 7.2 0 7.8 7.2 0 7.9 7.2 0 8 7.2 0 8.1 7.2 0 8.2 7.2 0 8.3 7.2 0 8.4 7.2 0 8.5 7.2 0 8.6 7.2 0 8.7 7.2 0 8.8 7.2 0 8.9 7.2 0 9 7.2 0 9.1 7.2 0 9.2 7.2 0 9.3 7.2 0 9.4 7.2 0 9.5 7.2 0 9.6 7.2 0 9.7 7.2 0 9.8 7.2 0 9.9 7.2 0 10 7.2 0 0 7.3 0 0.1 7.3 0 0.2 7.3 0 0.3 7.3 0 0.4 7.3 0 0.5 7.3 0 0.6 7.3 0 0.7 7.3 0 0.8 7.3 0 0.9 7.3 0 1 7.3 0 1.1 7.3 0 1.2 7.3 0 1.3 7.3 0 1.4 7.3 0 1.5 7.3 0 1.6 7.3 0 1.7 7.3 0 1.8 7.3 0 1.9 7.3 0 2 7.3 0 2.1 7.3 0 2.2 7.3 0 2.3 7.3 0 2.4 7.3 0 2.5 7.3 0 2.6 7.3 0 2.7 7.3 0 2.8 7.3 0 2.9 7.3 0 3 7.3 0 3.1 7.3 0 3.2 7.3 0 3.3 7.3 0 3.4 7.3 0 3.5 7.3 0 3.6 7.3 0 3.7 7.3 0 3.8 7.3 0 3.9 7.3 0 4 7.3 0 4.1 7.3 0 4.2 7.3 0 4.3 7.3 0 4.4 7.3 0 4.5 7.3 0 4.6 7.3 0 4.7 7.3 0 4.8 7.3 0 4.9 7.3 0 5 7.3 0 5.1 7.3 0 5.2 7.3 0 5.3 7.3 0 5.4 7.3 0 5.5 7.3 0 5.6 7.3 0 5.7 7.3 0 5.8 7.3 0 5.9 7.3 0 6 7.3 0 6.1 7.3 0 6.2 7.3 0 6.3 7.3 0 6.4 7.3 0 6.5 7.3 0 6.6 7.3 0 6.7 7.3 0 6.8 7.3 0 6.9 7.3 0 7 7.3 0 7.1 7.3 0 7.2 7.3 0 7.3 7.3 0 7.4 7.3 0 7.5 7.3 0 7.6 7.3 0 7.7 7.3 0 7.8 7.3 0 7.9 7.3 0 8 7.3 0 8.1 7.3 0 8.2 7.3 0 8.3 7.3 0 8.4 7.3 0 8.5 7.3 0 8.6 7.3 0 8.7 7.3 0 8.8 7.3 0 8.9 7.3 0 9 7.3 0 9.1 7.3 0 9.2 7.3 0 9.3 7.3 0 9.4 7.3 0 9.5 7.3 0 9.6 7.3 0 9.7 7.3 0 9.8 7.3 0 9.9 7.3 0 10 7.3 0 0 7.4 0 0.1 7.4 0 0.2 7.4 0 0.3 7.4 0 0.4 7.4 0 0.5 7.4 0 0.6 7.4 0 0.7 7.4 0 0.8 7.4 0 0.9 7.4 0 1 7.4 0 1.1 7.4 0 1.2 7.4 0 1.3 7.4 0 1.4 7.4 0 1.5 7.4 0 1.6 7.4 0 1.7 7.4 0 1.8 7.4 0 1.9 7.4 0 2 7.4 0 2.1 7.4 0 2.2 7.4 0 2.3 7.4 0 2.4 7.4 0 2.5 7.4 0 2.6 7.4 0 2.7 7.4 0 2.8 7.4 0 2.9 7.4 0 3 7.4 0 3.1 7.4 0 3.2 7.4 0 3.3 7.4 0 3.4 7.4 0 3.5 7.4 0 3.6 7.4 0 3.7 7.4 0 3.8 7.4 0 3.9 7.4 0 4 7.4 0 4.1 7.4 0 4.2 7.4 0 4.3 7.4 0 4.4 7.4 0 4.5 7.4 0 4.6 7.4 0 4.7 7.4 0 4.8 7.4 0 4.9 7.4 0 5 7.4 0 5.1 7.4 0 5.2 7.4 0 5.3 7.4 0 5.4 7.4 0 5.5 7.4 0 5.6 7.4 0 5.7 7.4 0 5.8 7.4 0 5.9 7.4 0 6 7.4 0 6.1 7.4 0 6.2 7.4 0 6.3 7.4 0 6.4 7.4 0 6.5 7.4 0 6.6 7.4 0 6.7 7.4 0 6.8 7.4 0 6.9 7.4 0 7 7.4 0 7.1 7.4 0 7.2 7.4 0 7.3 7.4 0 7.4 7.4 0 7.5 7.4 0 7.6 7.4 0 7.7 7.4 0 7.8 7.4 0 7.9 7.4 0 8 7.4 0 8.1 7.4 0 8.2 7.4 0 8.3 7.4 0 8.4 7.4 0 8.5 7.4 0 8.6 7.4 0 8.7 7.4 0 8.8 7.4 0 8.9 7.4 0 9 7.4 0 9.1 7.4 0 9.2 7.4 0 9.3 7.4 0 9.4 7.4 0 9.5 7.4 0 9.6 7.4 0 9.7 7.4 0 9.8 7.4 0 9.9 7.4 0 10 7.4 0 0 7.5 0 0.1 7.5 0 0.2 7.5 0 0.3 7.5 0 0.4 7.5 0 0.5 7.5 0 0.6 7.5 0 0.7 7.5 0 0.8 7.5 0 0.9 7.5 0 1 7.5 0 1.1 7.5 0 1.2 7.5 0 1.3 7.5 0 1.4 7.5 0 1.5 7.5 0 1.6 7.5 0 1.7 7.5 0 1.8 7.5 0 1.9 7.5 0 2 7.5 0 2.1 7.5 0 2.2 7.5 0 2.3 7.5 0 2.4 7.5 0 2.5 7.5 0 2.6 7.5 0 2.7 7.5 0 2.8 7.5 0 2.9 7.5 0 3 7.5 0 3.1 7.5 0 3.2 7.5 0 3.3 7.5 0 3.4 7.5 0 3.5 7.5 0 3.6 7.5 0 3.7 7.5 0 3.8 7.5 0 3.9 7.5 0 4 7.5 0 4.1 7.5 0 4.2 7.5 0 4.3 7.5 0 4.4 7.5 0 4.5 7.5 0 4.6 7.5 0 4.7 7.5 0 4.8 7.5 0 4.9 7.5 0 5 7.5 0 5.1 7.5 0 5.2 7.5 0 5.3 7.5 0 5.4 7.5 0 5.5 7.5 0 5.6 7.5 0 5.7 7.5 0 5.8 7.5 0 5.9 7.5 0 6 7.5 0 6.1 7.5 0 6.2 7.5 0 6.3 7.5 0 6.4 7.5 0 6.5 7.5 0 6.6 7.5 0 6.7 7.5 0 6.8 7.5 0 6.9 7.5 0 7 7.5 0 7.1 7.5 0 7.2 7.5 0 7.3 7.5 0 7.4 7.5 0 7.5 7.5 0 7.6 7.5 0 7.7 7.5 0 7.8 7.5 0 7.9 7.5 0 8 7.5 0 8.1 7.5 0 8.2 7.5 0 8.3 7.5 0 8.4 7.5 0 8.5 7.5 0 8.6 7.5 0 8.7 7.5 0 8.8 7.5 0 8.9 7.5 0 9 7.5 0 9.1 7.5 0 9.2 7.5 0 9.3 7.5 0 9.4 7.5 0 9.5 7.5 0 9.6 7.5 0 9.7 7.5 0 9.8 7.5 0 9.9 7.5 0 10 7.5 0 0 7.6 0 0.1 7.6 0 0.2 7.6 0 0.3 7.6 0 0.4 7.6 0 0.5 7.6 0 0.6 7.6 0 0.7 7.6 0 0.8 7.6 0 0.9 7.6 0 1 7.6 0 1.1 7.6 0 1.2 7.6 0 1.3 7.6 0 1.4 7.6 0 1.5 7.6 0 1.6 7.6 0 1.7 7.6 0 1.8 7.6 0 1.9 7.6 0 2 7.6 0 2.1 7.6 0 2.2 7.6 0 2.3 7.6 0 2.4 7.6 0 2.5 7.6 0 2.6 7.6 0 2.7 7.6 0 2.8 7.6 0 2.9 7.6 0 3 7.6 0 3.1 7.6 0 3.2 7.6 0 3.3 7.6 0 3.4 7.6 0 3.5 7.6 0 3.6 7.6 0 3.7 7.6 0 3.8 7.6 0 3.9 7.6 0 4 7.6 0 4.1 7.6 0 4.2 7.6 0 4.3 7.6 0 4.4 7.6 0 4.5 7.6 0 4.6 7.6 0 4.7 7.6 0 4.8 7.6 0 4.9 7.6 0 5 7.6 0 5.1 7.6 0 5.2 7.6 0 5.3 7.6 0 5.4 7.6 0 5.5 7.6 0 5.6 7.6 0 5.7 7.6 0 5.8 7.6 0 5.9 7.6 0 6 7.6 0 6.1 7.6 0 6.2 7.6 0 6.3 7.6 0 6.4 7.6 0 6.5 7.6 0 6.6 7.6 0 6.7 7.6 0 6.8 7.6 0 6.9 7.6 0 7 7.6 0 7.1 7.6 0 7.2 7.6 0 7.3 7.6 0 7.4 7.6 0 7.5 7.6 0 7.6 7.6 0 7.7 7.6 0 7.8 7.6 0 7.9 7.6 0 8 7.6 0 8.1 7.6 0 8.2 7.6 0 8.3 7.6 0 8.4 7.6 0 8.5 7.6 0 8.6 7.6 0 8.7 7.6 0 8.8 7.6 0 8.9 7.6 0 9 7.6 0 9.1 7.6 0 9.2 7.6 0 9.3 7.6 0 9.4 7.6 0 9.5 7.6 0 9.6 7.6 0 9.7 7.6 0 9.8 7.6 0 9.9 7.6 0 10 7.6 0 0 7.7 0 0.1 7.7 0 0.2 7.7 0 0.3 7.7 0 0.4 7.7 0 0.5 7.7 0 0.6 7.7 0 0.7 7.7 0 0.8 7.7 0 0.9 7.7 0 1 7.7 0 1.1 7.7 0 1.2 7.7 0 1.3 7.7 0 1.4 7.7 0 1.5 7.7 0 1.6 7.7 0 1.7 7.7 0 1.8 7.7 0 1.9 7.7 0 2 7.7 0 2.1 7.7 0 2.2 7.7 0 2.3 7.7 0 2.4 7.7 0 2.5 7.7 0 2.6 7.7 0 2.7 7.7 0 2.8 7.7 0 2.9 7.7 0 3 7.7 0 3.1 7.7 0 3.2 7.7 0 3.3 7.7 0 3.4 7.7 0 3.5 7.7 0 3.6 7.7 0 3.7 7.7 0 3.8 7.7 0 3.9 7.7 0 4 7.7 0 4.1 7.7 0 4.2 7.7 0 4.3 7.7 0 4.4 7.7 0 4.5 7.7 0 4.6 7.7 0 4.7 7.7 0 4.8 7.7 0 4.9 7.7 0 5 7.7 0 5.1 7.7 0 5.2 7.7 0 5.3 7.7 0 5.4 7.7 0 5.5 7.7 0 5.6 7.7 0 5.7 7.7 0 5.8 7.7 0 5.9 7.7 0 6 7.7 0 6.1 7.7 0 6.2 7.7 0 6.3 7.7 0 6.4 7.7 0 6.5 7.7 0 6.6 7.7 0 6.7 7.7 0 6.8 7.7 0 6.9 7.7 0 7 7.7 0 7.1 7.7 0 7.2 7.7 0 7.3 7.7 0 7.4 7.7 0 7.5 7.7 0 7.6 7.7 0 7.7 7.7 0 7.8 7.7 0 7.9 7.7 0 8 7.7 0 8.1 7.7 0 8.2 7.7 0 8.3 7.7 0 8.4 7.7 0 8.5 7.7 0 8.6 7.7 0 8.7 7.7 0 8.8 7.7 0 8.9 7.7 0 9 7.7 0 9.1 7.7 0 9.2 7.7 0 9.3 7.7 0 9.4 7.7 0 9.5 7.7 0 9.6 7.7 0 9.7 7.7 0 9.8 7.7 0 9.9 7.7 0 10 7.7 0 0 7.8 0 0.1 7.8 0 0.2 7.8 0 0.3 7.8 0 0.4 7.8 0 0.5 7.8 0 0.6 7.8 0 0.7 7.8 0 0.8 7.8 0 0.9 7.8 0 1 7.8 0 1.1 7.8 0 1.2 7.8 0 1.3 7.8 0 1.4 7.8 0 1.5 7.8 0 1.6 7.8 0 1.7 7.8 0 1.8 7.8 0 1.9 7.8 0 2 7.8 0 2.1 7.8 0 2.2 7.8 0 2.3 7.8 0 2.4 7.8 0 2.5 7.8 0 2.6 7.8 0 2.7 7.8 0 2.8 7.8 0 2.9 7.8 0 3 7.8 0 3.1 7.8 0 3.2 7.8 0 3.3 7.8 0 3.4 7.8 0 3.5 7.8 0 3.6 7.8 0 3.7 7.8 0 3.8 7.8 0 3.9 7.8 0 4 7.8 0 4.1 7.8 0 4.2 7.8 0 4.3 7.8 0 4.4 7.8 0 4.5 7.8 0 4.6 7.8 0 4.7 7.8 0 4.8 7.8 0 4.9 7.8 0 5 7.8 0 5.1 7.8 0 5.2 7.8 0 5.3 7.8 0 5.4 7.8 0 5.5 7.8 0 5.6 7.8 0 5.7 7.8 0 5.8 7.8 0 5.9 7.8 0 6 7.8 0 6.1 7.8 0 6.2 7.8 0 6.3 7.8 0 6.4 7.8 0 6.5 7.8 0 6.6 7.8 0 6.7 7.8 0 6.8 7.8 0 6.9 7.8 0 7 7.8 0 7.1 7.8 0 7.2 7.8 0 7.3 7.8 0 7.4 7.8 0 7.5 7.8 0 7.6 7.8 0 7.7 7.8 0 7.8 7.8 0 7.9 7.8 0 8 7.8 0 8.1 7.8 0 8.2 7.8 0 8.3 7.8 0 8.4 7.8 0 8.5 7.8 0 8.6 7.8 0 8.7 7.8 0 8.8 7.8 0 8.9 7.8 0 9 7.8 0 9.1 7.8 0 9.2 7.8 0 9.3 7.8 0 9.4 7.8 0 9.5 7.8 0 9.6 7.8 0 9.7 7.8 0 9.8 7.8 0 9.9 7.8 0 10 7.8 0 0 7.9 0 0.1 7.9 0 0.2 7.9 0 0.3 7.9 0 0.4 7.9 0 0.5 7.9 0 0.6 7.9 0 0.7 7.9 0 0.8 7.9 0 0.9 7.9 0 1 7.9 0 1.1 7.9 0 1.2 7.9 0 1.3 7.9 0 1.4 7.9 0 1.5 7.9 0 1.6 7.9 0 1.7 7.9 0 1.8 7.9 0 1.9 7.9 0 2 7.9 0 2.1 7.9 0 2.2 7.9 0 2.3 7.9 0 2.4 7.9 0 2.5 7.9 0 2.6 7.9 0 2.7 7.9 0 2.8 7.9 0 2.9 7.9 0 3 7.9 0 3.1 7.9 0 3.2 7.9 0 3.3 7.9 0 3.4 7.9 0 3.5 7.9 0 3.6 7.9 0 3.7 7.9 0 3.8 7.9 0 3.9 7.9 0 4 7.9 0 4.1 7.9 0 4.2 7.9 0 4.3 7.9 0 4.4 7.9 0 4.5 7.9 0 4.6 7.9 0 4.7 7.9 0 4.8 7.9 0 4.9 7.9 0 5 7.9 0 5.1 7.9 0 5.2 7.9 0 5.3 7.9 0 5.4 7.9 0 5.5 7.9 0 5.6 7.9 0 5.7 7.9 0 5.8 7.9 0 5.9 7.9 0 6 7.9 0 6.1 7.9 0 6.2 7.9 0 6.3 7.9 0 6.4 7.9 0 6.5 7.9 0 6.6 7.9 0 6.7 7.9 0 6.8 7.9 0 6.9 7.9 0 7 7.9 0 7.1 7.9 0 7.2 7.9 0 7.3 7.9 0 7.4 7.9 0 7.5 7.9 0 7.6 7.9 0 7.7 7.9 0 7.8 7.9 0 7.9 7.9 0 8 7.9 0 8.1 7.9 0 8.2 7.9 0 8.3 7.9 0 8.4 7.9 0 8.5 7.9 0 8.6 7.9 0 8.7 7.9 0 8.8 7.9 0 8.9 7.9 0 9 7.9 0 9.1 7.9 0 9.2 7.9 0 9.3 7.9 0 9.4 7.9 0 9.5 7.9 0 9.6 7.9 0 9.7 7.9 0 9.8 7.9 0 9.9 7.9 0 10 7.9 0 0 8 0 0.1 8 0 0.2 8 0 0.3 8 0 0.4 8 0 0.5 8 0 0.6 8 0 0.7 8 0 0.8 8 0 0.9 8 0 1 8 0 1.1 8 0 1.2 8 0 1.3 8 0 1.4 8 0 1.5 8 0 1.6 8 0 1.7 8 0 1.8 8 0 1.9 8 0 2 8 0 2.1 8 0 2.2 8 0 2.3 8 0 2.4 8 0 2.5 8 0 2.6 8 0 2.7 8 0 2.8 8 0 2.9 8 0 3 8 0 3.1 8 0 3.2 8 0 3.3 8 0 3.4 8 0 3.5 8 0 3.6 8 0 3.7 8 0 3.8 8 0 3.9 8 0 4 8 0 4.1 8 0 4.2 8 0 4.3 8 0 4.4 8 0 4.5 8 0 4.6 8 0 4.7 8 0 4.8 8 0 4.9 8 0 5 8 0 5.1 8 0 5.2 8 0 5.3 8 0 5.4 8 0 5.5 8 0 5.6 8 0 5.7 8 0 5.8 8 0 5.9 8 0 6 8 0 6.1 8 0 6.2 8 0 6.3 8 0 6.4 8 0 6.5 8 0 6.6 8 0 6.7 8 0 6.8 8 0 6.9 8 0 7 8 0 7.1 8 0 7.2 8 0 7.3 8 0 7.4 8 0 7.5 8 0 7.6 8 0 7.7 8 0 7.8 8 0 7.9 8 0 8 8 0 8.1 8 0 8.2 8 0 8.3 8 0 8.4 8 0 8.5 8 0 8.6 8 0 8.7 8 0 8.8 8 0 8.9 8 0 9 8 0 9.1 8 0 9.2 8 0 9.3 8 0 9.4 8 0 9.5 8 0 9.6 8 0 9.7 8 0 9.8 8 0 9.9 8 0 10 8 0 0 8.1 0 0.1 8.1 0 0.2 8.1 0 0.3 8.1 0 0.4 8.1 0 0.5 8.1 0 0.6 8.1 0 0.7 8.1 0 0.8 8.1 0 0.9 8.1 0 1 8.1 0 1.1 8.1 0 1.2 8.1 0 1.3 8.1 0 1.4 8.1 0 1.5 8.1 0 1.6 8.1 0 1.7 8.1 0 1.8 8.1 0 1.9 8.1 0 2 8.1 0 2.1 8.1 0 2.2 8.1 0 2.3 8.1 0 2.4 8.1 0 2.5 8.1 0 2.6 8.1 0 2.7 8.1 0 2.8 8.1 0 2.9 8.1 0 3 8.1 0 3.1 8.1 0 3.2 8.1 0 3.3 8.1 0 3.4 8.1 0 3.5 8.1 0 3.6 8.1 0 3.7 8.1 0 3.8 8.1 0 3.9 8.1 0 4 8.1 0 4.1 8.1 0 4.2 8.1 0 4.3 8.1 0 4.4 8.1 0 4.5 8.1 0 4.6 8.1 0 4.7 8.1 0 4.8 8.1 0 4.9 8.1 0 5 8.1 0 5.1 8.1 0 5.2 8.1 0 5.3 8.1 0 5.4 8.1 0 5.5 8.1 0 5.6 8.1 0 5.7 8.1 0 5.8 8.1 0 5.9 8.1 0 6 8.1 0 6.1 8.1 0 6.2 8.1 0 6.3 8.1 0 6.4 8.1 0 6.5 8.1 0 6.6 8.1 0 6.7 8.1 0 6.8 8.1 0 6.9 8.1 0 7 8.1 0 7.1 8.1 0 7.2 8.1 0 7.3 8.1 0 7.4 8.1 0 7.5 8.1 0 7.6 8.1 0 7.7 8.1 0 7.8 8.1 0 7.9 8.1 0 8 8.1 0 8.1 8.1 0 8.2 8.1 0 8.3 8.1 0 8.4 8.1 0 8.5 8.1 0 8.6 8.1 0 8.7 8.1 0 8.8 8.1 0 8.9 8.1 0 9 8.1 0 9.1 8.1 0 9.2 8.1 0 9.3 8.1 0 9.4 8.1 0 9.5 8.1 0 9.6 8.1 0 9.7 8.1 0 9.8 8.1 0 9.9 8.1 0 10 8.1 0 0 8.2 0 0.1 8.2 0 0.2 8.2 0 0.3 8.2 0 0.4 8.2 0 0.5 8.2 0 0.6 8.2 0 0.7 8.2 0 0.8 8.2 0 0.9 8.2 0 1 8.2 0 1.1 8.2 0 1.2 8.2 0 1.3 8.2 0 1.4 8.2 0 1.5 8.2 0 1.6 8.2 0 1.7 8.2 0 1.8 8.2 0 1.9 8.2 0 2 8.2 0 2.1 8.2 0 2.2 8.2 0 2.3 8.2 0 2.4 8.2 0 2.5 8.2 0 2.6 8.2 0 2.7 8.2 0 2.8 8.2 0 2.9 8.2 0 3 8.2 0 3.1 8.2 0 3.2 8.2 0 3.3 8.2 0 3.4 8.2 0 3.5 8.2 0 3.6 8.2 0 3.7 8.2 0 3.8 8.2 0 3.9 8.2 0 4 8.2 0 4.1 8.2 0 4.2 8.2 0 4.3 8.2 0 4.4 8.2 0 4.5 8.2 0 4.6 8.2 0 4.7 8.2 0 4.8 8.2 0 4.9 8.2 0 5 8.2 0 5.1 8.2 0 5.2 8.2 0 5.3 8.2 0 5.4 8.2 0 5.5 8.2 0 5.6 8.2 0 5.7 8.2 0 5.8 8.2 0 5.9 8.2 0 6 8.2 0 6.1 8.2 0 6.2 8.2 0 6.3 8.2 0 6.4 8.2 0 6.5 8.2 0 6.6 8.2 0 6.7 8.2 0 6.8 8.2 0 6.9 8.2 0 7 8.2 0 7.1 8.2 0 7.2 8.2 0 7.3 8.2 0 7.4 8.2 0 7.5 8.2 0 7.6 8.2 0 7.7 8.2 0 7.8 8.2 0 7.9 8.2 0 8 8.2 0 8.1 8.2 0 8.2 8.2 0 8.3 8.2 0 8.4 8.2 0 8.5 8.2 0 8.6 8.2 0 8.7 8.2 0 8.8 8.2 0 8.9 8.2 0 9 8.2 0 9.1 8.2 0 9.2 8.2 0 9.3 8.2 0 9.4 8.2 0 9.5 8.2 0 9.6 8.2 0 9.7 8.2 0 9.8 8.2 0 9.9 8.2 0 10 8.2 0 0 8.3 0 0.1 8.3 0 0.2 8.3 0 0.3 8.3 0 0.4 8.3 0 0.5 8.3 0 0.6 8.3 0 0.7 8.3 0 0.8 8.3 0 0.9 8.3 0 1 8.3 0 1.1 8.3 0 1.2 8.3 0 1.3 8.3 0 1.4 8.3 0 1.5 8.3 0 1.6 8.3 0 1.7 8.3 0 1.8 8.3 0 1.9 8.3 0 2 8.3 0 2.1 8.3 0 2.2 8.3 0 2.3 8.3 0 2.4 8.3 0 2.5 8.3 0 2.6 8.3 0 2.7 8.3 0 2.8 8.3 0 2.9 8.3 0 3 8.3 0 3.1 8.3 0 3.2 8.3 0 3.3 8.3 0 3.4 8.3 0 3.5 8.3 0 3.6 8.3 0 3.7 8.3 0 3.8 8.3 0 3.9 8.3 0 4 8.3 0 4.1 8.3 0 4.2 8.3 0 4.3 8.3 0 4.4 8.3 0 4.5 8.3 0 4.6 8.3 0 4.7 8.3 0 4.8 8.3 0 4.9 8.3 0 5 8.3 0 5.1 8.3 0 5.2 8.3 0 5.3 8.3 0 5.4 8.3 0 5.5 8.3 0 5.6 8.3 0 5.7 8.3 0 5.8 8.3 0 5.9 8.3 0 6 8.3 0 6.1 8.3 0 6.2 8.3 0 6.3 8.3 0 6.4 8.3 0 6.5 8.3 0 6.6 8.3 0 6.7 8.3 0 6.8 8.3 0 6.9 8.3 0 7 8.3 0 7.1 8.3 0 7.2 8.3 0 7.3 8.3 0 7.4 8.3 0 7.5 8.3 0 7.6 8.3 0 7.7 8.3 0 7.8 8.3 0 7.9 8.3 0 8 8.3 0 8.1 8.3 0 8.2 8.3 0 8.3 8.3 0 8.4 8.3 0 8.5 8.3 0 8.6 8.3 0 8.7 8.3 0 8.8 8.3 0 8.9 8.3 0 9 8.3 0 9.1 8.3 0 9.2 8.3 0 9.3 8.3 0 9.4 8.3 0 9.5 8.3 0 9.6 8.3 0 9.7 8.3 0 9.8 8.3 0 9.9 8.3 0 10 8.3 0 0 8.4 0 0.1 8.4 0 0.2 8.4 0 0.3 8.4 0 0.4 8.4 0 0.5 8.4 0 0.6 8.4 0 0.7 8.4 0 0.8 8.4 0 0.9 8.4 0 1 8.4 0 1.1 8.4 0 1.2 8.4 0 1.3 8.4 0 1.4 8.4 0 1.5 8.4 0 1.6 8.4 0 1.7 8.4 0 1.8 8.4 0 1.9 8.4 0 2 8.4 0 2.1 8.4 0 2.2 8.4 0 2.3 8.4 0 2.4 8.4 0 2.5 8.4 0 2.6 8.4 0 2.7 8.4 0 2.8 8.4 0 2.9 8.4 0 3 8.4 0 3.1 8.4 0 3.2 8.4 0 3.3 8.4 0 3.4 8.4 0 3.5 8.4 0 3.6 8.4 0 3.7 8.4 0 3.8 8.4 0 3.9 8.4 0 4 8.4 0 4.1 8.4 0 4.2 8.4 0 4.3 8.4 0 4.4 8.4 0 4.5 8.4 0 4.6 8.4 0 4.7 8.4 0 4.8 8.4 0 4.9 8.4 0 5 8.4 0 5.1 8.4 0 5.2 8.4 0 5.3 8.4 0 5.4 8.4 0 5.5 8.4 0 5.6 8.4 0 5.7 8.4 0 5.8 8.4 0 5.9 8.4 0 6 8.4 0 6.1 8.4 0 6.2 8.4 0 6.3 8.4 0 6.4 8.4 0 6.5 8.4 0 6.6 8.4 0 6.7 8.4 0 6.8 8.4 0 6.9 8.4 0 7 8.4 0 7.1 8.4 0 7.2 8.4 0 7.3 8.4 0 7.4 8.4 0 7.5 8.4 0 7.6 8.4 0 7.7 8.4 0 7.8 8.4 0 7.9 8.4 0 8 8.4 0 8.1 8.4 0 8.2 8.4 0 8.3 8.4 0 8.4 8.4 0 8.5 8.4 0 8.6 8.4 0 8.7 8.4 0 8.8 8.4 0 8.9 8.4 0 9 8.4 0 9.1 8.4 0 9.2 8.4 0 9.3 8.4 0 9.4 8.4 0 9.5 8.4 0 9.6 8.4 0 9.7 8.4 0 9.8 8.4 0 9.9 8.4 0 10 8.4 0 0 8.5 0 0.1 8.5 0 0.2 8.5 0 0.3 8.5 0 0.4 8.5 0 0.5 8.5 0 0.6 8.5 0 0.7 8.5 0 0.8 8.5 0 0.9 8.5 0 1 8.5 0 1.1 8.5 0 1.2 8.5 0 1.3 8.5 0 1.4 8.5 0 1.5 8.5 0 1.6 8.5 0 1.7 8.5 0 1.8 8.5 0 1.9 8.5 0 2 8.5 0 2.1 8.5 0 2.2 8.5 0 2.3 8.5 0 2.4 8.5 0 2.5 8.5 0 2.6 8.5 0 2.7 8.5 0 2.8 8.5 0 2.9 8.5 0 3 8.5 0 3.1 8.5 0 3.2 8.5 0 3.3 8.5 0 3.4 8.5 0 3.5 8.5 0 3.6 8.5 0 3.7 8.5 0 3.8 8.5 0 3.9 8.5 0 4 8.5 0 4.1 8.5 0 4.2 8.5 0 4.3 8.5 0 4.4 8.5 0 4.5 8.5 0 4.6 8.5 0 4.7 8.5 0 4.8 8.5 0 4.9 8.5 0 5 8.5 0 5.1 8.5 0 5.2 8.5 0 5.3 8.5 0 5.4 8.5 0 5.5 8.5 0 5.6 8.5 0 5.7 8.5 0 5.8 8.5 0 5.9 8.5 0 6 8.5 0 6.1 8.5 0 6.2 8.5 0 6.3 8.5 0 6.4 8.5 0 6.5 8.5 0 6.6 8.5 0 6.7 8.5 0 6.8 8.5 0 6.9 8.5 0 7 8.5 0 7.1 8.5 0 7.2 8.5 0 7.3 8.5 0 7.4 8.5 0 7.5 8.5 0 7.6 8.5 0 7.7 8.5 0 7.8 8.5 0 7.9 8.5 0 8 8.5 0 8.1 8.5 0 8.2 8.5 0 8.3 8.5 0 8.4 8.5 0 8.5 8.5 0 8.6 8.5 0 8.7 8.5 0 8.8 8.5 0 8.9 8.5 0 9 8.5 0 9.1 8.5 0 9.2 8.5 0 9.3 8.5 0 9.4 8.5 0 9.5 8.5 0 9.6 8.5 0 9.7 8.5 0 9.8 8.5 0 9.9 8.5 0 10 8.5 0 0 8.6 0 0.1 8.6 0 0.2 8.6 0 0.3 8.6 0 0.4 8.6 0 0.5 8.6 0 0.6 8.6 0 0.7 8.6 0 0.8 8.6 0 0.9 8.6 0 1 8.6 0 1.1 8.6 0 1.2 8.6 0 1.3 8.6 0 1.4 8.6 0 1.5 8.6 0 1.6 8.6 0 1.7 8.6 0 1.8 8.6 0 1.9 8.6 0 2 8.6 0 2.1 8.6 0 2.2 8.6 0 2.3 8.6 0 2.4 8.6 0 2.5 8.6 0 2.6 8.6 0 2.7 8.6 0 2.8 8.6 0 2.9 8.6 0 3 8.6 0 3.1 8.6 0 3.2 8.6 0 3.3 8.6 0 3.4 8.6 0 3.5 8.6 0 3.6 8.6 0 3.7 8.6 0 3.8 8.6 0 3.9 8.6 0 4 8.6 0 4.1 8.6 0 4.2 8.6 0 4.3 8.6 0 4.4 8.6 0 4.5 8.6 0 4.6 8.6 0 4.7 8.6 0 4.8 8.6 0 4.9 8.6 0 5 8.6 0 5.1 8.6 0 5.2 8.6 0 5.3 8.6 0 5.4 8.6 0 5.5 8.6 0 5.6 8.6 0 5.7 8.6 0 5.8 8.6 0 5.9 8.6 0 6 8.6 0 6.1 8.6 0 6.2 8.6 0 6.3 8.6 0 6.4 8.6 0 6.5 8.6 0 6.6 8.6 0 6.7 8.6 0 6.8 8.6 0 6.9 8.6 0 7 8.6 0 7.1 8.6 0 7.2 8.6 0 7.3 8.6 0 7.4 8.6 0 7.5 8.6 0 7.6 8.6 0 7.7 8.6 0 7.8 8.6 0 7.9 8.6 0 8 8.6 0 8.1 8.6 0 8.2 8.6 0 8.3 8.6 0 8.4 8.6 0 8.5 8.6 0 8.6 8.6 0 8.7 8.6 0 8.8 8.6 0 8.9 8.6 0 9 8.6 0 9.1 8.6 0 9.2 8.6 0 9.3 8.6 0 9.4 8.6 0 9.5 8.6 0 9.6 8.6 0 9.7 8.6 0 9.8 8.6 0 9.9 8.6 0 10 8.6 0 0 8.7 0 0.1 8.7 0 0.2 8.7 0 0.3 8.7 0 0.4 8.7 0 0.5 8.7 0 0.6 8.7 0 0.7 8.7 0 0.8 8.7 0 0.9 8.7 0 1 8.7 0 1.1 8.7 0 1.2 8.7 0 1.3 8.7 0 1.4 8.7 0 1.5 8.7 0 1.6 8.7 0 1.7 8.7 0 1.8 8.7 0 1.9 8.7 0 2 8.7 0 2.1 8.7 0 2.2 8.7 0 2.3 8.7 0 2.4 8.7 0 2.5 8.7 0 2.6 8.7 0 2.7 8.7 0 2.8 8.7 0 2.9 8.7 0 3 8.7 0 3.1 8.7 0 3.2 8.7 0 3.3 8.7 0 3.4 8.7 0 3.5 8.7 0 3.6 8.7 0 3.7 8.7 0 3.8 8.7 0 3.9 8.7 0 4 8.7 0 4.1 8.7 0 4.2 8.7 0 4.3 8.7 0 4.4 8.7 0 4.5 8.7 0 4.6 8.7 0 4.7 8.7 0 4.8 8.7 0 4.9 8.7 0 5 8.7 0 5.1 8.7 0 5.2 8.7 0 5.3 8.7 0 5.4 8.7 0 5.5 8.7 0 5.6 8.7 0 5.7 8.7 0 5.8 8.7 0 5.9 8.7 0 6 8.7 0 6.1 8.7 0 6.2 8.7 0 6.3 8.7 0 6.4 8.7 0 6.5 8.7 0 6.6 8.7 0 6.7 8.7 0 6.8 8.7 0 6.9 8.7 0 7 8.7 0 7.1 8.7 0 7.2 8.7 0 7.3 8.7 0 7.4 8.7 0 7.5 8.7 0 7.6 8.7 0 7.7 8.7 0 7.8 8.7 0 7.9 8.7 0 8 8.7 0 8.1 8.7 0 8.2 8.7 0 8.3 8.7 0 8.4 8.7 0 8.5 8.7 0 8.6 8.7 0 8.7 8.7 0 8.8 8.7 0 8.9 8.7 0 9 8.7 0 9.1 8.7 0 9.2 8.7 0 9.3 8.7 0 9.4 8.7 0 9.5 8.7 0 9.6 8.7 0 9.7 8.7 0 9.8 8.7 0 9.9 8.7 0 10 8.7 0 0 8.8 0 0.1 8.8 0 0.2 8.8 0 0.3 8.8 0 0.4 8.8 0 0.5 8.8 0 0.6 8.8 0 0.7 8.8 0 0.8 8.8 0 0.9 8.8 0 1 8.8 0 1.1 8.8 0 1.2 8.8 0 1.3 8.8 0 1.4 8.8 0 1.5 8.8 0 1.6 8.8 0 1.7 8.8 0 1.8 8.8 0 1.9 8.8 0 2 8.8 0 2.1 8.8 0 2.2 8.8 0 2.3 8.8 0 2.4 8.8 0 2.5 8.8 0 2.6 8.8 0 2.7 8.8 0 2.8 8.8 0 2.9 8.8 0 3 8.8 0 3.1 8.8 0 3.2 8.8 0 3.3 8.8 0 3.4 8.8 0 3.5 8.8 0 3.6 8.8 0 3.7 8.8 0 3.8 8.8 0 3.9 8.8 0 4 8.8 0 4.1 8.8 0 4.2 8.8 0 4.3 8.8 0 4.4 8.8 0 4.5 8.8 0 4.6 8.8 0 4.7 8.8 0 4.8 8.8 0 4.9 8.8 0 5 8.8 0 5.1 8.8 0 5.2 8.8 0 5.3 8.8 0 5.4 8.8 0 5.5 8.8 0 5.6 8.8 0 5.7 8.8 0 5.8 8.8 0 5.9 8.8 0 6 8.8 0 6.1 8.8 0 6.2 8.8 0 6.3 8.8 0 6.4 8.8 0 6.5 8.8 0 6.6 8.8 0 6.7 8.8 0 6.8 8.8 0 6.9 8.8 0 7 8.8 0 7.1 8.8 0 7.2 8.8 0 7.3 8.8 0 7.4 8.8 0 7.5 8.8 0 7.6 8.8 0 7.7 8.8 0 7.8 8.8 0 7.9 8.8 0 8 8.8 0 8.1 8.8 0 8.2 8.8 0 8.3 8.8 0 8.4 8.8 0 8.5 8.8 0 8.6 8.8 0 8.7 8.8 0 8.8 8.8 0 8.9 8.8 0 9 8.8 0 9.1 8.8 0 9.2 8.8 0 9.3 8.8 0 9.4 8.8 0 9.5 8.8 0 9.6 8.8 0 9.7 8.8 0 9.8 8.8 0 9.9 8.8 0 10 8.8 0 0 8.9 0 0.1 8.9 0 0.2 8.9 0 0.3 8.9 0 0.4 8.9 0 0.5 8.9 0 0.6 8.9 0 0.7 8.9 0 0.8 8.9 0 0.9 8.9 0 1 8.9 0 1.1 8.9 0 1.2 8.9 0 1.3 8.9 0 1.4 8.9 0 1.5 8.9 0 1.6 8.9 0 1.7 8.9 0 1.8 8.9 0 1.9 8.9 0 2 8.9 0 2.1 8.9 0 2.2 8.9 0 2.3 8.9 0 2.4 8.9 0 2.5 8.9 0 2.6 8.9 0 2.7 8.9 0 2.8 8.9 0 2.9 8.9 0 3 8.9 0 3.1 8.9 0 3.2 8.9 0 3.3 8.9 0 3.4 8.9 0 3.5 8.9 0 3.6 8.9 0 3.7 8.9 0 3.8 8.9 0 3.9 8.9 0 4 8.9 0 4.1 8.9 0 4.2 8.9 0 4.3 8.9 0 4.4 8.9 0 4.5 8.9 0 4.6 8.9 0 4.7 8.9 0 4.8 8.9 0 4.9 8.9 0 5 8.9 0 5.1 8.9 0 5.2 8.9 0 5.3 8.9 0 5.4 8.9 0 5.5 8.9 0 5.6 8.9 0 5.7 8.9 0 5.8 8.9 0 5.9 8.9 0 6 8.9 0 6.1 8.9 0 6.2 8.9 0 6.3 8.9 0 6.4 8.9 0 6.5 8.9 0 6.6 8.9 0 6.7 8.9 0 6.8 8.9 0 6.9 8.9 0 7 8.9 0 7.1 8.9 0 7.2 8.9 0 7.3 8.9 0 7.4 8.9 0 7.5 8.9 0 7.6 8.9 0 7.7 8.9 0 7.8 8.9 0 7.9 8.9 0 8 8.9 0 8.1 8.9 0 8.2 8.9 0 8.3 8.9 0 8.4 8.9 0 8.5 8.9 0 8.6 8.9 0 8.7 8.9 0 8.8 8.9 0 8.9 8.9 0 9 8.9 0 9.1 8.9 0 9.2 8.9 0 9.3 8.9 0 9.4 8.9 0 9.5 8.9 0 9.6 8.9 0 9.7 8.9 0 9.8 8.9 0 9.9 8.9 0 10 8.9 0 0 9 0 0.1 9 0 0.2 9 0 0.3 9 0 0.4 9 0 0.5 9 0 0.6 9 0 0.7 9 0 0.8 9 0 0.9 9 0 1 9 0 1.1 9 0 1.2 9 0 1.3 9 0 1.4 9 0 1.5 9 0 1.6 9 0 1.7 9 0 1.8 9 0 1.9 9 0 2 9 0 2.1 9 0 2.2 9 0 2.3 9 0 2.4 9 0 2.5 9 0 2.6 9 0 2.7 9 0 2.8 9 0 2.9 9 0 3 9 0 3.1 9 0 3.2 9 0 3.3 9 0 3.4 9 0 3.5 9 0 3.6 9 0 3.7 9 0 3.8 9 0 3.9 9 0 4 9 0 4.1 9 0 4.2 9 0 4.3 9 0 4.4 9 0 4.5 9 0 4.6 9 0 4.7 9 0 4.8 9 0 4.9 9 0 5 9 0 5.1 9 0 5.2 9 0 5.3 9 0 5.4 9 0 5.5 9 0 5.6 9 0 5.7 9 0 5.8 9 0 5.9 9 0 6 9 0 6.1 9 0 6.2 9 0 6.3 9 0 6.4 9 0 6.5 9 0 6.6 9 0 6.7 9 0 6.8 9 0 6.9 9 0 7 9 0 7.1 9 0 7.2 9 0 7.3 9 0 7.4 9 0 7.5 9 0 7.6 9 0 7.7 9 0 7.8 9 0 7.9 9 0 8 9 0 8.1 9 0 8.2 9 0 8.3 9 0 8.4 9 0 8.5 9 0 8.6 9 0 8.7 9 0 8.8 9 0 8.9 9 0 9 9 0 9.1 9 0 9.2 9 0 9.3 9 0 9.4 9 0 9.5 9 0 9.6 9 0 9.7 9 0 9.8 9 0 9.9 9 0 10 9 0 0 9.1 0 0.1 9.1 0 0.2 9.1 0 0.3 9.1 0 0.4 9.1 0 0.5 9.1 0 0.6 9.1 0 0.7 9.1 0 0.8 9.1 0 0.9 9.1 0 1 9.1 0 1.1 9.1 0 1.2 9.1 0 1.3 9.1 0 1.4 9.1 0 1.5 9.1 0 1.6 9.1 0 1.7 9.1 0 1.8 9.1 0 1.9 9.1 0 2 9.1 0 2.1 9.1 0 2.2 9.1 0 2.3 9.1 0 2.4 9.1 0 2.5 9.1 0 2.6 9.1 0 2.7 9.1 0 2.8 9.1 0 2.9 9.1 0 3 9.1 0 3.1 9.1 0 3.2 9.1 0 3.3 9.1 0 3.4 9.1 0 3.5 9.1 0 3.6 9.1 0 3.7 9.1 0 3.8 9.1 0 3.9 9.1 0 4 9.1 0 4.1 9.1 0 4.2 9.1 0 4.3 9.1 0 4.4 9.1 0 4.5 9.1 0 4.6 9.1 0 4.7 9.1 0 4.8 9.1 0 4.9 9.1 0 5 9.1 0 5.1 9.1 0 5.2 9.1 0 5.3 9.1 0 5.4 9.1 0 5.5 9.1 0 5.6 9.1 0 5.7 9.1 0 5.8 9.1 0 5.9 9.1 0 6 9.1 0 6.1 9.1 0 6.2 9.1 0 6.3 9.1 0 6.4 9.1 0 6.5 9.1 0 6.6 9.1 0 6.7 9.1 0 6.8 9.1 0 6.9 9.1 0 7 9.1 0 7.1 9.1 0 7.2 9.1 0 7.3 9.1 0 7.4 9.1 0 7.5 9.1 0 7.6 9.1 0 7.7 9.1 0 7.8 9.1 0 7.9 9.1 0 8 9.1 0 8.1 9.1 0 8.2 9.1 0 8.3 9.1 0 8.4 9.1 0 8.5 9.1 0 8.6 9.1 0 8.7 9.1 0 8.8 9.1 0 8.9 9.1 0 9 9.1 0 9.1 9.1 0 9.2 9.1 0 9.3 9.1 0 9.4 9.1 0 9.5 9.1 0 9.6 9.1 0 9.7 9.1 0 9.8 9.1 0 9.9 9.1 0 10 9.1 0 0 9.2 0 0.1 9.2 0 0.2 9.2 0 0.3 9.2 0 0.4 9.2 0 0.5 9.2 0 0.6 9.2 0 0.7 9.2 0 0.8 9.2 0 0.9 9.2 0 1 9.2 0 1.1 9.2 0 1.2 9.2 0 1.3 9.2 0 1.4 9.2 0 1.5 9.2 0 1.6 9.2 0 1.7 9.2 0 1.8 9.2 0 1.9 9.2 0 2 9.2 0 2.1 9.2 0 2.2 9.2 0 2.3 9.2 0 2.4 9.2 0 2.5 9.2 0 2.6 9.2 0 2.7 9.2 0 2.8 9.2 0 2.9 9.2 0 3 9.2 0 3.1 9.2 0 3.2 9.2 0 3.3 9.2 0 3.4 9.2 0 3.5 9.2 0 3.6 9.2 0 3.7 9.2 0 3.8 9.2 0 3.9 9.2 0 4 9.2 0 4.1 9.2 0 4.2 9.2 0 4.3 9.2 0 4.4 9.2 0 4.5 9.2 0 4.6 9.2 0 4.7 9.2 0 4.8 9.2 0 4.9 9.2 0 5 9.2 0 5.1 9.2 0 5.2 9.2 0 5.3 9.2 0 5.4 9.2 0 5.5 9.2 0 5.6 9.2 0 5.7 9.2 0 5.8 9.2 0 5.9 9.2 0 6 9.2 0 6.1 9.2 0 6.2 9.2 0 6.3 9.2 0 6.4 9.2 0 6.5 9.2 0 6.6 9.2 0 6.7 9.2 0 6.8 9.2 0 6.9 9.2 0 7 9.2 0 7.1 9.2 0 7.2 9.2 0 7.3 9.2 0 7.4 9.2 0 7.5 9.2 0 7.6 9.2 0 7.7 9.2 0 7.8 9.2 0 7.9 9.2 0 8 9.2 0 8.1 9.2 0 8.2 9.2 0 8.3 9.2 0 8.4 9.2 0 8.5 9.2 0 8.6 9.2 0 8.7 9.2 0 8.8 9.2 0 8.9 9.2 0 9 9.2 0 9.1 9.2 0 9.2 9.2 0 9.3 9.2 0 9.4 9.2 0 9.5 9.2 0 9.6 9.2 0 9.7 9.2 0 9.8 9.2 0 9.9 9.2 0 10 9.2 0 0 9.3 0 0.1 9.3 0 0.2 9.3 0 0.3 9.3 0 0.4 9.3 0 0.5 9.3 0 0.6 9.3 0 0.7 9.3 0 0.8 9.3 0 0.9 9.3 0 1 9.3 0 1.1 9.3 0 1.2 9.3 0 1.3 9.3 0 1.4 9.3 0 1.5 9.3 0 1.6 9.3 0 1.7 9.3 0 1.8 9.3 0 1.9 9.3 0 2 9.3 0 2.1 9.3 0 2.2 9.3 0 2.3 9.3 0 2.4 9.3 0 2.5 9.3 0 2.6 9.3 0 2.7 9.3 0 2.8 9.3 0 2.9 9.3 0 3 9.3 0 3.1 9.3 0 3.2 9.3 0 3.3 9.3 0 3.4 9.3 0 3.5 9.3 0 3.6 9.3 0 3.7 9.3 0 3.8 9.3 0 3.9 9.3 0 4 9.3 0 4.1 9.3 0 4.2 9.3 0 4.3 9.3 0 4.4 9.3 0 4.5 9.3 0 4.6 9.3 0 4.7 9.3 0 4.8 9.3 0 4.9 9.3 0 5 9.3 0 5.1 9.3 0 5.2 9.3 0 5.3 9.3 0 5.4 9.3 0 5.5 9.3 0 5.6 9.3 0 5.7 9.3 0 5.8 9.3 0 5.9 9.3 0 6 9.3 0 6.1 9.3 0 6.2 9.3 0 6.3 9.3 0 6.4 9.3 0 6.5 9.3 0 6.6 9.3 0 6.7 9.3 0 6.8 9.3 0 6.9 9.3 0 7 9.3 0 7.1 9.3 0 7.2 9.3 0 7.3 9.3 0 7.4 9.3 0 7.5 9.3 0 7.6 9.3 0 7.7 9.3 0 7.8 9.3 0 7.9 9.3 0 8 9.3 0 8.1 9.3 0 8.2 9.3 0 8.3 9.3 0 8.4 9.3 0 8.5 9.3 0 8.6 9.3 0 8.7 9.3 0 8.8 9.3 0 8.9 9.3 0 9 9.3 0 9.1 9.3 0 9.2 9.3 0 9.3 9.3 0 9.4 9.3 0 9.5 9.3 0 9.6 9.3 0 9.7 9.3 0 9.8 9.3 0 9.9 9.3 0 10 9.3 0 0 9.4 0 0.1 9.4 0 0.2 9.4 0 0.3 9.4 0 0.4 9.4 0 0.5 9.4 0 0.6 9.4 0 0.7 9.4 0 0.8 9.4 0 0.9 9.4 0 1 9.4 0 1.1 9.4 0 1.2 9.4 0 1.3 9.4 0 1.4 9.4 0 1.5 9.4 0 1.6 9.4 0 1.7 9.4 0 1.8 9.4 0 1.9 9.4 0 2 9.4 0 2.1 9.4 0 2.2 9.4 0 2.3 9.4 0 2.4 9.4 0 2.5 9.4 0 2.6 9.4 0 2.7 9.4 0 2.8 9.4 0 2.9 9.4 0 3 9.4 0 3.1 9.4 0 3.2 9.4 0 3.3 9.4 0 3.4 9.4 0 3.5 9.4 0 3.6 9.4 0 3.7 9.4 0 3.8 9.4 0 3.9 9.4 0 4 9.4 0 4.1 9.4 0 4.2 9.4 0 4.3 9.4 0 4.4 9.4 0 4.5 9.4 0 4.6 9.4 0 4.7 9.4 0 4.8 9.4 0 4.9 9.4 0 5 9.4 0 5.1 9.4 0 5.2 9.4 0 5.3 9.4 0 5.4 9.4 0 5.5 9.4 0 5.6 9.4 0 5.7 9.4 0 5.8 9.4 0 5.9 9.4 0 6 9.4 0 6.1 9.4 0 6.2 9.4 0 6.3 9.4 0 6.4 9.4 0 6.5 9.4 0 6.6 9.4 0 6.7 9.4 0 6.8 9.4 0 6.9 9.4 0 7 9.4 0 7.1 9.4 0 7.2 9.4 0 7.3 9.4 0 7.4 9.4 0 7.5 9.4 0 7.6 9.4 0 7.7 9.4 0 7.8 9.4 0 7.9 9.4 0 8 9.4 0 8.1 9.4 0 8.2 9.4 0 8.3 9.4 0 8.4 9.4 0 8.5 9.4 0 8.6 9.4 0 8.7 9.4 0 8.8 9.4 0 8.9 9.4 0 9 9.4 0 9.1 9.4 0 9.2 9.4 0 9.3 9.4 0 9.4 9.4 0 9.5 9.4 0 9.6 9.4 0 9.7 9.4 0 9.8 9.4 0 9.9 9.4 0 10 9.4 0 0 9.5 0 0.1 9.5 0 0.2 9.5 0 0.3 9.5 0 0.4 9.5 0 0.5 9.5 0 0.6 9.5 0 0.7 9.5 0 0.8 9.5 0 0.9 9.5 0 1 9.5 0 1.1 9.5 0 1.2 9.5 0 1.3 9.5 0 1.4 9.5 0 1.5 9.5 0 1.6 9.5 0 1.7 9.5 0 1.8 9.5 0 1.9 9.5 0 2 9.5 0 2.1 9.5 0 2.2 9.5 0 2.3 9.5 0 2.4 9.5 0 2.5 9.5 0 2.6 9.5 0 2.7 9.5 0 2.8 9.5 0 2.9 9.5 0 3 9.5 0 3.1 9.5 0 3.2 9.5 0 3.3 9.5 0 3.4 9.5 0 3.5 9.5 0 3.6 9.5 0 3.7 9.5 0 3.8 9.5 0 3.9 9.5 0 4 9.5 0 4.1 9.5 0 4.2 9.5 0 4.3 9.5 0 4.4 9.5 0 4.5 9.5 0 4.6 9.5 0 4.7 9.5 0 4.8 9.5 0 4.9 9.5 0 5 9.5 0 5.1 9.5 0 5.2 9.5 0 5.3 9.5 0 5.4 9.5 0 5.5 9.5 0 5.6 9.5 0 5.7 9.5 0 5.8 9.5 0 5.9 9.5 0 6 9.5 0 6.1 9.5 0 6.2 9.5 0 6.3 9.5 0 6.4 9.5 0 6.5 9.5 0 6.6 9.5 0 6.7 9.5 0 6.8 9.5 0 6.9 9.5 0 7 9.5 0 7.1 9.5 0 7.2 9.5 0 7.3 9.5 0 7.4 9.5 0 7.5 9.5 0 7.6 9.5 0 7.7 9.5 0 7.8 9.5 0 7.9 9.5 0 8 9.5 0 8.1 9.5 0 8.2 9.5 0 8.3 9.5 0 8.4 9.5 0 8.5 9.5 0 8.6 9.5 0 8.7 9.5 0 8.8 9.5 0 8.9 9.5 0 9 9.5 0 9.1 9.5 0 9.2 9.5 0 9.3 9.5 0 9.4 9.5 0 9.5 9.5 0 9.6 9.5 0 9.7 9.5 0 9.8 9.5 0 9.9 9.5 0 10 9.5 0 0 9.6 0 0.1 9.6 0 0.2 9.6 0 0.3 9.6 0 0.4 9.6 0 0.5 9.6 0 0.6 9.6 0 0.7 9.6 0 0.8 9.6 0 0.9 9.6 0 1 9.6 0 1.1 9.6 0 1.2 9.6 0 1.3 9.6 0 1.4 9.6 0 1.5 9.6 0 1.6 9.6 0 1.7 9.6 0 1.8 9.6 0 1.9 9.6 0 2 9.6 0 2.1 9.6 0 2.2 9.6 0 2.3 9.6 0 2.4 9.6 0 2.5 9.6 0 2.6 9.6 0 2.7 9.6 0 2.8 9.6 0 2.9 9.6 0 3 9.6 0 3.1 9.6 0 3.2 9.6 0 3.3 9.6 0 3.4 9.6 0 3.5 9.6 0 3.6 9.6 0 3.7 9.6 0 3.8 9.6 0 3.9 9.6 0 4 9.6 0 4.1 9.6 0 4.2 9.6 0 4.3 9.6 0 4.4 9.6 0 4.5 9.6 0 4.6 9.6 0 4.7 9.6 0 4.8 9.6 0 4.9 9.6 0 5 9.6 0 5.1 9.6 0 5.2 9.6 0 5.3 9.6 0 5.4 9.6 0 5.5 9.6 0 5.6 9.6 0 5.7 9.6 0 5.8 9.6 0 5.9 9.6 0 6 9.6 0 6.1 9.6 0 6.2 9.6 0 6.3 9.6 0 6.4 9.6 0 6.5 9.6 0 6.6 9.6 0 6.7 9.6 0 6.8 9.6 0 6.9 9.6 0 7 9.6 0 7.1 9.6 0 7.2 9.6 0 7.3 9.6 0 7.4 9.6 0 7.5 9.6 0 7.6 9.6 0 7.7 9.6 0 7.8 9.6 0 7.9 9.6 0 8 9.6 0 8.1 9.6 0 8.2 9.6 0 8.3 9.6 0 8.4 9.6 0 8.5 9.6 0 8.6 9.6 0 8.7 9.6 0 8.8 9.6 0 8.9 9.6 0 9 9.6 0 9.1 9.6 0 9.2 9.6 0 9.3 9.6 0 9.4 9.6 0 9.5 9.6 0 9.6 9.6 0 9.7 9.6 0 9.8 9.6 0 9.9 9.6 0 10 9.6 0 0 9.7 0 0.1 9.7 0 0.2 9.7 0 0.3 9.7 0 0.4 9.7 0 0.5 9.7 0 0.6 9.7 0 0.7 9.7 0 0.8 9.7 0 0.9 9.7 0 1 9.7 0 1.1 9.7 0 1.2 9.7 0 1.3 9.7 0 1.4 9.7 0 1.5 9.7 0 1.6 9.7 0 1.7 9.7 0 1.8 9.7 0 1.9 9.7 0 2 9.7 0 2.1 9.7 0 2.2 9.7 0 2.3 9.7 0 2.4 9.7 0 2.5 9.7 0 2.6 9.7 0 2.7 9.7 0 2.8 9.7 0 2.9 9.7 0 3 9.7 0 3.1 9.7 0 3.2 9.7 0 3.3 9.7 0 3.4 9.7 0 3.5 9.7 0 3.6 9.7 0 3.7 9.7 0 3.8 9.7 0 3.9 9.7 0 4 9.7 0 4.1 9.7 0 4.2 9.7 0 4.3 9.7 0 4.4 9.7 0 4.5 9.7 0 4.6 9.7 0 4.7 9.7 0 4.8 9.7 0 4.9 9.7 0 5 9.7 0 5.1 9.7 0 5.2 9.7 0 5.3 9.7 0 5.4 9.7 0 5.5 9.7 0 5.6 9.7 0 5.7 9.7 0 5.8 9.7 0 5.9 9.7 0 6 9.7 0 6.1 9.7 0 6.2 9.7 0 6.3 9.7 0 6.4 9.7 0 6.5 9.7 0 6.6 9.7 0 6.7 9.7 0 6.8 9.7 0 6.9 9.7 0 7 9.7 0 7.1 9.7 0 7.2 9.7 0 7.3 9.7 0 7.4 9.7 0 7.5 9.7 0 7.6 9.7 0 7.7 9.7 0 7.8 9.7 0 7.9 9.7 0 8 9.7 0 8.1 9.7 0 8.2 9.7 0 8.3 9.7 0 8.4 9.7 0 8.5 9.7 0 8.6 9.7 0 8.7 9.7 0 8.8 9.7 0 8.9 9.7 0 9 9.7 0 9.1 9.7 0 9.2 9.7 0 9.3 9.7 0 9.4 9.7 0 9.5 9.7 0 9.6 9.7 0 9.7 9.7 0 9.8 9.7 0 9.9 9.7 0 10 9.7 0 0 9.8 0 0.1 9.8 0 0.2 9.8 0 0.3 9.8 0 0.4 9.8 0 0.5 9.8 0 0.6 9.8 0 0.7 9.8 0 0.8 9.8 0 0.9 9.8 0 1 9.8 0 1.1 9.8 0 1.2 9.8 0 1.3 9.8 0 1.4 9.8 0 1.5 9.8 0 1.6 9.8 0 1.7 9.8 0 1.8 9.8 0 1.9 9.8 0 2 9.8 0 2.1 9.8 0 2.2 9.8 0 2.3 9.8 0 2.4 9.8 0 2.5 9.8 0 2.6 9.8 0 2.7 9.8 0 2.8 9.8 0 2.9 9.8 0 3 9.8 0 3.1 9.8 0 3.2 9.8 0 3.3 9.8 0 3.4 9.8 0 3.5 9.8 0 3.6 9.8 0 3.7 9.8 0 3.8 9.8 0 3.9 9.8 0 4 9.8 0 4.1 9.8 0 4.2 9.8 0 4.3 9.8 0 4.4 9.8 0 4.5 9.8 0 4.6 9.8 0 4.7 9.8 0 4.8 9.8 0 4.9 9.8 0 5 9.8 0 5.1 9.8 0 5.2 9.8 0 5.3 9.8 0 5.4 9.8 0 5.5 9.8 0 5.6 9.8 0 5.7 9.8 0 5.8 9.8 0 5.9 9.8 0 6 9.8 0 6.1 9.8 0 6.2 9.8 0 6.3 9.8 0 6.4 9.8 0 6.5 9.8 0 6.6 9.8 0 6.7 9.8 0 6.8 9.8 0 6.9 9.8 0 7 9.8 0 7.1 9.8 0 7.2 9.8 0 7.3 9.8 0 7.4 9.8 0 7.5 9.8 0 7.6 9.8 0 7.7 9.8 0 7.8 9.8 0 7.9 9.8 0 8 9.8 0 8.1 9.8 0 8.2 9.8 0 8.3 9.8 0 8.4 9.8 0 8.5 9.8 0 8.6 9.8 0 8.7 9.8 0 8.8 9.8 0 8.9 9.8 0 9 9.8 0 9.1 9.8 0 9.2 9.8 0 9.3 9.8 0 9.4 9.8 0 9.5 9.8 0 9.6 9.8 0 9.7 9.8 0 9.8 9.8 0 9.9 9.8 0 10 9.8 0 0 9.9 0 0.1 9.9 0 0.2 9.9 0 0.3 9.9 0 0.4 9.9 0 0.5 9.9 0 0.6 9.9 0 0.7 9.9 0 0.8 9.9 0 0.9 9.9 0 1 9.9 0 1.1 9.9 0 1.2 9.9 0 1.3 9.9 0 1.4 9.9 0 1.5 9.9 0 1.6 9.9 0 1.7 9.9 0 1.8 9.9 0 1.9 9.9 0 2 9.9 0 2.1 9.9 0 2.2 9.9 0 2.3 9.9 0 2.4 9.9 0 2.5 9.9 0 2.6 9.9 0 2.7 9.9 0 2.8 9.9 0 2.9 9.9 0 3 9.9 0 3.1 9.9 0 3.2 9.9 0 3.3 9.9 0 3.4 9.9 0 3.5 9.9 0 3.6 9.9 0 3.7 9.9 0 3.8 9.9 0 3.9 9.9 0 4 9.9 0 4.1 9.9 0 4.2 9.9 0 4.3 9.9 0 4.4 9.9 0 4.5 9.9 0 4.6 9.9 0 4.7 9.9 0 4.8 9.9 0 4.9 9.9 0 5 9.9 0 5.1 9.9 0 5.2 9.9 0 5.3 9.9 0 5.4 9.9 0 5.5 9.9 0 5.6 9.9 0 5.7 9.9 0 5.8 9.9 0 5.9 9.9 0 6 9.9 0 6.1 9.9 0 6.2 9.9 0 6.3 9.9 0 6.4 9.9 0 6.5 9.9 0 6.6 9.9 0 6.7 9.9 0 6.8 9.9 0 6.9 9.9 0 7 9.9 0 7.1 9.9 0 7.2 9.9 0 7.3 9.9 0 7.4 9.9 0 7.5 9.9 0 7.6 9.9 0 7.7 9.9 0 7.8 9.9 0 7.9 9.9 0 8 9.9 0 8.1 9.9 0 8.2 9.9 0 8.3 9.9 0 8.4 9.9 0 8.5 9.9 0 8.6 9.9 0 8.7 9.9 0 8.8 9.9 0 8.9 9.9 0 9 9.9 0 9.1 9.9 0 9.2 9.9 0 9.3 9.9 0 9.4 9.9 0 9.5 9.9 0 9.6 9.9 0 9.7 9.9 0 9.8 9.9 0 9.9 9.9 0 10 9.9 0 0 10 0 0.1 10 0 0.2 10 0 0.3 10 0 0.4 10 0 0.5 10 0 0.6 10 0 0.7 10 0 0.8 10 0 0.9 10 0 1 10 0 1.1 10 0 1.2 10 0 1.3 10 0 1.4 10 0 1.5 10 0 1.6 10 0 1.7 10 0 1.8 10 0 1.9 10 0 2 10 0 2.1 10 0 2.2 10 0 2.3 10 0 2.4 10 0 2.5 10 0 2.6 10 0 2.7 10 0 2.8 10 0 2.9 10 0 3 10 0 3.1 10 0 3.2 10 0 3.3 10 0 3.4 10 0 3.5 10 0 3.6 10 0 3.7 10 0 3.8 10 0 3.9 10 0 4 10 0 4.1 10 0 4.2 10 0 4.3 10 0 4.4 10 0 4.5 10 0 4.6 10 0 4.7 10 0 4.8 10 0 4.9 10 0 5 10 0 5.1 10 0 5.2 10 0 5.3 10 0 5.4 10 0 5.5 10 0 5.6 10 0 5.7 10 0 5.8 10 0 5.9 10 0 6 10 0 6.1 10 0 6.2 10 0 6.3 10 0 6.4 10 0 6.5 10 0 6.6 10 0 6.7 10 0 6.8 10 0 6.9 10 0 7 10 0 7.1 10 0 7.2 10 0 7.3 10 0 7.4 10 0 7.5 10 0 7.6 10 0 7.7 10 0 7.8 10 0 7.9 10 0 8 10 0 8.1 10 0 8.2 10 0 8.3 10 0 8.4 10 0 8.5 10 0 8.6 10 0 8.7 10 0 8.8 10 0 8.9 10 0 9 10 0 9.1 10 0 9.2 10 0 9.3 10 0 9.4 10 0 9.5 10 0 9.6 10 0 9.7 10 0 9.8 10 0 9.9 10 0 10 10 0 
</DataArray>
</Points> 
</Piece> 
</StructuredGrid> 
</VTKFile> 
