<?xml version="1.0"?> 
<VTKFile type="StructuredGrid" version="0.1"> 
<StructuredGrid WholeExtent="0 100 0 100 0 0"> 
<Piece Extent="0 100 0 100 0 0"> 
<PointData>
<DataArray type="Float32" Name="value" format="ascii" NumberOfComponents="1"> 
85.9857 86.0012 86.0497 86.1288 86.2361 86.3693 86.526 86.7037 86.8977 87.1025 87.3125 87.5221 87.7258 87.9179 88.0926 88.2436 88.3648 88.4498 88.4924 88.4864 88.4264 88.3087 88.1296 87.8855 87.5728 87.1879 86.728 86.1928 85.5827 84.8984 84.1402 83.3086 82.4045 81.4304 80.3903 79.2879 78.1271 76.9116 75.6453 74.3327 72.9789 71.5891 70.1684 68.7221 67.2552 65.7729 64.2797 62.7804 61.2795 59.7817 58.2917 56.8138 55.3514 53.9076 52.4854 51.0879 49.7181 48.3791 47.0727 45.8003 44.5633 43.3628 42.2004 41.0774 39.9943 38.9513 37.9484 36.9857 36.063 35.1805 34.3379 33.5346 32.7698 32.0428 31.3529 30.6994 30.0814 29.4981 28.9485 28.4316 27.9464 27.492 27.0675 26.6718 26.3042 25.9638 25.6497 25.3611 25.097 24.8567 24.6398 24.4456 24.2734 24.1229 23.9933 23.8842 23.7954 23.7267 23.6779 23.6486 23.6389 86.0012 86.0168 86.0656 86.1452 86.2533 86.3874 86.5452 86.7241 86.9194 87.1257 87.3374 87.5488 87.7544 87.9486 88.1255 88.2787 88.4022 88.4895 88.5345 88.5309 88.4732 88.3577 88.1808 87.9387 87.628 87.245 86.7867 86.2529 85.6442 84.9609 84.2037 83.3728 82.4692 81.4954 80.4554 79.3529 78.1917 76.9757 75.7086 74.3951 73.0402 71.6491 70.227 68.7792 67.3107 65.8267 64.3318 62.8306 61.3278 59.8281 58.3362 56.8563 55.3919 53.946 52.5217 51.1222 49.7505 48.4095 47.1013 45.8271 44.5883 43.3862 42.2222 41.0976 40.0131 38.9687 37.9646 37.0005 36.0767 35.1931 34.3495 33.5453 32.7796 32.0518 31.3611 30.7069 30.0882 29.5043 28.9541 28.4367 27.9511 27.4962 27.0713 26.6753 26.3074 25.9666 25.6523 25.3634 25.0991 24.8587 24.6415 24.4471 24.2749 24.1242 23.9945 23.8854 23.7965 23.7278 23.6789 23.6496 23.6398 86.0497 86.0656 86.1153 86.1964 86.3066 86.4434 86.6044 86.7871 86.9868 87.1979 87.4148 87.6318 87.8434 88.0439 88.2274 88.3875 88.5179 88.6122 88.6642 88.6675 88.6167 88.5078 88.3372 88.1013 87.7962 87.4185 86.9649 86.4355 85.8304 85.1504 84.3957 83.5668 82.6644 81.6913 80.6513 79.5483 78.3859 77.1681 75.8988 74.5823 73.224 71.8291 70.4028 68.9504 67.477 65.9878 64.4874 62.9805 61.472 59.9663 58.4683 56.9824 55.5119 54.06 52.6298 51.2244 49.8469 48.5004 47.1867 45.9072 44.6632 43.4562 42.2875 41.1584 40.0696 39.0211 38.013 37.0453 36.1181 35.2312 34.3846 33.5774 32.8091 32.0788 31.3858 30.7294 30.1088 29.523 28.9711 28.4521 27.9651 27.5089 27.0828 26.6857 26.3168 25.9752 25.66 25.3704 25.1054 24.8644 24.6468 24.4519 24.2793 24.1283 23.9983 23.8889 23.7999 23.7309 23.6819 23.6526 23.6428 86.1288 86.1452 86.1964 86.28 86.3936 86.5348 86.7012 86.8902 87.0971 87.3162 87.5418 87.7683 87.99 88.2011 88.3955 88.5669 88.7089 88.8149 88.8786 88.8935 88.854 88.7563 88.5964 88.3706 88.0752 87.7063 87.2609 86.7386 86.1399 85.4652 84.7149 83.8894 82.9893 82.0174 80.9775 79.8735 78.7093 77.4887 76.2155 74.8944 73.5306 72.1294 70.6961 69.236 67.7544 66.2565 64.7469 63.2306 61.7123 60.1967 58.6886 57.1926 55.7121 54.2502 52.8101 51.3949 50.0079 48.652 47.3291 46.0408 44.7883 43.5731 42.3964 41.2598 40.1638 39.1085 38.0939 37.12 36.187 35.2947 34.4429 33.631 32.8582 32.1237 31.4269 30.7669 30.1429 29.5541 28.9994 28.4778 27.9884 27.5301 27.1019 26.703 26.3325 25.9894 25.6728 25.382 25.116 24.874 24.6555 24.4599 24.2866 24.135 24.0045 23.8947 23.8054 23.7362 23.687 23.6576 23.6478 86.2361 86.2533 86.3066 86.3936 86.512 86.6593 86.8332 87.0309 87.2478 87.478 87.7159 87.9555 88.1912 88.417 88.6268 88.8141 88.9723 89.0947 89.1748 89.206 89.1826 89.1005 88.9558 88.7444 88.4626 88.1064 87.6725 87.1606 86.571 85.9041 85.1601 84.3395 83.4428 82.4728 81.4333 80.3283 79.1616 77.9371 76.6588 75.3312 73.9598 72.55 71.107 69.6363 68.1433 66.6332 65.1109 63.5813 62.0493 60.5198 58.9976 57.4875 55.9928 54.5169 53.0629 51.634 50.2335 48.8644 47.5288 46.2281 44.9636 43.7368 42.549 41.4018 40.2957 39.2307 38.2071 37.2246 36.2834 35.3835 34.5245 33.7059 32.9268 32.1865 31.4843 30.8192 30.1906 29.5975 29.0389 28.5136 28.0209 27.5595 27.1286 26.7272 26.3543 26.0091 25.6907 25.3982 25.1306 24.8873 24.6676 24.4709 24.2967 24.1443 24.0132 23.9028 23.813 23.7435 23.6941 23.6645 23.6546 86.3693 86.3874 86.4434 86.5348 86.6593 86.8145 86.9978 87.2067 87.4363 87.6808 87.9342 88.1906 88.4441 88.6889 88.9184 89.1261 89.3051 89.4486 89.5499 89.6023 89.5997 89.538 89.4129 89.2203 88.9563 88.6166 88.1978 87.6996 87.122 86.4654 85.73 84.9161 84.0241 83.0568 82.0181 80.912 79.7424 78.5133 77.2285 75.8929 74.5119 73.091 71.6356 70.1514 68.6438 67.1181 65.5795 64.0329 62.4834 60.936 59.3958 57.8675 56.3546 54.8605 53.3886 51.942 50.5241 49.1381 47.786 46.4692 45.1892 43.9475 42.7454 41.5844 40.4653 39.388 38.3526 37.359 36.4073 35.4975 34.6294 33.8021 33.015 32.2672 31.5579 30.8864 30.2519 29.6532 29.0895 28.5596 28.0625 27.5973 27.1628 26.7581 26.3823 26.0344 25.7136 25.4189 25.1494 24.9043 24.6831 24.4851 24.3096 24.1562 24.0242 23.9132 23.8228 23.7528 23.7031 23.6733 23.6634 86.526 86.5452 86.6044 86.7012 86.8332 86.9978 87.1927 87.4151 87.6602 87.9218 88.194 88.4707 88.746 89.0137 89.2673 89.4999 89.7044 89.8738 90.0012 90.0795 90.1026 90.0659 89.9651 89.7959 89.5539 89.2348 88.835 88.3538 87.7913 87.1478 86.4233 85.618 84.7321 83.7686 82.7313 81.6243 80.4515 79.217 77.9246 76.5794 75.1868 73.7525 72.2822 70.7816 69.2562 67.7117 66.1532 64.586 63.0151 61.446 59.8836 58.333 56.7979 55.2816 53.7876 52.3192 50.88 49.4731 48.1007 46.7643 45.4653 44.2052 42.9856 41.8078 40.6727 39.5802 38.5304 37.5232 36.5587 35.6368 34.7573 33.9195 33.1226 32.3656 31.6478 30.9684 30.3265 29.7211 29.1512 28.6156 28.1133 27.6433 27.2044 26.7957 26.4163 26.0652 25.7414 25.4441 25.1722 24.925 24.7019 24.5022 24.3254 24.1707 24.0377 23.9257 23.8346 23.7641 23.714 23.684 23.674 86.7037 86.7241 86.7871 86.8902 87.0309 87.2067 87.4151 87.6533 87.9164 88.1981 88.4923 88.7929 89.0936 89.3883 89.6703 89.9323 90.167 90.3672 90.5255 90.6347 90.6883 90.6816 90.6099 90.4686 90.2531 89.9587 89.5817 89.1212 88.5772 87.9497 87.2386 86.444 85.566 84.6074 83.5723 82.4647 81.2886 80.048 78.747 77.3906 75.9845 74.5347 73.0469 71.527 69.9809 68.4142 66.8324 65.2409 63.645 62.0501 60.4617 58.8848 57.3232 55.7805 54.2602 52.766 51.3014 49.8698 48.4733 47.1135 45.7919 44.5101 43.2697 42.072 40.9179 39.8074 38.7405 37.7171 36.7374 35.8013 34.9084 34.0581 33.2495 32.4816 31.7538 31.065 30.4145 29.8012 29.2239 28.6816 28.1731 27.6974 27.2534 26.84 26.4564 26.1014 25.7742 25.4737 25.199 24.9493 24.724 24.5223 24.3438 24.1877 24.0534 23.9404 23.8485 23.7773 23.7267 23.6965 23.6864 86.8977 86.9194 86.9868 87.0971 87.2478 87.4363 87.6602 87.9164 88.1999 88.5045 88.8239 89.1517 89.4817 89.8075 90.1221 90.418 90.6875 90.9232 91.1173 91.2624 91.3517 91.38 91.3423 91.2337 91.0493 90.7842 90.4343 89.9985 89.4766 88.8683 88.1734 87.3918 86.5237 85.5717 84.5399 83.4322 82.2528 81.0058 79.6954 78.3266 76.9054 75.438 73.9303 72.3884 70.8185 69.2264 67.6179 65.9984 64.3737 62.7493 61.1307 59.5233 57.9311 56.3578 54.8072 53.283 51.7889 50.3285 48.9041 47.5172 46.1695 44.8625 43.5978 42.377 41.2009 40.0696 38.9829 37.9409 36.9435 35.9908 35.0825 34.2177 33.3956 32.6152 31.8757 31.1762 30.5157 29.8932 29.3074 28.7574 28.2418 27.7596 27.3096 26.8909 26.5023 26.1429 25.8116 25.5076 25.2296 24.9771 24.7492 24.5453 24.3648 24.207 24.0713 23.9572 23.8643 23.7924 23.7413 23.7108 23.7005 87.1025 87.1257 87.1979 87.3162 87.478 87.6808 87.9218 88.1981 88.5045 88.8348 89.1824 89.5409 89.9039 90.2647 90.6162 90.9504 91.2594 91.5353 91.7702 91.9564 92.0865 92.1551 92.1567 92.0858 91.9374 91.7062 91.3881 90.9815 90.4858 89.9003 89.2248 88.459 87.6031 86.6596 85.6326 84.5259 83.3436 82.09 80.7695 79.3873 77.9496 76.4628 74.933 73.3666 71.77 70.1492 68.5103 66.8593 65.202 63.5442 61.8916 60.2496 58.6226 57.0144 55.4292 53.8708 52.3432 50.85 49.3937 47.9759 46.5983 45.2626 43.9703 42.7232 41.5221 40.3669 39.2576 38.1943 37.177 36.2055 35.2795 34.3983 33.5609 32.7662 32.0135 31.3017 30.6299 29.997 29.4016 28.8428 28.3191 27.8296 27.3729 26.948 26.5539 26.1895 25.8537 25.5456 25.264 25.0082 24.7775 24.5711 24.3884 24.2287 24.0914 23.9759 23.8819 23.8092 23.7575 23.7266 23.7163 87.3125 87.3374 87.4148 87.5418 87.7159 87.9342 88.194 88.4923 88.8239 89.1824 89.5613 89.954 90.3537 90.7535 91.146 91.5229 91.8759 92.1968 92.4775 92.7099 92.8864 93.0008 93.047 93.0191 92.9117 92.7196 92.4384 92.0659 91.6009 91.0423 90.3896 89.6427 88.8018 87.8694 86.849 85.7445 84.5599 83.2999 81.969 80.5728 79.1175 77.6097 76.0558 74.4624 72.8361 71.1834 69.5107 67.8245 66.1309 64.4359 62.7452 61.0645 59.3983 57.7509 56.1268 54.5301 52.9648 51.4348 49.9427 48.4901 47.0789 45.7107 44.3874 43.1107 41.8813 40.6994 39.5648 38.4776 37.4377 36.4451 35.4994 34.5997 33.7451 32.9345 32.1669 31.4414 30.757 30.1123 29.5063 28.9376 28.405 27.9072 27.443 27.0113 26.611 26.241 25.9002 25.5876 25.302 25.0426 24.8086 24.5994 24.4143 24.2525 24.1134 23.9965 23.9013 23.8277 23.7753 23.7441 23.7336 87.5221 87.5488 87.6318 87.7683 87.9555 88.1906 88.4707 88.7929 89.1517 89.5409 89.954 90.3841 90.824 91.2667 91.7042 92.128 92.5295 92.9002 93.2317 93.5156 93.744 93.9099 94.0064 94.0269 93.9661 93.8186 93.5797 93.2466 92.8174 92.2901 91.6642 90.9398 90.1172 89.1986 88.1873 87.0867 85.901 84.635 83.2938 81.883 80.4093 78.8792 77.2994 75.6767 74.0181 72.3303 70.6204 68.8953 67.1615 65.4252 63.6923 61.9686 60.2589 58.5681 56.9009 55.2616 53.6544 52.0835 50.5515 49.0602 47.6115 46.2073 44.8494 43.5396 42.2789 41.0672 39.9045 38.7907 37.7258 36.7097 35.7421 34.8219 33.9482 33.1198 32.3358 31.5951 30.8967 30.2391 29.6212 29.0417 28.4991 27.9923 27.5198 27.0806 26.6735 26.2973 25.951 25.6334 25.3434 25.08 24.8425 24.6303 24.4425 24.2784 24.1374 24.0188 23.9223 23.8477 23.7946 23.7629 23.7523 87.7258 87.7544 87.8434 87.99 88.1912 88.4441 88.746 89.0936 89.4817 89.9039 90.3537 90.824 91.3075 91.7965 92.2828 92.7577 93.2122 93.6375 94.0249 94.3657 94.6514 94.8744 95.027 95.102 95.0938 94.9968 94.8059 94.5179 94.1297 93.6388 93.0446 92.347 91.5465 90.645 89.6454 88.5508 87.3655 86.0946 84.7436 83.3183 81.8254 80.2718 78.6644 77.0103 75.3169 73.5914 71.8411 70.0735 68.2954 66.5135 64.7338 62.9626 61.2052 59.4666 57.752 56.0659 54.4127 52.7968 51.2208 49.6868 48.1967 46.7527 45.3565 44.0103 42.715 41.4705 40.2767 39.1337 38.0412 36.9993 36.0075 35.0647 34.17 33.3221 32.5201 31.7627 31.0488 30.3771 29.7462 29.1548 28.6013 28.0846 27.6031 27.1557 26.7412 26.3583 26.0059 25.6829 25.3881 25.1204 24.8791 24.6635 24.4728 24.3063 24.1631 24.0427 23.9448 23.8691 23.8153 23.7832 23.7724 87.9179 87.9486 88.0439 88.2011 88.417 88.6889 89.0137 89.3883 89.8075 90.2647 90.7535 91.2667 91.7965 92.335 92.8738 93.4038 93.9158 94.4006 94.849 95.2519 95.6004 95.8862 96.101 96.2369 96.2878 96.2477 96.1111 95.8739 95.5326 95.0838 94.5265 93.8608 93.0867 92.2059 91.2212 90.1352 88.9524 87.6782 86.3182 84.8787 83.3664 81.7883 80.1517 78.4643 76.7338 74.9681 73.1746 71.3608 69.5342 67.7018 65.8706 64.0473 62.2377 60.4471 58.6809 56.9437 55.2404 53.5752 51.9511 50.3703 48.8349 47.3471 45.9091 44.5229 43.1896 41.9092 40.6815 39.5065 38.3839 37.3137 36.2955 35.3281 34.4104 33.5413 32.7194 31.9438 31.2132 30.5261 29.8811 29.2767 28.7115 28.184 27.6927 27.2364 26.8138 26.4237 26.0648 25.736 25.4359 25.1636 24.9182 24.699 24.5052 24.3359 24.1905 24.0682 23.9688 23.8919 23.8373 23.8046 23.7937 88.0926 88.1255 88.2274 88.3955 88.6268 88.9184 89.2673 89.6703 90.1221 90.6162 91.146 91.7042 92.2828 92.8738 93.4685 94.0574 94.6312 95.1801 95.6946 96.165 96.5819 96.9363 97.2194 97.4229 97.5399 97.5635 97.4878 97.3079 97.0196 96.6192 96.1052 95.4769 94.7341 93.8783 92.912 91.8379 90.6603 89.385 88.0175 86.5643 85.0325 83.4293 81.7624 80.04 78.2705 76.462 74.6223 72.759 70.8798 68.9926 67.1053 65.2254 63.3589 61.5117 59.6893 57.8966 56.1386 54.4198 52.7432 51.1114 49.5266 47.9911 46.5074 45.0777 43.7032 42.3836 41.119 39.9091 38.7537 37.6529 36.6059 35.6118 34.6692 33.7769 32.9337 32.1383 31.3895 30.6857 30.0255 29.4072 28.8292 28.2901 27.7883 27.3225 26.8913 26.4934 26.1275 25.7924 25.4867 25.2094 24.9596 24.7365 24.5394 24.3673 24.2194 24.0951 23.994 23.9158 23.8603 23.8272 23.8161 88.2436 88.2787 88.3875 88.5669 88.8141 89.1261 89.4999 89.9323 90.418 90.9504 91.5229 92.128 92.7577 93.4038 94.0574 94.7088 95.3483 95.9658 96.5513 97.0944 97.5852 98.0144 98.3724 98.6503 98.8404 98.9351 98.9273 98.8118 98.5837 98.2386 97.7745 97.19 96.4841 95.6583 94.7149 93.6566 92.4877 91.2139 89.8408 88.3752 86.8245 85.1961 83.4982 81.7396 79.929 78.0751 76.1861 74.27 72.3351 70.3897 68.4424 66.5012 64.5728 62.6637 60.7799 58.9268 57.1093 55.3321 53.5985 51.9112 50.2727 48.6855 47.1522 45.6752 44.2558 42.8938 41.5891 40.3414 39.1506 38.0165 36.9385 35.9154 34.9459 34.0287 33.1624 32.3458 31.5775 30.8558 30.1791 29.5458 28.9542 28.4027 27.8897 27.4136 26.9731 26.5669 26.1936 25.8518 25.5401 25.2575 25.0031 24.7759 24.5752 24.4001 24.2496 24.1231 24.0203 23.9409 23.8844 23.8507 23.8394 88.3648 88.4022 88.5179 88.7089 88.9723 89.3051 89.7044 90.167 90.6875 91.2594 91.8759 92.5295 93.2122 93.9158 94.6312 95.3483 96.0571 96.7474 97.4084 98.0294 98.6 99.1101 99.5496 99.909 100.18 100.353 100.421 100.378 100.218 99.9356 99.5285 98.9946 98.3322 97.5422 96.627 95.5892 94.4329 93.1639 91.7878 90.3115 88.7428 87.0898 85.3609 83.5651 81.7115 79.8092 77.8675 75.8956 73.9026 71.8967 69.8862 67.8793 65.8836 63.9066 61.9557 60.0366 58.1542 56.3136 54.5183 52.7709 51.0742 49.431 47.844 46.3159 44.8479 43.44 42.0919 40.8034 39.5743 38.4043 37.2928 36.2386 35.2402 34.2963 33.4053 32.5659 31.7766 31.0358 30.3416 29.6923 29.0862 28.5214 27.9964 27.5094 27.0592 26.6441 26.2629 25.914 25.5961 25.3079 25.0485 24.817 24.6125 24.4341 24.281 24.1522 24.0476 23.9667 23.9093 23.875 23.8635 88.4498 88.4895 88.6122 88.8149 89.0947 89.4486 89.8738 90.3672 90.9232 91.5353 92.1968 92.9002 93.6375 94.4006 95.1801 95.9658 96.7474 97.5142 98.2551 98.959 99.615 100.212 100.74 101.188 101.547 101.807 101.959 101.997 101.913 101.702 101.36 100.885 100.273 99.5254 98.6446 97.6327 96.4939 95.2337 93.8578 92.3733 90.7884 89.1118 87.3522 85.5187 83.6204 81.6671 79.6696 77.6389 75.5849 73.5157 71.4387 69.3616 67.2933 65.2429 63.2191 61.2282 59.2754 57.366 55.5036 53.6913 51.9318 50.2282 48.5833 47.0001 45.4799 44.0224 42.6276 41.295 40.0246 38.816 37.6687 36.5811 35.5518 34.5792 33.6618 32.7982 31.9866 31.2253 30.5125 29.8462 29.2246 28.6459 28.1081 27.6096 27.149 26.7247 26.3351 25.9788 25.6542 25.3601 25.0955 24.8595 24.6511 24.4693 24.3133 24.1822 24.0756 23.9933 23.9348 23.8999 23.8882 88.4924 88.5345 88.6642 88.8786 89.1748 89.5499 90.0012 90.5255 91.1173 91.7702 92.4775 93.2317 94.0249 94.849 95.6946 96.5513 97.4084 98.2551 99.0799 99.8715 100.618 101.309 101.932 102.476 102.93 103.285 103.531 103.658 103.661 103.53 103.262 102.852 102.299 101.602 100.763 99.7837 98.668 97.4216 96.0501 94.5607 92.9623 91.2636 89.4739 87.6024 85.6587 83.6531 81.5976 79.5044 77.3847 75.2466 73.0978 70.9463 68.8017 66.6739 64.5722 62.5038 60.4747 58.4907 56.556 54.6735 52.8465 51.0779 49.3709 47.7284 46.1519 44.6412 43.196 41.8162 40.5014 39.2515 38.0657 36.9425 35.8802 34.8771 33.9317 33.0423 32.207 31.4241 30.6915 30.0072 29.3693 28.7757 28.2245 27.7139 27.2424 26.8083 26.41 26.0458 25.7143 25.414 25.144 24.9032 24.6907 24.5054 24.3464 24.2128 24.1042 24.0204 23.9609 23.9253 23.9134 88.4864 88.5309 88.6675 88.8935 89.206 89.6023 90.0795 90.6347 91.2624 91.9564 92.7099 93.5156 94.3657 95.2519 96.165 97.0944 98.0294 98.959 99.8715 100.755 101.598 102.387 103.112 103.759 104.318 104.777 105.125 105.352 105.449 105.408 105.224 104.891 104.406 103.768 102.978 102.038 100.952 99.7255 98.3637 96.8742 95.2656 93.547 91.7277 89.8182 87.8291 85.7713 83.6567 81.4972 79.3045 77.089 74.8613 72.6314 70.4083 68.2007 66.0171 63.8656 61.7539 59.6893 57.6765 55.7187 53.8191 51.9809 50.2072 48.5012 46.8643 45.2965 43.7974 42.3668 41.0045 39.7103 38.4835 37.3223 36.225 35.1897 34.2145 33.2978 32.4375 31.6317 30.8782 30.1749 29.5198 28.9106 28.3452 27.8219 27.339 26.8946 26.4872 26.1149 25.7761 25.4693 25.1936 24.9479 24.7311 24.5422 24.38 24.2439 24.1333 24.0479 23.9872 23.951 23.9389 88.4264 88.4732 88.6167 88.854 89.1826 89.5997 90.1026 90.6883 91.3517 92.0865 92.8864 93.744 94.6514 95.6004 96.5819 97.5852 98.6 99.615 100.618 101.598 102.541 103.436 104.268 105.026 105.697 106.269 106.728 107.065 107.268 107.328 107.237 106.991 106.584 106.015 105.284 104.392 103.344 102.144 100.798 99.3138 97.6996 95.9638 94.1164 92.1695 90.1354 88.0257 85.8509 83.6213 81.3485 79.0475 76.7334 74.4204 72.1157 69.8253 67.5557 65.3156 63.1152 60.9639 58.8671 56.8283 54.8509 52.9381 51.0931 49.3191 47.6176 45.9885 44.4317 42.9468 41.5338 40.1924 38.9219 37.7204 36.5859 35.5163 34.5098 33.5642 32.6776 31.8476 31.0722 30.3489 29.6756 29.05 28.4699 27.9333 27.4384 26.9834 26.5664 26.1856 25.8392 25.5258 25.2443 24.9934 24.7721 24.5794 24.4141 24.2753 24.1625 24.0755 24.0137 23.9769 23.9645 88.3087 88.3577 88.5078 88.7563 89.1005 89.538 90.0659 90.6816 91.38 92.1551 93.0008 93.9099 94.8744 95.8862 96.9363 98.0144 99.1101 100.212 101.309 102.387 103.436 104.44 105.387 106.263 107.054 107.747 108.328 108.784 109.104 109.275 109.29 109.141 108.824 108.334 107.673 106.84 105.838 104.674 103.352 101.88 100.265 98.5169 96.6446 94.662 92.5828 90.4194 88.1818 85.8797 83.5249 81.1356 78.7309 76.3277 73.933 71.5518 69.1894 66.8557 64.5616 62.3179 60.1309 58.0047 55.9436 53.9509 52.0297 50.183 48.4124 46.7177 45.099 43.5562 42.0891 40.6975 39.3805 38.1362 36.9623 35.8566 34.8169 33.8409 32.9265 32.0712 31.2727 30.5285 29.8363 29.1935 28.598 28.0475 27.5402 27.0741 26.6472 26.2576 25.9035 25.5831 25.2955 25.0393 24.8135 24.6169 24.4483 24.3067 24.1918 24.1031 24.0402 24.0026 23.99 88.1296 88.1808 88.3372 88.5964 88.9558 89.4129 89.9651 90.6099 91.3423 92.1567 93.047 94.0064 95.027 96.101 97.2194 98.3724 99.5496 100.74 101.932 103.112 104.268 105.387 106.453 107.453 108.373 109.196 109.908 110.495 110.943 111.237 111.37 111.331 111.115 110.717 110.137 109.375 108.432 107.314 106.025 104.572 102.964 101.209 99.317 97.3017 95.1768 92.9557 90.6509 88.2751 85.8418 83.3682 80.8718 78.3689 75.87 73.384 70.92 68.4874 66.0959 63.7548 61.471 59.2505 57.0992 55.0208 53.0182 51.0938 49.2491 47.4843 45.7996 44.195 42.6703 41.2253 39.8591 38.5694 37.3538 36.2099 35.1351 34.1272 33.1835 32.3017 31.479 30.713 30.001 29.3405 28.7289 28.1641 27.6439 27.1663 26.7292 26.3306 25.9683 25.6409 25.347 25.0854 24.855 24.6543 24.4823 24.338 24.2209 24.1305 24.0663 24.0281 24.0152 87.8855 87.9387 88.1013 88.3706 88.7444 89.2203 89.7959 90.4686 91.2337 92.0858 93.0191 94.0269 95.102 96.2369 97.4229 98.6503 99.909 101.188 102.476 103.759 105.026 106.263 107.453 108.584 109.639 110.601 111.454 112.182 112.769 113.199 113.463 113.548 113.446 113.154 112.669 111.99 111.12 110.06 108.816 107.392 105.798 104.044 102.138 100.094 97.9228 95.6396 93.2631 90.8127 88.3056 85.7529 83.1647 80.5523 77.9334 75.3274 72.7516 70.2146 67.7215 65.2775 62.8903 60.5683 58.3198 56.1496 54.0598 52.0523 50.1284 48.2887 46.5335 44.8631 43.2773 41.7757 40.3573 39.0196 37.7599 36.5755 35.4639 34.4223 33.448 32.5384 31.6905 30.9017 30.1693 29.4903 28.8622 28.2824 27.7489 27.2595 26.8119 26.404 26.0335 25.6988 25.3985 25.1314 24.8962 24.6915 24.5161 24.3689 24.2495 24.1573 24.092 24.053 24.0399 87.5728 87.628 87.7962 88.0752 88.4626 88.9563 89.5539 90.2531 91.0493 91.9374 92.9117 93.9661 95.0938 96.2878 97.5399 98.8404 100.18 101.547 102.93 104.318 105.697 107.054 108.373 109.639 110.835 111.943 112.946 113.825 114.564 115.143 115.55 115.774 115.802 115.631 115.256 114.677 113.894 112.908 111.721 110.339 108.77 107.024 105.111 103.041 100.827 98.4821 96.0327 93.5041 90.9172 88.2783 85.5915 82.8648 80.122 77.3908 74.6961 72.0459 69.4423 66.8879 64.3905 61.9607 59.6086 57.3396 55.1557 53.0588 51.0502 49.1306 47.3007 45.5606 43.91 42.3485 40.8748 39.4863 38.18 36.9531 35.8025 34.7256 33.7192 32.7805 31.9065 31.0941 30.3404 29.6424 28.9971 28.4021 27.8549 27.3533 26.8949 26.4775 26.0986 25.7565 25.4497 25.177 24.9369 24.7281 24.5492 24.3992 24.2774 24.1835 24.1169 24.0772 24.0638 87.1879 87.245 87.4185 87.7063 88.1064 88.6166 89.2348 89.9587 90.7842 91.7062 92.7196 93.8186 94.9968 96.2477 97.5635 98.9351 100.353 101.807 103.285 104.777 106.269 107.747 109.196 110.601 111.943 113.204 114.365 115.407 116.308 117.049 117.615 117.992 118.167 118.133 117.888 117.426 116.748 115.852 114.739 113.413 111.882 110.154 108.238 106.147 103.894 101.495 98.976 96.3623 93.6764 90.9292 88.1298 85.2902 82.433 79.584 76.7666 73.991 71.2626 68.5872 65.9733 63.4306 60.9686 58.5931 56.3072 54.1138 52.0146 50.0102 48.1011 46.2873 44.5683 42.9434 41.4114 39.9692 38.6137 37.3418 36.1504 35.0363 33.9964 33.0274 32.1261 31.2893 30.5137 29.7961 29.1332 28.5225 27.9613 27.4472 26.9779 26.5507 26.1632 25.8135 25.5002 25.2218 24.9768 24.7638 24.5815 24.4285 24.3045 24.2088 24.141 24.1005 24.0869 86.728 86.7867 86.9649 87.2609 87.6725 88.1978 88.835 89.5817 90.4343 91.3881 92.4384 93.5797 94.8059 96.1111 97.4878 98.9273 100.421 101.959 103.531 105.125 106.728 108.328 109.908 111.454 112.946 114.365 115.692 116.905 117.98 118.896 119.635 120.183 120.523 120.647 120.55 120.226 119.672 118.886 117.867 116.616 115.138 113.437 111.524 109.417 107.132 104.689 102.105 99.3979 96.5878 93.7032 90.7734 87.8246 84.8688 81.9149 78.9727 76.0576 73.1874 70.3789 67.6416 64.981 62.4028 59.9125 57.5157 55.2179 53.0219 50.9275 48.9347 47.043 45.2517 43.56 41.9664 40.4676 39.0603 37.7411 36.5067 35.3537 34.2787 33.2782 32.3488 31.4867 30.6886 29.9508 29.27 28.6431 28.0676 27.5408 27.0602 26.6231 26.227 25.8697 25.5497 25.2655 25.0157 24.7985 24.6126 24.4568 24.3304 24.2329 24.1638 24.1226 24.1088 86.1928 86.2529 86.4355 86.7386 87.1606 87.6996 88.3538 89.1212 89.9985 90.9815 92.0659 93.2466 94.5179 95.8739 97.3079 98.8118 100.378 101.997 103.658 105.352 107.065 108.784 110.495 112.182 113.825 115.407 116.905 118.296 119.556 120.659 121.587 122.321 122.846 123.151 123.226 123.064 122.659 122.008 121.105 119.949 118.541 116.882 114.982 112.864 110.552 108.066 105.416 102.613 99.6745 96.6472 93.5806 90.5152 87.4527 84.3854 81.3096 78.2462 75.225 72.2738 69.4032 66.6153 63.9119 61.2986 58.7834 56.3739 54.0739 51.8831 49.8009 47.8265 45.9588 44.1966 42.538 40.9796 39.5179 38.1491 36.8698 35.6763 34.5649 33.5318 32.5732 31.6853 30.864 30.1057 29.4064 28.7631 28.173 27.6334 27.1414 26.6943 26.2894 25.9244 25.5978 25.3079 25.0531 24.8318 24.6424 24.4837 24.3549 24.2557 24.1854 24.1434 24.1294 85.5827 85.6442 85.8304 86.1399 86.571 87.122 87.7913 88.5772 89.4766 90.4858 91.6009 92.8174 94.1297 95.5326 97.0196 98.5837 100.218 101.913 103.661 105.449 107.268 109.104 110.943 112.769 114.564 116.308 117.98 119.556 121.008 122.31 123.441 124.382 125.113 125.621 125.896 125.926 125.701 125.213 124.453 123.415 122.097 120.497 118.624 116.505 114.164 111.624 108.9 106.006 102.964 99.8207 96.6262 93.422 90.2131 86.9955 83.769 80.5554 77.3846 74.2847 71.2677 68.3371 65.4966 62.7524 60.1125 57.5847 55.1731 52.878 50.6993 48.6366 46.6878 44.8512 43.1242 41.5032 39.9845 38.564 37.2381 36.0026 34.8536 33.7869 32.7984 31.8838 31.039 30.2596 29.5416 28.8817 28.2769 27.7243 27.2209 26.7638 26.3501 25.9774 25.6441 25.3485 25.0888 24.8634 24.6705 24.5089 24.3778 24.2768 24.2053 24.1626 24.1483 84.8984 84.9609 85.1504 85.4652 85.9041 86.4654 87.1478 87.9497 88.8683 89.9003 91.0423 92.2901 93.6388 95.0838 96.6192 98.2386 99.9356 101.702 103.53 105.408 107.328 109.275 111.237 113.199 115.143 117.049 118.896 120.659 122.31 123.822 125.172 126.338 127.298 128.036 128.54 128.796 128.788 128.499 127.911 127.015 125.807 124.288 122.463 120.353 117.979 115.368 112.556 109.581 106.478 103.266 99.9623 96.5877 93.1724 89.7495 86.3492 82.9877 79.6753 76.4229 73.2434 70.1508 67.1587 64.2754 61.5053 58.8528 56.3211 53.9126 51.6295 49.4719 47.437 45.5218 43.7229 42.0363 40.458 38.984 37.6098 36.3311 35.1434 34.0423 33.0231 32.0814 31.2124 30.4117 29.6748 28.9981 28.3785 27.8128 27.298 26.8309 26.4085 26.0282 25.6883 25.387 25.1225 24.893 24.6967 24.5322 24.3989 24.2961 24.2233 24.18 24.1655 84.1402 84.2037 84.3957 84.7149 85.1601 85.73 86.4233 87.2386 88.1734 89.2248 90.3896 91.6642 93.0446 94.5265 96.1052 97.7745 99.5285 101.36 103.262 105.224 107.237 109.29 111.37 113.463 115.55 117.615 119.635 121.587 123.441 125.172 126.754 128.164 129.377 130.374 131.14 131.658 131.904 131.851 131.47 130.745 129.674 128.255 126.494 124.404 122.001 119.316 116.413 113.358 110.199 106.923 103.51 99.9548 96.3172 92.6726 89.0867 85.5684 82.1057 78.6894 75.3337 72.0648 68.908 65.8741 62.9636 60.1769 57.5164 54.9864 52.5914 50.3323 48.2054 46.2067 44.3319 42.5766 40.9365 39.407 37.9833 36.6603 35.433 34.2967 33.2462 32.2767 31.3833 30.561 29.805 29.1114 28.477 27.8983 27.3722 26.8952 26.4641 26.0763 25.7299 25.423 25.1537 24.9201 24.7205 24.5532 24.4177 24.3133 24.2394 24.1953 24.1806 83.3086 83.3728 83.5668 83.8894 84.3395 84.9161 85.618 86.444 87.3918 88.459 89.6427 90.9398 92.347 93.8608 95.4769 97.19 98.9946 100.885 102.852 104.891 106.991 109.141 111.331 113.548 115.774 117.992 120.183 122.321 124.382 126.338 128.164 129.834 131.325 132.611 133.674 134.491 135.03 135.251 135.115 134.599 133.695 132.397 130.708 128.646 126.23 123.495 120.515 117.364 114.095 110.695 107.142 103.429 99.6212 95.7984 92.0318 88.3312 84.6844 81.0819 77.5403 74.0892 70.7571 67.5566 64.4888 61.5544 58.756 56.0981 53.5851 51.2178 48.9923 46.9044 44.9493 43.1221 41.4179 39.8313 38.3568 36.9886 35.721 34.5487 33.4665 32.4688 31.5506 30.7065 29.9312 29.2208 28.5716 27.9802 27.4429 26.9562 26.5166 26.1214 25.7686 25.4561 25.1822 24.9447 24.7417 24.5718 24.4342 24.3281 24.2531 24.2084 24.1934 82.4045 82.4692 82.6644 82.9893 83.4428 84.0241 84.7321 85.566 86.5237 87.6031 88.8018 90.1172 91.5465 93.0867 94.7341 96.4841 98.3322 100.273 102.299 104.406 106.584 108.824 111.115 113.446 115.802 118.167 120.523 122.846 125.113 127.298 129.377 131.325 133.117 134.727 136.123 137.276 138.145 138.68 138.834 138.571 137.87 136.711 135.099 133.07 130.665 127.926 124.897 121.622 118.146 114.512 110.765 106.944 103.069 99.1583 95.2287 91.3067 87.4215 83.6014 79.8666 76.2332 72.717 69.3302 66.0824 62.9832 60.0376 57.2465 54.6102 52.128 49.7967 47.6131 45.573 43.6707 41.9 40.2549 38.7286 37.3145 36.0059 34.7972 33.6827 32.6566 31.7133 30.8472 30.0527 29.3255 28.6617 28.0576 27.5094 27.0133 26.5654 26.163 25.8039 25.4861 25.2075 24.9662 24.7601 24.5876 24.448 24.3404 24.2643 24.219 24.2037 81.4304 81.4954 81.6913 82.0174 82.4728 83.0568 83.7686 84.6074 85.5717 86.6596 87.8694 89.1986 90.645 92.2059 93.8783 95.6583 97.5422 99.5254 101.602 103.768 106.015 108.334 110.717 113.154 115.631 118.133 120.647 123.151 125.621 128.036 130.374 132.611 134.727 136.686 138.45 139.979 141.223 142.12 142.613 142.65 142.192 141.197 139.673 137.685 135.306 132.584 129.525 126.127 122.421 118.524 114.57 110.655 106.744 102.766 98.6679 94.4979 90.3416 86.2783 82.3332 78.5032 74.7863 71.1939 67.7473 64.4674 61.3628 58.4292 55.6622 53.0581 50.6149 48.3304 46.201 44.2201 42.3806 40.6752 39.0961 37.6354 36.2855 35.04 33.8929 32.8382 31.8699 30.9819 30.1683 29.4245 28.7465 28.13 27.5712 27.0658 26.61 26.2006 25.8354 25.5124 25.2295 24.9845 24.7754 24.6004 24.4589 24.3499 24.2728 24.2269 24.2114 80.3903 80.4554 80.6513 80.9775 81.4333 82.0181 82.7313 83.5723 84.5399 85.6326 86.849 88.1873 89.6454 91.2212 92.912 94.7149 96.627 98.6446 100.763 102.978 105.284 107.673 110.137 112.669 115.256 117.888 120.55 123.226 125.896 128.54 131.14 133.674 136.123 138.45 140.61 142.559 144.232 145.551 146.438 146.824 146.649 145.855 144.446 142.512 140.15 137.423 134.329 130.857 127.034 122.996 118.893 114.838 110.78 106.628 102.313 97.8937 93.4765 89.1584 84.9691 80.9033 76.9567 73.1425 69.4865 66.014 62.7349 59.6437 56.734 54.0011 51.4418 49.0533 46.8311 44.7681 42.8569 41.0894 39.4564 37.9486 36.557 35.2746 34.095 33.0119 32.0188 31.1092 30.277 29.517 28.825 28.1965 27.6274 27.1132 26.6497 26.2336 25.8627 25.5348 25.2477 24.9992 24.7873 24.61 24.4667 24.3564 24.2784 24.2319 24.2161 79.2879 79.3529 79.5483 79.8735 80.3283 80.912 81.6243 82.4647 83.4322 84.5259 85.7445 87.0867 88.5508 90.1352 91.8379 93.6566 95.5892 97.6327 99.7837 102.038 104.392 106.84 109.375 111.99 114.677 117.426 120.226 123.064 125.926 128.796 131.658 134.491 137.276 139.979 142.559 144.972 147.137 148.945 150.288 151.073 151.227 150.679 149.426 147.563 145.191 142.399 139.247 135.794 132.09 128.163 124.037 119.738 115.298 110.752 106.135 101.489 96.858 92.2846 87.802 83.4386 79.2219 75.1718 71.3027 67.6287 64.1567 60.8869 57.8191 54.95 52.2724 49.7785 47.4608 45.3124 43.3263 41.4947 39.8067 38.2511 36.8176 35.4985 34.2868 33.1758 32.1584 31.2279 30.3775 29.6019 28.8964 28.2565 27.6775 27.1549 26.6841 26.2617 25.8853 25.5528 25.2618 25.0102 24.7956 24.6162 24.4712 24.3596 24.2808 24.2337 24.2177 78.1271 78.1917 78.3859 78.7093 79.1616 79.7424 80.4515 81.2886 82.2528 83.3436 84.5599 85.901 87.3655 88.9524 90.6603 92.4877 94.4329 96.4939 98.668 100.952 103.344 105.838 108.432 111.12 113.894 116.748 119.672 122.659 125.701 128.788 131.904 135.03 138.145 141.223 144.232 147.137 149.839 152.191 154.048 155.291 155.829 155.572 154.51 152.74 150.365 147.508 144.324 140.972 137.531 133.862 129.789 125.203 120.268 115.214 110.24 105.358 100.514 95.6609 90.8373 86.1237 81.5978 77.289 73.1921 69.3013 65.6185 62.1528 58.9137 55.9009 53.1009 50.4991 48.0836 45.8477 43.785 41.8878 40.1438 38.5401 37.0647 35.7091 34.466 33.3279 32.2872 31.3367 30.4689 29.6783 28.9599 28.309 27.7207 27.1901 26.7125 26.2842 25.9028 25.5661 25.2716 25.017 24.8 24.6187 24.4721 24.3594 24.2798 24.2323 24.2161 76.9116 76.9757 77.1681 77.4887 77.9371 78.5133 79.217 80.048 81.0058 82.09 83.2999 84.635 86.0946 87.6782 89.385 91.2139 93.1639 95.2337 97.4216 99.7255 102.144 104.674 107.314 110.06 112.908 115.852 118.886 122.008 125.213 128.499 131.851 135.251 138.68 142.12 145.551 148.945 152.191 155.114 157.539 159.311 160.299 160.373 159.517 157.866 155.567 152.78 149.684 146.459 143.182 139.639 135.566 130.797 125.548 120.135 114.827 109.633 104.469 99.2637 94.0642 88.9803 84.1169 79.5099 75.1457 71.01 67.1019 63.4334 60.0167 56.8518 53.9211 51.2056 48.6901 46.3667 44.2281 42.2653 40.4649 38.8127 37.2955 35.9041 34.6304 33.4663 32.4035 31.4341 30.55 29.7453 29.0148 28.3535 27.7563 27.2182 26.7342 26.3006 25.9147 25.5742 25.2766 25.0195 24.8004 24.6173 24.4694 24.3556 24.2752 24.2273 24.211 75.6453 75.7086 75.8988 76.2155 76.6588 77.2285 77.9246 78.747 79.6954 80.7695 81.969 83.2938 84.7436 86.3182 88.0175 89.8408 91.7878 93.8578 96.0501 98.3637 100.798 103.352 106.025 108.816 111.721 114.739 117.867 121.105 124.453 127.911 131.47 135.115 138.834 142.613 146.438 150.288 154.048 157.539 160.575 162.959 164.477 164.917 164.263 162.765 160.693 158.24 155.444 152.326 148.887 145.075 140.828 136.113 131.013 125.637 120.091 114.443 108.751 103.072 97.4733 92.0291 86.8096 81.849 77.1546 72.7335 68.5888 64.72 61.1261 57.8003 54.7265 51.8884 49.271 46.8623 44.6506 42.6235 40.7668 39.066 37.5073 36.0809 34.7778 33.5891 32.5058 31.5189 30.6197 29.8019 29.06 28.3891 27.7837 27.2387 26.7489 26.3104 25.9206 25.5768 25.2766 25.0173 24.7964 24.6119 24.4627 24.348 24.2669 24.2186 24.2023 74.3327 74.3951 74.5823 74.8944 75.3312 75.8929 76.5794 77.3906 78.3266 79.3873 80.5728 81.883 83.3183 84.8787 86.5643 88.3752 90.3115 92.3733 94.5607 96.8742 99.3138 101.88 104.572 107.392 110.339 113.413 116.616 119.949 123.415 127.015 130.745 134.599 138.571 142.65 146.824 151.073 155.291 159.311 162.959 165.993 168.098 168.962 168.574 167.339 165.692 163.845 161.585 158.651 154.916 150.637 146.136 141.634 136.959 131.838 126.066 119.818 113.411 107.136 101.089 95.2636 89.6538 84.2856 79.2068 74.4645 70.0699 65.9989 62.2259 58.7319 55.5064 52.54 49.8202 47.3288 45.0471 42.9575 41.0453 39.2964 37.6972 36.2371 34.9062 33.6947 32.5925 31.5897 30.6768 29.847 29.0948 28.415 27.8021 27.2509 26.7559 26.3133 25.9201 25.5737 25.2713 25.0103 24.788 24.6021 24.4518 24.3363 24.2546 24.2061 24.1898 72.9789 73.0402 73.224 73.5306 73.9598 74.5119 75.1868 75.9845 76.9054 77.9496 79.1175 80.4093 81.8254 83.3664 85.0325 86.8245 88.7428 90.7884 92.9623 95.2656 97.6996 100.265 102.964 105.798 108.77 111.882 115.138 118.541 122.097 125.807 129.674 133.695 137.87 142.192 146.649 151.227 155.829 160.299 164.477 168.098 170.791 172.19 172.286 171.569 170.562 169.482 167.95 165.521 161.969 157.683 153.157 148.727 144.108 138.854 132.628 125.692 118.528 111.581 104.971 98.6506 92.5746 86.7641 81.287 76.2097 71.5447 67.2512 63.286 59.6205 56.2459 53.155 50.3349 47.762 45.4114 43.2607 41.2948 39.4997 37.862 36.3703 35.0137 33.7812 32.6619 31.645 30.72 29.8795 29.1182 28.4306 27.8112 27.2545 26.7551 26.309 25.9131 25.5645 25.2606 24.9983 24.7748 24.5879 24.4368 24.3205 24.2384 24.1896 24.1734 71.5891 71.6491 71.8291 72.1294 72.55 73.091 73.7525 74.5347 75.438 76.4628 77.6097 78.8792 80.2718 81.7883 83.4293 85.1961 87.0898 89.1118 91.2636 93.547 95.9638 98.5169 101.209 104.044 107.024 110.154 113.437 116.882 120.497 124.288 128.255 132.397 136.711 141.197 145.855 150.679 155.572 160.373 164.917 168.962 172.19 174.287 175.237 175.436 175.306 175.04 174.383 173.028 170.753 167.579 163.568 158.769 153.184 146.802 139.652 131.997 124.181 116.531 109.178 102.156 95.496 89.2282 83.3795 77.9756 73.0127 68.4576 64.276 60.4397 56.9298 53.7278 50.8125 48.1578 45.7371 43.5263 41.5095 39.6717 37.9987 36.4782 35.0982 33.847 32.7127 31.6835 30.7478 29.8983 29.1292 28.435 27.8102 27.2491 26.7462 26.2973 25.8993 25.5492 25.2441 24.9809 24.7566 24.5691 24.4173 24.3005 24.2181 24.1691 24.153 70.1684 70.227 70.4028 70.6961 71.107 71.6356 72.2822 73.0469 73.9303 74.933 76.0558 77.2994 78.6644 80.1517 81.7624 83.4982 85.3609 87.3522 89.4739 91.7277 94.1164 96.6446 99.317 102.138 105.111 108.238 111.524 114.982 118.624 122.463 126.494 130.708 135.099 139.673 144.446 149.426 154.51 159.517 164.263 168.574 172.286 175.237 177.397 178.914 179.949 180.644 181.094 181.392 181.4 180.339 177.324 171.772 164.318 155.897 147.338 138.841 130.38 121.942 113.661 105.745 98.3922 91.6471 85.4454 79.7216 74.4397 69.594 65.1792 61.1761 57.545 54.2449 51.2401 48.5049 46.0147 43.7469 41.6837 39.8082 38.1042 36.5583 35.158 33.8905 32.7432 31.7035 30.7591 29.9021 29.1269 28.4276 27.7987 27.2344 26.729 26.2782 25.8787 25.5276 25.2217 24.958 24.7333 24.5454 24.3933 24.2762 24.1936 24.1446 24.1286 68.7221 68.7792 68.9504 69.236 69.6363 70.1514 70.7816 71.527 72.3884 73.3666 74.4624 75.6767 77.0103 78.4643 80.04 81.7396 83.5651 85.5187 87.6024 89.8182 92.1695 94.662 97.3017 100.094 103.041 106.147 109.417 112.864 116.505 120.353 124.404 128.646 133.07 137.685 142.512 147.563 152.74 157.866 162.765 167.339 171.569 175.436 178.914 181.965 184.552 186.74 188.799 191.019 193.248 194.102 191.99 185.857 176.808 166.487 156.332 146.581 137.037 127.538 118.223 109.387 101.307 94.026 87.4143 81.3419 75.7458 70.6294 65.9986 61.834 58.081 54.6823 51.5914 48.7821 46.2304 43.9135 41.8114 39.9048 38.1753 36.6085 35.1911 33.9101 32.752 31.7037 30.7523 29.8898 29.1102 28.4076 27.7761 27.2099 26.7031 26.2512 25.8511 25.4995 25.1933 24.9294 24.7047 24.5167 24.3646 24.2476 24.1649 24.116 24.1 67.2552 67.3107 67.477 67.7544 68.1433 68.6438 69.2562 69.9809 70.8185 71.77 72.8361 74.0181 75.3169 76.7338 78.2705 79.929 81.7115 83.6204 85.6587 87.8291 90.1354 92.5828 95.1768 97.9228 100.827 103.894 107.132 110.552 114.164 117.979 122.001 126.23 130.665 135.306 140.15 145.191 150.365 155.567 160.693 165.692 170.562 175.306 179.949 184.552 189.174 193.796 198.244 202.324 205.59 206.9 204.992 199.033 189.909 178.934 167.311 155.584 144.059 133.029 122.658 113.047 104.288 96.3718 89.2131 82.7266 76.8477 71.5326 66.7381 62.4191 58.5275 55.0151 51.8391 48.9676 46.3698 44.017 41.8868 39.9575 38.2089 36.6262 35.1957 33.9039 32.7374 31.6825 30.7263 29.8603 29.0783 28.3742 27.7419 27.1753 26.6684 26.2164 25.8162 25.4647 25.1586 24.895 24.6705 24.4828 24.3311 24.2144 24.132 24.0832 24.0672 65.7729 65.8267 65.9878 66.2565 66.6332 67.1181 67.7117 68.4142 69.2264 70.1492 71.1834 72.3303 73.5914 74.9681 76.462 78.0751 79.8092 81.6671 83.6531 85.7713 88.0257 90.4194 92.9557 95.6396 98.4821 101.495 104.689 108.066 111.624 115.368 119.316 123.495 127.926 132.584 137.423 142.399 147.508 152.78 158.24 163.845 169.482 175.04 180.644 186.74 193.796 201.737 209.431 215.628 219.325 220.2 218.05 212.749 204.48 193.504 180.203 165.678 151.291 138.282 126.836 116.596 107.218 98.5908 90.7747 83.8281 77.7085 72.2715 67.3699 62.9092 58.8683 55.2317 51.9745 49.0543 46.4268 44.0525 41.9056 39.9629 38.2025 36.6094 35.17 33.8708 32.6983 31.6391 30.6802 29.8128 29.0305 28.327 27.6957 27.1304 26.6245 26.1734 25.774 25.423 25.1176 24.8545 24.6306 24.4437 24.2927 24.1767 24.0948 24.0462 24.03 64.2797 64.3318 64.4874 64.7469 65.1109 65.5795 66.1532 66.8324 67.6179 68.5103 69.5107 70.6204 71.8411 73.1746 74.6223 76.1861 77.8675 79.6696 81.5976 83.6567 85.8509 88.1818 90.6509 93.2631 96.0327 98.976 102.105 105.416 108.9 112.556 116.413 120.515 124.897 129.525 134.329 139.247 144.324 149.684 155.444 161.585 167.95 174.383 181.094 188.799 198.244 209.431 220.911 231.07 238.467 242.144 241.224 235.135 224.511 210.288 193.49 175.642 158.456 143.472 130.78 119.72 109.657 100.393 92.043 84.7211 78.3806 72.8131 67.8048 63.2282 59.0749 55.3456 52.0243 49.0633 46.4112 44.0223 41.8673 39.9194 38.1543 36.5565 35.1127 33.8097 32.6343 31.5734 30.6141 29.7476 28.9672 28.2661 27.6376 27.0749 26.5714 26.1222 25.7243 25.3746 25.0702 24.8081 24.5853 24.3995 24.2495 24.1345 24.0533 24.005 23.9887 62.7804 62.8306 62.9805 63.2306 63.5813 64.0329 64.586 65.2409 65.9984 66.8593 67.8245 68.8953 70.0735 71.3608 72.759 74.27 75.8956 77.6389 79.5044 81.4972 83.6213 85.8797 88.2751 90.8127 93.5041 96.3623 99.3979 102.613 106.006 109.581 113.358 117.364 121.622 126.127 130.857 135.794 140.972 146.459 152.326 158.651 165.521 173.028 181.392 191.019 202.324 215.628 231.07 248.764 267.384 281.631 285.521 275.078 254.342 229.357 205.488 184.136 165.262 148.809 134.528 122.08 111.131 101.467 92.963 85.4936 78.9269 73.1241 67.9467 63.294 59.1177 55.3736 52.0198 49.0189 46.3342 43.9298 41.7715 39.8259 38.0628 36.466 35.0226 33.7199 32.545 31.4853 30.5282 29.665 28.8885 28.1917 27.5675 27.0089 26.5089 26.0626 25.667 25.3193 25.0165 24.7559 24.5346 24.3503 24.2017 24.0878 24.0075 23.9597 23.9432 61.2795 61.3278 61.472 61.7123 62.0493 62.4834 63.0151 63.645 64.3737 65.202 66.1309 67.1615 68.2954 69.5342 70.8798 72.3351 73.9026 75.5849 77.3847 79.3045 81.3485 83.5249 85.8418 88.3056 90.9172 93.6764 96.5878 99.6745 102.964 106.478 110.199 114.095 118.146 122.421 127.034 132.09 137.531 143.182 148.887 154.916 161.969 170.753 181.4 193.248 205.59 219.325 238.467 267.384 305.587 339.17 351.93 333.075 293.458 249.344 214.7 190.081 171.187 154.071 137.894 123.426 111.383 101.642 93.4717 86.1437 79.3449 73.1748 67.7482 63.0676 58.9786 55.3161 51.9685 48.9282 46.1996 43.7759 41.6178 39.681 37.9264 36.3363 34.8985 33.6005 32.43 31.3748 30.4229 29.5653 28.7947 28.1039 27.4856 26.9323 26.437 25.9945 25.6022 25.2572 24.9567 24.6982 24.4788 24.2963 24.1494 24.0369 23.9576 23.9102 23.8936 59.7817 59.8281 59.9663 60.1967 60.5198 60.936 61.446 62.0501 62.7493 63.5442 64.4359 65.4252 66.5135 67.7018 68.9926 70.3897 71.8967 73.5157 75.2466 77.089 79.0475 81.1356 83.3682 85.7529 88.2783 90.9292 93.7032 96.6472 99.8207 103.266 106.923 110.695 114.512 118.524 122.996 128.163 133.862 139.639 145.075 150.637 157.683 167.579 180.339 194.102 206.9 220.2 242.144 281.631 339.17 392.095 413.771 386.451 327.938 264.927 220.141 193.131 175.061 157.845 140.068 123.741 110.767 101.141 93.4826 86.4204 79.452 72.9447 67.2973 62.6292 58.6719 55.1289 51.8133 48.7503 45.9893 43.5551 41.4047 39.4834 37.7435 36.1661 34.7391 33.4507 32.289 31.242 30.2983 29.4488 28.6862 28.003 27.3918 26.845 26.3554 25.9178 25.5296 25.1882 24.8908 24.635 24.418 24.2377 24.0927 23.9817 23.9034 23.8567 23.8401 58.2917 58.3362 58.4683 58.6886 58.9976 59.3958 59.8836 60.4617 61.1307 61.8916 62.7452 63.6923 64.7338 65.8706 67.1053 68.4424 69.8862 71.4387 73.0978 74.8613 76.7334 78.7309 80.8718 83.1647 85.5915 88.1298 90.7734 93.5806 96.6262 99.9623 103.51 107.142 110.765 114.57 118.893 124.037 129.789 135.566 140.828 146.136 153.157 163.568 177.324 191.99 204.992 218.05 241.224 285.521 351.93 413.771 439.628 408.562 341.564 270.104 220.916 193.065 175.601 158.517 140.132 123.052 109.74 100.252 92.9056 86.0296 79.0346 72.4151 66.705 62.0797 58.2171 54.76 51.4863 48.4364 45.6813 43.261 41.1309 39.2319 37.5126 35.9536 34.5431 33.2696 32.1215 31.0869 30.1547 29.316 28.5633 27.8892 27.2863 26.747 26.264 25.8323 25.4493 25.1123 24.8189 24.5664 24.3524 24.1746 24.0317 23.9223 23.8452 23.7991 23.7826 56.8138 56.8563 56.9824 57.1926 57.4875 57.8675 58.333 58.8848 59.5233 60.2496 61.0645 61.9686 62.9626 64.0473 65.2254 66.5012 67.8793 69.3616 70.9463 72.6314 74.4204 76.3277 78.3689 80.5523 82.8648 85.2902 87.8246 90.5152 93.422 96.5877 99.9548 103.429 106.944 110.655 114.838 119.738 125.203 130.797 136.113 141.634 148.727 158.769 171.772 185.857 199.033 212.749 235.135 275.078 333.075 386.451 408.562 381.654 323.53 260.882 216.435 189.74 171.96 155.012 137.479 121.377 108.608 99.1696 91.683 84.7775 77.9522 71.5753 66.0468 61.4872 57.6286 54.1759 50.9426 47.9546 45.2619 42.8898 40.7958 38.9259 37.233 35.6982 34.3102 33.0571 31.9275 30.9097 29.9925 29.1671 28.4263 27.7627 27.1691 26.6382 26.1628 25.738 25.3612 25.0297 24.7411 24.4927 24.2821 24.1072 23.9665 23.8588 23.7829 23.7375 23.7214 55.3514 55.3919 55.5119 55.7121 55.9928 56.3546 56.7979 57.3232 57.9311 58.6226 59.3983 60.2589 61.2052 62.2377 63.3589 64.5728 65.8836 67.2933 68.8017 70.4083 72.1157 73.933 75.87 77.9334 80.122 82.433 84.8688 87.4527 90.2131 93.1724 96.3172 99.6212 103.069 106.744 110.78 115.298 120.268 125.548 131.013 136.959 144.108 153.184 164.318 176.808 189.909 204.48 224.511 254.342 293.458 327.938 341.564 323.53 284.686 241.296 207.326 183.332 165.015 148.429 132.739 118.717 107.083 97.7155 89.8862 82.8701 76.356 70.4454 65.2556 60.7908 56.8987 53.4158 50.232 47.3411 44.7486 42.4485 40.403 38.5687 36.9076 35.4028 34.0425 32.815 31.7086 30.7116 29.8125 29.0028 28.2757 27.6241 27.041 26.5194 26.0525 25.6356 25.2658 24.9407 24.6576 24.4141 24.2075 24.0356 23.8973 23.7914 23.7168 23.6722 23.6565 53.9076 53.946 54.06 54.2502 54.5169 54.8605 55.2816 55.7805 56.3578 57.0144 57.7509 58.5681 59.4666 60.4471 61.5117 62.6637 63.9066 65.2429 66.6739 68.2007 69.8253 71.5518 73.384 75.3274 77.3908 79.584 81.9149 84.3854 86.9955 89.7495 92.6726 95.7984 99.1583 102.766 106.628 110.752 115.214 120.135 125.637 131.838 138.854 146.802 155.897 166.487 178.934 193.504 210.288 229.357 249.344 264.927 270.104 260.882 241.296 217.387 194.519 174.094 156.076 140.409 126.852 115.067 104.724 95.6159 87.6192 80.6134 74.47 69.0534 64.2283 59.897 56.0139 52.5373 49.4276 46.6493 44.1673 41.9471 39.9567 38.164 36.5405 35.0709 33.7433 32.5458 31.4666 30.4937 29.6155 28.8239 28.1122 27.474 26.9025 26.3913 25.9338 25.5256 25.1637 24.8457 24.569 24.3308 24.1285 23.9601 23.8244 23.7204 23.6471 23.6034 23.5883 52.4854 52.5217 52.6298 52.8101 53.0629 53.3886 53.7876 54.2602 54.8072 55.4292 56.1268 56.9009 57.752 58.6809 59.6893 60.7799 61.9557 63.2191 64.5722 66.0171 67.5557 69.1894 70.92 72.7516 74.6961 76.7666 78.9727 81.3096 83.769 86.3492 89.0867 92.0318 95.2287 98.6679 102.313 106.135 110.24 114.827 120.091 126.066 132.628 139.652 147.338 156.332 167.311 180.203 193.49 205.488 214.7 220.141 220.916 216.435 207.326 194.519 179.036 162.405 146.341 132.391 120.65 110.461 101.197 92.6642 84.9818 78.2703 72.4875 67.4291 62.8854 58.7329 54.9666 51.5904 48.5914 45.9242 43.5396 41.3945 39.4614 37.716 36.1356 34.7061 33.4156 32.252 31.2033 30.2573 29.4026 28.631 27.9366 27.3131 26.7544 26.2546 25.8075 25.4087 25.0556 24.7454 24.4754 24.243 24.0455 23.8809 23.748 23.6461 23.5741 23.5314 23.5169 51.0879 51.1222 51.2244 51.3949 51.634 51.942 52.3192 52.766 53.283 53.8708 54.5301 55.2616 56.0659 56.9437 57.8966 58.9268 60.0366 61.2282 62.5038 63.8656 65.3156 66.8557 68.4874 70.2146 72.0459 73.991 76.0576 78.2462 80.5554 82.9877 85.5684 88.3312 91.3067 94.4979 97.8937 101.489 105.358 109.633 114.443 119.818 125.692 131.997 138.841 146.581 155.584 165.678 175.642 184.136 190.081 193.131 193.065 189.74 183.332 174.094 162.405 149.371 136.36 124.619 114.339 105.17 96.7731 89.044 82.0491 75.8534 70.4202 65.6104 61.2815 57.3439 53.7804 50.5795 47.7201 45.1627 42.8659 40.7929 38.9207 37.2284 35.6967 34.3121 33.0626 31.9361 30.9205 30.0039 29.1746 28.4249 27.7493 27.142 26.5975 26.11 25.6742 25.2857 24.9419 24.64 24.3773 24.1511 23.9587 23.798 23.6682 23.5685 23.4982 23.4564 23.4426 49.7181 49.7505 49.8469 50.0079 50.2335 50.5241 50.88 51.3014 51.7889 52.3432 52.9648 53.6544 54.4127 55.2404 56.1386 57.1093 58.1542 59.2754 60.4747 61.7539 63.1152 64.5616 66.0959 67.7215 69.4423 71.2626 73.1874 75.225 77.3846 79.6753 82.1057 84.6844 87.4215 90.3416 93.4765 96.858 100.514 104.469 108.751 113.411 118.528 124.181 130.38 137.037 144.059 151.291 158.456 165.262 171.187 175.061 175.601 171.96 165.015 156.076 146.341 136.36 126.447 116.903 107.9 99.5466 91.9408 85.0799 78.8871 73.2846 68.2145 63.6387 59.5199 55.8183 52.4905 49.493 46.7872 44.3447 42.1382 40.1423 38.3376 36.7052 35.2278 33.8925 32.6873 31.6005 30.6202 29.7346 28.9324 28.2063 27.551 26.9614 26.4323 25.9584 25.5348 25.1573 24.8233 24.5301 24.275 24.0552 23.8682 23.7118 23.5853 23.4881 23.4194 23.3788 23.3655 48.3791 48.4095 48.5004 48.652 48.8644 49.1381 49.4731 49.8698 50.3285 50.85 51.4348 52.0835 52.7968 53.5752 54.4198 55.3321 56.3136 57.366 58.4907 59.6893 60.9639 62.3179 63.7548 65.2775 66.8879 68.5872 70.3789 72.2738 74.2847 76.4229 78.6894 81.0819 83.6014 86.2783 89.1584 92.2846 95.6609 99.2637 103.072 107.136 111.581 116.531 121.942 127.538 133.029 138.282 143.472 148.809 154.071 157.845 158.517 155.012 148.429 140.409 132.391 124.619 116.903 109.091 101.33 93.922 87.1534 81.074 75.5631 70.4992 65.8265 61.5549 57.6967 54.2384 51.1306 48.3218 45.7699 43.4529 41.3505 39.4436 37.7157 36.1506 34.733 33.4508 32.2928 31.2476 30.3041 29.4508 28.6771 27.9759 27.3425 26.772 26.2596 25.8005 25.3899 25.0241 24.7004 24.4162 24.1689 23.9557 23.7743 23.6224 23.4995 23.405 23.3383 23.2988 23.2859 47.0727 47.1013 47.1867 47.3291 47.5288 47.786 48.1007 48.4733 48.9041 49.3937 49.9427 50.5515 51.2208 51.9511 52.7432 53.5985 54.5183 55.5036 56.556 57.6765 58.8671 60.1309 61.471 62.8903 64.3905 65.9733 67.6416 69.4032 71.2677 73.2434 75.3337 77.5403 79.8666 82.3332 84.9691 87.802 90.8373 94.0642 97.4733 101.089 104.971 109.178 113.661 118.223 122.658 126.836 130.78 134.528 137.894 140.068 140.132 137.479 132.739 126.852 120.65 114.339 107.9 101.33 94.7701 88.4378 82.5395 77.1297 72.1527 67.5521 63.2999 59.3969 55.8449 52.6309 49.7214 47.0814 44.6806 42.4974 40.5115 38.7041 37.0612 35.5695 34.2163 32.9907 31.8821 30.8802 29.9745 29.1545 28.4102 27.7352 27.1249 26.5748 26.0804 25.6371 25.2404 24.8868 24.5737 24.2987 24.0593 23.853 23.6772 23.5302 23.4111 23.3195 23.2549 23.2166 23.2041 45.8003 45.8271 45.9072 46.0408 46.2281 46.4692 46.7643 47.1135 47.5172 47.9759 48.4901 49.0602 49.6868 50.3703 51.1114 51.9112 52.7709 53.6913 54.6735 55.7187 56.8283 58.0047 59.2505 60.5683 61.9607 63.4306 64.981 66.6153 68.3371 70.1508 72.0648 74.0892 76.2332 78.5032 80.9033 83.4386 86.1237 88.9803 92.0291 95.2636 98.6506 102.156 105.745 109.387 113.047 116.596 119.72 122.08 123.426 123.741 123.052 121.377 118.717 115.067 110.461 105.17 99.5466 93.922 88.4378 83.1367 78.0606 73.2482 68.7362 64.5598 60.7234 57.2009 53.965 50.9945 48.2769 45.8003 43.5494 41.5026 39.6375 37.9345 36.3815 34.9676 33.6822 32.5155 31.4582 30.5008 29.6338 28.8479 28.134 27.4861 26.9 26.3713 25.8957 25.4689 25.0867 24.7458 24.4437 24.1782 23.9469 23.7475 23.5776 23.4355 23.3205 23.2321 23.1696 23.1326 23.1204 44.5633 44.5883 44.6632 44.7883 44.9636 45.1892 45.4653 45.7919 46.1695 46.5983 47.0789 47.6115 48.1967 48.8349 49.5266 50.2727 51.0742 51.9318 52.8465 53.8191 54.8509 55.9436 57.0992 58.3198 59.6086 60.9686 62.4028 63.9119 65.4966 67.1587 68.908 70.7571 72.717 74.7863 76.9567 79.2219 81.5978 84.1169 86.8096 89.6538 92.5746 95.496 98.3922 101.307 104.288 107.218 109.657 111.131 111.383 110.767 109.74 108.608 107.083 104.724 101.197 96.7731 91.9408 87.1534 82.5395 78.0606 73.6814 69.4324 65.3913 61.6342 58.1825 55.0025 52.0584 49.3285 46.8111 44.5057 42.4056 40.492 38.7446 37.1457 35.6843 34.3506 33.135 32.0288 31.0239 30.1119 29.2844 28.5333 27.8504 27.2304 26.6691 26.1625 25.7064 25.2968 24.9297 24.6018 24.311 24.0551 23.8321 23.6397 23.4759 23.3389 23.2281 23.1429 23.0827 23.047 23.0351 43.3628 43.3862 43.4562 43.5731 43.7368 43.9475 44.2052 44.5101 44.8625 45.2626 45.7107 46.2073 46.7527 47.3471 47.9911 48.6855 49.431 50.2282 51.0779 51.9809 52.9381 53.9509 55.0208 56.1496 57.3396 58.5931 59.9125 61.2986 62.7524 64.2754 65.8741 67.5566 69.3302 71.1939 73.1425 75.1718 77.289 79.5099 81.849 84.2856 86.7641 89.2282 91.6471 94.026 96.3718 98.5908 100.393 101.467 101.642 101.141 100.252 99.1696 97.7155 95.6159 92.6642 89.044 85.0799 81.074 77.1297 73.2482 69.4324 65.7172 62.1606 58.8198 55.7148 52.8291 50.1446 47.6492 45.3398 43.2135 41.2643 39.4791 37.8443 36.347 34.9769 33.7241 32.579 31.5341 30.5822 29.7162 28.9288 28.2129 27.5616 26.9699 26.434 25.9499 25.5138 25.1217 24.7698 24.4552 24.1759 23.93 23.7154 23.5302 23.3725 23.2407 23.1342 23.0523 22.9945 22.96 22.9485 42.2004 42.2222 42.2875 42.3964 42.549 42.7454 42.9856 43.2697 43.5978 43.9703 44.3874 44.8494 45.3565 45.9091 46.5074 47.1522 47.844 48.5833 49.3709 50.2072 51.0931 52.0297 53.0182 54.0598 55.1557 56.3072 57.5157 58.7834 60.1125 61.5053 62.9636 64.4888 66.0824 67.7473 69.4865 71.3027 73.1921 75.1457 77.1546 79.2068 81.287 83.3795 85.4454 87.4143 89.2131 90.7747 92.043 92.963 93.4717 93.4826 92.9056 91.683 89.8862 87.6192 84.9818 82.0491 78.8871 75.5631 72.1527 68.7362 65.3913 62.1606 59.062 56.1122 53.3232 50.7023 48.2561 45.9849 43.8797 41.9308 40.1297 38.4698 36.9445 35.5467 34.2664 33.0936 32.0187 31.0349 30.1361 29.3162 28.5692 27.8889 27.2695 26.7064 26.1961 25.7347 25.3187 24.9443 24.6079 24.3068 24.0392 23.8032 23.5972 23.4194 23.2679 23.1414 23.0392 22.9607 22.9052 22.8721 22.8609 41.0774 41.0976 41.1584 41.2598 41.4018 41.5844 41.8078 42.072 42.377 42.7232 43.1107 43.5396 44.0103 44.5229 45.0777 45.6752 46.3159 47.0001 47.7284 48.5012 49.3191 50.183 51.0938 52.0523 53.0588 54.1138 55.2179 56.3739 57.5847 58.8528 60.1769 61.5544 62.9832 64.4674 66.014 67.6287 69.3013 71.01 72.7335 74.4645 76.2097 77.9756 79.7216 81.3419 82.7266 83.8281 84.7211 85.4936 86.1437 86.4204 86.0296 84.7775 82.8701 80.6134 78.2703 75.8534 73.2846 70.4992 67.5521 64.5598 61.6342 58.8198 56.1122 53.5064 51.0101 48.643 46.4251 44.3635 42.4474 40.6647 39.0063 37.4698 36.0533 34.753 33.5601 32.4649 31.4584 30.5346 29.6884 28.9147 28.2082 27.5637 26.9762 26.4418 25.9569 25.5182 25.1222 24.7654 24.4445 24.157 23.9011 23.6754 23.4781 23.3077 23.1626 23.0414 22.9435 22.8683 22.8152 22.7835 22.7726 39.9943 40.0131 40.0696 40.1638 40.2957 40.4653 40.6727 40.9179 41.2009 41.5221 41.8813 42.2789 42.715 43.1896 43.7032 44.2558 44.8479 45.4799 46.1519 46.8643 47.6176 48.4124 49.2491 50.1284 51.0502 52.0146 53.0219 54.0739 55.1731 56.3211 57.5164 58.756 60.0376 61.3628 62.7349 64.1567 65.6185 67.1019 68.5888 70.0699 71.5447 73.0127 74.4397 75.7458 76.8477 77.7085 78.3806 78.9269 79.3449 79.452 79.0346 77.9522 76.356 74.47 72.4875 70.4202 68.2145 65.8265 63.2999 60.7234 58.1825 55.7148 53.3232 51.0101 48.7852 46.6656 44.6682 42.8002 41.0545 39.4232 37.9008 36.4856 35.1768 33.9717 32.8629 31.842 30.9015 30.0363 29.2418 28.5138 27.8476 27.239 26.6834 26.1774 25.7178 25.3015 24.9252 24.5859 24.2804 24.0064 23.7624 23.5469 23.3585 23.1957 23.0569 22.9411 22.8475 22.7755 22.7247 22.6943 22.6839 38.9513 38.9687 39.0211 39.1085 39.2307 39.388 39.5802 39.8074 40.0696 40.3669 40.6994 41.0672 41.4705 41.9092 42.3836 42.8938 43.44 44.0224 44.6412 45.2965 45.9885 46.7177 47.4843 48.2887 49.1306 50.0102 50.9275 51.8831 52.878 53.9126 54.9864 56.0981 57.2465 58.4292 59.6437 60.8869 62.1528 63.4334 64.72 65.9989 67.2512 68.4576 69.594 70.6294 71.5326 72.2715 72.8131 73.1241 73.1748 72.9447 72.4151 71.5753 70.4454 69.0534 67.4291 65.6104 63.6387 61.5549 59.3969 57.2009 55.0025 52.8291 50.7023 48.643 46.6656 44.7778 42.987 41.297 39.7071 38.2159 36.8221 35.524 34.3196 33.2061 32.1776 31.2278 30.3508 29.5424 28.7985 28.1155 27.4893 26.9161 26.3922 25.9143 25.4797 25.0853 24.7285 24.4064 24.1162 23.8557 23.6235 23.4184 23.2389 23.0836 22.9512 22.8407 22.7513 22.6826 22.634 22.605 22.5951 37.9484 37.9646 38.013 38.0939 38.2071 38.3526 38.5304 38.7405 38.9829 39.2576 39.5648 39.9045 40.2767 40.6815 41.119 41.5891 42.0919 42.6276 43.196 43.7974 44.4317 45.099 45.7996 46.5335 47.3007 48.1011 48.9347 49.8009 50.6993 51.6295 52.5914 53.5851 54.6102 55.6622 56.734 57.8191 58.9137 60.0167 61.1261 62.2259 63.286 64.276 65.1792 65.9986 66.7381 67.3699 67.8048 67.9467 67.7482 67.2973 66.705 66.0468 65.2556 64.2283 62.8854 61.2815 59.5199 57.6967 55.8449 53.965 52.0584 50.1446 48.2561 46.4251 44.6682 42.987 41.3823 39.8559 38.4112 37.052 35.7796 34.5919 33.4862 32.4593 31.5071 30.6251 29.809 29.0554 28.3608 27.7217 27.1348 26.5966 26.1038 25.6536 25.2434 24.8707 24.533 24.2278 23.9526 23.7054 23.4851 23.2902 23.1196 22.9719 22.8459 22.7406 22.6554 22.5899 22.5435 22.5159 22.5065 36.9857 37.0005 37.0453 37.12 37.2246 37.359 37.5232 37.7171 37.9409 38.1943 38.4776 38.7907 39.1337 39.5065 39.9091 40.3414 40.8034 41.295 41.8162 42.3668 42.9468 43.5562 44.195 44.8631 45.5606 46.2873 47.043 47.8265 48.6366 49.4719 50.3323 51.2178 52.128 53.0581 54.0011 54.95 55.9009 56.8518 57.8003 58.7319 59.6205 60.4397 61.1761 61.834 62.4191 62.9092 63.2282 63.294 63.0676 62.6292 62.0797 61.4872 60.7908 59.897 58.7329 57.3439 55.8183 54.2384 52.6309 50.9945 49.3285 47.6492 45.9849 44.3635 42.8002 41.297 39.8559 38.4794 37.1718 35.9377 34.7791 33.6941 32.68 31.7342 30.854 30.0365 29.2788 28.578 27.9309 27.3345 26.7858 26.2817 25.8193 25.3961 25.0098 24.6583 24.3394 24.0508 23.7903 23.5563 23.3476 23.1629 23.001 22.8609 22.7412 22.6411 22.56 22.4976 22.4535 22.4272 22.4183 36.063 36.0767 36.1181 36.187 36.2834 36.4073 36.5587 36.7374 36.9435 37.177 37.4377 37.7258 38.0412 38.3839 38.7537 39.1506 39.5743 40.0246 40.5014 41.0045 41.5338 42.0891 42.6703 43.2773 43.91 44.5683 45.2517 45.9588 46.6878 47.437 48.2054 48.9923 49.7967 50.6149 51.4418 52.2724 53.1009 53.9211 54.7265 55.5064 56.2459 56.9298 57.545 58.081 58.5275 58.8683 59.0749 59.1177 58.9786 58.6719 58.2171 57.6286 56.8987 56.0139 54.9666 53.7804 52.4905 51.1306 49.7214 48.2769 46.8111 45.3398 43.8797 42.4474 41.0545 39.7071 38.4112 37.1718 35.9921 34.875 33.8222 32.8322 31.9032 31.0334 30.2212 29.4649 28.7629 28.1125 27.511 26.9557 26.4439 25.9729 25.5399 25.1429 24.78 24.4491 24.1484 23.876 23.6301 23.4089 23.2116 23.0369 22.8837 22.7509 22.6375 22.5424 22.4654 22.4061 22.3642 22.3392 22.3308 35.1805 35.1931 35.2312 35.2947 35.3835 35.4975 35.6368 35.8013 35.9908 36.2055 36.4451 36.7097 36.9993 37.3137 37.6529 38.0165 38.4043 38.816 39.2515 39.7103 40.1924 40.6975 41.2253 41.7757 42.3485 42.9434 43.56 44.1966 44.8512 45.5218 46.2067 46.9044 47.6131 48.3304 49.0533 49.7785 50.4991 51.2056 51.8884 52.54 53.155 53.7278 54.2449 54.6823 55.0151 55.2317 55.3456 55.3736 55.3161 55.1289 54.76 54.1759 53.4158 52.5373 51.5904 50.5795 49.493 48.3218 47.0814 45.8003 44.5057 43.2135 41.9308 40.6647 39.4232 38.2159 37.052 35.9377 34.875 33.8655 32.91 32.0077 31.1577 30.3591 29.6111 28.9131 28.2639 27.6615 27.1034 26.5873 26.1108 25.6714 25.2668 24.8951 24.5547 24.2438 23.961 23.7044 23.4725 23.264 23.0777 22.9127 22.7679 22.6424 22.535 22.445 22.372 22.3157 22.2759 22.2522 22.2444 34.3379 34.3495 34.3846 34.4429 34.5245 34.6294 34.7573 34.9084 35.0825 35.2795 35.4994 35.7421 36.0075 36.2955 36.6059 36.9385 37.2928 37.6687 38.0657 38.4835 38.9219 39.3805 39.8591 40.3573 40.8748 41.4114 41.9664 42.538 43.1242 43.7229 44.3319 44.9493 45.573 46.201 46.8311 47.4608 48.0836 48.6901 49.271 49.8202 50.3349 50.8125 51.2401 51.5914 51.8391 51.9745 52.0243 52.0198 51.9685 51.8133 51.4863 50.9426 50.232 49.4276 48.5914 47.7201 46.7872 45.7699 44.6806 43.5494 42.4056 41.2643 40.1297 39.0063 37.9008 36.8221 35.7796 34.7791 33.8222 32.91 32.0433 31.2218 30.4452 29.7133 29.0259 28.3829 27.7837 27.2267 26.7098 26.2308 25.7877 25.3784 25.0009 24.6535 24.3348 24.0433 23.7777 23.5365 23.3183 23.1219 22.9464 22.7908 22.6542 22.5356 22.4341 22.349 22.2799 22.2267 22.189 22.1665 22.1591 33.5346 33.5453 33.5774 33.631 33.7059 33.8021 33.9195 34.0581 34.2177 34.3983 34.5997 34.8219 35.0647 35.3281 35.6118 35.9154 36.2386 36.5811 36.9425 37.3223 37.7204 38.1362 38.5694 39.0196 39.4863 39.9692 40.4676 40.9796 41.5032 42.0363 42.5766 43.1221 43.6707 44.2201 44.7681 45.3124 45.8477 46.3667 46.8623 47.3288 47.762 48.1578 48.5049 48.7821 48.9676 49.0543 49.0633 49.0189 48.9282 48.7503 48.4364 47.9546 47.3411 46.6493 45.9242 45.1627 44.3447 43.4529 42.4974 41.5026 40.492 39.4791 38.4698 37.4698 36.4856 35.524 34.5919 33.6941 32.8322 32.0077 31.2218 30.4745 29.7661 29.0965 28.4661 27.8749 27.323 26.8088 26.3307 25.8867 25.4753 25.0945 24.7427 24.4185 24.1207 23.8479 23.599 23.3727 23.1677 22.9831 22.8179 22.6714 22.5427 22.4308 22.3351 22.2547 22.1895 22.1392 22.1035 22.0823 22.0753 32.7698 32.7796 32.8091 32.8582 32.9268 33.015 33.1226 33.2495 33.3956 33.5609 33.7451 33.9482 34.17 34.4104 34.6692 34.9459 35.2402 35.5518 35.8802 36.225 36.5859 36.9623 37.3538 37.7599 38.18 38.6137 39.0603 39.5179 39.9845 40.458 40.9365 41.4179 41.9 42.3806 42.8569 43.3263 43.785 44.2281 44.6506 45.0471 45.4114 45.7371 46.0147 46.2304 46.3698 46.4268 46.4112 46.3342 46.1996 45.9893 45.6813 45.2619 44.7486 44.1673 43.5396 42.8659 42.1382 41.3505 40.5115 39.6375 38.7446 37.8443 36.9445 36.0533 35.1768 34.3196 33.4862 32.68 31.9032 31.1577 30.4452 29.7661 29.1206 28.5091 27.932 27.3896 26.882 26.4081 25.9665 25.5555 25.1739 24.8202 24.4929 24.1908 23.9129 23.6581 23.4252 23.2132 23.021 22.8478 22.6926 22.5548 22.4336 22.3283 22.2381 22.1623 22.1009 22.0534 22.0198 21.9998 21.9931 32.0428 32.0518 32.0788 32.1237 32.1865 32.2672 32.3656 32.4816 32.6152 32.7662 32.9345 33.1198 33.3221 33.5413 33.7769 34.0287 34.2963 34.5792 34.8771 35.1897 35.5163 35.8566 36.2099 36.5755 36.9531 37.3418 37.7411 38.1491 38.564 38.984 39.407 39.8313 40.2549 40.6752 41.0894 41.4947 41.8878 42.2653 42.6235 42.9575 43.2607 43.5263 43.7469 43.9135 44.017 44.0525 44.0223 43.9298 43.7759 43.5551 43.261 42.8898 42.4485 41.9471 41.3945 40.7929 40.1423 39.4436 38.7041 37.9345 37.1457 36.347 35.5467 34.753 33.9717 33.2061 32.4593 31.7342 31.0334 30.3591 29.7133 29.0965 28.5091 27.9514 27.424 26.9272 26.4611 26.025 25.6175 25.2377 24.8842 24.556 24.2519 23.9708 23.7119 23.4742 23.2567 23.0585 22.8786 22.7162 22.5707 22.4413 22.3274 22.2283 22.1434 22.0721 22.0143 21.9696 21.9379 21.9191 21.9128 31.3529 31.3611 31.3858 31.4269 31.4843 31.5579 31.6478 31.7538 31.8757 32.0135 32.1669 32.3358 32.5201 32.7194 32.9337 33.1624 33.4053 33.6618 33.9317 34.2145 34.5098 34.8169 35.1351 35.4639 35.8025 36.1504 36.5067 36.8698 37.2381 37.6098 37.9833 38.3568 38.7286 39.0961 39.4564 39.8067 40.1438 40.4649 40.7668 41.0453 41.2948 41.5095 41.6837 41.8114 41.8868 41.9056 41.8673 41.7715 41.6178 41.4047 41.1309 40.7958 40.403 39.9567 39.4614 38.9207 38.3376 37.7157 37.0612 36.3815 35.6843 34.9769 34.2664 33.5601 32.8629 32.1776 31.5071 30.854 30.2212 29.6111 29.0259 28.4661 27.932 27.424 26.9426 26.4881 26.0607 25.6597 25.2843 24.9335 24.6065 24.3023 24.0201 23.759 23.5182 23.2968 23.094 22.9089 22.7407 22.5887 22.4524 22.331 22.2241 22.131 22.0513 21.9843 21.9299 21.8879 21.8581 21.8404 21.8344 30.6994 30.7069 30.7294 30.7669 30.8192 30.8864 30.9684 31.065 31.1762 31.3017 31.4414 31.5951 31.7627 31.9438 32.1383 32.3458 32.5659 32.7982 33.0423 33.2978 33.5642 33.8409 34.1272 34.4223 34.7256 35.0363 35.3537 35.6763 36.0026 36.3311 36.6603 36.9886 37.3145 37.6354 37.9486 38.2511 38.5401 38.8127 39.066 39.2964 39.4997 39.6717 39.8082 39.9048 39.9575 39.9629 39.9194 39.8259 39.681 39.4834 39.2319 38.9259 38.5687 38.164 37.716 37.2284 36.7052 36.1506 35.5695 34.9676 34.3506 33.7241 33.0936 32.4649 31.842 31.2278 30.6251 30.0365 29.4649 28.9131 28.3829 27.8749 27.3896 26.9272 26.4881 26.0726 25.681 25.3128 24.9672 24.6436 24.3414 24.0598 23.7982 23.5559 23.3322 23.1262 22.9373 22.7647 22.6076 22.4656 22.338 22.2243 22.1241 22.0368 21.9619 21.8991 21.848 21.8086 21.7806 21.7639 21.7583 30.0814 30.0882 30.1088 30.1429 30.1906 30.2519 30.3265 30.4145 30.5157 30.6299 30.757 30.8967 31.0488 31.2132 31.3895 31.5775 31.7766 31.9866 32.207 32.4375 32.6776 32.9265 33.1835 33.448 33.7192 33.9964 34.2787 34.5649 34.8536 35.1434 35.433 35.721 36.0059 36.2855 36.557 36.8176 37.0647 37.2955 37.5073 37.6972 37.862 37.9987 38.1042 38.1753 38.2089 38.2025 38.1543 38.0628 37.9264 37.7435 37.5126 37.233 36.9076 36.5405 36.1356 35.6967 35.2278 34.733 34.2163 33.6822 33.135 32.579 32.0187 31.4584 30.9015 30.3508 29.809 29.2788 28.7629 28.2639 27.7837 27.323 26.882 26.4611 26.0607 25.681 25.3223 24.9843 24.6665 24.3682 24.0892 23.8288 23.5866 23.3619 23.1542 22.9628 22.7869 22.6261 22.4797 22.347 22.2278 22.1214 22.0276 21.9458 21.8756 21.8166 21.7688 21.7318 21.7055 21.6899 21.6846 29.4981 29.5043 29.523 29.5541 29.5975 29.6532 29.7211 29.8012 29.8932 29.997 30.1123 30.2391 30.3771 30.5261 30.6857 30.8558 31.0358 31.2253 31.4241 31.6317 31.8476 32.0712 32.3017 32.5384 32.7805 33.0274 33.2782 33.5318 33.7869 34.0423 34.2967 34.5487 34.7972 35.04 35.2746 35.4985 35.7091 35.9041 36.0809 36.2371 36.3703 36.4782 36.5583 36.6085 36.6262 36.6094 36.5565 36.466 36.3363 36.1661 35.9536 35.6982 35.4028 35.0709 34.7061 34.3121 33.8925 33.4508 32.9907 32.5155 32.0288 31.5341 31.0349 30.5346 30.0363 29.5424 29.0554 28.578 28.1125 27.6615 27.2267 26.8088 26.4081 26.025 25.6597 25.3128 24.9843 24.6742 24.382 24.1073 23.8499 23.6093 23.3852 23.1771 22.9844 22.8066 22.6431 22.4934 22.3569 22.2332 22.1218 22.0224 21.9346 21.8581 21.7923 21.7371 21.6923 21.6576 21.633 21.6183 21.6133 28.9485 28.9541 28.9711 28.9994 29.0389 29.0895 29.1512 29.2239 29.3074 29.4016 29.5063 29.6212 29.7462 29.8811 30.0255 30.1791 30.3416 30.5125 30.6915 30.8782 31.0722 31.2727 31.479 31.6905 31.9065 32.1261 32.3488 32.5732 32.7984 33.0231 33.2462 33.4665 33.6827 33.8929 34.095 34.2868 34.466 34.6304 34.7778 34.9062 35.0137 35.0982 35.158 35.1911 35.1957 35.17 35.1127 35.0226 34.8985 34.7391 34.5431 34.3102 34.0425 33.7433 33.4156 33.0626 32.6873 32.2928 31.8821 31.4582 31.0239 30.5822 30.1361 29.6884 29.2418 28.7985 28.3608 27.9309 27.511 27.1034 26.7098 26.3307 25.9665 25.6175 25.2843 24.9672 24.6665 24.382 24.1135 23.8607 23.6234 23.4013 23.1941 23.0014 22.8228 22.6578 22.5059 22.3666 22.2395 22.1242 22.0203 21.9275 21.8454 21.7738 21.7123 21.6606 21.6186 21.5862 21.5631 21.5493 21.5447 28.4316 28.4367 28.4521 28.4778 28.5136 28.5596 28.6156 28.6816 28.7574 28.8428 28.9376 29.0417 29.1548 29.2767 29.4072 29.5458 29.6923 29.8462 30.0072 30.1749 30.3489 30.5285 30.713 30.9017 31.0941 31.2893 31.4867 31.6853 31.8838 32.0814 32.2767 32.4688 32.6566 32.8382 33.0119 33.1758 33.3279 33.4663 33.5891 33.6947 33.7812 33.847 33.8905 33.9101 33.9039 33.8708 33.8097 33.7199 33.6005 33.4507 33.2696 33.0571 32.815 32.5458 32.252 31.9361 31.6005 31.2476 30.8802 30.5008 30.1119 29.7162 29.3162 28.9147 28.5138 28.1155 27.7217 27.3345 26.9557 26.5873 26.2308 25.8867 25.5555 25.2377 24.9335 24.6436 24.3682 24.1073 23.8607 23.6281 23.4095 23.2046 23.0131 22.8349 22.6694 22.5163 22.3753 22.2458 22.1275 22.02 21.9232 21.8366 21.76 21.6931 21.6356 21.5872 21.5479 21.5175 21.4959 21.483 21.4787 27.9464 27.9511 27.9651 27.9884 28.0209 28.0625 28.1133 28.1731 28.2418 28.3191 28.405 28.4991 28.6013 28.7115 28.8292 28.9542 29.0862 29.2246 29.3693 29.5198 29.6756 29.8363 30.001 30.1693 30.3404 30.5137 30.6886 30.864 31.039 31.2124 31.3833 31.5506 31.7133 31.8699 32.0188 32.1584 32.2872 32.4035 32.5058 32.5925 32.6619 32.7127 32.7432 32.752 32.7374 32.6983 32.6343 32.545 32.43 32.289 32.1215 31.9275 31.7086 31.4666 31.2033 30.9205 30.6202 30.3041 29.9745 29.6338 29.2844 28.9288 28.5692 28.2082 27.8476 27.4893 27.1348 26.7858 26.4439 26.1108 25.7877 25.4753 25.1739 24.8842 24.6065 24.3414 24.0892 23.8499 23.6234 23.4095 23.2081 23.0191 22.8423 22.6774 22.5242 22.3823 22.2513 22.1309 22.0209 21.9209 21.8306 21.7499 21.6784 21.6159 21.5622 21.517 21.4802 21.4518 21.4316 21.4195 21.4155 27.492 27.4962 27.5089 27.5301 27.5595 27.5973 27.6433 27.6974 27.7596 27.8296 27.9072 27.9923 28.0846 28.184 28.2901 28.4027 28.5214 28.6459 28.7757 28.9106 29.05 29.1935 29.3405 29.4903 29.6424 29.7961 29.9508 30.1057 30.2596 30.4117 30.561 30.7065 30.8472 30.9819 31.1092 31.2279 31.3367 31.4341 31.5189 31.5897 31.645 31.6835 31.7035 31.7037 31.6825 31.6391 31.5734 31.4853 31.3748 31.242 31.0869 30.9097 30.7116 30.4937 30.2573 30.0039 29.7346 29.4508 29.1545 28.8479 28.5333 28.2129 27.8889 27.5637 27.239 26.9161 26.5966 26.2817 25.9729 25.6714 25.3784 25.0945 24.8202 24.556 24.3023 24.0598 23.8288 23.6093 23.4013 23.2046 23.0191 22.8448 22.6815 22.5291 22.3872 22.2556 22.134 22.0222 21.9199 21.8268 21.7428 21.6675 21.6008 21.5425 21.4923 21.4501 21.4157 21.3891 21.3702 21.3589 21.3551 27.0675 27.0713 27.0828 27.1019 27.1286 27.1628 27.2044 27.2534 27.3096 27.3729 27.443 27.5198 27.6031 27.6927 27.7883 27.8897 27.9964 28.1081 28.2245 28.3452 28.4699 28.598 28.7289 28.8622 28.9971 29.1332 29.27 29.4064 29.5416 29.6748 29.805 29.9312 30.0527 30.1683 30.277 30.3775 30.4689 30.55 30.6197 30.6768 30.72 30.7478 30.7591 30.7523 30.7263 30.6802 30.6141 30.5282 30.4229 30.2983 30.1547 29.9925 29.8125 29.6155 29.4026 29.1746 28.9324 28.6771 28.4102 28.134 27.8504 27.5616 27.2695 26.9762 26.6834 26.3922 26.1038 25.8193 25.5399 25.2668 25.0009 24.7427 24.4929 24.2519 24.0201 23.7982 23.5866 23.3852 23.1941 23.0131 22.8423 22.6815 22.5307 22.3897 22.2584 22.1364 22.0236 21.9197 21.8245 21.7379 21.6596 21.5895 21.5273 21.4728 21.426 21.3865 21.3544 21.3295 21.3118 21.3013 21.2977 26.6718 26.6753 26.6857 26.703 26.7272 26.7581 26.7957 26.84 26.8909 26.948 27.0113 27.0806 27.1557 27.2364 27.3225 27.4136 27.5094 27.6096 27.7139 27.8219 27.9333 28.0475 28.1641 28.2824 28.4021 28.5225 28.6431 28.7631 28.8817 28.9981 29.1114 29.2208 29.3255 29.4245 29.517 29.6019 29.6783 29.7453 29.8019 29.847 29.8795 29.8983 29.9021 29.8898 29.8603 29.8128 29.7476 29.665 29.5653 29.4488 29.316 29.1671 29.0028 28.8239 28.631 28.4249 28.2063 27.9759 27.7352 27.4861 27.2304 26.9699 26.7064 26.4418 26.1774 25.9143 25.6536 25.3961 25.1429 24.8951 24.6535 24.4185 24.1908 23.9708 23.759 23.5559 23.3619 23.1771 23.0014 22.8349 22.6774 22.5291 22.3897 22.2593 22.1376 22.0245 21.9198 21.8233 21.7348 21.6542 21.5813 21.5159 21.4578 21.407 21.3632 21.3264 21.2963 21.2731 21.2565 21.2467 21.2434 26.3042 26.3074 26.3168 26.3325 26.3543 26.3823 26.4163 26.4564 26.5023 26.5539 26.611 26.6735 26.7412 26.8138 26.8913 26.9731 27.0592 27.149 27.2424 27.339 27.4384 27.5402 27.6439 27.7489 27.8549 27.9613 28.0676 28.173 28.2769 28.3785 28.477 28.5716 28.6617 28.7465 28.825 28.8964 28.9599 29.0148 29.06 29.0948 29.1182 29.1292 29.1269 29.1102 29.0783 29.0305 28.9672 28.8885 28.7947 28.6862 28.5633 28.4263 28.2757 28.1122 27.9366 27.7493 27.551 27.3425 27.1249 26.9 26.6691 26.434 26.1961 25.9569 25.7178 25.4797 25.2434 25.0098 24.78 24.5547 24.3348 24.1207 23.9129 23.7119 23.5182 23.3322 23.1542 22.9844 22.8228 22.6694 22.5242 22.3872 22.2584 22.1376 22.0249 21.92 21.8227 21.733 21.6506 21.5756 21.5076 21.4466 21.3925 21.345 21.3041 21.2696 21.2416 21.2198 21.2043 21.1951 21.192 25.9638 25.9666 25.9752 25.9894 26.0091 26.0344 26.0652 26.1014 26.1429 26.1895 26.241 26.2973 26.3583 26.4237 26.4934 26.5669 26.6441 26.7247 26.8083 26.8946 26.9834 27.0741 27.1663 27.2595 27.3533 27.4472 27.5408 27.6334 27.7243 27.8128 27.8983 27.9802 28.0576 28.13 28.1965 28.2565 28.309 28.3535 28.3891 28.415 28.4306 28.435 28.4276 28.4076 28.3742 28.327 28.2661 28.1917 28.1039 28.003 27.8892 27.7627 27.6241 27.474 27.3131 27.142 26.9614 26.772 26.5748 26.3713 26.1625 25.9499 25.7347 25.5182 25.3015 25.0853 24.8707 24.6583 24.4491 24.2438 24.0433 23.8479 23.6581 23.4742 23.2968 23.1262 22.9628 22.8066 22.6578 22.5163 22.3823 22.2556 22.1364 22.0245 21.92 21.8225 21.7321 21.6487 21.572 21.5021 21.4387 21.3817 21.3312 21.2868 21.2486 21.2163 21.1901 21.1697 21.1552 21.1466 21.1437 25.6497 25.6523 25.66 25.6728 25.6907 25.7136 25.7414 25.7742 25.8116 25.8537 25.9002 25.951 26.0059 26.0648 26.1275 26.1936 26.2629 26.3351 26.41 26.4872 26.5664 26.6472 26.7292 26.8119 26.8949 26.9779 27.0602 27.1414 27.2209 27.298 27.3722 27.4429 27.5094 27.5712 27.6274 27.6775 27.7207 27.7563 27.7837 27.8021 27.8112 27.8102 27.7987 27.7761 27.7419 27.6957 27.6376 27.5675 27.4856 27.3918 27.2863 27.1691 27.041 26.9025 26.7544 26.5975 26.4323 26.2596 26.0804 25.8957 25.7064 25.5138 25.3187 25.1222 24.9252 24.7285 24.533 24.3394 24.1484 23.961 23.7777 23.599 23.4252 23.2567 23.094 22.9373 22.7869 22.6431 22.5059 22.3753 22.2513 22.134 22.0236 21.9198 21.8227 21.7321 21.648 21.5703 21.4989 21.4336 21.3744 21.3212 21.2739 21.2325 21.1967 21.1665 21.1419 21.1229 21.1093 21.1012 21.0984 25.3611 25.3634 25.3704 25.382 25.3982 25.4189 25.4441 25.4737 25.5076 25.5456 25.5876 25.6334 25.6829 25.736 25.7924 25.8518 25.914 25.9788 26.0458 26.1149 26.1856 26.2576 26.3306 26.404 26.4775 26.5507 26.6231 26.6943 26.7638 26.8309 26.8952 26.9562 27.0133 27.0658 27.1132 27.1549 27.1901 27.2182 27.2387 27.2509 27.2545 27.2491 27.2344 27.2099 27.1753 27.1304 27.0749 27.0089 26.9323 26.845 26.747 26.6382 26.5194 26.3913 26.2546 26.11 25.9584 25.8005 25.6371 25.4689 25.2968 25.1217 24.9443 24.7654 24.5859 24.4064 24.2278 24.0508 23.876 23.7044 23.5365 23.3727 23.2132 23.0585 22.9089 22.7647 22.6261 22.4934 22.3666 22.2458 22.1309 22.0222 21.9197 21.8233 21.733 21.6487 21.5703 21.4978 21.4311 21.3702 21.3148 21.2651 21.2208 21.182 21.1484 21.1202 21.0971 21.0792 21.0665 21.0589 21.0563 25.097 25.0991 25.1054 25.116 25.1306 25.1494 25.1722 25.199 25.2296 25.264 25.302 25.3434 25.3881 25.4359 25.4867 25.5401 25.5961 25.6542 25.7143 25.7761 25.8392 25.9035 25.9683 26.0335 26.0986 26.1632 26.227 26.2894 26.3501 26.4085 26.4641 26.5166 26.5654 26.61 26.6497 26.6841 26.7125 26.7342 26.7489 26.7559 26.7551 26.7462 26.729 26.7031 26.6684 26.6245 26.5714 26.5089 26.437 26.3554 26.264 26.1628 26.0525 25.9338 25.8075 25.6742 25.5348 25.3899 25.2404 25.0867 24.9297 24.7698 24.6079 24.4445 24.2804 24.1162 23.9526 23.7903 23.6301 23.4725 23.3183 23.1677 23.021 22.8786 22.7407 22.6076 22.4797 22.3569 22.2395 22.1275 22.0209 21.9199 21.8245 21.7348 21.6506 21.572 21.4989 21.4311 21.3688 21.3117 21.2599 21.2133 21.1718 21.1353 21.1038 21.0773 21.0556 21.0388 21.0269 21.0197 21.0173 24.8567 24.8587 24.8644 24.874 24.8873 24.9043 24.925 24.9493 24.9771 25.0082 25.0426 25.08 25.1204 25.1636 25.2094 25.2575 25.3079 25.3601 25.414 25.4693 25.5258 25.5831 25.6409 25.6988 25.7565 25.8135 25.8697 25.9244 25.9774 26.0282 26.0763 26.1214 26.163 26.2006 26.2336 26.2617 26.2842 26.3006 26.3104 26.3133 26.309 26.2973 26.2782 26.2512 26.2164 26.1734 26.1222 26.0626 25.9945 25.9178 25.8323 25.738 25.6356 25.5256 25.4087 25.2857 25.1573 25.0241 24.8868 24.7458 24.6018 24.4552 24.3068 24.157 24.0064 23.8557 23.7054 23.5563 23.4089 23.264 23.1219 22.9831 22.8478 22.7162 22.5887 22.4656 22.347 22.2332 22.1242 22.02 21.9209 21.8268 21.7379 21.6542 21.5756 21.5021 21.4336 21.3702 21.3117 21.2582 21.2096 21.1658 21.1268 21.0925 21.0629 21.0379 21.0175 21.0017 20.9905 20.9837 20.9815 24.6398 24.6415 24.6468 24.6555 24.6676 24.6831 24.7019 24.724 24.7492 24.7775 24.8086 24.8425 24.8791 24.9182 24.9596 25.0031 25.0485 25.0955 25.144 25.1936 25.2443 25.2955 25.347 25.3985 25.4497 25.5002 25.5497 25.5978 25.6441 25.6883 25.7299 25.7686 25.8039 25.8354 25.8627 25.8853 25.9028 25.9147 25.9206 25.9201 25.9131 25.8993 25.8787 25.8511 25.8162 25.774 25.7243 25.667 25.6022 25.5296 25.4493 25.3612 25.2658 25.1637 25.0556 24.9419 24.8233 24.7004 24.5737 24.4437 24.311 24.1759 24.0392 23.9011 23.7624 23.6235 23.4851 23.3476 23.2116 23.0777 22.9464 22.8179 22.6926 22.5707 22.4524 22.338 22.2278 22.1218 22.0203 21.9232 21.8306 21.7428 21.6596 21.5813 21.5076 21.4387 21.3744 21.3148 21.2599 21.2096 21.1638 21.1226 21.0858 21.0535 21.0256 21.002 20.9828 20.9679 20.9572 20.9509 20.9487 24.4456 24.4471 24.4519 24.4599 24.4709 24.4851 24.5022 24.5223 24.5453 24.5711 24.5994 24.6303 24.6635 24.699 24.7365 24.7759 24.817 24.8595 24.9032 24.9479 24.9934 25.0393 25.0854 25.1314 25.177 25.2218 25.2655 25.3079 25.3485 25.387 25.423 25.4561 25.4861 25.5124 25.5348 25.5528 25.5661 25.5742 25.5768 25.5737 25.5645 25.5492 25.5276 25.4995 25.4647 25.423 25.3746 25.3193 25.2572 25.1882 25.1123 25.0297 24.9407 24.8457 24.7454 24.64 24.5301 24.4162 24.2987 24.1782 24.0551 23.93 23.8032 23.6754 23.5469 23.4184 23.2902 23.1629 23.0369 22.9127 22.7908 22.6714 22.5548 22.4413 22.331 22.2243 22.1214 22.0224 21.9275 21.8366 21.7499 21.6675 21.5895 21.5159 21.4466 21.3817 21.3212 21.2651 21.2133 21.1658 21.1226 21.0836 21.0489 21.0183 20.9919 20.9696 20.9514 20.9373 20.9272 20.9212 20.9192 24.2734 24.2749 24.2793 24.2866 24.2967 24.3096 24.3254 24.3438 24.3648 24.3884 24.4143 24.4425 24.4728 24.5052 24.5394 24.5752 24.6125 24.6511 24.6907 24.7311 24.7721 24.8135 24.855 24.8962 24.9369 24.9768 25.0157 25.0531 25.0888 25.1225 25.1537 25.1822 25.2075 25.2295 25.2477 25.2618 25.2716 25.2766 25.2766 25.2713 25.2606 25.2441 25.2217 25.1933 25.1586 25.1176 25.0702 25.0165 24.9567 24.8908 24.8189 24.7411 24.6576 24.569 24.4754 24.3773 24.275 24.1689 24.0593 23.9469 23.8321 23.7154 23.5972 23.4781 23.3585 23.2389 23.1196 23.001 22.8837 22.7679 22.6542 22.5427 22.4336 22.3274 22.2241 22.1241 22.0276 21.9346 21.8454 21.76 21.6784 21.6008 21.5273 21.4578 21.3925 21.3312 21.2739 21.2208 21.1718 21.1268 21.0858 21.0489 21.0159 20.9869 20.9619 20.9407 20.9234 20.9099 20.9004 20.8946 20.8927 24.1229 24.1242 24.1283 24.135 24.1443 24.1562 24.1707 24.1877 24.207 24.2287 24.2525 24.2784 24.3063 24.3359 24.3673 24.4001 24.4341 24.4693 24.5054 24.5422 24.5794 24.6169 24.6543 24.6915 24.7281 24.7638 24.7985 24.8318 24.8634 24.893 24.9201 24.9447 24.9662 24.9845 24.9992 25.0102 25.017 25.0195 25.0173 25.0103 24.9983 24.9809 24.958 24.9294 24.895 24.8545 24.8081 24.7559 24.6982 24.635 24.5664 24.4927 24.4141 24.3308 24.243 24.1511 24.0552 23.9557 23.853 23.7475 23.6397 23.5302 23.4194 23.3077 23.1957 23.0836 22.9719 22.8609 22.7509 22.6424 22.5356 22.4308 22.3283 22.2283 22.131 22.0368 21.9458 21.8581 21.7738 21.6931 21.6159 21.5425 21.4728 21.407 21.345 21.2868 21.2325 21.182 21.1353 21.0925 21.0535 21.0183 20.9869 20.9593 20.9354 20.9152 20.8986 20.8858 20.8767 20.8712 20.8694 23.9933 23.9945 23.9983 24.0045 24.0132 24.0242 24.0377 24.0534 24.0713 24.0914 24.1134 24.1374 24.1631 24.1905 24.2194 24.2496 24.281 24.3133 24.3464 24.38 24.4141 24.4483 24.4823 24.5161 24.5492 24.5815 24.6126 24.6424 24.6705 24.6967 24.7205 24.7417 24.7601 24.7754 24.7873 24.7956 24.8 24.8004 24.7964 24.788 24.7748 24.7566 24.7333 24.7047 24.6705 24.6306 24.5853 24.5346 24.4788 24.418 24.3524 24.2821 24.2075 24.1285 24.0455 23.9587 23.8682 23.7743 23.6772 23.5776 23.4759 23.3725 23.2679 23.1626 23.0569 22.9512 22.8459 22.7412 22.6375 22.535 22.4341 22.3351 22.2381 22.1434 22.0513 21.9619 21.8756 21.7923 21.7123 21.6356 21.5622 21.4923 21.426 21.3632 21.3041 21.2486 21.1967 21.1484 21.1038 21.0629 21.0256 20.9919 20.9619 20.9354 20.9124 20.8931 20.8772 20.865 20.8562 20.8509 20.8492 23.8842 23.8854 23.8889 23.8947 23.9028 23.9132 23.9257 23.9404 23.9572 23.9759 23.9965 24.0188 24.0427 24.0682 24.0951 24.1231 24.1522 24.1822 24.2128 24.2439 24.2753 24.3067 24.338 24.3689 24.3992 24.4285 24.4568 24.4837 24.5089 24.5322 24.5532 24.5718 24.5876 24.6004 24.61 24.6162 24.6187 24.6173 24.6119 24.6021 24.5879 24.5691 24.5454 24.5167 24.4828 24.4437 24.3995 24.3503 24.2963 24.2377 24.1746 24.1072 24.0356 23.9601 23.8809 23.798 23.7118 23.6224 23.5302 23.4355 23.3389 23.2407 23.1414 23.0414 22.9411 22.8407 22.7406 22.6411 22.5424 22.445 22.349 22.2547 22.1623 22.0721 21.9843 21.8991 21.8166 21.7371 21.6606 21.5872 21.517 21.4501 21.3865 21.3264 21.2696 21.2163 21.1665 21.1202 21.0773 21.0379 21.002 20.9696 20.9407 20.9152 20.8931 20.8744 20.8592 20.8473 20.8389 20.8338 20.8321 23.7954 23.7965 23.7999 23.8054 23.813 23.8228 23.8346 23.8485 23.8643 23.8819 23.9013 23.9223 23.9448 23.9688 23.994 24.0203 24.0476 24.0756 24.1042 24.1333 24.1625 24.1918 24.2209 24.2495 24.2774 24.3045 24.3304 24.3549 24.3778 24.3989 24.4177 24.4342 24.448 24.4589 24.4667 24.4712 24.4721 24.4694 24.4627 24.4518 24.4368 24.4173 24.3933 24.3646 24.3311 24.2927 24.2495 24.2017 24.1494 24.0927 24.0317 23.9665 23.8973 23.8244 23.748 23.6682 23.5853 23.4995 23.4111 23.3205 23.2281 23.1342 23.0392 22.9435 22.8475 22.7513 22.6554 22.56 22.4654 22.372 22.2799 22.1895 22.1009 22.0143 21.9299 21.848 21.7688 21.6923 21.6186 21.5479 21.4802 21.4157 21.3544 21.2963 21.2416 21.1901 21.1419 21.0971 21.0556 21.0175 20.9828 20.9514 20.9234 20.8986 20.8772 20.8592 20.8444 20.8329 20.8247 20.8198 20.8181 23.7267 23.7278 23.7309 23.7362 23.7435 23.7528 23.7641 23.7773 23.7924 23.8092 23.8277 23.8477 23.8691 23.8919 23.9158 23.9409 23.9667 23.9933 24.0204 24.0479 24.0755 24.1031 24.1305 24.1573 24.1835 24.2088 24.2329 24.2557 24.2768 24.2961 24.3133 24.3281 24.3404 24.3499 24.3564 24.3596 24.3594 24.3556 24.348 24.3363 24.3205 24.3005 24.2762 24.2476 24.2144 24.1767 24.1345 24.0878 24.0369 23.9817 23.9223 23.8588 23.7914 23.7204 23.6461 23.5685 23.4881 23.405 23.3195 23.2321 23.1429 23.0523 22.9607 22.8683 22.7755 22.6826 22.5899 22.4976 22.4061 22.3157 22.2267 22.1392 22.0534 21.9696 21.8879 21.8086 21.7318 21.6576 21.5862 21.5175 21.4518 21.3891 21.3295 21.2731 21.2198 21.1697 21.1229 21.0792 21.0388 21.0017 20.9679 20.9373 20.9099 20.8858 20.865 20.8473 20.8329 20.8217 20.8137 20.8089 20.8073 23.6779 23.6789 23.6819 23.687 23.6941 23.7031 23.714 23.7267 23.7413 23.7575 23.7753 23.7946 23.8153 23.8373 23.8603 23.8844 23.9093 23.9348 23.9609 23.9872 24.0137 24.0402 24.0663 24.092 24.1169 24.141 24.1638 24.1854 24.2053 24.2233 24.2394 24.2531 24.2643 24.2728 24.2784 24.2808 24.2798 24.2752 24.2669 24.2546 24.2384 24.2181 24.1936 24.1649 24.132 24.0948 24.0533 24.0075 23.9576 23.9034 23.8452 23.7829 23.7168 23.6471 23.5741 23.4982 23.4194 23.3383 23.2549 23.1696 23.0827 22.9945 22.9052 22.8152 22.7247 22.634 22.5435 22.4535 22.3642 22.2759 22.189 22.1035 22.0198 21.9379 21.8581 21.7806 21.7055 21.633 21.5631 21.4959 21.4316 21.3702 21.3118 21.2565 21.2043 21.1552 21.1093 21.0665 21.0269 20.9905 20.9572 20.9272 20.9004 20.8767 20.8562 20.8389 20.8247 20.8137 20.8058 20.8011 20.7995 23.6486 23.6496 23.6526 23.6576 23.6645 23.6733 23.684 23.6965 23.7108 23.7266 23.7441 23.7629 23.7832 23.8046 23.8272 23.8507 23.875 23.8999 23.9253 23.951 23.9769 24.0026 24.0281 24.053 24.0772 24.1005 24.1226 24.1434 24.1626 24.18 24.1953 24.2084 24.219 24.2269 24.2319 24.2337 24.2323 24.2273 24.2186 24.2061 24.1896 24.1691 24.1446 24.116 24.0832 24.0462 24.005 23.9597 23.9102 23.8567 23.7991 23.7375 23.6722 23.6034 23.5314 23.4564 23.3788 23.2988 23.2166 23.1326 23.047 22.96 22.8721 22.7835 22.6943 22.605 22.5159 22.4272 22.3392 22.2522 22.1665 22.0823 21.9998 21.9191 21.8404 21.7639 21.6899 21.6183 21.5493 21.483 21.4195 21.3589 21.3013 21.2467 21.1951 21.1466 21.1012 21.0589 21.0197 20.9837 20.9509 20.9212 20.8946 20.8712 20.8509 20.8338 20.8198 20.8089 20.8011 20.7964 20.7949 23.6389 23.6398 23.6428 23.6478 23.6546 23.6634 23.674 23.6864 23.7005 23.7163 23.7336 23.7523 23.7724 23.7937 23.8161 23.8394 23.8635 23.8882 23.9134 23.9389 23.9645 23.99 24.0152 24.0399 24.0638 24.0869 24.1088 24.1294 24.1483 24.1655 24.1806 24.1934 24.2037 24.2114 24.2161 24.2177 24.2161 24.211 24.2023 24.1898 24.1734 24.153 24.1286 24.1 24.0672 24.03 23.9887 23.9432 23.8936 23.8401 23.7826 23.7214 23.6565 23.5883 23.5169 23.4426 23.3655 23.2859 23.2041 23.1204 23.0351 22.9485 22.8609 22.7726 22.6839 22.5951 22.5065 22.4183 22.3308 22.2444 22.1591 22.0753 21.9931 21.9128 21.8344 21.7583 21.6846 21.6133 21.5447 21.4787 21.4155 21.3551 21.2977 21.2434 21.192 21.1437 21.0984 21.0563 21.0173 20.9815 20.9487 20.9192 20.8927 20.8694 20.8492 20.8321 20.8181 20.8073 20.7995 20.7949 20.7933 </DataArray> 
<DataArray type="Float32" Name="gradient" format="ascii" NumberOfComponents="3"> 
-0.495027 -0.495027 0 9.40303 -0.523775 0 18.6166 -0.529251 0 27.1456 -0.520061 0 34.99 -0.504812 0 42.1499 -0.492111 0 48.6253 -0.490564 0 54.1536 -0.507751 0 58.0928 -0.542297 0 60.4137 -0.588219 0 61.1164 -0.639497 0 60.2008 -0.690109 0 57.667 -0.734034 0 53.4912 -0.765424 0 47.5313 -0.782389 0 39.7637 -0.787002 0 30.1883 -0.781504 0 18.805 -0.768141 0 5.61401 -0.749155 0 -9.36092 -0.726783 0 -25.5946 -0.702541 0 -42.872 -0.676535 0 -61.1933 -0.648712 0 -80.5584 -0.619018 0 -100.967 -0.587401 0 -122.42 -0.553806 0 -144.325 -0.518155 0 -166.088 -0.480265 0 -187.711 -0.439928 0 -209.193 -0.396936 0 -230.535 -0.351082 0 -251.736 -0.302157 0 -272.525 -0.250159 0 -292.239 -0.196875 0 -310.848 -0.145014 0 -328.353 -0.0972935 0 -344.752 -0.0564287 0 -360.046 -0.0251364 0 -374.187 -0.00598032 0 -386.878 0.00199082 0 -398.071 0.00324324 0 -407.765 0.00239596 0 -415.961 0.00406802 0 -422.659 0.0128784 0 -427.863 0.0334196 0 -431.677 0.0670612 0 -434.143 0.108914 0 -435.262 0.153369 0 -435.033 0.194817 0 -433.455 0.227651 0 -430.531 0.246262 0 -426.486 0.246688 0 -421.551 0.231564 0 -415.724 0.20517 0 -409.006 0.171788 0 -401.397 0.135697 0 -392.897 0.101179 0 -383.646 0.0721432 0 -373.989 0.0492582 0 -363.942 0.0315249 0 -353.503 0.0179304 0 -342.674 0.00746177 0 -331.454 -0.000893968 0 -319.892 -0.00812577 0 -308.275 -0.0146718 0 -296.653 -0.0204196 0 -285.024 -0.0252325 0 -273.389 -0.028974 0 -261.749 -0.0315075 0 -250.109 -0.0326977 0 -238.619 -0.0325341 0 -227.339 -0.0312492 0 -216.271 -0.0291035 0 -205.413 -0.0263576 0 -194.766 -0.0232718 0 -184.33 -0.0201067 0 -174.14 -0.0170939 0 -164.231 -0.0143493 0 -154.602 -0.0119601 0 -145.254 -0.0100134 0 -136.187 -0.0085962 0 -127.401 -0.00779571 0 -118.887 -0.00767807 0 -110.627 -0.00812737 0 -102.618 -0.00893389 0 -94.862 -0.00988718 0 -87.358 -0.0107768 0 -80.1061 -0.0113922 0 -73.0958 -0.0115306 0 -66.2626 -0.0111649 0 -59.5958 -0.0104438 0 -53.0955 -0.00952375 0 -46.7617 -0.00856096 0 -40.5943 -0.0077118 0 -34.5901 -0.00713195 0 -28.6773 -0.00689658 0 -22.8265 -0.00692455 0 -17.0377 -0.00711675 0 -11.3108 -0.00737407 0 -5.64592 -0.0075974 0 -0.0430386 -0.00768764 0 -0.523775 9.40303 0 9.45146 9.45146 0 18.7358 9.62509 0 27.3291 9.91944 0 35.2316 10.33 0 42.4431 10.8523 0 48.9637 11.4819 0 54.5324 12.2141 0 58.5116 13.043 0 60.8721 13.9624 0 61.614 14.9659 0 60.7372 16.0469 0 58.2419 17.1991 0 54.1033 18.4159 0 48.1737 19.6874 0 40.4286 21.0004 0 30.8678 22.3413 0 19.4914 23.6967 0 6.2994 25.0532 0 -8.68426 26.3973 0 -24.9329 27.7162 0 -42.2312 28.9982 0 -60.579 30.2318 0 -79.9763 31.4053 0 -100.423 32.5074 0 -121.92 33.5263 0 -143.872 34.4516 0 -165.685 35.2774 0 -187.361 35.9988 0 -208.898 36.6108 0 -230.296 37.1085 0 -251.556 37.4871 0 -272.406 37.7421 0 -292.181 37.8735 0 -310.852 37.8838 0 -328.418 37.7751 0 -344.878 37.5499 0 -360.234 37.2104 0 -374.435 36.7592 0 -387.181 36.2019 0 -398.422 35.5476 0 -408.158 34.8054 0 -416.389 33.9845 0 -423.114 33.0939 0 -428.34 32.1429 0 -432.172 31.1398 0 -434.657 30.0919 0 -435.792 29.0061 0 -435.579 27.8896 0 -434.018 26.7492 0 -431.107 25.592 0 -427.075 24.4249 0 -422.146 23.2544 0 -416.32 22.0868 0 -409.598 20.9286 0 -401.98 19.7861 0 -393.465 18.6657 0 -384.196 17.5735 0 -374.521 16.5128 0 -364.453 15.4853 0 -353.995 14.4931 0 -343.146 13.5378 0 -331.906 12.6215 0 -320.322 11.7458 0 -308.685 10.9116 0 -297.041 10.1186 0 -285.392 9.36666 0 -273.736 8.65542 0 -262.075 7.98465 0 -250.414 7.35406 0 -238.904 6.76301 0 -227.606 6.21015 0 -216.519 5.694 0 -205.644 5.21313 0 -194.98 4.76607 0 -184.528 4.35138 0 -174.323 3.96758 0 -164.4 3.61312 0 -154.758 3.28647 0 -145.397 2.98606 0 -136.318 2.71033 0 -127.521 2.45772 0 -118.998 2.22672 0 -110.727 2.01603 0 -102.71 1.8245 0 -94.9449 1.65098 0 -87.4327 1.4943 0 -80.1731 1.35333 0 -73.1555 1.2269 0 -66.3155 1.11406 0 -59.6424 1.01407 0 -53.1362 0.926154 0 -46.7969 0.849575 0 -40.6245 0.783579 0 -34.6157 0.727417 0 -28.6985 0.680505 0 -22.8433 0.642589 0 -17.0502 0.613448 0 -11.3191 0.592864 0 -5.65009 0.580617 0 -0.0431029 0.57649 0 -0.529251 18.6166 0 9.62509 18.7358 0 19.0853 19.0853 0 27.8514 19.6629 0 35.9233 20.4664 0 43.3011 21.4936 0 49.9848 22.7422 0 55.711 24.2089 0 59.8361 25.8816 0 62.3308 27.7437 0 63.1952 29.7782 0 62.4291 31.9685 0 60.0327 34.2979 0 55.9804 36.7492 0 50.1188 39.3018 0 42.4225 41.9308 0 32.8913 44.6112 0 21.5254 47.3181 0 8.3247 50.0266 0 -6.6868 52.7115 0 -22.9813 55.3486 0 -40.3427 57.9142 0 -58.7712 60.385 0 -78.2667 62.7375 0 -98.8293 64.9484 0 -120.459 66.9942 0 -142.557 68.8537 0 -164.524 70.5142 0 -186.36 71.9651 0 -208.065 73.1959 0 -229.64 74.1959 0 -251.084 74.9547 0 -272.123 75.4629 0 -292.082 75.7216 0 -310.932 75.7371 0 -328.673 75.516 0 -345.305 75.0647 0 -360.827 74.3897 0 -375.189 73.4977 0 -388.085 72.3994 0 -399.464 71.1093 0 -409.326 69.6426 0 -417.671 68.0139 0 -424.499 66.2383 0 -429.815 64.3305 0 -433.725 62.3066 0 -436.274 60.1847 0 -437.462 57.9832 0 -437.288 55.7205 0 -435.753 53.4149 0 -432.857 51.0849 0 -428.828 48.7473 0 -423.894 46.4135 0 -418.056 44.0931 0 -411.314 41.7959 0 -403.667 39.5318 0 -395.116 37.3105 0 -385.804 35.1414 0 -376.082 33.0306 0 -365.965 30.9829 0 -355.454 29.0025 0 -344.549 27.0942 0 -333.249 25.2623 0 -321.604 23.5113 0 -309.904 21.8431 0 -298.199 20.2573 0 -286.489 18.7531 0 -274.773 17.3301 0 -263.051 15.9874 0 -251.331 14.7246 0 -239.763 13.5403 0 -228.408 12.4319 0 -217.268 11.3967 0 -206.341 10.4318 0 -195.628 9.53464 0 -185.128 8.70235 0 -174.878 7.93214 0 -164.911 7.221 0 -155.228 6.56587 0 -145.83 5.96369 0 -136.715 5.41138 0 -127.884 4.90588 0 -119.328 4.44416 0 -111.028 4.02355 0 -102.983 3.64158 0 -95.1917 3.29575 0 -87.6551 2.98359 0 -80.373 2.70261 0 -73.3346 2.45036 0 -66.4749 2.22489 0 -59.7833 2.0248 0 -53.2596 1.8487 0 -46.9038 1.69521 0 -40.7161 1.56294 0 -34.693 1.45051 0 -28.762 1.35681 0 -22.8934 1.28125 0 -17.0873 1.22331 0 -11.3435 1.18249 0 -5.66222 1.15825 0 -0.0433273 1.15008 0 -0.520061 27.1456 0 9.91944 27.3291 0 19.6629 27.8514 0 28.7104 28.7104 0 37.0619 29.9045 0 44.7174 31.4317 0 51.6768 33.2903 0 57.6716 35.4768 0 62.0447 37.9735 0 64.7664 40.7554 0 65.8367 43.7976 0 65.2555 47.0749 0 63.0228 50.5624 0 59.1119 54.2346 0 53.3622 58.0608 0 45.7468 62.0043 0 36.2657 66.0283 0 24.919 70.0962 0 11.7067 74.1709 0 -3.34722 78.2158 0 -19.7139 82.1945 0 -37.1771 86.0714 0 -55.7367 89.8108 0 -75.3928 93.3775 0 -96.1454 96.7357 0 -117.994 99.85 0 -140.333 102.688 0 -162.555 105.23 0 -184.659 107.459 0 -206.647 109.358 0 -228.517 110.911 0 -250.27 112.101 0 -271.625 112.912 0 -291.893 113.347 0 -311.044 113.415 0 -329.078 113.125 0 -345.994 112.488 0 -361.793 111.513 0 -376.422 110.21 0 -389.568 108.594 0 -401.178 106.688 0 -411.253 104.514 0 -419.793 102.092 0 -426.798 99.4459 0 -432.272 96.5963 0 -436.319 93.5674 0 -438.981 90.3873 0 -440.258 87.0845 0 -440.15 83.6876 0 -438.657 80.2249 0 -435.78 76.725 0 -431.751 73.2141 0 -426.807 69.7089 0 -420.945 66.224 0 -414.168 62.7738 0 -406.474 59.3727 0 -397.864 56.0354 0 -388.482 52.7756 0 -378.684 49.6029 0 -368.486 46.5241 0 -357.888 43.5463 0 -346.89 40.6765 0 -335.492 37.9215 0 -323.743 35.2884 0 -311.94 32.78 0 -300.133 30.3955 0 -288.32 28.1342 0 -276.503 25.9949 0 -264.681 23.9768 0 -252.861 22.079 0 -241.196 20.2994 0 -229.749 18.6341 0 -218.518 17.0789 0 -207.505 15.6298 0 -196.709 14.2824 0 -186.13 13.0328 0 -175.803 11.8766 0 -165.765 10.8093 0 -156.014 9.82625 0 -146.551 8.92288 0 -137.375 8.09456 0 -128.487 7.33666 0 -119.879 6.64464 0 -111.529 6.01444 0 -103.437 5.4423 0 -95.602 4.92444 0 -88.0249 4.45709 0 -80.7054 4.03647 0 -73.6325 3.65885 0 -66.7404 3.32131 0 -60.0179 3.02175 0 -53.4651 2.75812 0 -47.082 2.52835 0 -40.8685 2.33038 0 -34.8215 2.16215 0 -28.8675 2.022 0 -22.9766 1.90905 0 -17.1487 1.82248 0 -11.384 1.76149 0 -5.68232 1.72529 0 -0.0437309 1.71307 0 -0.504812 34.99 0 10.33 35.2316 0 20.4664 35.9233 0 29.9045 37.0619 0 38.6441 38.6441 0 46.6853 40.6666 0 54.0282 43.1263 0 60.3966 46.0177 0 65.1159 49.3186 0 68.1555 52.9978 0 69.5152 57.024 0 69.1952 61.366 0 67.1955 65.9926 0 63.4873 70.872 0 57.8993 75.9643 0 50.4028 81.2208 0 40.9977 86.5926 0 29.6842 92.0308 0 16.4622 97.4863 0 1.35584 102.91 0 -15.1054 108.254 0 -32.7047 113.47 0 -51.4422 118.509 0 -71.3178 123.325 0 -92.3315 127.869 0 -114.483 132.094 0 -137.156 135.955 0 -159.731 139.425 0 -182.21 142.48 0 -204.591 145.098 0 -226.875 147.254 0 -249.063 148.925 0 -270.863 150.09 0 -291.567 150.75 0 -311.142 150.917 0 -329.589 150.603 0 -346.908 149.82 0 -363.098 148.579 0 -378.106 146.895 0 -391.606 144.787 0 -403.546 142.285 0 -413.924 139.419 0 -422.741 136.22 0 -429.998 132.717 0 -435.697 128.94 0 -439.938 124.922 0 -442.762 120.7 0 -444.167 116.31 0 -444.154 111.791 0 -442.724 107.179 0 -439.875 102.512 0 -435.851 97.8251 0 -430.893 93.1407 0 -425.001 88.4795 0 -418.175 83.8621 0 -410.416 79.3089 0 -401.722 74.8405 0 -392.243 70.4764 0 -382.339 66.2295 0 -372.027 62.1091 0 -361.307 58.1244 0 -350.179 54.2847 0 -338.642 50.5992 0 -326.747 47.077 0 -314.799 43.7221 0 -302.847 40.5334 0 -290.891 37.5098 0 -278.931 34.65 0 -266.968 31.9529 0 -255.008 29.4171 0 -243.207 27.0401 0 -231.628 24.8166 0 -220.271 22.7407 0 -209.136 20.8069 0 -198.223 19.0095 0 -187.533 17.3427 0 -177.1 15.8009 0 -166.96 14.378 0 -157.113 13.0676 0 -147.56 11.8636 0 -138.299 10.7599 0 -129.332 9.75008 0 -120.649 8.82816 0 -112.229 7.9887 0 -104.071 7.22666 0 -96.1755 6.53704 0 -88.5417 5.91479 0 -81.1699 5.35489 0 -74.0489 4.85237 0 -67.1111 4.40333 0 -60.3455 4.00493 0 -53.7521 3.65441 0 -47.3307 3.34899 0 -41.0814 3.08589 0 -35.0008 2.86234 0 -29.0147 2.6761 0 -23.0926 2.52599 0 -17.2345 2.41094 0 -11.4404 2.32988 0 -5.71037 2.28175 0 -0.0443329 2.26547 0 -0.492111 42.1499 0 10.8523 42.4431 0 21.4936 43.3011 0 31.4317 44.7174 0 40.6666 46.6853 0 49.1984 49.1984 0 57.027 52.2501 0 63.8684 55.8316 0 69.028 59.9169 0 72.4744 64.4707 0 74.2076 69.4574 0 74.2274 74.8418 0 72.534 80.5885 0 69.0961 86.6615 0 63.7258 93.0124 0 56.3918 99.5804 0 47.0942 106.304 0 35.833 113.122 0 22.6081 119.973 0 7.44369 126.795 0 -9.12997 133.527 0 -26.8959 140.109 0 -45.8542 146.481 0 -66.0047 152.581 0 -87.3475 158.349 0 -109.883 163.725 0 -132.979 168.654 0 -156.005 173.099 0 -178.962 177.029 0 -201.848 180.415 0 -224.665 183.225 0 -247.412 185.428 0 -269.787 186.997 0 -291.055 187.931 0 -311.181 188.244 0 -330.166 187.949 0 -348.009 187.06 0 -364.711 185.59 0 -380.215 183.553 0 -394.18 180.976 0 -406.549 177.898 0 -417.323 174.359 0 -426.501 170.396 0 -434.083 166.051 0 -440.074 161.362 0 -444.567 156.371 0 -447.6 151.122 0 -449.175 145.66 0 -449.29 140.03 0 -447.946 134.278 0 -445.143 128.447 0 -441.132 122.58 0 -436.162 116.709 0 -430.235 110.86 0 -423.35 105.061 0 -415.507 99.3404 0 -406.707 93.7257 0 -397.1 88.2436 0 -387.058 82.9105 0 -376.598 77.7378 0 -365.719 72.7368 0 -354.421 67.9189 0 -342.705 63.2954 0 -330.623 58.8773 0 -318.486 54.6695 0 -306.346 50.6709 0 -294.205 46.88 0 -282.061 43.2954 0 -269.915 39.9156 0 -257.773 36.7391 0 -245.796 33.7627 0 -234.047 30.9794 0 -222.526 28.3821 0 -211.234 25.9632 0 -200.171 23.7157 0 -189.336 21.6321 0 -178.766 19.7052 0 -168.496 17.927 0 -158.526 16.2899 0 -148.856 14.786 0 -139.486 13.4073 0 -130.417 12.1461 0 -121.638 10.9947 0 -113.129 9.94632 0 -104.887 8.99467 0 -96.9121 8.13354 0 -89.2053 7.35669 0 -81.7661 6.65788 0 -74.583 6.03093 0 -67.5867 5.47094 0 -60.7656 4.97433 0 -54.1199 4.53757 0 -47.6494 4.15713 0 -41.3541 3.82947 0 -35.2307 3.55107 0 -29.2034 3.31909 0 -23.2413 3.13208 0 -17.3445 2.98871 0 -11.5128 2.88766 0 -5.74638 2.82762 0 -0.0451524 2.80728 0 -0.490564 48.6253 0 11.4819 48.9637 0 22.7422 49.9848 0 33.2903 51.6768 0 43.1263 54.0282 0 52.2501 57.027 0 60.6617 60.6617 0 68.0693 64.9186 0 73.7595 69.7685 0 77.6999 75.1741 0 79.8904 81.0978 0 80.3311 87.5023 0 79.0219 94.3501 0 75.9277 101.603 0 70.8372 109.205 0 63.7153 117.083 0 54.562 125.163 0 43.3773 133.37 0 30.1611 141.63 0 14.9377 149.869 0 -1.76216 158.014 0 -19.7212 165.99 0 -38.9394 173.725 0 -59.4168 181.144 0 -81.1534 188.175 0 -104.149 194.745 0 -127.757 200.785 0 -151.329 206.252 0 -174.867 211.106 0 -198.368 215.309 0 -221.835 218.823 0 -245.266 221.609 0 -268.348 223.632 0 -290.308 224.889 0 -311.114 225.395 0 -330.764 225.163 0 -349.259 224.208 0 -366.599 222.544 0 -382.723 220.185 0 -397.267 217.164 0 -410.171 213.529 0 -421.434 209.332 0 -431.057 204.622 0 -439.04 199.449 0 -445.387 193.863 0 -450.188 187.914 0 -453.482 181.654 0 -455.269 175.134 0 -455.548 168.406 0 -454.32 161.52 0 -451.584 154.529 0 -447.6 147.48 0 -442.626 140.413 0 -436.662 133.364 0 -429.708 126.37 0 -421.765 119.467 0 -412.832 112.691 0 -403.067 106.077 0 -392.853 99.6458 0 -382.208 93.4102 0 -371.133 87.3836 0 -359.626 81.5791 0 -347.689 76.01 0 -335.375 70.6891 0 -323.007 65.6222 0 -310.637 60.808 0 -298.267 56.2448 0 -285.896 51.9309 0 -273.525 47.8649 0 -261.16 44.0449 0 -248.965 40.467 0 -237.006 37.1227 0 -225.285 34.003 0 -213.8 31.0988 0 -202.552 28.4012 0 -191.54 25.901 0 -180.802 23.5893 0 -170.372 21.4565 0 -160.251 19.4932 0 -150.439 17.6898 0 -140.936 16.0369 0 -131.742 14.5248 0 -122.847 13.1443 0 -114.227 11.8873 0 -105.882 10.7463 0 -97.8114 9.71396 0 -90.0152 8.78281 0 -82.4935 7.94544 0 -75.2344 7.19451 0 -68.1664 6.52415 0 -61.2775 5.92995 0 -54.5679 5.4076 0 -48.0374 4.95277 0 -41.6861 4.56112 0 -35.5105 4.22834 0 -29.4332 3.95099 0 -23.4225 3.72731 0 -17.4785 3.55577 0 -11.6011 3.43482 0 -5.79031 3.36291 0 -0.0462086 3.3385 0 -0.507751 54.1536 0 12.2141 54.5324 0 24.2089 55.711 0 35.4768 57.6716 0 46.0177 60.3966 0 55.8316 63.8684 0 64.9186 68.0693 0 72.9804 72.9804 0 79.2882 78.5712 0 83.8087 84.8051 0 86.5417 91.6454 0 87.4867 99.0534 0 86.6435 106.989 0 83.9716 115.41 0 79.2284 124.255 0 72.3734 133.437 0 63.4066 142.872 0 52.3282 152.473 0 39.1382 162.155 0 23.8608 171.834 0 7.02636 181.423 0 -11.1481 190.832 0 -30.6625 199.972 0 -51.5156 208.753 0 -73.7066 217.093 0 -97.2355 224.911 0 -121.438 232.129 0 -145.649 238.69 0 -169.87 244.54 0 -194.098 249.628 0 -218.332 253.909 0 -242.573 257.341 0 -266.49 259.886 0 -289.275 261.538 0 -310.892 262.304 0 -331.34 262.195 0 -350.618 261.225 0 -368.726 259.412 0 -385.599 256.773 0 -400.841 253.347 0 -414.387 249.194 0 -426.239 244.371 0 -436.394 238.939 0 -444.853 232.959 0 -451.621 226.491 0 -456.789 219.596 0 -460.394 212.334 0 -462.437 204.765 0 -462.918 196.947 0 -461.839 188.937 0 -459.198 180.787 0 -455.262 172.552 0 -450.294 164.28 0 -444.294 156.019 0 -437.264 147.816 0 -429.203 139.717 0 -420.112 131.767 0 -410.155 124.008 0 -399.734 116.465 0 -388.869 109.153 0 -377.558 102.088 0 -365.803 95.2851 0 -353.603 88.7593 0 -341.013 82.5255 0 -328.369 76.5904 0 -315.726 70.9526 0 -303.083 65.61 0 -290.442 60.5608 0 -277.802 55.8032 0 -265.17 51.3351 0 -252.716 47.1519 0 -240.508 43.2435 0 -228.547 39.5989 0 -216.833 36.2074 0 -205.366 33.0583 0 -194.145 30.1407 0 -183.207 27.4437 0 -172.589 24.9561 0 -162.289 22.6668 0 -152.309 20.5644 0 -142.648 18.6377 0 -133.306 16.8755 0 -124.273 15.2666 0 -115.524 13.8017 0 -107.057 12.4722 0 -98.8729 11.2693 0 -90.9711 10.1847 0 -83.3517 9.20965 0 -76.0025 8.33565 0 -68.8495 7.55584 0 -61.8805 6.865 0 -55.0953 6.25798 0 -48.4941 5.72961 0 -42.0769 5.27475 0 -35.8399 4.88826 0 -29.7037 4.56606 0 -23.6359 4.30614 0 -17.6364 4.10674 0 -11.7051 3.96609 0 -5.84216 3.88243 0 -0.0475128 3.854 0 -0.542297 58.0928 0 13.043 58.5116 0 25.8816 59.8361 0 37.9735 62.0447 0 49.3186 65.1159 0 59.9169 69.028 0 69.7685 73.7595 0 78.5712 79.2882 0 85.5862 85.5862 0 90.78 92.6231 0 94.1502 100.367 0 95.6881 108.777 0 95.3928 117.8 0 93.2183 127.384 0 88.8879 137.459 0 82.3557 147.931 0 73.6217 158.706 0 62.6886 169.694 0 49.5569 180.806 0 34.2503 191.956 0 17.2875 203.044 0 -1.11932 213.953 0 -20.9699 224.563 0 -42.248 234.766 0 -64.9432 244.481 0 -89.0556 253.634 0 -113.916 262.15 0 -138.854 269.94 0 -163.871 276.916 0 -188.953 282.996 0 -214.077 288.137 0 -239.244 292.311 0 -264.113 295.491 0 -287.851 297.661 0 -310.422 298.808 0 -331.82 298.921 0 -352.025 298.014 0 -371.035 296.121 0 -388.78 293.276 0 -404.839 289.525 0 -419.142 284.929 0 -431.687 279.551 0 -442.473 273.453 0 -451.499 266.704 0 -458.767 259.372 0 -464.368 251.529 0 -468.337 243.256 0 -470.675 234.631 0 -471.392 225.728 0 -470.496 216.599 0 -467.987 207.295 0 -464.127 197.866 0 -459.18 188.374 0 -453.146 178.886 0 -446.028 169.463 0 -437.832 160.16 0 -428.558 151.025 0 -418.379 142.109 0 -407.718 133.438 0 -396.596 125.031 0 -385.013 116.908 0 -372.967 109.085 0 -360.46 101.583 0 -347.55 94.4179 0 -334.584 87.5989 0 -321.621 81.1238 0 -308.662 74.9899 0 -295.706 69.1949 0 -282.753 63.7363 0 -269.811 58.6115 0 -257.055 53.8149 0 -244.558 49.3348 0 -232.319 45.1587 0 -220.339 41.2741 0 -208.616 37.6685 0 -197.152 34.3296 0 -185.983 31.2446 0 -175.146 28.4006 0 -164.639 25.7845 0 -154.465 23.3832 0 -144.621 21.1834 0 -135.109 19.1721 0 -125.917 17.3363 0 -117.018 15.6653 0 -108.411 14.1491 0 -100.095 12.7778 0 -92.0713 11.5418 0 -84.3391 10.4311 0 -76.8858 9.43605 0 -69.6347 8.54865 0 -62.5731 7.76286 0 -55.701 7.07273 0 -49.0184 6.47225 0 -42.5253 5.95547 0 -36.218 5.5164 0 -30.0144 5.15033 0 -23.881 4.855 0 -17.8177 4.62842 0 -11.8246 4.46859 0 -5.90173 4.37353 0 -0.0490079 4.34124 0 -0.588219 60.4137 0 13.9624 60.8721 0 27.7437 62.3308 0 40.7554 64.7664 0 52.9978 68.1555 0 64.4707 72.4744 0 75.1741 77.6999 0 84.8051 83.8087 0 92.6231 90.78 0 98.5944 98.5944 0 102.71 107.231 0 104.936 116.639 0 105.269 126.75 0 103.658 137.493 0 99.801 148.786 0 93.6463 160.531 0 85.1951 172.633 0 74.4572 185 0 61.4352 197.55 0 46.1509 210.201 0 29.0852 222.843 0 10.435 235.321 0 -9.79907 247.47 0 -31.5535 259.154 0 -54.7885 270.309 0 -79.504 280.888 0 -105.057 290.822 0 -130.806 299.981 0 -156.75 308.216 0 -182.835 315.397 0 -208.978 321.492 0 -235.175 326.504 0 -261.093 330.435 0 -285.911 333.251 0 -309.592 334.899 0 -332.115 335.334 0 -353.405 334.571 0 -373.453 332.669 0 -392.189 329.692 0 -409.18 325.696 0 -424.357 320.739 0 -437.716 314.875 0 -449.248 308.167 0 -458.947 300.688 0 -466.819 292.51 0 -472.934 283.718 0 -477.323 274.423 0 -479.985 264.735 0 -480.964 254.75 0 -480.286 244.511 0 -477.952 234.054 0 -474.207 223.424 0 -469.3 212.699 0 -463.23 201.967 0 -456.01 191.313 0 -447.66 180.797 0 -438.181 170.471 0 -427.753 160.384 0 -416.824 150.569 0 -405.412 141.048 0 -393.517 131.844 0 -381.141 122.982 0 -368.282 114.482 0 -355.002 106.368 0 -341.667 98.6489 0 -328.338 91.3225 0 -315.015 84.3852 0 -301.698 77.8337 0 -288.387 71.6644 0 -275.091 65.874 0 -261.991 60.4558 0 -249.163 55.3964 0 -236.606 50.6818 0 -224.321 46.298 0 -212.308 42.231 0 -200.566 38.4668 0 -189.133 34.9911 0 -178.045 31.7889 0 -167.302 28.8453 0 -156.906 26.1449 0 -146.854 23.6726 0 -137.149 21.4134 0 -127.776 19.3522 0 -118.707 17.4768 0 -109.941 15.776 0 -101.476 14.2385 0 -93.3138 12.8532 0 -85.4536 11.609 0 -77.8823 10.4949 0 -70.5201 9.50177 0 -63.3538 8.62278 0 -56.3834 7.85113 0 -49.6089 7.18 0 -43.0303 6.60258 0 -36.6437 6.11209 0 -30.3642 5.70317 0 -24.1569 5.37328 0 -18.0219 5.1202 0 -11.9592 4.94172 0 -5.96876 4.83561 0 -0.0506013 4.79966 0 -0.639497 61.1164 0 14.9659 61.614 0 29.7782 63.1952 0 43.7976 65.8367 0 57.024 69.5152 0 69.4574 74.2076 0 81.0978 79.8904 0 91.6454 86.5417 0 100.367 94.1502 0 107.231 102.71 0 112.212 112.212 0 115.227 122.599 0 116.267 133.78 0 115.28 145.661 0 111.952 158.149 0 106.229 171.149 0 98.1152 184.563 0 87.6337 198.307 0 74.7909 212.304 0 59.6053 226.482 0 42.481 240.723 0 23.5832 254.826 0 2.91414 268.579 0 -19.3682 281.817 0 -43.1643 294.497 0 -68.4744 306.598 0 -94.7309 318.067 0 -121.367 328.721 0 -148.382 338.344 0 -175.642 346.747 0 -202.936 353.912 0 -230.26 359.881 0 -257.308 364.685 0 -283.328 368.27 0 -308.288 370.539 0 -332.136 371.402 0 -354.682 370.875 0 -375.907 369.053 0 -395.744 366.028 0 -413.783 361.872 0 -429.957 356.63 0 -444.262 350.348 0 -456.669 343.084 0 -467.17 334.915 0 -475.766 325.92 0 -482.491 316.196 0 -487.358 305.885 0 -490.37 295.132 0 -491.63 284.054 0 -491.207 272.689 0 -489.098 261.064 0 -485.516 249.216 0 -480.67 237.244 0 -474.56 225.258 0 -467.218 213.365 0 -458.695 201.63 0 -448.99 190.103 0 -438.294 178.833 0 -427.068 167.857 0 -415.335 157.203 0 -403.094 146.899 0 -390.345 136.974 0 -377.088 127.457 0 -363.388 118.375 0 -349.633 109.74 0 -335.888 101.549 0 -322.154 93.7959 0 -308.429 86.4771 0 -294.714 79.5876 0 -281.018 73.1228 0 -267.531 67.0746 0 -254.33 61.4282 0 -241.415 56.1683 0 -228.787 51.2793 0 -216.444 46.7458 0 -204.389 42.5523 0 -192.657 38.683 0 -181.287 35.121 0 -170.279 31.849 0 -159.632 28.8495 0 -149.347 26.1054 0 -139.424 23.5994 0 -129.849 21.3144 0 -120.59 19.2364 0 -111.645 17.3529 0 -103.014 15.6512 0 -94.6963 14.1189 0 -86.6931 12.7434 0 -78.99 11.5122 0 -71.5039 10.4152 0 -64.2209 9.44476 0 -57.141 8.59318 0 -50.2643 7.85284 0 -43.5906 7.2161 0 -37.116 6.67534 0 -30.7522 6.22457 0 -24.4629 5.86098 0 -18.2483 5.5821 0 -12.1083 5.38549 0 -6.04296 5.2687 0 -0.0522004 5.22926 0 -0.690109 60.2008 0 16.0469 60.7372 0 31.9685 62.4291 0 47.0749 65.2555 0 61.366 69.1952 0 74.8418 74.2274 0 87.5023 80.3311 0 99.0534 87.4867 0 108.777 95.6881 0 116.639 104.936 0 122.599 115.227 0 126.502 126.502 0 128.331 138.66 0 128.036 151.6 0 125.305 165.227 0 120.085 179.447 0 112.38 194.166 0 102.229 209.298 0 89.6408 224.762 0 74.6295 240.476 0 57.4981 256.312 0 38.3708 272.053 0 17.2509 287.47 0 -5.58128 302.38 0 -29.95 316.73 0 -55.8552 330.489 0 -82.8353 343.589 0 -110.429 355.821 0 -138.635 366.94 0 -167.215 376.733 0 -195.788 385.171 0 -224.347 392.29 0 -252.63 398.116 0 -279.99 402.584 0 -306.397 405.58 0 -331.761 406.999 0 -355.734 406.859 0 -378.283 405.263 0 -399.349 402.316 0 -418.567 398.092 0 -435.877 392.634 0 -451.272 385.986 0 -464.691 378.21 0 -476.119 369.402 0 -485.554 359.657 0 -492.989 349.086 0 -498.419 337.826 0 -501.848 326.018 0 -503.446 313.785 0 -503.321 301.196 0 -501.472 288.312 0 -498.073 275.202 0 -493.294 261.973 0 -487.136 248.741 0 -479.655 235.613 0 -470.942 222.657 0 -460.996 209.921 0 -450.014 197.457 0 -438.47 185.303 0 -426.386 173.496 0 -413.763 162.071 0 -400.599 151.063 0 -386.897 140.508 0 -372.724 130.44 0 -358.497 120.873 0 -344.285 111.803 0 -330.089 103.222 0 -315.908 95.1252 0 -301.743 87.5059 0 -287.602 80.3577 0 -273.683 73.6712 0 -260.066 67.4303 0 -246.752 61.6181 0 -233.74 56.2179 0 -221.031 51.2128 0 -208.624 46.5861 0 -196.559 42.3205 0 -184.873 38.3969 0 -173.568 34.7956 0 -162.643 31.4972 0 -152.098 28.4819 0 -141.934 25.7301 0 -132.134 23.2228 0 -122.664 20.944 0 -113.521 18.8798 0 -104.705 17.0161 0 -96.2167 15.3388 0 -88.0555 13.8341 0 -80.2071 12.4879 0 -72.5844 11.289 0 -65.1728 10.2288 0 -57.9723 9.29889 0 -50.983 8.49079 0 -44.2049 7.79603 0 -37.6337 7.20615 0 -31.1774 6.71454 0 -24.7983 6.31809 0 -18.4964 6.01411 0 -12.2716 5.7999 0 -6.12408 5.67277 0 -0.0537126 5.63004 0 -0.734034 57.667 0 17.1991 58.2419 0 34.2979 60.0327 0 50.5624 63.0228 0 65.9926 67.1955 0 80.5885 72.534 0 94.3501 79.0219 0 106.989 86.6435 0 117.8 95.3928 0 126.75 105.269 0 133.78 116.267 0 138.66 128.331 0 141.368 141.368 0 141.854 155.284 0 139.813 169.988 0 135.192 185.393 0 127.996 201.41 0 118.263 217.945 0 106.001 234.893 0 91.22 252.149 0 74.133 269.574 0 54.8264 286.963 0 33.305 304.102 0 9.95143 320.808 0 -14.994 336.981 0 -41.5313 352.534 0 -69.2914 367.358 0 -97.9052 381.246 0 -127.373 393.97 0 -157.357 405.325 0 -187.32 415.246 0 -217.256 423.717 0 -246.934 430.718 0 -275.793 436.18 0 -303.806 440.008 0 -330.842 442.115 0 -356.401 442.515 0 -380.437 441.299 0 -402.894 438.557 0 -423.453 434.359 0 -442.058 428.754 0 -458.7 421.789 0 -473.269 413.546 0 -485.735 404.15 0 -496.097 393.729 0 -504.34 382.4 0 -510.457 370.263 0 -514.45 357.413 0 -516.505 343.957 0 -516.737 330.037 0 -515.147 315.798 0 -511.901 301.379 0 -507.169 286.884 0 -500.948 272.413 0 -493.319 258.056 0 -484.406 243.877 0 -474.209 229.926 0 -462.928 216.254 0 -451.046 202.907 0 -438.585 189.928 0 -425.545 177.361 0 -411.927 165.249 0 -397.729 153.635 0 -383.027 142.562 0 -368.273 132.047 0 -353.542 122.084 0 -338.833 112.663 0 -324.146 103.778 0 -309.483 95.4192 0 -294.851 87.5789 0 -280.455 80.2458 0 -266.38 73.4026 0 -252.624 67.0313 0 -239.188 61.1138 0 -226.072 55.6321 0 -213.276 50.5682 0 -200.84 45.9035 0 -188.806 41.6165 0 -177.172 37.6853 0 -165.939 34.0877 0 -155.107 30.8019 0 -144.677 27.8056 0 -134.63 25.0774 0 -124.928 22.5996 0 -115.567 20.3567 0 -106.549 18.333 0 -97.8729 16.5131 0 -89.5388 14.8812 0 -81.5315 13.422 0 -73.7596 12.123 0 -66.2076 10.9749 0 -58.8757 9.96825 0 -51.7638 9.09384 0 -44.872 8.34235 0 -38.1958 7.70453 0 -31.639 7.17308 0 -25.1622 6.74462 0 -18.7654 6.41622 0 -12.4486 6.18494 0 -6.21183 6.04785 0 -0.055045 6.00199 0 -0.765424 53.4912 0 18.4159 54.1033 0 36.7492 55.9804 0 54.2346 59.1119 0 70.872 63.4873 0 86.6615 69.0961 0 101.603 75.9277 0 115.41 83.9716 0 127.384 93.2183 0 137.493 103.658 0 145.661 115.28 0 151.6 128.036 0 155.284 141.854 0 156.661 156.661 0 155.426 172.379 0 151.527 188.928 0 144.967 206.224 0 135.752 224.163 0 123.885 242.605 0 109.373 261.408 0 92.3824 280.42 0 72.9792 299.471 0 51.1693 318.392 0 27.373 337.007 0 1.85436 355.144 0 -25.3866 372.626 0 -54.0179 389.278 0 -83.7077 404.92 0 -114.456 419.371 0 -145.869 432.462 0 -177.321 444.069 0 -208.803 454.09 0 -240.091 462.426 0 -270.631 469.011 0 -300.399 473.793 0 -329.233 476.727 0 -356.527 477.826 0 -382.222 477.145 0 -406.268 474.74 0 -428.358 470.67 0 -448.442 464.995 0 -466.501 457.78 0 -482.356 449.127 0 -495.959 439.202 0 -507.312 428.169 0 -516.46 416.154 0 -523.424 403.194 0 -528.203 389.32 0 -530.894 374.613 0 -531.557 359.306 0 -530.192 343.656 0 -527.028 327.888 0 -522.295 312.104 0 -515.993 296.376 0 -508.211 280.773 0 -499.093 265.351 0 -488.641 250.162 0 -477.054 235.259 0 -464.817 220.694 0 -451.954 206.519 0 -438.464 192.785 0 -424.347 179.545 0 -409.604 166.85 0 -394.316 154.751 0 -378.978 143.269 0 -363.671 132.396 0 -348.396 122.12 0 -333.154 112.432 0 -317.943 103.322 0 -302.773 94.7786 0 -287.856 86.7895 0 -273.277 79.336 0 -259.037 72.3986 0 -245.135 65.9582 0 -231.572 59.9955 0 -218.347 54.4911 0 -205.504 49.4249 0 -193.085 44.7732 0 -181.09 40.5115 0 -169.519 36.6151 0 -158.373 33.0594 0 -147.651 29.82 0 -137.335 26.8727 0 -127.379 24.198 0 -117.782 21.7786 0 -108.543 19.5974 0 -99.6626 17.6371 0 -91.1408 15.8806 0 -82.9613 14.3107 0 -75.0277 12.9138 0 -67.3239 11.6796 0 -59.8497 10.598 0 -52.6053 9.65896 0 -45.5907 8.85224 0 -38.8012 8.16777 0 -32.136 7.59764 0 -25.5539 7.13815 0 -19.0548 6.78613 0 -12.6389 6.53836 0 -6.30596 6.39166 0 -0.0561147 6.34284 0 -0.782389 47.5313 0 19.6874 48.1737 0 39.3018 50.1188 0 58.0608 53.3622 0 75.9643 57.8993 0 93.0124 63.7258 0 109.205 70.8372 0 124.255 79.2284 0 137.459 88.8879 0 148.786 99.801 0 158.149 111.952 0 165.227 125.305 0 169.988 139.813 0 172.379 155.426 0 172.08 172.08 0 169.038 189.697 0 163.248 208.195 0 154.666 227.463 0 143.278 247.344 0 129.093 267.676 0 112.271 288.305 0 92.8771 309.076 0 70.9172 329.839 0 46.7804 350.422 0 20.7115 370.595 0 -7.28958 390.121 0 -36.8701 408.772 0 -67.6775 426.374 0 -99.7115 442.761 0 -132.568 457.771 0 -165.602 471.235 0 -198.805 482.983 0 -231.923 492.856 0 -264.332 500.784 0 -296.003 506.743 0 -326.76 510.712 0 -355.943 512.695 0 -383.488 512.716 0 -409.341 510.799 0 -433.169 506.999 0 -454.919 501.399 0 -474.565 494.083 0 -491.857 485.169 0 -506.725 474.818 0 -519.178 463.195 0 -529.353 450.431 0 -537.308 436.596 0 -543.041 421.752 0 -546.51 406.003 0 -547.691 389.568 0 -546.582 372.688 0 -543.499 355.584 0 -538.76 338.394 0 -532.363 321.238 0 -524.414 304.229 0 -515.076 287.432 0 -504.352 270.898 0 -492.441 254.676 0 -479.826 238.822 0 -466.53 223.393 0 -452.552 208.445 0 -437.892 194.037 0 -422.551 180.224 0 -406.618 167.063 0 -390.638 154.577 0 -374.7 142.757 0 -358.805 131.591 0 -342.952 121.069 0 -327.142 111.179 0 -311.384 101.911 0 -295.896 93.2498 0 -280.767 85.1752 0 -265.997 77.6654 0 -251.585 70.6988 0 -237.533 64.254 0 -223.839 58.3093 0 -210.55 52.8423 0 -197.71 47.8268 0 -185.321 43.2357 0 -173.382 39.042 0 -161.893 35.2187 0 -150.855 31.7386 0 -140.245 28.5753 0 -130.015 25.7072 0 -120.161 23.1153 0 -110.683 20.7807 0 -101.583 18.6842 0 -92.8583 16.8071 0 -84.4935 15.1304 0 -76.3861 13.6392 0 -68.5189 12.3224 0 -60.892 11.169 0 -53.5053 10.168 0 -46.359 9.3086 0 -39.4481 8.57979 0 -32.6669 7.97299 0 -25.9721 7.48419 0 -19.3637 7.10988 0 -12.8418 6.84656 0 -6.40622 6.69073 0 -0.0570607 6.6389 0 -0.787002 39.7637 0 21.0004 40.4286 0 41.9308 42.4225 0 62.0043 45.7468 0 81.2208 50.4028 0 99.5804 56.3918 0 117.083 63.7153 0 133.437 72.3734 0 147.931 82.3557 0 160.531 93.6463 0 171.149 106.229 0 179.447 120.085 0 185.393 135.192 0 188.928 151.527 0 189.697 169.038 0 187.642 187.642 0 182.752 207.254 0 174.926 227.763 0 164.136 249.016 0 150.389 270.86 0 133.85 293.139 0 114.587 315.693 0 92.6024 338.361 0 68.2249 360.958 0 41.6596 383.23 0 12.9067 404.911 0 -17.6401 425.745 0 -49.5869 445.53 0 -82.9336 464.077 0 -117.282 481.193 0 -151.998 496.677 0 -187.074 510.324 0 -222.206 521.943 0 -256.656 531.451 0 -290.388 538.827 0 -323.221 544.048 0 -354.471 547.105 0 -384.073 547.996 0 -411.961 546.723 0 -437.737 543.343 0 -461.334 537.97 0 -482.726 530.72 0 -501.627 521.706 0 -517.964 511.043 0 -531.743 498.841 0 -543.112 485.247 0 -552.132 470.467 0 -558.802 454.714 0 -563.057 438.168 0 -564.854 420.916 0 -564.194 403.029 0 -561.386 384.609 0 -556.74 365.88 0 -550.256 347.101 0 -542.089 328.503 0 -532.486 310.181 0 -521.451 292.178 0 -509.178 274.539 0 -496.143 257.317 0 -482.369 240.571 0 -467.855 224.359 0 -452.601 208.739 0 -436.607 193.77 0 -419.973 179.508 0 -403.293 165.978 0 -386.667 153.171 0 -370.093 141.077 0 -353.573 129.685 0 -337.106 118.985 0 -320.703 108.968 0 -304.589 99.6179 0 -288.858 90.911 0 -273.508 82.8223 0 -258.54 75.3268 0 -243.954 68.3994 0 -229.751 62.0153 0 -215.977 56.1485 0 -202.682 50.7704 0 -189.865 45.8516 0 -177.527 41.3624 0 -165.666 37.2736 0 -154.285 33.5556 0 -143.359 30.1796 0 -132.831 27.122 0 -122.7 24.3618 0 -112.966 21.8781 0 -103.628 19.65 0 -94.687 17.6566 0 -86.1241 15.8773 0 -77.8309 14.2957 0 -69.7893 12.8997 0 -61.9994 11.6778 0 -54.4611 10.618 0 -47.1744 9.70861 0 -40.1343 8.9379 0 -33.2298 8.29661 0 -26.4153 7.78031 0 -19.6909 7.38515 0 -13.0566 7.10726 0 -6.51238 6.94279 0 -0.0582443 6.88788 0 -0.781504 30.1883 0 22.3413 30.8678 0 44.6112 32.8913 0 66.0283 36.2657 0 86.5926 40.9977 0 106.304 47.0942 0 125.163 54.562 0 142.872 63.4066 0 158.706 73.6217 0 172.633 85.1951 0 184.563 98.1152 0 194.166 112.38 0 201.41 127.996 0 206.224 144.967 0 208.195 163.248 0 207.254 182.752 0 203.387 203.387 0 196.452 225.046 0 186.411 247.605 0 173.271 270.936 0 157.173 294.891 0 138.174 319.281 0 116.277 343.911 0 91.7555 368.571 0 64.7796 393.005 0 35.3496 416.95 0 3.88225 440.145 0 -29.2058 462.333 0 -63.9146 483.258 0 -99.8417 502.669 0 -136.346 520.343 0 -173.421 536.07 0 -210.712 549.648 0 -247.359 560.978 0 -283.321 570.014 0 -318.414 576.708 0 -351.935 581.031 0 -383.818 582.968 0 -413.978 582.503 0 -441.909 579.705 0 -467.528 574.721 0 -490.811 567.7 0 -511.524 558.741 0 -529.604 547.874 0 -545.051 535.124 0 -557.827 520.65 0 -567.919 504.879 0 -575.329 488.265 0 -580.24 471.106 0 -582.765 453.268 0 -582.905 434.541 0 -580.754 414.827 0 -576.407 394.468 0 -569.864 373.917 0 -561.401 353.579 0 -551.46 333.594 0 -540.047 314.002 0 -527.351 294.847 0 -513.837 276.178 0 -499.526 258.053 0 -484.419 240.525 0 -468.514 223.652 0 -451.812 207.487 0 -434.421 192.086 0 -416.985 177.471 0 -399.611 163.638 0 -382.3 150.576 0 -365.051 138.28 0 -347.864 126.741 0 -330.751 115.95 0 -313.95 105.894 0 -297.557 96.5434 0 -281.574 87.8694 0 -266 79.8421 0 -250.836 72.4318 0 -236.081 65.609 0 -221.784 59.3436 0 -207.997 53.6042 0 -194.719 48.359 0 -181.95 43.5763 0 -169.69 39.2242 0 -157.938 35.2711 0 -146.671 31.6857 0 -135.824 28.4423 0 -125.396 25.518 0 -115.387 22.8896 0 -105.796 20.5344 0 -96.6228 18.4292 0 -87.849 16.5514 0 -79.3585 14.8832 0 -71.1317 13.4117 0 -63.1688 12.1245 0 -55.4696 11.0089 0 -48.0343 10.0522 0 -40.8575 9.2421 0 -33.8226 8.56848 0 -26.8818 8.02652 0 -20.0351 7.61195 0 -13.2826 7.32048 0 -6.62424 7.14785 0 -0.0600364 7.08978 0 -0.768141 18.805 0 23.6967 19.4914 0 47.3181 21.5254 0 70.0962 24.919 0 92.0308 29.6842 0 113.122 35.833 0 133.37 43.3773 0 152.473 52.3282 0 169.694 62.6886 0 185 74.4572 0 198.307 87.6337 0 209.298 102.229 0 217.945 118.263 0 224.163 135.752 0 227.463 154.666 0 227.763 174.926 0 225.046 196.452 0 219.153 219.153 0 210.039 242.925 0 197.709 267.666 0 182.239 293.234 0 163.661 319.42 0 141.977 346.009 0 117.427 372.77 0 90.1588 399.443 0 60.1738 425.763 0 27.8751 451.453 0 -6.33365 476.203 0 -42.4525 499.689 0 -80.0508 521.604 0 -118.443 541.701 0 -157.621 559.759 0 -197.189 575.566 0 -236.181 588.995 0 -274.555 599.961 0 -312.113 608.383 0 -348.122 614.218 0 -382.51 617.45 0 -415.172 618.066 0 -445.478 616.127 0 -473.321 611.768 0 -498.689 605.123 0 -521.443 596.29 0 -541.548 585.304 0 -558.986 572.201 0 -573.396 557.155 0 -584.631 540.611 0 -592.698 523.046 0 -598.213 504.788 0 -601.563 485.752 0 -602.746 465.784 0 -601.524 444.82 0 -597.654 423.161 0 -591.138 401.199 0 -582.395 379.296 0 -572.096 357.643 0 -560.248 336.37 0 -547.049 315.6 0 -532.979 295.406 0 -518.059 275.838 0 -502.29 256.945 0 -485.671 238.775 0 -468.203 221.376 0 -450.001 204.796 0 -431.752 189.057 0 -413.572 174.157 0 -395.46 160.09 0 -377.417 146.855 0 -359.443 134.445 0 -341.548 122.857 0 -323.991 112.077 0 -306.875 102.072 0 -290.201 92.8067 0 -273.968 84.2447 0 -258.177 76.3512 0 -242.828 69.0905 0 -227.971 62.4276 0 -213.655 56.3281 0 -199.882 50.7581 0 -186.65 45.6835 0 -173.96 41.0705 0 -161.812 36.8849 0 -150.178 33.0935 0 -138.99 29.6683 0 -128.244 26.5839 0 -117.941 23.8153 0 -108.08 21.3374 0 -98.6611 19.1248 0 -89.6644 17.1527 0 -80.9651 15.4017 0 -72.5427 13.8583 0 -64.397 12.5091 0 -56.5282 11.3406 0 -48.9361 10.3395 0 -41.6153 9.49239 0 -34.4433 8.78861 0 -27.3699 8.22281 0 -20.3951 7.79027 0 -13.519 7.48621 0 -6.74159 7.30591 0 -0.0628078 7.2446 0 -0.749155 5.61401 0 25.0532 6.2994 0 50.0266 8.3247 0 74.1709 11.7067 0 97.4863 16.4622 0 119.973 22.6081 0 141.63 30.1611 0 162.155 39.1382 0 180.806 49.5569 0 197.55 61.4352 0 212.304 74.7909 0 224.762 89.6408 0 234.893 106.001 0 242.605 123.885 0 247.344 143.278 0 249.016 164.136 0 247.605 186.411 0 242.925 210.039 0 234.928 234.928 0 223.614 260.986 0 208.974 288.08 0 191.006 315.999 0 169.713 344.527 0 145.3 373.427 0 117.894 402.421 0 87.4959 431.222 0 54.4723 459.53 0 19.1895 486.983 0 -18.3526 513.206 0 -57.6781 537.84 0 -98.0299 560.608 0 -139.398 581.27 0 -181.353 599.59 0 -222.842 615.403 0 -263.817 628.578 0 -304.064 638.993 0 -342.776 646.598 0 -379.873 651.395 0 -415.238 653.392 0 -448.156 652.62 0 -478.507 649.141 0 -506.279 643.017 0 -531.341 634.355 0 -553.659 623.329 0 -573.209 610.115 0 -589.444 594.897 0 -602.142 577.869 0 -611.314 559.228 0 -617.757 539.206 0 -621.974 518.138 0 -623.964 496.376 0 -623.407 474.21 0 -619.984 451.693 0 -613.693 428.816 0 -604.957 405.61 0 -594.444 382.322 0 -582.163 359.282 0 -568.361 336.798 0 -553.638 315.001 0 -538.023 293.928 0 -521.514 273.618 0 -504.113 254.108 0 -485.819 235.436 0 -466.753 217.638 0 -447.636 200.735 0 -428.589 184.728 0 -409.612 169.619 0 -390.706 155.408 0 -371.869 142.098 0 -353.116 129.689 0 -334.727 118.169 0 -316.819 107.498 0 -299.392 97.6341 0 -282.445 88.5348 0 -265.978 80.1574 0 -249.992 72.4598 0 -234.535 65.4004 0 -219.655 58.9421 0 -205.352 53.0487 0 -191.625 47.6842 0 -178.476 42.8124 0 -165.904 38.3972 0 -153.878 34.4031 0 -142.324 30.7997 0 -131.239 27.5596 0 -120.623 24.6552 0 -110.476 22.059 0 -100.798 19.7434 0 -91.566 17.6811 0 -82.6471 15.8513 0 -74.0187 14.2396 0 -65.681 12.8316 0 -57.6338 11.6133 0 -49.8772 10.5704 0 -42.4054 9.68876 0 -35.0899 8.95699 0 -27.878 8.3692 0 -20.7697 7.92011 0 -13.7651 7.60446 0 -6.8642 7.41696 0 -0.0669294 7.35236 0 -0.726783 -9.36092 0 26.3973 -8.68426 0 52.7115 -6.6868 0 78.2158 -3.34722 0 102.91 1.35584 0 126.795 7.44369 0 149.869 14.9377 0 171.834 23.8608 0 191.956 34.2503 0 210.201 46.1509 0 226.482 59.6053 0 240.476 74.6295 0 252.149 91.22 0 261.408 109.373 0 267.676 129.093 0 270.86 150.389 0 270.936 173.271 0 267.666 197.709 0 260.986 223.614 0 250.893 250.893 0 237.298 279.422 0 220.165 309.008 0 199.495 339.451 0 175.436 370.522 0 148.082 401.912 0 117.431 433.299 0 83.8043 464.343 0 47.5202 494.641 0 8.579 523.774 0 -32.49 551.341 0 -74.8443 577.03 0 -118.473 600.568 0 -162.917 621.685 0 -207.055 640.169 0 -250.835 655.838 0 -294.008 668.517 0 -335.634 678.158 0 -375.624 684.8 0 -413.862 688.48 0 -449.651 689.184 0 -482.876 686.843 0 -513.502 681.391 0 -541.175 672.965 0 -565.801 661.985 0 -587.365 648.889 0 -605.579 633.866 0 -620.322 616.618 0 -631.6 596.791 0 -639.688 574.413 0 -644.761 550.563 0 -646.818 526.5 0 -646.107 503.158 0 -642.876 480.158 0 -637.124 456.796 0 -628.958 432.516 0 -618.548 407.626 0 -605.896 382.748 0 -591.373 358.46 0 -575.885 334.98 0 -559.474 312.335 0 -542.138 290.553 0 -523.88 269.658 0 -504.698 249.673 0 -484.716 230.617 0 -464.676 212.508 0 -444.702 195.354 0 -424.793 179.162 0 -404.949 163.942 0 -385.171 149.701 0 -365.473 136.446 0 -346.172 124.168 0 -327.398 112.82 0 -309.151 102.351 0 -291.431 92.7104 0 -274.238 83.8483 0 -257.572 75.714 0 -241.476 68.259 0 -225.994 61.4431 0 -211.127 55.228 0 -196.874 49.5756 0 -183.234 44.4475 0 -170.209 39.8057 0 -157.765 35.6124 0 -145.823 31.835 0 -134.378 28.4435 0 -123.431 25.4078 0 -112.981 22.6979 0 -103.029 20.2837 0 -93.55 18.1356 0 -84.4007 16.2309 0 -75.5565 14.5545 0 -67.0175 13.0913 0 -58.7837 11.8262 0 -50.8551 10.7444 0 -43.2256 9.83069 0 -35.7604 9.07312 0 -28.4044 8.46518 0 -21.1577 8.001 0 -14.0202 7.67474 0 -6.99186 7.48057 0 -0.0727682 7.41262 0 -0.702541 -25.5946 0 27.7162 -24.9329 0 55.3486 -22.9813 0 82.1945 -19.7139 0 108.254 -15.1054 0 133.527 -9.12997 0 158.014 -1.76216 0 181.423 7.02636 0 203.044 17.2875 0 222.843 29.0852 0 240.723 42.481 0 256.312 57.4981 0 269.574 74.133 0 280.42 92.3824 0 288.305 112.271 0 293.139 133.85 0 294.891 157.173 0 293.234 182.239 0 288.08 208.974 0 279.422 237.298 0 267.103 267.103 0 251.058 298.218 0 231.287 330.469 0 207.846 363.637 0 180.769 397.386 0 150.055 431.361 0 115.976 465.189 0 78.8009 498.43 0 38.5306 530.625 0 -4.25237 561.334 0 -48.6202 590.198 0 -94.5611 616.894 0 -141.588 641.105 0 -188.512 662.581 0 -235.279 681.112 0 -281.592 696.495 0 -326.34 708.653 0 -369.417 717.595 0 -410.724 723.333 0 -449.675 725.811 0 -486.17 724.905 0 -520.132 720.496 0 -550.758 712.719 0 -577.833 702.059 0 -601.373 689.028 0 -621.757 673.831 0 -639.136 656.082 0 -653.501 635.325 0 -663.955 611.56 0 -669.936 586.036 0 -671.443 560.218 0 -669.858 535.201 0 -666.563 510.613 0 -661.556 485.714 0 -654.39 459.911 0 -644.347 433.473 0 -631.419 406.979 0 -616.141 380.977 0 -599.82 355.729 0 -582.516 331.352 0 -564.24 307.956 0 -545.03 285.578 0 -524.891 264.205 0 -503.945 243.822 0 -482.927 224.435 0 -461.96 206.065 0 -441.043 188.737 0 -420.181 172.467 0 -399.376 157.266 0 -378.644 143.141 0 -358.345 130.08 0 -338.628 118.03 0 -319.492 106.934 0 -300.936 96.7334 0 -282.962 87.3716 0 -265.569 78.7906 0 -248.794 70.9357 0 -232.672 63.7626 0 -217.204 57.2301 0 -202.39 51.2967 0 -188.23 45.9212 0 -174.723 41.062 0 -161.835 36.6786 0 -149.48 32.7355 0 -137.654 29.2004 0 -126.357 26.0408 0 -115.588 23.2243 0 -105.348 20.7185 0 -95.6112 18.4912 0 -86.2209 16.5182 0 -77.1513 14.7834 0 -68.4023 13.2707 0 -59.974 11.9642 0 -51.8663 10.848 0 -44.0729 9.9062 0 -36.4525 9.12585 0 -28.9475 8.50003 0 -21.5577 8.02245 0 -14.2832 7.68683 0 -7.12409 7.48689 0 -0.0802252 7.41634 0 -0.676535 -42.872 0 28.9982 -42.2312 0 57.9142 -40.3427 0 86.0714 -37.1771 0 113.47 -32.7047 0 140.109 -26.8959 0 165.99 -19.7212 0 190.832 -11.1481 0 213.953 -1.11932 0 235.321 10.435 0 254.826 23.5832 0 272.053 38.3708 0 286.963 54.8264 0 299.471 72.9792 0 309.076 92.8771 0 315.693 114.587 0 319.281 138.174 0 319.42 163.661 0 315.999 191.006 0 309.008 220.165 0 298.218 251.058 0 283.539 283.539 0 264.968 317.456 0 242.438 352.602 0 215.904 388.625 0 185.366 425.15 0 151.041 461.781 0 113.146 498.043 0 71.6794 533.444 0 27.27 567.502 0 -19.0835 599.799 0 -67.3682 629.94 0 -117.056 657.544 0 -166.856 682.348 0 -216.709 704.146 0 -266.286 722.739 0 -314.351 737.979 0 -360.785 749.753 0 -405.497 757.953 0 -447.943 762.499 0 -488.032 763.342 0 -525.65 760.436 0 -559.615 753.862 0 -589.612 743.873 0 -615.678 730.738 0 -638.61 714.696 0 -658.735 695.942 0 -676.031 674.662 0 -688.821 651.12 0 -696.053 625.791 0 -697.728 599.189 0 -695.927 571.787 0 -692.736 543.901 0 -688.153 515.807 0 -681.475 487.753 0 -671.577 459.829 0 -658.448 432.063 0 -642.657 404.509 0 -625.603 377.408 0 -607.349 351.101 0 -587.957 325.911 0 -567.659 301.929 0 -546.476 279.081 0 -524.522 257.289 0 -502.469 236.538 0 -480.431 216.875 0 -458.411 198.349 0 -436.435 180.989 0 -414.509 164.798 0 -392.654 149.776 0 -371.274 135.904 0 -350.535 123.124 0 -330.438 111.373 0 -310.982 100.588 0 -292.167 90.7059 0 -273.995 81.6642 0 -256.491 73.4027 0 -239.685 65.8726 0 -223.577 59.028 0 -208.165 52.8228 0 -193.451 47.2109 0 -179.435 42.1464 0 -166.078 37.584 0 -153.287 33.4854 0 -141.059 29.816 0 -129.393 26.5412 0 -118.29 23.6262 0 -107.749 21.0365 0 -97.742 18.7377 0 -88.1006 16.7041 0 -78.7963 14.9182 0 -69.8291 13.3629 0 -61.1991 12.0212 0 -52.9062 10.876 0 -44.9437 9.91042 0 -37.1635 9.11061 0 -29.505 8.46937 0 -21.9683 7.98018 0 -14.5532 7.63653 0 -7.25991 7.43192 0 -0.0882957 7.35982 0 -0.648712 -61.1933 0 30.2318 -60.579 0 60.385 -58.7712 0 89.8108 -55.7367 0 118.509 -51.4422 0 146.481 -45.8542 0 173.725 -38.9394 0 199.972 -30.6625 0 224.563 -20.9699 0 247.47 -9.79907 0 268.579 2.91414 0 287.47 17.2509 0 304.102 33.305 0 318.392 51.1693 0 329.839 70.9172 0 338.361 92.6024 0 343.911 116.277 0 346.009 141.977 0 344.527 169.713 0 339.451 199.495 0 330.469 231.287 0 317.456 264.968 0 300.406 300.406 0 279.107 337.41 0 253.422 375.622 0 223.352 414.658 0 189.049 454.108 0 150.666 493.471 0 108.201 532.219 0 62.3122 569.833 0 14.0408 605.817 0 -36.5992 639.69 0 -89.0084 670.992 0 -141.722 699.458 0 -194.672 724.93 0 -247.537 747.24 0 -299.101 766.128 0 -349.246 781.266 0 -397.851 792.335 0 -444.176 799.249 0 -488.097 802.156 0 -529.505 801.211 0 -567.241 796.389 0 -600.998 787.42 0 -630.786 774.019 0 -656.85 756.482 0 -679.29 736.233 0 -698.095 714.824 0 -712.355 693.072 0 -721.501 669.759 0 -725.532 643.323 0 -725.699 612.844 0 -723.253 579.993 0 -718.195 547.086 0 -710.461 516.068 0 -699.952 486.711 0 -686.666 458.003 0 -670.904 429.052 0 -653.397 400.013 0 -634.18 371.58 0 -613.437 344.419 0 -591.866 318.714 0 -569.534 294.301 0 -546.53 271.017 0 -523.385 248.818 0 -500.189 227.784 0 -476.948 207.999 0 -453.744 189.507 0 -430.598 172.297 0 -407.53 156.353 0 -384.986 141.643 0 -363.148 128.104 0 -342.016 115.67 0 -321.59 104.274 0 -301.871 93.8513 0 -282.858 84.3346 0 -264.571 75.66 0 -247.031 67.7732 0 -230.236 60.6218 0 -214.188 54.1537 0 -198.887 48.3168 0 -184.332 43.0588 0 -170.481 38.3286 0 -157.233 34.0847 0 -144.584 30.2903 0 -132.532 26.9088 0 -121.078 23.9035 0 -110.223 21.2378 0 -99.935 18.8753 0 -90.0323 16.7885 0 -80.4844 14.9588 0 -71.2914 13.3678 0 -62.4532 11.9971 0 -53.9698 10.8284 0 -45.8342 9.84334 0 -37.8905 9.0274 0 -30.075 8.37319 0 -22.3879 7.87418 0 -14.8289 7.52384 0 -7.39828 7.31564 0 -0.0958713 7.24305 0 -0.619018 -80.5584 0 31.4053 -79.9763 0 62.7375 -78.2667 0 93.3775 -75.3928 0 123.325 -71.3178 0 152.581 -66.0047 0 181.144 -59.4168 0 208.753 -51.5156 0 234.766 -42.248 0 259.154 -31.5535 0 281.817 -19.3682 0 302.38 -5.58128 0 320.808 9.95143 0 337.007 27.373 0 350.422 46.7804 0 360.958 68.2249 0 368.571 91.7555 0 372.77 117.427 0 373.427 145.3 0 370.522 175.436 0 363.637 207.846 0 352.602 242.438 0 337.41 279.107 0 317.689 317.689 0 293.203 357.845 0 263.953 399.209 0 230.007 441.379 0 191.435 483.821 0 148.237 525.967 0 101.077 567.251 0 51.0155 607.119 0 -1.93484 645.022 0 -57.0718 680.44 0 -112.679 713.082 0 -168.679 742.778 0 -224.802 769.348 0 -280.03 792.424 0 -334.268 811.509 0 -387.312 826.114 0 -437.944 836.094 0 -485.962 841.643 0 -531.303 842.961 0 -573.308 839.957 0 -611.804 832.128 0 -646.723 818.949 0 -676.602 800.759 0 -700.842 779.571 0 -719.465 757.591 0 -734.142 735.932 0 -745.92 712.689 0 -754.802 685.442 0 -759.452 652.699 0 -758.541 616.679 0 -752.066 580.531 0 -741.594 546.902 0 -729.613 515.512 0 -716.156 485.022 0 -700.938 454.238 0 -683.262 423.258 0 -663.095 392.839 0 -640.809 363.71 0 -617.802 336.1 0 -594.205 309.877 0 -570.077 284.907 0 -545.751 261.161 0 -521.284 238.717 0 -496.691 217.656 0 -472.138 198.014 0 -447.666 179.763 0 -423.299 162.871 0 -399.51 147.294 0 -376.495 132.967 0 -354.254 119.823 0 -332.786 107.792 0 -312.091 96.8078 0 -292.17 86.8019 0 -273.036 77.7077 0 -254.705 69.4642 0 -237.176 62.0114 0 -220.449 55.2895 0 -204.525 49.2387 0 -189.403 43.7992 0 -175.036 38.9125 0 -161.31 34.5334 0 -148.22 30.6233 0 -135.765 27.1437 0 -123.946 24.0563 0 -112.763 21.3223 0 -102.182 18.9038 0 -92.0085 16.7715 0 -82.2086 14.9053 0 -72.7826 13.2854 0 -63.7305 11.8919 0 -55.0522 10.705 0 -46.7404 9.70497 0 -38.6305 8.87623 0 -30.6554 8.2115 0 -22.8149 7.70446 0 -15.1092 7.34876 0 -7.53817 7.13807 0 -0.101843 7.06605 0 -0.587401 -100.967 0 32.5074 -100.423 0 64.9484 -98.8293 0 96.7357 -96.1454 0 127.869 -92.3315 0 158.349 -87.3475 0 188.175 -81.1534 0 217.093 -73.7066 0 244.481 -64.9432 0 270.309 -54.7885 0 294.497 -43.1643 0 316.73 -29.95 0 336.981 -14.994 0 355.144 1.85436 0 370.595 20.7115 0 383.23 41.6596 0 393.005 64.7796 0 399.443 90.1588 0 402.421 117.894 0 401.912 148.082 0 397.386 180.769 0 388.625 215.904 0 375.622 253.422 0 357.845 293.203 0 334.96 334.96 0 306.967 378.38 0 273.809 423.096 0 235.429 468.535 0 191.826 514.07 0 143.679 559.081 0 92.0696 602.99 0 37.0104 645.23 0 -20.7 685.257 0 -79.1099 722.696 0 -138.131 757.261 0 -197.553 788.655 0 -256.591 816.442 0 -315.169 840.087 0 -373.006 859.061 0 -428.417 873.056 0 -481.119 881.986 0 -531.081 885.775 0 -577.98 884.349 0 -621.728 877.638 0 -662.189 865.577 0 -696.375 848.514 0 -723.062 827.6 0 -742.3 804.08 0 -757.944 778.767 0 -772.416 751.281 0 -785.717 721.04 0 -794.413 687.787 0 -795.068 652.568 0 -787.684 616.753 0 -775.113 581.54 0 -761.898 547.106 0 -748.095 513.258 0 -733.013 479.838 0 -714.954 446.965 0 -693.842 414.908 0 -670.166 383.926 0 -645.759 354.192 0 -620.798 325.814 0 -595.327 298.897 0 -569.618 273.498 0 -543.717 249.63 0 -517.644 227.303 0 -491.63 206.505 0 -465.738 187.196 0 -439.988 169.331 0 -414.876 152.859 0 -390.606 137.716 0 -367.178 123.833 0 -344.59 111.142 0 -322.845 99.5754 0 -301.94 89.0661 0 -281.89 79.5458 0 -262.706 70.9457 0 -244.389 63.1969 0 -226.938 56.2303 0 -210.353 49.9769 0 -194.636 44.3676 0 -179.731 39.3356 0 -165.507 34.8314 0 -151.958 30.8149 0 -139.083 27.246 0 -126.884 24.0844 0 -115.36 21.2901 0 -104.476 18.8232 0 -94.0216 16.6531 0 -83.9616 14.7577 0 -74.2961 13.1157 0 -65.025 11.7056 0 -56.1485 10.506 0 -47.6586 9.49529 0 -39.3809 8.65708 0 -31.244 7.9843 0 -23.248 7.47101 0 -15.3928 7.11129 0 -7.67854 6.89919 0 -0.105103 6.82879 0 -0.553806 -122.42 0 33.5263 -121.92 0 66.9942 -120.459 0 99.85 -117.994 0 132.094 -114.483 0 163.725 -109.883 0 194.745 -104.149 0 224.911 -97.2355 0 253.634 -89.0556 0 280.888 -79.504 0 306.598 -68.4744 0 330.489 -55.8552 0 352.534 -41.5313 0 372.626 -25.3866 0 390.121 -7.28958 0 404.911 12.9067 0 416.95 35.3496 0 425.763 60.1738 0 431.222 87.4959 0 433.299 117.431 0 431.361 150.055 0 425.15 185.366 0 414.658 223.352 0 399.209 263.953 0 378.38 306.967 0 352.171 352.171 0 320.33 399.26 0 282.604 447.613 0 238.993 496.528 0 190.218 545.325 0 137.427 593.43 0 80.6334 640.313 0 20.6824 685.443 0 -40.3631 728.302 0 -102.409 768.377 0 -165.269 805.16 0 -228.236 838.182 0 -291.244 867.002 0 -353.994 891.176 0 -414.693 910.134 0 -473.043 923.187 0 -528.954 929.652 0 -581.505 929.565 0 -630.448 923.951 0 -675.661 913.903 0 -714.405 899.747 0 -745.559 880.32 0 -769.164 854.291 0 -788.24 821.576 0 -804.686 785.534 0 -818.5 750.116 0 -827.282 718.109 0 -828.629 687.661 0 -822.541 655.755 0 -811.257 619.984 0 -798.344 581.494 0 -783.848 542.713 0 -767.415 505.85 0 -748.183 471.135 0 -726.114 437.786 0 -701.59 405.066 0 -676.055 372.991 0 -649.646 342.113 0 -622.457 312.987 0 -595.037 285.829 0 -567.478 260.523 0 -539.803 236.939 0 -512.235 214.981 0 -484.834 194.594 0 -457.623 175.732 0 -431.112 158.338 0 -405.509 142.349 0 -380.814 127.699 0 -357.028 114.323 0 -334.15 102.154 0 -312.18 91.1271 0 -291.135 81.1742 0 -271.03 72.2178 0 -251.866 64.1782 0 -233.643 56.9759 0 -216.361 50.5311 0 -200.019 44.7641 0 -184.555 39.5979 0 -169.814 34.9789 0 -155.789 30.8653 0 -142.479 27.2155 0 -129.886 23.988 0 -118.008 21.1411 0 -106.809 18.6336 0 -96.0643 16.4332 0 -85.7364 14.516 0 -75.8253 12.8588 0 -66.3311 11.4383 0 -57.2538 10.2312 0 -48.5849 9.21433 0 -40.1386 8.36996 0 -31.8388 7.69157 0 -23.6855 7.17384 0 -15.6787 6.81143 0 -7.81835 6.59902 0 -0.104543 6.53129 0 -0.518155 -144.325 0 34.4516 -143.872 0 68.8537 -142.557 0 102.688 -140.333 0 135.955 -137.156 0 168.654 -132.979 0 200.785 -127.757 0 232.129 -121.438 0 262.15 -113.916 0 290.822 -105.057 0 318.067 -94.7309 0 343.589 -82.8353 0 367.358 -69.2914 0 389.278 -54.0179 0 408.772 -36.8701 0 425.745 -17.6401 0 440.145 3.88225 0 451.453 27.8751 0 459.53 54.4723 0 464.343 83.8043 0 465.189 115.976 0 461.781 151.041 0 454.108 189.049 0 441.379 230.007 0 423.096 273.809 0 399.26 320.33 0 369.344 369.344 0 332.824 420.235 0 289.698 472.284 0 240.768 524.798 0 187.303 577.218 0 129.322 629.031 0 67.6363 679.714 0 4.2324 728.613 0 -60.7993 775.011 0 -127.233 818.201 0 -194.221 857.594 0 -261.681 892.689 0 -329.384 922.973 0 -395.957 947.603 0 -461.17 965.413 0 -524.75 975.248 0 -583.849 977.194 0 -637.711 973.06 0 -686.338 964.768 0 -729.795 952.69 0 -768.11 934.196 0 -801.255 906.31 0 -827.157 868.389 0 -844.512 826.236 0 -853.322 786.756 0 -856.59 754.736 0 -857.319 726.482 0 -855.509 696.182 0 -850.169 659.129 0 -839.72 617.074 0 -824.141 574.105 0 -804.42 533.928 0 -782.968 496.886 0 -759.897 461.595 0 -735.205 426.746 0 -708.893 392.257 0 -680.961 358.931 0 -651.618 327.569 0 -622.107 298.49 0 -592.636 271.528 0 -563.219 246.496 0 -533.991 223.252 0 -504.988 201.717 0 -476.235 181.813 0 -448.244 163.468 0 -421.226 146.618 0 -395.181 131.199 0 -370.109 117.146 0 -346.012 104.391 0 -322.889 92.8662 0 -300.767 82.4988 0 -279.67 73.2027 0 -259.599 64.888 0 -240.553 57.4649 0 -222.534 50.8433 0 -205.54 44.9335 0 -189.497 39.6487 0 -174.22 34.9309 0 -159.702 30.7363 0 -145.942 27.0214 0 -132.94 23.7429 0 -120.697 20.8572 0 -109.172 18.3212 0 -98.1283 16.1007 0 -87.5255 14.1705 0 -77.3636 12.5057 0 -67.6428 11.0813 0 -58.363 9.87258 0 -49.5152 8.85455 0 -40.9004 8.00874 0 -32.4371 7.32883 0 -24.1254 6.80993 0 -15.9653 6.44716 0 -7.95672 6.23561 0 -0.0997209 6.1704 0 -0.480265 -166.088 0 35.2774 -165.685 0 70.5142 -164.524 0 105.23 -162.555 0 139.425 -159.731 0 173.099 -156.005 0 206.252 -151.329 0 238.69 -145.649 0 269.94 -138.854 0 299.981 -130.806 0 328.721 -121.367 0 355.821 -110.429 0 381.246 -97.9052 0 404.92 -83.7077 0 426.374 -67.6775 0 445.53 -49.5869 0 462.333 -29.2058 0 476.203 -6.33365 0 486.983 19.1895 0 494.641 47.5202 0 498.43 78.8009 0 498.043 113.146 0 493.471 150.666 0 483.821 191.435 0 468.535 235.429 0 447.613 282.604 0 420.235 332.824 0 385.582 385.582 0 343.656 440.279 0 295.307 496.319 0 241.892 553.128 0 183.428 610.143 0 120.665 666.784 0 55.4326 722.344 0 -12.1857 776.049 0 -81.9563 827.116 0 -153.001 874.63 0 -225.235 917.584 0 -298.488 954.965 0 -371.726 985.736 0 -444.777 1008.83 0 -517.16 1023.22 0 -583.859 1028.83 0 -643.537 1026.96 0 -696.327 1019.01 0 -745.136 1005.58 0 -791.152 985.695 0 -834.283 958.222 0 -867.401 923.236 0 -886.026 884.174 0 -890.158 845.05 0 -888.175 808.736 0 -888.451 773.553 0 -890.988 736.678 0 -891.616 695.869 0 -883.699 652.247 0 -867.152 608.153 0 -844.253 565.726 0 -820.575 525.34 0 -796.37 486.459 0 -771.289 448.58 0 -744.023 411.753 0 -714.446 376.423 0 -682.868 343.037 0 -651.136 311.819 0 -619.561 282.777 0 -588.153 255.903 0 -557.047 231.133 0 -526.277 208.321 0 -495.864 187.314 0 -466.291 167.988 0 -437.754 150.274 0 -410.253 134.107 0 -383.796 119.421 0 -358.388 106.134 0 -334.03 94.1643 0 -310.756 83.4255 0 -288.601 73.823 0 -267.566 65.2589 0 -247.651 57.6356 0 -228.856 50.8554 0 -211.181 44.8206 0 -194.536 39.4372 0 -178.704 34.6425 0 -163.676 30.3898 0 -149.451 26.6328 0 -136.029 23.3251 0 -123.41 20.4201 0 -111.552 17.8721 0 -100.203 15.6447 0 -89.32 13.7118 0 -78.9037 12.0476 0 -68.9538 10.6261 0 -59.4704 9.42169 0 -50.4437 8.40848 0 -41.6607 7.56726 0 -33.0342 6.89155 0 -24.5641 6.3763 0 -16.2505 6.01648 0 -8.09347 5.80705 0 -0.0928659 5.74296 0 -0.439928 -187.711 0 35.9988 -187.361 0 71.9651 -186.36 0 107.459 -184.659 0 142.48 -182.21 0 177.029 -178.962 0 211.106 -174.867 0 244.54 -169.87 0 276.916 -163.871 0 308.216 -156.75 0 338.344 -148.382 0 366.94 -138.635 0 393.97 -127.373 0 419.371 -114.456 0 442.761 -99.7115 0 464.077 -82.9336 0 483.258 -63.9146 0 499.689 -42.4525 0 513.206 -18.3526 0 523.774 8.579 0 530.625 38.5306 0 533.444 71.6794 0 532.219 108.201 0 525.967 148.237 0 514.07 191.826 0 496.528 238.993 0 472.284 289.698 0 440.279 343.656 0 400.514 400.514 0 353.789 459.887 0 301.377 521.162 0 243.295 583.647 0 180.257 646.653 0 114.014 709.495 0 44.6453 771.489 0 -27.7559 831.904 0 -102.835 889.29 0 -180.558 941.686 0 -260.666 987.153 0 -341.599 1024.53 0 -423.1 1053.45 0 -504.595 1073.56 0 -580.097 1084.46 0 -648.015 1085.65 0 -708.461 1076.64 0 -763.885 1058.41 0 -815.289 1034.82 0 -862.589 1010.03 0 -899.327 986.116 0 -921.442 959.348 0 -928.934 924.995 0 -929.702 880.111 0 -931.642 828.874 0 -934.755 777.245 0 -935.27 730.205 0 -927.184 687.013 0 -910.42 644.856 0 -887.13 601.245 0 -862.58 556.497 0 -837.008 512.377 0 -810.16 470.568 0 -781.081 431.477 0 -749.679 394.589 0 -716.241 359.388 0 -682.485 325.816 0 -648.699 294.27 0 -614.923 265.161 0 -581.581 238.623 0 -548.786 214.406 0 -516.555 192.235 0 -485.269 171.898 0 -455.083 153.316 0 -425.997 136.425 0 -398.038 121.148 0 -371.223 107.383 0 -345.552 95.0214 0 -321.063 83.9544 0 -297.794 74.0786 0 -275.746 65.2908 0 -254.918 57.4881 0 -235.31 50.5673 0 -216.923 44.4255 0 -199.652 38.9634 0 -183.244 34.1137 0 -167.688 29.8259 0 -152.983 26.0496 0 -139.13 22.7345 0 -126.129 19.83 0 -113.934 17.2863 0 -102.276 15.0651 0 -91.1109 13.1398 0 -80.4382 11.4844 0 -70.258 10.0727 0 -60.5702 8.8786 0 -51.3645 7.87609 0 -42.4136 7.04554 0 -33.6246 6.37974 0 -24.9974 5.87294 0 -16.5321 5.51939 0 -8.22855 5.31332 0 -0.086874 5.24897 0 -0.396936 -209.193 0 36.6108 -208.898 0 73.1959 -208.065 0 109.358 -206.647 0 145.098 -204.591 0 180.415 -201.848 0 215.309 -198.368 0 249.628 -194.098 0 282.996 -188.953 0 315.397 -182.835 0 346.747 -175.642 0 376.733 -167.215 0 405.325 -157.357 0 432.462 -145.869 0 457.771 -132.568 0 481.193 -117.282 0 502.669 -99.8417 0 521.604 -80.0508 0 537.84 -57.6781 0 551.341 -32.49 0 561.334 -4.25237 0 567.502 27.27 0 569.833 62.3122 0 567.251 101.077 0 559.081 143.679 0 545.325 190.218 0 524.798 240.768 0 496.319 295.307 0 459.887 353.789 0 416.09 416.09 0 365.865 481.623 0 309.225 549.634 0 246.913 619.375 0 180.752 690.152 0 110.826 761.294 0 36.8601 832.039 0 -42.1692 900.36 0 -126.361 963.317 0 -215.133 1018.01 0 -305.001 1063.09 0 -395.383 1098.72 0 -485.819 1125.11 0 -571.494 1141.55 0 -651.125 1146 0 -724.554 1136.39 0 -788.292 1114.09 0 -840.91 1087.24 0 -882.455 1064.75 0 -916.591 1050.49 0 -945.62 1034.45 0 -969.542 1004.24 0 -986.127 951.787 0 -993.145 886.365 0 -990.597 821.563 0 -980.972 768.644 0 -968.235 725.263 0 -952.438 684.145 0 -933.297 638.792 0 -910.128 589.497 0 -882.898 540.047 0 -852.153 494.049 0 -819.949 452.251 0 -786.482 413.338 0 -751.828 375.994 0 -716.438 339.911 0 -680.389 305.782 0 -643.788 274.34 0 -607.766 245.879 0 -572.622 220.091 0 -538.367 196.622 0 -505.2 175.207 0 -473.203 155.744 0 -442.378 138.149 0 -412.784 122.327 0 -384.461 108.139 0 -357.407 95.4376 0 -331.651 84.0854 0 -307.221 73.9695 0 -284.115 64.9838 0 -262.334 57.0223 0 -241.879 49.9791 0 -222.748 43.7482 0 -204.824 38.2272 0 -187.817 33.3445 0 -171.715 29.0445 0 -156.518 25.2719 0 -142.224 21.9711 0 -128.836 19.0867 0 -116.303 16.5638 0 -104.337 14.3619 0 -92.889 12.4546 0 -81.9597 10.8162 0 -71.5489 9.42099 0 -61.6564 8.24329 0 -52.2714 7.2574 0 -43.1531 6.44356 0 -34.2031 5.7934 0 -25.4212 5.29986 0 -16.8075 4.95589 0 -8.36195 4.75443 0 -0.0846413 4.68844 0 -0.351082 -230.535 0 37.1085 -230.296 0 74.1959 -229.64 0 110.911 -228.517 0 147.254 -226.875 0 183.225 -224.665 0 218.823 -221.835 0 253.909 -218.332 0 288.137 -214.077 0 321.492 -208.978 0 353.912 -202.936 0 385.171 -195.788 0 415.246 -187.32 0 444.069 -177.321 0 471.235 -165.602 0 496.677 -151.998 0 520.343 -136.346 0 541.701 -118.443 0 560.608 -98.0299 0 577.03 -74.8443 0 590.198 -48.6202 0 599.799 -19.0835 0 605.817 14.0408 0 607.119 51.0155 0 602.99 92.0696 0 593.43 137.427 0 577.218 187.303 0 553.128 241.892 0 521.162 301.377 0 481.623 365.865 0 434.996 434.996 0 381.289 508.242 0 321.194 585.034 0 256.408 664.453 0 187.009 745.401 0 112.268 826.688 0 29.4461 905.913 0 -61.7193 979.804 0 -160.253 1045.13 0 -260.305 1099.98 0 -360.9 1143.78 0 -461.696 1176.01 0 -559.112 1196.03 0 -652.197 1203.05 0 -740.477 1196.28 0 -813.547 1177.24 0 -867.151 1152.03 0 -901.488 1127.21 0 -932.129 1105.96 0 -968.857 1081.94 0 -1011.67 1047.19 0 -1046.58 996.588 0 -1059.57 936.343 0 -1050.66 875.489 0 -1029.54 821.546 0 -1011.68 773.193 0 -997.267 725.907 0 -983.19 675.677 0 -961.832 622.975 0 -932.846 570.582 0 -897.706 521.154 0 -861.954 475.378 0 -826.12 432.523 0 -790.052 391.851 0 -752.839 353.194 0 -714.329 316.954 0 -674.698 283.553 0 -635.765 253.153 0 -598.017 225.56 0 -561.455 200.551 0 -526.144 177.93 0 -492.112 157.553 0 -459.359 139.279 0 -427.983 122.957 0 -398.046 108.399 0 -369.547 95.4128 0 -342.483 83.8186 0 -316.851 73.4957 0 -292.65 64.3378 0 -269.881 56.2383 0 -248.543 49.0908 0 -228.637 42.7887 0 -210.03 37.2286 0 -192.401 32.3349 0 -175.735 28.0458 0 -160.031 24.2997 0 -145.29 21.035 0 -131.512 18.1903 0 -118.644 15.7047 0 -106.373 13.5351 0 -94.645 11.6561 0 -83.4608 10.0429 0 -72.8202 8.67107 0 -62.7233 7.51576 0 -53.1585 6.55241 0 -43.8733 5.76134 0 -34.7642 5.13252 0 -25.8312 4.65704 0 -17.0743 4.32597 0 -8.49364 4.13038 0 -0.089064 4.06136 0 -0.302157 -251.736 0 37.4871 -251.556 0 74.9547 -251.084 0 112.101 -250.27 0 148.925 -249.063 0 185.428 -247.412 0 221.609 -245.266 0 257.341 -242.573 0 292.311 -239.244 0 326.504 -235.175 0 359.881 -230.26 0 392.29 -224.347 0 423.717 -217.256 0 454.09 -208.803 0 482.983 -198.805 0 510.324 -187.074 0 536.07 -173.421 0 559.759 -157.621 0 581.27 -139.398 0 600.568 -118.473 0 616.894 -94.5611 0 629.94 -67.3682 0 639.69 -36.5992 0 645.022 -1.93484 0 645.23 37.0104 0 640.313 80.6334 0 629.031 129.322 0 610.143 183.428 0 583.647 243.295 0 549.634 309.225 0 508.242 381.289 0 459.474 459.474 0 403.684 543.63 0 341.739 632.4 0 273.676 723.809 0 198.441 815.838 0 112.062 905.924 0 14.1571 991.115 0 -94.0816 1068.46 0 -205.51 1135.17 0 -318.938 1188.61 0 -433.844 1226.23 0 -544.791 1247.87 0 -650.331 1256.74 0 -749.948 1256.27 0 -832.284 1247.93 0 -892.693 1229.28 0 -931.397 1197.47 0 -965.857 1152.39 0 -1007.04 1101.45 0 -1054.94 1053.39 0 -1094.45 1014.17 0 -1110.42 978.686 0 -1102.87 939.098 0 -1082.15 889.042 0 -1064.79 830.883 0 -1050.99 770.142 0 -1037.31 711.864 0 -1015.39 656.912 0 -984.834 603.995 0 -947.292 551.909 0 -908.942 500.875 0 -870.374 452.143 0 -831.455 406.946 0 -791.372 365.655 0 -749.989 327.781 0 -707.486 292.801 0 -665.738 260.449 0 -625.243 230.817 0 -586.007 204.021 0 -548.176 180.067 0 -511.807 158.744 0 -476.902 139.814 0 -443.582 123.038 0 -411.922 108.166 0 -381.922 94.9471 0 -353.52 83.1539 0 -326.656 72.6573 0 -301.329 63.3529 0 -277.539 55.1361 0 -255.287 47.9023 0 -234.571 41.5469 0 -215.25 35.9678 0 -196.972 31.085 0 -179.722 26.8295 0 -163.5 23.1328 0 -148.306 19.9262 0 -134.14 17.1408 0 -120.944 14.7089 0 -108.373 12.5847 0 -96.3699 10.7443 0 -84.934 9.16466 0 -74.0657 7.8229 0 -63.7649 6.69602 0 -54.0198 5.7611 0 -44.5681 4.99886 0 -35.3026 4.39711 0 -26.2234 3.94449 0 -17.3304 3.62963 0 -8.62358 3.44117 0 -0.103038 3.36773 0 -0.250159 -272.525 0 37.7421 -272.406 0 75.4629 -272.123 0 112.912 -271.625 0 150.09 -270.863 0 186.997 -269.787 0 223.632 -268.348 0 259.886 -266.49 0 295.491 -264.113 0 330.435 -261.093 0 364.685 -257.308 0 398.116 -252.63 0 430.718 -246.934 0 462.426 -240.091 0 492.856 -231.923 0 521.943 -222.206 0 549.648 -210.712 0 575.566 -197.189 0 599.59 -181.353 0 621.685 -162.917 0 641.105 -141.588 0 657.544 -117.056 0 670.992 -89.0084 0 680.44 -57.0718 0 685.257 -20.7 0 685.443 20.6824 0 679.714 67.6363 0 666.784 120.665 0 646.653 180.257 0 619.375 246.913 0 585.034 321.194 0 543.63 403.684 0 494.731 494.731 0 437.285 592.611 0 371.242 694.535 0 295.507 797.71 0 205.955 899.433 0 102.192 997.066 0 -14.7558 1087.92 0 -138.734 1168.09 0 -268.717 1232.46 0 -403.462 1275.99 0 -529.979 1299.07 0 -644.815 1309.65 0 -747.933 1316.17 0 -838.51 1320.17 0 -916.211 1309.78 0 -981.037 1271.6 0 -1033.07 1201.73 0 -1072.36 1122.52 0 -1098.91 1060.81 0 -1116.69 1034.6 0 -1129.68 1026.45 0 -1137.89 1010.08 0 -1139.89 963.994 0 -1133.46 894.681 0 -1118.54 818.76 0 -1096.24 751.286 0 -1069.16 693.565 0 -1037.43 639.827 0 -1001.42 584.622 0 -962.479 527.652 0 -920.749 472.334 0 -876.553 422.063 0 -831.86 377.813 0 -786.996 338.139 0 -742.039 301.51 0 -697.804 267.183 0 -654.506 235.51 0 -612.171 206.919 0 -571.356 181.607 0 -532.292 159.31 0 -494.979 139.711 0 -459.536 122.494 0 -426.038 107.34 0 -394.485 93.9298 0 -364.724 81.9807 0 -336.604 71.3532 0 -310.124 61.944 0 -285.285 53.65 0 -262.087 46.3678 0 -240.529 39.9943 0 -220.46 34.4281 0 -201.508 29.5848 0 -183.656 25.3889 0 -166.904 21.7646 0 -151.253 18.6364 0 -136.702 15.9286 0 -123.187 13.5669 0 -110.325 11.5029 0 -98.0536 9.7141 0 -86.3712 8.17947 0 -75.2784 6.87777 0 -64.775 5.78784 0 -54.849 4.8885 0 -45.2317 4.16093 0 -35.8133 3.59088 0 -26.5938 3.16459 0 -17.5732 2.86833 0 -8.75153 2.68835 0 -0.128743 2.61092 0 -0.196875 -292.239 0 37.8735 -292.181 0 75.7216 -292.082 0 113.347 -291.893 0 150.75 -291.567 0 187.931 -291.055 0 224.889 -290.308 0 261.538 -289.275 0 297.661 -287.851 0 333.251 -285.911 0 368.27 -283.328 0 402.584 -279.99 0 436.18 -275.793 0 469.011 -270.631 0 500.784 -264.332 0 531.451 -256.656 0 560.978 -247.359 0 588.995 -236.181 0 615.403 -222.842 0 640.169 -207.055 0 662.581 -188.512 0 682.348 -166.856 0 699.458 -141.722 0 713.082 -112.679 0 722.696 -79.1099 0 728.302 -40.3631 0 728.613 4.2324 0 722.344 55.4326 0 709.495 114.014 0 690.152 180.752 0 664.453 256.408 0 632.4 341.739 0 592.611 437.285 0 541.714 541.714 0 479.555 652.729 0 404.94 767.955 0 313.385 884.101 0 204.458 997.211 0 78.8679 1103.28 0 -59.1503 1197.33 0 -208.89 1273.46 0 -368.062 1325.83 0 -512.755 1354.58 0 -636.608 1368.13 0 -740.279 1375.44 0 -838.219 1379.38 0 -936.342 1371.01 0 -1034.35 1340 0 -1108.75 1283.22 0 -1144.8 1217.3 0 -1142.5 1162.24 0 -1131.26 1131.4 0 -1140.49 1111.56 0 -1170.2 1082.79 0 -1203.05 1028.95 0 -1211.45 955.659 0 -1195.06 876.433 0 -1161.1 803.553 0 -1127.24 738.447 0 -1094.29 676.954 0 -1060.86 615.154 0 -1021.69 553.042 0 -976.295 493.434 0 -925.613 439.123 0 -875.322 390.933 0 -826.366 347.724 0 -778.693 308.28 0 -731.759 271.934 0 -685.419 238.78 0 -639.719 208.968 0 -595.653 182.524 0 -553.627 159.236 0 -513.644 138.866 0 -475.863 121.139 0 -440.382 105.679 0 -407.201 92.0906 0 -376.044 80.0288 0 -346.633 69.3362 0 -318.969 59.903 0 -293.051 51.6192 0 -268.88 44.3752 0 -246.455 38.0611 0 -225.616 32.5692 0 -205.973 27.8107 0 -187.508 23.7066 0 -170.221 20.1779 0 -154.112 17.1457 0 -139.18 14.5309 0 -125.356 12.2558 0 -112.212 10.2705 0 -99.6795 8.55312 0 -87.757 7.08281 0 -76.4448 5.83883 0 -65.7429 4.80042 0 -55.639 3.94682 0 -45.86 3.25928 0 -36.2941 2.72287 0 -26.9414 2.32312 0 -17.8018 2.04557 0 -8.8754 1.87573 0 -0.162122 1.79914 0 -0.145014 -310.848 0 37.8838 -310.852 0 75.7371 -310.932 0 113.415 -311.044 0 150.917 -311.142 0 188.244 -311.181 0 225.395 -311.114 0 262.304 -310.892 0 298.808 -310.422 0 334.899 -309.592 0 370.539 -308.288 0 405.58 -306.397 0 440.008 -303.806 0 473.793 -300.399 0 506.743 -296.003 0 538.827 -290.388 0 570.014 -283.321 0 599.961 -274.555 0 628.578 -263.817 0 655.838 -250.835 0 681.112 -235.279 0 704.146 -216.709 0 724.93 -194.672 0 742.778 -168.679 0 757.261 -138.131 0 768.377 -102.409 0 775.011 -60.7993 0 776.049 -12.1857 0 771.489 44.6453 0 761.294 110.826 0 745.401 187.009 0 723.809 273.676 0 694.535 371.242 0 652.729 479.555 0 598.171 598.171 0 528.913 726.376 0 437.63 859.82 0 323.621 991.53 0 187.563 1114.52 0 33.5252 1222.83 0 -137.815 1311.52 0 -323.264 1375.78 0 -489.458 1414.64 0 -627.524 1432.48 0 -738.434 1434.06 0 -843.576 1424.9 0 -951.701 1411.93 0 -1062.44 1402.24 0 -1147.13 1398.2 0 -1187.77 1389.08 0 -1184.36 1361.89 0 -1172.09 1307.93 0 -1186.15 1235.45 0 -1226.54 1156.98 0 -1271.48 1083.12 0 -1286.31 1013.41 0 -1270.58 943.372 0 -1233.34 869.103 0 -1196.72 791.809 0 -1161.71 715.323 0 -1126.53 643.316 0 -1084.44 576.923 0 -1034.8 515.456 0 -978.777 458.212 0 -923.396 405.075 0 -869.831 356.524 0 -818.013 313.048 0 -767.229 274.637 0 -717.29 240.59 0 -668.236 210.154 0 -620.981 182.815 0 -575.899 158.522 0 -532.994 137.276 0 -492.609 118.966 0 -454.958 103.172 0 -420.041 89.4171 0 -387.423 77.2859 0 -356.668 66.5952 0 -327.776 57.2203 0 -300.746 49.0366 0 -275.58 41.9195 0 -252.277 35.7441 0 -230.666 30.3892 0 -210.331 25.7614 0 -191.253 21.7819 0 -173.432 18.3721 0 -156.868 15.4531 0 -141.561 12.9464 0 -127.433 10.7743 0 -114.015 8.88678 0 -101.228 7.26075 0 -89.0722 5.87449 0 -77.5483 4.70622 0 -66.6558 3.73418 0 -56.3823 2.93662 0 -46.4497 2.29442 0 -36.7444 1.7935 0 -27.2664 1.42036 0 -18.0156 1.16152 0 -8.99212 1.00349 0 -0.195904 0.932774 0 -0.0972935 -328.353 0 37.7751 -328.418 0 75.516 -328.673 0 113.125 -329.078 0 150.603 -329.589 0 187.949 -330.166 0 225.163 -330.764 0 262.195 -331.34 0 298.921 -331.82 0 335.334 -332.115 0 371.402 -332.136 0 406.999 -331.761 0 442.115 -330.842 0 476.727 -329.233 0 510.712 -326.76 0 544.048 -323.221 0 576.708 -318.414 0 608.383 -312.113 0 638.993 -304.064 0 668.517 -294.008 0 696.495 -281.592 0 722.739 -266.286 0 747.24 -247.537 0 769.348 -224.802 0 788.655 -197.553 0 805.16 -165.269 0 818.201 -127.233 0 827.116 -81.9563 0 831.904 -27.7559 0 832.039 36.8601 0 826.688 112.268 0 815.838 198.441 0 797.71 295.507 0 767.955 404.94 0 726.376 528.913 0 669.079 669.079 0 581.422 820.013 0 462.004 971.189 0 312.144 1112.11 0 139.757 1235.72 0 -53.8389 1338.38 0 -265.079 1416.6 0 -456.744 1467.95 0 -618.935 1491.41 0 -752.045 1486.17 0 -864.721 1461.02 0 -960.497 1443.56 0 -1039.45 1463.47 0 -1107.64 1530.13 0 -1168.84 1596.81 0 -1223.08 1607.17 0 -1268.84 1523.47 0 -1304.63 1382.4 0 -1330.45 1239.27 0 -1345.23 1140.03 0 -1347.29 1076.11 0 -1336.61 1019.19 0 -1314.48 943.957 0 -1284.03 851.368 0 -1245.4 755.928 0 -1199.39 671.426 0 -1148.97 600.494 0 -1094.4 537.719 0 -1036.22 477.686 0 -977.556 418.987 0 -918.937 364.223 0 -860.514 316.13 0 -803.894 275.582 0 -749.504 240.869 0 -697.337 210.101 0 -647.243 182.065 0 -599.161 156.879 0 -553.1 134.81 0 -509.813 115.937 0 -469.772 99.8144 0 -432.977 85.9094 0 -398.805 73.752 0 -366.632 63.1302 0 -336.457 53.8962 0 -308.28 45.9022 0 -282.102 39.0005 0 -257.923 33.0434 0 -235.555 27.8882 0 -214.542 23.437 0 -194.862 19.6149 0 -176.517 16.347 0 -159.506 13.5587 0 -143.829 11.1751 0 -129.401 9.12261 0 -115.712 7.35164 0 -102.678 5.837 0 -90.2979 4.55449 0 -78.5723 3.47992 0 -67.501 2.58912 0 -57.0712 1.85791 0 -46.9975 1.26637 0 -37.1635 0.802761 0 -27.569 0.456296 0 -18.214 0.216178 0 -9.09863 0.0716169 0 -0.222796 0.0118187 0 -0.0564287 -344.752 0 37.5499 -344.878 0 75.0647 -345.305 0 112.488 -345.994 0 149.82 -346.908 0 187.06 -348.009 0 224.208 -349.259 0 261.225 -350.618 0 298.014 -352.025 0 334.571 -353.405 0 370.875 -354.682 0 406.859 -355.734 0 442.515 -356.401 0 477.826 -356.527 0 512.695 -355.943 0 547.105 -354.471 0 581.031 -351.935 0 614.218 -348.122 0 646.598 -342.776 0 678.158 -335.634 0 708.653 -326.34 0 737.979 -314.351 0 766.128 -299.101 0 792.424 -280.03 0 816.442 -256.591 0 838.182 -228.236 0 857.594 -194.221 0 874.63 -153.001 0 889.29 -102.835 0 900.36 -42.1692 0 905.913 29.4461 0 905.924 112.062 0 899.433 205.955 0 884.101 313.385 0 859.82 437.63 0 820.013 581.422 0 739.952 739.952 0 617.269 902.977 0 454.017 1060.19 0 262.518 1202.69 0 44.8259 1322.93 0 -195.087 1413.58 0 -415.739 1472.07 0 -606.098 1502.54 0 -765.67 1509.65 0 -883.601 1503.93 0 -955.45 1507.33 0 -981.978 1543.06 0 -1022.44 1616.86 0 -1114.05 1686.2 0 -1256.81 1700.26 0 -1391.68 1624.98 0 -1459.61 1493.23 0 -1460.6 1354.62 0 -1426.41 1250.56 0 -1407.6 1174.48 0 -1404.83 1102.44 0 -1406.97 1013.16 0 -1386.82 908.551 0 -1343.13 802.499 0 -1280.86 708.198 0 -1218.55 628.257 0 -1157.98 557.657 0 -1098.59 491.363 0 -1036.99 427.959 0 -972.616 369.641 0 -905.964 318.726 0 -842.16 275.858 0 -782.57 239.361 0 -727.118 207.395 0 -674.152 178.713 0 -622.996 153.228 0 -573.666 130.984 0 -527.348 111.906 0 -484.786 95.5885 0 -445.981 81.5674 0 -410.134 69.4272 0 -376.449 58.9412 0 -344.925 49.9304 0 -315.563 42.2159 0 -288.361 35.6183 0 -263.321 29.9588 0 -240.229 25.0661 0 -218.566 20.8375 0 -198.309 17.2055 0 -179.457 14.1029 0 -162.01 11.4625 0 -145.968 9.2172 0 -131.242 7.3006 0 -117.286 5.66511 0 -104.01 4.28186 0 -91.4149 3.12282 0 -79.5 2.15996 0 -68.2656 1.36524 0 -57.698 0.710675 0 -47.5002 0.175119 0 -37.5507 -0.249335 0 -27.8494 -0.569066 0 -18.3965 -0.790456 0 -9.19186 -0.919882 0 -0.235501 -0.963726 0 -0.0251364 -360.046 0 37.2104 -360.234 0 74.3897 -360.827 0 111.513 -361.793 0 148.579 -363.098 0 185.59 -364.711 0 222.544 -366.599 0 259.412 -368.726 0 296.121 -371.035 0 332.669 -373.453 0 369.053 -375.907 0 405.263 -378.283 0 441.299 -380.437 0 477.145 -382.222 0 512.716 -383.488 0 547.996 -384.073 0 582.968 -383.818 0 617.45 -382.51 0 651.395 -379.873 0 684.8 -375.624 0 717.595 -369.417 0 749.753 -360.785 0 781.266 -349.246 0 811.509 -334.268 0 840.087 -315.169 0 867.002 -291.244 0 892.689 -261.681 0 917.584 -225.235 0 941.686 -180.558 0 963.317 -126.361 0 979.804 -61.7193 0 991.115 14.1571 0 997.066 102.192 0 997.211 204.458 0 991.53 323.621 0 971.189 462.004 0 902.977 617.269 0 783.712 783.712 0 615.015 955.318 0 406.592 1120.52 0 160.063 1262.21 0 -118.882 1363.39 0 -370.793 1422.94 0 -579.861 1461.79 0 -745.78 1502.4 0 -861.847 1555.18 0 -925.321 1607.21 0 -937.209 1642.88 0 -976.147 1652.46 0 -1091.54 1642.47 0 -1283.38 1622.23 0 -1467.86 1597.81 0 -1561.17 1562.26 0 -1563.31 1505.43 0 -1518.63 1419.59 0 -1497.71 1311.47 0 -1501.47 1192.99 0 -1513.99 1075.28 0 -1496.4 962.535 0 -1446.94 855.392 0 -1372.66 754.464 0 -1300.12 660.643 0 -1231.85 575.022 0 -1166.88 498.652 0 -1099.23 431.543 0 -1027.92 372.665 0 -953.593 320.949 0 -882.957 275.569 0 -817.8 236.04 0 -758.016 201.901 0 -701.283 172.608 0 -646.651 147.463 0 -594.136 125.75 0 -544.972 106.861 0 -499.934 90.4923 0 -459.022 76.3912 0 -421.353 64.3113 0 -386.044 54.0281 0 -353.093 45.3231 0 -322.503 37.9777 0 -294.271 31.773 0 -268.399 26.4905 0 -244.636 21.923 0 -222.367 17.9629 0 -201.566 14.5537 0 -182.231 11.6395 0 -164.364 9.16444 0 -147.964 7.07253 0 -132.937 5.30832 0 -118.715 3.82718 0 -105.204 2.59533 0 -92.4041 1.57948 0 -80.3149 0.746317 0 -68.9367 0.062538 0 -58.2551 -0.505075 0 -47.9543 -0.979327 0 -37.9053 -1.36279 0 -28.108 -1.65573 0 -18.5625 -1.85838 0 -9.26875 -1.97101 0 -0.226723 -1.99386 0 -0.00598032 -374.187 0 36.7592 -374.435 0 73.4977 -375.189 0 110.21 -376.422 0 146.895 -378.106 0 183.553 -380.215 0 220.185 -382.723 0 256.773 -385.599 0 293.276 -388.78 0 329.692 -392.189 0 366.028 -395.744 0 402.316 -399.349 0 438.557 -402.894 0 474.74 -406.268 0 510.799 -409.341 0 546.723 -411.961 0 582.503 -413.978 0 618.066 -415.172 0 653.392 -415.238 0 688.48 -413.862 0 723.333 -410.724 0 757.953 -405.497 0 792.335 -397.851 0 826.114 -387.312 0 859.061 -373.006 0 891.176 -353.994 0 922.973 -329.384 0 954.965 -298.488 0 987.153 -260.666 0 1018.01 -215.133 0 1045.13 -160.253 0 1068.46 -94.0816 0 1087.92 -14.7558 0 1103.28 78.8679 0 1114.52 187.563 0 1112.11 312.144 0 1060.19 454.017 0 955.318 615.015 0 796.318 796.318 0 576.152 983.853 0 293.647 1148.29 0 -41.2924 1260.31 0 -325.197 1321.27 0 -530.548 1375.04 0 -659.611 1468.32 0 -762.182 1609.54 0 -858.635 1732.76 0 -949.157 1763.58 0 -1048.39 1669.35 0 -1165.55 1532.85 0 -1300.62 1456.63 0 -1428.58 1509.02 0 -1524.44 1621.51 0 -1588.17 1691.42 0 -1625.82 1635.03 0 -1646.97 1479.66 0 -1651.75 1292.81 0 -1638.79 1135.81 0 -1604.72 1015.92 0 -1549.38 912.569 0 -1476.54 806.243 0 -1400.31 695.005 0 -1322.05 589.583 0 -1242.03 500.62 0 -1161.94 430.411 0 -1082.03 372.898 0 -1002.65 321.732 0 -927.153 273.82 0 -856.427 230.584 0 -790.432 193.771 0 -728.216 164.001 0 -669.392 139.704 0 -613.965 119.059 0 -562.442 100.688 0 -515.143 84.4295 0 -472.066 70.3316 0 -432.401 58.3906 0 -395.337 48.396 0 -360.874 40.0854 0 -329.011 33.1964 0 -299.748 27.4666 0 -273.086 22.6336 0 -248.72 18.4506 0 -225.904 14.8053 0 -204.604 11.6549 0 -184.82 8.95725 0 -166.552 6.66997 0 -149.801 4.75084 0 -134.469 3.15767 0 -119.981 1.84969 0 -106.24 0.787549 0 -93.2469 -0.0680378 0 -81.0008 -0.756358 0 -69.502 -1.3167 0 -58.7349 -1.78823 0 -48.3566 -2.19555 0 -38.2265 -2.53497 0 -28.3448 -2.79958 0 -18.7114 -2.98243 0 -9.32636 -3.07659 0 -0.189635 -3.07513 0 0.00199082 -386.878 0 36.2019 -387.181 0 72.3994 -388.085 0 108.594 -389.568 0 144.787 -391.606 0 180.976 -394.18 0 217.164 -397.267 0 253.347 -400.841 0 289.525 -404.839 0 325.696 -409.18 0 361.872 -413.783 0 398.092 -418.567 0 434.359 -423.453 0 470.67 -428.358 0 506.999 -433.169 0 543.343 -437.737 0 579.705 -441.909 0 616.127 -445.478 0 652.62 -448.156 0 689.184 -449.651 0 725.811 -449.675 0 762.499 -447.943 0 799.249 -444.176 0 836.094 -437.944 0 873.056 -428.417 0 910.134 -414.693 0 947.603 -395.957 0 985.736 -371.726 0 1024.53 -341.599 0 1063.09 -305.001 0 1099.98 -260.305 0 1135.17 -205.51 0 1168.09 -138.734 0 1197.33 -59.1503 0 1222.83 33.5252 0 1235.72 139.757 0 1202.69 262.518 0 1120.52 406.592 0 983.853 576.152 0 760.412 760.412 0 444.821 933.626 0 52.4413 1070.01 0 -256.288 1171.29 0 -438.696 1277.42 0 -501.11 1430.83 0 -582.74 1635.6 0 -740.533 1821.32 0 -973.167 1909.07 0 -1177.47 1862.2 0 -1288.63 1760.75 0 -1306.64 1704.79 0 -1317.51 1761.05 0 -1407.24 1863.05 0 -1575.85 1911 0 -1758.1 1824.32 0 -1850.22 1634.55 0 -1850.87 1413.84 0 -1786.38 1227.77 0 -1721.16 1084.3 0 -1658.12 961.79 0 -1594.09 839.643 0 -1517.16 715.46 0 -1426.18 599.937 0 -1323.84 503.68 0 -1226.26 428.61 0 -1136.15 367.961 0 -1053.16 314.67 0 -973.865 265.225 0 -897.349 221.05 0 -823.695 183.922 0 -754.727 154.394 0 -691.189 130.653 0 -633.073 110.611 0 -579.573 92.7059 0 -530.183 76.822 0 -484.903 63.0932 0 -443.116 51.5827 0 -404.207 42.0748 0 -368.173 34.2841 0 -335.017 27.9249 0 -304.737 22.7117 0 -277.333 18.359 0 -252.434 14.5989 0 -229.13 11.3179 0 -207.38 8.48199 0 -187.183 6.05768 0 -168.539 4.01158 0 -151.449 2.31027 0 -135.817 0.92017 0 -121.068 -0.196305 0 -107.108 -1.08071 0 -93.9357 -1.77477 0 -81.5518 -2.32022 0 -69.956 -2.7588 0 -59.1314 -3.13209 0 -48.7001 -3.465 0 -38.5078 -3.75002 0 -28.5544 -3.97595 0 -18.8401 -4.13154 0 -9.36463 -4.20558 0 -0.128152 -4.18684 0 0.00324324 -398.071 0 35.5476 -398.422 0 71.1093 -399.464 0 106.688 -401.178 0 142.285 -403.546 0 177.898 -406.549 0 213.529 -410.171 0 249.194 -414.387 0 284.929 -419.142 0 320.739 -424.357 0 356.63 -429.957 0 392.634 -435.877 0 428.754 -442.058 0 464.995 -448.442 0 501.399 -454.919 0 537.97 -461.334 0 574.721 -467.528 0 611.768 -473.321 0 649.141 -478.507 0 686.843 -482.876 0 724.905 -486.17 0 763.342 -488.032 0 802.156 -488.097 0 841.643 -485.962 0 881.986 -481.119 0 923.187 -473.043 0 965.413 -461.17 0 1008.83 -444.777 0 1053.45 -423.1 0 1098.72 -395.383 0 1143.78 -360.9 0 1188.61 -318.938 0 1232.46 -268.717 0 1273.46 -208.89 0 1311.52 -137.815 0 1338.38 -53.8389 0 1322.93 44.8259 0 1262.21 160.063 0 1148.29 293.647 0 933.626 444.821 0 610.298 610.298 0 196.669 786.74 0 -115.45 973.713 0 -275.047 1174.8 0 -290.938 1393.83 0 -357.064 1628.14 0 -552.767 1862.45 0 -875.917 2080.02 0 -1160.34 2263.44 0 -1301.64 2393.4 0 -1299.83 2450.26 0 -1290.72 2420.97 0 -1410.13 2318.88 0 -1658.08 2163.92 0 -1931.81 1975.38 0 -2067.79 1768.73 0 -2063.93 1558.07 0 -1963.55 1356.64 0 -1872.6 1170.29 0 -1795.87 1001.01 0 -1726.71 850.681 0 -1640.02 719.362 0 -1533.38 605.852 0 -1410.87 508.9 0 -1296.88 426.814 0 -1195.46 357.459 0 -1105.89 298.694 0 -1020.47 248.888 0 -937.138 207.116 0 -856.069 172.505 0 -780.781 144.039 0 -712.713 120.429 0 -651.843 100.356 0 -596.233 82.801 0 -544.669 67.5736 0 -497.15 54.6268 0 -453.235 43.8736 0 -412.484 35.0695 0 -374.896 27.9303 0 -340.471 22.172 0 -309.21 17.5105 0 -281.113 13.6618 0 -255.735 10.3597 0 -231.991 7.49292 0 -209.833 5.03026 0 -189.259 2.94106 0 -170.27 1.1947 0 -152.867 -0.239468 0 -136.953 -1.39226 0 -121.964 -2.29897 0 -107.804 -2.99931 0 -94.4738 -3.53323 0 -81.9726 -3.94064 0 -70.3008 -4.26148 0 -59.4396 -4.53554 0 -48.9748 -4.78625 0 -38.7371 -5.0053 0 -28.7265 -5.18073 0 -18.9429 -5.30055 0 -9.38638 -5.35281 0 -0.0569378 -5.32553 0 0.00239596 -407.765 0 34.8054 -408.158 0 69.6426 -409.326 0 104.514 -411.253 0 139.419 -413.924 0 174.359 -417.323 0 209.332 -421.434 0 244.371 -426.239 0 279.551 -431.687 0 314.875 -437.716 0 350.348 -444.262 0 385.986 -451.272 0 421.789 -458.7 0 457.78 -466.501 0 494.083 -474.565 0 530.72 -482.726 0 567.7 -490.811 0 605.123 -498.689 0 643.017 -506.279 0 681.391 -513.502 0 720.496 -520.132 0 760.436 -525.65 0 801.211 -529.505 0 842.961 -531.303 0 885.775 -531.081 0 929.652 -528.954 0 975.248 -524.75 0 1023.22 -517.16 0 1073.56 -504.595 0 1125.11 -485.819 0 1176.01 -461.696 0 1226.23 -433.844 0 1275.99 -403.462 0 1325.83 -368.062 0 1375.78 -323.264 0 1416.6 -265.079 0 1413.58 -195.087 0 1363.39 -118.882 0 1260.31 -41.2924 0 1070.01 52.4413 0 786.74 196.669 0 425.736 425.736 0 145.929 735.189 0 -10.4102 1066.74 0 -49.9286 1358.55 0 -118.843 1599.14 0 -276.968 1874.85 0 -523.468 2283.14 0 -793.078 2843.75 0 -1044.8 3361.6 0 -1278.63 3604.85 0 -1505.08 3418.93 0 -1734.66 2958.42 0 -1967.39 2455.17 0 -2163.57 2104.78 0 -2260.06 1891.24 0 -2256.04 1721.95 0 -2177.15 1513.89 0 -2086 1268.4 0 -1985.45 1030.29 0 -1875.8 841.929 0 -1758.2 708.033 0 -1632.75 606.153 0 -1501.7 513.874 0 -1378.43 423.319 0 -1265.18 341.142 0 -1161.61 274.518 0 -1064.3 225.472 0 -972.342 188.884 0 -885.807 159.122 0 -806.348 132.427 0 -734.64 108.667 0 -670.657 88.1296 0 -612.288 70.9247 0 -558.208 56.6782 0 -508.418 44.9325 0 -462.49 35.2635 0 -419.999 27.38 0 -380.944 21.024 0 -345.326 15.9376 0 -313.144 11.863 0 -284.399 8.54212 0 -258.578 5.73292 0 -234.431 3.3303 0 -211.901 1.29976 0 -190.988 -0.392597 0 -171.691 -1.78068 0 -154.011 -2.89839 0 -137.854 -3.77963 0 -122.658 -4.45829 0 -108.328 -4.96826 0 -94.865 -5.34341 0 -82.2684 -5.61761 0 -70.5385 -5.82474 0 -59.6549 -5.99858 0 -49.1704 -6.15931 0 -38.9022 -6.30082 0 -28.8501 -6.41392 0 -19.0142 -6.48946 0 -9.39458 -6.51827 0 0.00888004 -6.4912 0 0.00406802 -415.961 0 33.9845 -416.389 0 68.0139 -417.671 0 102.092 -419.793 0 136.22 -422.741 0 170.396 -426.501 0 204.622 -431.057 0 238.939 -436.394 0 273.453 -442.473 0 308.167 -449.248 0 343.084 -456.669 0 378.21 -464.691 0 413.546 -473.269 0 449.127 -482.356 0 485.169 -491.857 0 521.706 -501.627 0 558.741 -511.524 0 596.29 -521.443 0 634.355 -531.341 0 672.965 -541.175 0 712.719 -550.758 0 753.862 -559.615 0 796.389 -567.241 0 839.957 -573.308 0 884.349 -577.98 0 929.565 -581.505 0 977.194 -583.849 0 1028.83 -583.859 0 1084.46 -580.097 0 1141.55 -571.494 0 1196.03 -559.112 0 1247.87 -544.791 0 1299.07 -529.979 0 1354.58 -512.755 0 1414.64 -489.458 0 1467.95 -456.744 0 1472.07 -415.739 0 1422.94 -370.793 0 1321.27 -325.197 0 1171.29 -256.288 0 973.713 -115.45 0 735.189 145.929 0 525.21 525.21 0 362.258 948.635 0 245.698 1337.7 0 161.571 1673.65 0 104.165 2053.78 0 71.2653 2588.58 0 -109.987 3296.62 0 -548.183 3942.52 0 -1243.32 4247.41 0 -1931.11 4025.38 0 -2347.26 3462.28 0 -2491.77 2836.93 0 -2471.72 2385.65 0 -2457.57 2096.71 0 -2451.51 1868.58 0 -2434.23 1610.12 0 -2358.58 1321.53 0 -2222.41 1050.04 0 -2041.34 840.238 0 -1874.05 695.297 0 -1726.15 588.566 0 -1595.41 493.467 0 -1468.28 400.336 0 -1342.5 316.423 0 -1218.83 249.583 0 -1104.99 201.894 0 -1003.05 167.409 0 -912.851 139.614 0 -831.116 114.271 0 -756.493 91.5723 0 -688.967 72.2163 0 -627.186 56.5688 0 -570.302 44.0721 0 -518.315 34.0103 0 -470.612 25.7523 0 -426.581 19.0064 0 -386.22 13.5652 0 -349.53 9.22183 0 -316.512 5.76908 0 -287.164 2.99988 0 -260.92 0.718635 0 -236.395 -1.16994 0 -213.524 -2.70951 0 -192.308 -3.9433 0 -172.746 -4.91455 0 -154.84 -5.66649 0 -138.494 -6.24193 0 -123.138 -6.67429 0 -108.678 -6.98756 0 -95.1131 -7.20531 0 -82.4444 -7.35112 0 -70.6713 -7.44859 0 -59.7726 -7.52121 0 -49.2767 -7.58418 0 -38.9907 -7.63656 0 -28.9146 -7.67552 0 -19.0484 -7.69827 0 -9.39216 -7.70198 0 0.0541721 -7.68385 0 0.0128784 -422.659 0 33.0939 -423.114 0 66.2383 -424.499 0 99.4459 -426.798 0 132.717 -429.998 0 166.051 -434.083 0 199.449 -439.04 0 232.959 -444.853 0 266.704 -451.499 0 300.688 -458.947 0 334.915 -467.17 0 369.402 -476.119 0 404.15 -485.735 0 439.202 -495.959 0 474.818 -506.725 0 511.043 -517.964 0 547.874 -529.604 0 585.304 -541.548 0 623.329 -553.659 0 661.985 -565.801 0 702.059 -577.833 0 743.873 -589.612 0 787.42 -600.998 0 832.128 -611.804 0 877.638 -621.728 0 923.951 -630.448 0 973.06 -637.711 0 1026.96 -643.537 0 1085.65 -648.015 0 1146 -651.125 0 1203.05 -652.197 0 1256.74 -650.331 0 1309.65 -644.815 0 1368.13 -636.608 0 1432.48 -627.524 0 1491.41 -618.935 0 1502.54 -606.098 0 1461.79 -579.861 0 1375.04 -530.548 0 1277.42 -438.696 0 1174.8 -275.047 0 1066.74 -10.4102 0 948.635 362.258 0 819.267 819.267 0 681.634 1334.68 0 601.699 1884.96 0 606.447 2451.19 0 691.608 3014.99 0 524.085 3540.55 0 -105.376 3943.93 0 -1196.77 4132.98 0 -2280.79 4046.28 0 -2888.1 3745.51 0 -3018.71 3323.08 0 -2876.99 2864.03 0 -2788.27 2410.29 0 -2756.72 1988.14 0 -2742.14 1621.59 0 -2646.24 1314.49 0 -2464.58 1060.4 0 -2221.41 852.75 0 -2008.03 684.83 0 -1833.19 549.827 0 -1691.82 440.994 0 -1553.63 353.135 0 -1413.57 282.612 0 -1272.94 225.868 0 -1145.3 179.993 0 -1034.25 142.975 0 -939.49 112.874 0 -854.379 88.1649 0 -776.197 68.134 0 -704.935 52.16 0 -639.805 39.5981 0 -580.311 29.7385 0 -526.453 21.8601 0 -477.335 15.3401 0 -432.06 9.94859 0 -390.627 5.55398 0 -353.036 2.02461 0 -319.288 -0.771138 0 -289.383 -2.9649 0 -262.719 -4.68319 0 -237.826 -6.0078 0 -214.64 -6.99755 0 -193.158 -7.71105 0 -173.381 -8.20692 0 -155.31 -8.54376 0 -138.845 -8.77916 0 -123.392 -8.94695 0 -108.851 -9.0572 0 -95.2219 -9.11893 0 -82.5055 -9.14119 0 -70.7015 -9.13301 0 -59.788 -9.10343 0 -49.2833 -9.06086 0 -38.9903 -9.01253 0 -28.9092 -8.96554 0 -19.0397 -8.92697 0 -9.38208 -8.90392 0 0.0638095 -8.90348 0 0.0334196 -427.863 0 32.1429 -428.34 0 64.3305 -429.815 0 96.5963 -432.272 0 128.94 -435.697 0 161.362 -440.074 0 193.863 -445.387 0 226.491 -451.621 0 259.372 -458.767 0 292.51 -466.819 0 325.92 -475.766 0 359.657 -485.554 0 393.729 -496.097 0 428.169 -507.312 0 463.195 -519.178 0 498.841 -531.743 0 535.124 -545.051 0 572.201 -558.986 0 610.115 -573.209 0 648.889 -587.365 0 689.028 -601.373 0 730.738 -615.678 0 774.019 -630.786 0 818.949 -646.723 0 865.577 -662.189 0 913.903 -675.661 0 964.768 -686.338 0 1019.01 -696.327 0 1076.64 -708.461 0 1136.39 -724.554 0 1196.28 -740.477 0 1256.27 -749.948 0 1316.17 -747.933 0 1375.44 -740.279 0 1434.06 -738.434 0 1486.17 -752.045 0 1509.65 -765.67 0 1502.4 -745.78 0 1468.32 -659.611 0 1430.83 -501.11 0 1393.83 -290.938 0 1358.55 -49.9286 0 1337.7 245.698 0 1334.68 681.634 0 1347.19 1347.19 0 1324.5 2217.43 0 1245.88 3045.61 0 1108.91 3559.65 0 724.615 3621.7 0 -25.6948 3464.69 0 -1142.02 3385.05 0 -2250.69 3580.58 0 -2977.99 3854.4 0 -3323.94 3911.01 0 -3400.57 3518.5 0 -3386.21 2816.44 0 -3283.14 2078.85 0 -3108.15 1552.83 0 -2902.26 1249.52 0 -2667.33 1058.6 0 -2413.92 874.709 0 -2181.72 673.731 0 -1974.53 490.101 0 -1790.77 358.258 0 -1621.05 283.042 0 -1463.81 239.694 0 -1319.15 202.463 0 -1188.19 158.972 0 -1071.25 115.404 0 -968.152 79.278 0 -875.405 54.6375 0 -791.575 38.7714 0 -716.643 28.194 0 -648.986 20.1244 0 -587.586 13.7292 0 -532.443 8.50867 0 -482.392 4.04066 0 -436.266 0.214255 0 -394.068 -3.00373 0 -355.795 -5.64646 0 -321.448 -7.74712 0 -291.028 -9.33888 0 -263.929 -10.4582 0 -238.671 -11.1698 0 -215.187 -11.553 0 -193.477 -11.6874 0 -173.542 -11.6524 0 -155.38 -11.5274 0 -138.884 -11.3902 0 -123.409 -11.2757 0 -108.846 -11.1764 0 -95.1953 -11.0827 0 -82.4571 -10.9854 0 -70.6313 -10.8748 0 -59.6964 -10.7418 0 -49.18 -10.5863 0 -38.889 -10.4264 0 -28.8231 -10.2824 0 -18.9826 -10.1746 0 -9.36727 -10.1232 0 0.0227621 -10.1485 0 0.0670612 -431.677 0 31.1398 -432.172 0 62.3066 -433.725 0 93.5674 -436.319 0 124.922 -439.938 0 156.371 -444.567 0 187.914 -450.188 0 219.596 -456.789 0 251.529 -464.368 0 283.718 -472.934 0 316.196 -482.491 0 349.086 -492.989 0 382.4 -504.34 0 416.154 -516.46 0 450.431 -529.353 0 485.247 -543.112 0 520.65 -557.827 0 557.155 -573.396 0 594.897 -589.444 0 633.866 -605.579 0 673.831 -621.757 0 714.696 -638.61 0 756.482 -656.85 0 800.759 -676.602 0 848.514 -696.375 0 899.747 -714.405 0 952.69 -729.795 0 1005.58 -745.136 0 1058.41 -763.885 0 1114.09 -788.292 0 1177.24 -813.547 0 1247.93 -832.284 0 1320.17 -838.51 0 1379.38 -838.219 0 1424.9 -843.576 0 1461.02 -864.721 0 1503.93 -883.601 0 1555.18 -861.847 0 1609.54 -762.182 0 1635.6 -582.74 0 1628.14 -357.064 0 1599.14 -118.843 0 1673.65 161.571 0 1884.96 601.699 0 2217.43 1324.5 0 2327.54 2327.54 0 2074.74 3364.84 0 1461.4 4162.6 0 672.71 4555.75 0 -174.993 4679.64 0 -1081.71 4721.07 0 -1980.19 4804.78 0 -2803.19 4807.28 0 -3550.69 4543.03 0 -4100.48 3877.41 0 -4257.97 2973.35 0 -4020.66 2101.47 0 -3529.11 1504.07 0 -3126.91 1175.82 0 -2829.67 983.894 0 -2613.31 801.5 0 -2387.31 598.199 0 -2143 412.989 0 -1888.06 284.928 0 -1668.53 219.236 0 -1492.08 187.288 0 -1356 159.332 0 -1231.98 121.287 0 -1112.47 80.8078 0 -997.755 47.1177 0 -893.568 25.351 0 -802.264 12.701 0 -723.795 5.44954 0 -654.441 0.604899 0 -591.863 -2.81716 0 -536.063 -5.45715 0 -485.608 -7.84024 0 -439.067 -10.0302 0 -396.442 -11.9756 0 -357.731 -13.6248 0 -322.935 -14.9263 0 -292.053 -15.8286 0 -264.509 -16.2902 0 -238.89 -16.3584 0 -215.132 -16.126 0 -193.236 -15.686 0 -173.201 -15.1317 0 -155.028 -14.5562 0 -138.595 -14.0502 0 -123.178 -13.6478 0 -108.656 -13.3268 0 -95.0281 -13.0624 0 -82.2953 -12.8298 0 -70.4573 -12.6042 0 -59.4939 -12.3611 0 -48.9626 -12.093 0 -38.6824 -11.8266 0 -28.6533 -11.5922 0 -18.8751 -11.4201 0 -9.34806 -11.3408 0 -0.0720197 -11.3845 0 0.108914 -434.143 0 30.0919 -434.657 0 60.1847 -436.274 0 90.3873 -438.981 0 120.7 -442.762 0 151.122 -447.6 0 181.654 -453.482 0 212.334 -460.394 0 243.256 -468.337 0 274.423 -477.323 0 305.885 -487.358 0 337.826 -498.419 0 370.263 -510.457 0 403.194 -523.424 0 436.596 -537.308 0 470.467 -552.132 0 504.879 -567.919 0 540.611 -584.631 0 577.869 -602.142 0 616.618 -620.322 0 656.082 -639.136 0 695.942 -658.735 0 736.233 -679.29 0 779.571 -700.842 0 827.6 -723.062 0 880.32 -745.559 0 934.196 -768.11 0 985.695 -791.152 0 1034.82 -815.289 0 1087.24 -840.91 0 1152.03 -867.151 0 1229.28 -892.693 0 1309.78 -916.211 0 1371.01 -936.342 0 1411.93 -951.701 0 1443.56 -960.497 0 1507.33 -955.45 0 1607.21 -925.321 0 1732.76 -858.635 0 1821.32 -740.533 0 1862.45 -552.767 0 1874.85 -276.968 0 2053.78 104.165 0 2451.19 606.447 0 3045.61 1245.88 0 3364.84 2074.74 0 3215.7 3215.7 0 2599.88 4799.3 0 1648 6758.19 0 442.155 8478.49 0 -1017.67 9252.69 0 -2468.68 8609.29 0 -3648.09 7020.75 0 -4555.9 5195.53 0 -5106.27 3747.81 0 -5162.6 2741.17 0 -4723.14 2039.93 0 -3981.65 1516.29 0 -3411.85 1113.5 0 -3035.25 811.425 0 -2807.23 590.327 0 -2559.95 432.134 0 -2277.34 319.963 0 -1971.64 237.232 0 -1716.23 173.654 0 -1523.34 125.238 0 -1388.57 88.2813 0 -1265.87 59.7611 0 -1142.98 37.597 0 -1020.38 19.7847 0 -908.45 5.07622 0 -811.427 -6.30678 0 -729.257 -13.9743 0 -657.571 -17.9551 0 -593.623 -19.4348 0 -537.415 -19.7972 0 -486.992 -20.1775 0 -440.401 -20.7168 0 -397.644 -21.3076 0 -358.719 -21.8423 0 -323.627 -22.2136 0 -292.368 -22.3139 0 -264.414 -22.05 0 -238.474 -21.4521 0 -214.491 -20.6142 0 -192.464 -19.6307 0 -172.394 -18.5962 0 -154.279 -17.605 0 -137.984 -16.7489 0 -122.691 -16.058 0 -108.262 -15.5011 0 -94.6986 -15.044 0 -81.9997 -14.6525 0 -70.1656 -14.2926 0 -59.1783 -13.9303 0 -48.6383 -13.5535 0 -38.3825 -13.1922 0 -28.4108 -12.881 0 -18.7232 -12.6549 0 -9.31972 -12.5487 0 -0.200318 -12.5972 0 0.153369 -435.262 0 29.0061 -435.792 0 57.9832 -437.462 0 87.0845 -440.258 0 116.31 -444.167 0 145.66 -449.175 0 175.134 -455.269 0 204.765 -462.437 0 234.631 -470.675 0 264.735 -479.985 0 295.132 -490.37 0 326.018 -501.848 0 357.413 -514.45 0 389.32 -528.203 0 421.752 -543.041 0 454.714 -558.802 0 488.265 -575.329 0 523.046 -592.698 0 559.228 -611.314 0 596.791 -631.6 0 635.325 -653.501 0 674.662 -676.031 0 714.824 -698.095 0 757.591 -719.465 0 804.08 -742.3 0 854.291 -769.164 0 906.31 -801.255 0 958.222 -834.283 0 1010.03 -862.589 0 1064.75 -882.455 0 1127.21 -901.488 0 1197.47 -931.397 0 1271.6 -981.037 0 1340 -1034.35 0 1402.24 -1062.44 0 1463.47 -1039.45 0 1543.06 -981.978 0 1642.88 -937.209 0 1763.58 -949.157 0 1909.07 -973.167 0 2080.02 -875.917 0 2283.14 -523.468 0 2588.58 71.2653 0 3014.99 691.608 0 3559.65 1108.91 0 4162.6 1461.4 0 4799.3 2599.88 0 5455.94 5455.94 0 5054.83 10182.4 0 2918.96 14780.7 0 -951.653 16883.8 0 -4813.18 14913.6 0 -6921.76 10448.2 0 -7277.41 5854.78 0 -6555.45 3131.49 0 -5830.88 2122.44 0 -5117.48 1892 0 -4440.03 1585.36 0 -3859.08 1060.41 0 -3377.37 542.016 0 -2982.58 243.301 0 -2628.31 176.897 0 -2310.12 210.945 0 -2028.55 214.304 0 -1786.83 145.671 0 -1585.52 53.5786 0 -1422.67 -10.2205 0 -1278.06 -25.1919 0 -1146.31 -14.1167 0 -1027.34 -2.87616 0 -919.658 -6.41166 0 -822.63 -18.4181 0 -736.253 -30.1529 0 -659.971 -35.5779 0 -593.433 -36.1266 0 -536.639 -34.5116 0 -486.573 -32.9713 0 -440.216 -31.8455 0 -397.568 -30.9996 0 -358.629 -30.2989 0 -323.4 -29.6089 0 -291.88 -28.7948 0 -263.601 -27.7374 0 -237.421 -26.4508 0 -213.287 -25.0177 0 -191.199 -23.5216 0 -171.157 -22.0458 0 -153.162 -20.6737 0 -137.06 -19.4863 0 -121.939 -18.5064 0 -107.647 -17.6993 0 -94.1829 -17.0274 0 -81.5478 -16.4534 0 -69.7413 -15.9399 0 -58.7474 -15.4496 0 -48.2157 -14.9678 0 -38.0028 -14.523 0 -28.1088 -14.1489 0 -18.5335 -13.879 0 -9.27695 -13.7471 0 -0.339243 -13.7867 0 0.194817 -435.033 0 27.8896 -435.579 0 55.7205 -437.288 0 83.6876 -440.15 0 111.791 -444.154 0 140.03 -449.29 0 168.406 -455.548 0 196.947 -462.918 0 225.728 -471.392 0 254.75 -480.964 0 284.054 -491.63 0 313.785 -503.446 0 343.957 -516.505 0 374.613 -530.894 0 406.003 -546.51 0 438.168 -563.057 0 471.106 -580.24 0 504.788 -598.213 0 539.206 -617.757 0 574.413 -639.688 0 611.56 -663.955 0 651.12 -688.821 0 693.072 -712.355 0 735.932 -734.142 0 778.767 -757.944 0 821.576 -788.24 0 868.389 -827.157 0 923.236 -867.401 0 986.116 -899.327 0 1050.49 -916.591 0 1105.96 -932.129 0 1152.39 -965.857 0 1201.73 -1033.07 0 1283.22 -1108.75 0 1398.2 -1147.13 0 1530.13 -1107.64 0 1616.86 -1022.44 0 1652.46 -976.147 0 1669.35 -1048.39 0 1862.2 -1177.47 0 2263.44 -1160.34 0 2843.75 -793.078 0 3296.62 -109.987 0 3540.55 524.085 0 3621.7 724.615 0 4555.75 672.71 0 6758.19 1648 0 10182.4 5054.83 0 11192.1 11192.1 0 7502.86 17304.8 0 -885.286 20114.8 0 -9264.55 17436.8 0 -12927.1 11455.4 0 -11873 5447.73 0 -8385.93 2167.91 0 -6101.13 1315.08 0 -5065.22 1482.63 0 -4863.31 1388.47 0 -4481.21 847.553 0 -3872.81 239.654 0 -3124.51 -74.7777 0 -2561.17 -61.2766 0 -2213.91 79.6926 0 -2051.45 148.591 0 -1886.18 86.451 0 -1686.84 -25.1197 0 -1459.21 -99.5305 0 -1263.58 -101.251 0 -1116.01 -65.6009 0 -1014.95 -32.9774 0 -926.473 -26.6431 0 -836.696 -36.5831 0 -745.73 -48.9649 0 -662.222 -54.0054 0 -591.604 -53.1101 0 -533.876 -49.6003 0 -484.38 -46.2214 0 -438.457 -43.4162 0 -396.107 -41.0517 0 -357.33 -38.9947 0 -322.126 -37.1123 0 -290.495 -35.2714 0 -262.028 -33.3526 0 -235.726 -31.3545 0 -211.542 -29.3364 0 -189.477 -27.3585 0 -169.531 -25.4805 0 -151.704 -23.7625 0 -135.83 -22.2625 0 -120.914 -20.9929 0 -106.789 -19.9213 0 -93.4572 -19.0127 0 -80.9171 -18.2326 0 -69.1691 -17.5462 0 -58.1993 -16.919 0 -47.7034 -16.3358 0 -37.5569 -15.8191 0 -27.76 -15.3957 0 -18.3125 -15.0924 0 -9.21446 -14.9359 0 -0.465902 -14.9531 0 0.227651 -433.455 0 26.7492 -434.018 0 53.4149 -435.753 0 80.2249 -438.657 0 107.179 -442.724 0 134.278 -447.946 0 161.52 -454.32 0 188.937 -461.839 0 216.599 -470.496 0 244.511 -480.286 0 272.689 -491.207 0 301.196 -503.321 0 330.037 -516.737 0 359.306 -531.557 0 389.568 -547.691 0 420.916 -564.854 0 453.268 -582.765 0 485.752 -601.563 0 518.138 -621.974 0 550.563 -644.761 0 586.036 -669.936 0 625.791 -696.053 0 669.759 -721.501 0 712.689 -745.92 0 751.281 -772.416 0 785.534 -804.686 0 826.236 -844.512 0 884.174 -886.026 0 959.348 -921.442 0 1034.45 -945.62 0 1081.94 -968.857 0 1101.45 -1007.04 0 1122.52 -1072.36 0 1217.3 -1144.8 0 1389.08 -1187.77 0 1596.81 -1168.84 0 1686.2 -1114.05 0 1642.47 -1091.54 0 1532.85 -1165.55 0 1760.75 -1288.63 0 2393.4 -1301.64 0 3361.6 -1044.8 0 3942.52 -548.183 0 3943.93 -105.376 0 3464.69 -25.6948 0 4679.64 -174.993 0 8478.49 442.155 0 14780.7 2918.96 0 17304.8 7502.86 0 12104.6 12104.6 0 -819.878 14234.7 0 -13736 12233.4 0 -18911.1 7759.22 0 -16345.3 3300.32 0 -9984.3 944.686 0 -6108.94 443.438 0 -4799.79 701.871 0 -5168.54 722.861 0 -5043.81 368.777 0 -4326.89 -55.4652 0 -3213.3 -260.381 0 -2438.15 -215.648 0 -2071.82 -77.7151 0 -2048.53 -2.34623 0 -1973.56 -34.6822 0 -1781.11 -109.241 0 -1485.52 -156.63 0 -1236.33 -148.112 0 -1073.32 -111.37 0 -993.344 -78.1281 0 -927.289 -66.6308 0 -846.878 -68.9373 0 -752.344 -74.1033 0 -662.111 -74.3318 0 -587.752 -70.5223 0 -529.266 -65.0632 0 -480.443 -59.9279 0 -435.072 -55.429 0 -393.155 -51.4638 0 -354.69 -47.9296 0 -319.679 -44.7238 0 -288.12 -41.7437 0 -259.65 -38.8955 0 -233.384 -36.1632 0 -209.279 -33.5705 0 -187.335 -31.1415 0 -167.554 -28.9004 0 -149.935 -26.8713 0 -134.303 -25.0774 0 -119.606 -23.5176 0 -105.672 -22.1671 0 -92.4978 -20.9999 0 -80.0853 -19.99 0 -68.434 -19.1114 0 -57.5317 -18.3384 0 -47.1098 -17.6576 0 -37.0584 -17.0806 0 -27.3774 -16.6216 0 -18.0669 -16.295 0 -9.12692 -16.1151 0 -0.557404 -16.0962 0 0.246262 -430.531 0 25.592 -431.107 0 51.0849 -432.857 0 76.725 -435.78 0 102.512 -439.875 0 128.447 -445.143 0 154.529 -451.584 0 180.787 -459.198 0 207.295 -467.987 0 234.054 -477.952 0 261.064 -489.098 0 288.312 -501.472 0 315.798 -515.147 0 343.656 -530.192 0 372.688 -546.582 0 403.029 -564.194 0 434.541 -582.905 0 465.784 -602.746 0 496.376 -623.964 0 526.5 -646.818 0 560.218 -671.443 0 599.189 -697.728 0 643.323 -725.532 0 685.442 -754.802 0 721.04 -785.717 0 750.116 -818.5 0 786.756 -853.322 0 845.05 -890.158 0 924.995 -928.934 0 1004.24 -969.542 0 1047.19 -1011.67 0 1053.39 -1054.94 0 1060.81 -1098.91 0 1162.24 -1142.5 0 1361.89 -1184.36 0 1607.17 -1223.08 0 1700.26 -1256.81 0 1622.23 -1283.38 0 1456.63 -1300.62 0 1704.79 -1306.64 0 2450.26 -1299.83 0 3604.85 -1278.63 0 4247.41 -1243.32 0 4132.98 -1196.77 0 3385.05 -1142.02 0 4721.07 -1081.71 0 9252.69 -1017.67 0 16883.8 -951.653 0 20114.8 -885.286 0 14234.7 -819.878 0 -756.68 -756.68 0 -15740.4 -696.742 0 -21597.5 -640.316 0 -18328 -587.453 0 -10642.7 -538.19 0 -6040.81 -492.489 0 -4618.3 -450.281 0 -5265.56 -411.487 0 -5270.15 -375.92 0 -4508.78 -343.341 0 -3228.45 -313.509 0 -2357.85 -286.217 0 -1985.9 -261.278 0 -2030.65 -238.506 0 -2000.28 -217.729 0 -1812.82 -198.786 0 -1486.63 -181.518 0 -1213.42 -165.775 0 -1044.18 -151.423 0 -975.023 -138.328 0 -920.346 -126.375 0 -845.132 -115.481 0 -749.677 -105.568 0 -656.947 -96.5571 0 -581.371 -88.363 0 -522.948 -80.9004 0 -474.79 -74.0909 0 -430.009 -67.8839 0 -388.606 -62.236 0 -350.58 -57.1037 0 -315.932 -52.4433 0 -284.661 -48.2116 0 -256.425 -44.3662 0 -230.391 -40.8769 0 -206.52 -37.7198 0 -184.811 -34.8706 0 -165.266 -32.3054 0 -147.883 -30.0002 0 -132.486 -27.931 0 -118.009 -26.0804 0 -104.274 -24.4368 0 -91.2808 -22.9889 0 -79.0299 -21.7256 0 -67.521 -20.6357 0 -56.7428 -19.7078 0 -46.4437 -18.9331 0 -36.5207 -18.3073 0 -26.974 -17.8265 0 -17.8034 -17.487 0 -9.00905 -17.2847 0 -0.59086 -17.2161 0 0.246688 -426.486 0 24.4249 -427.075 0 48.7473 -428.828 0 73.2141 -431.751 0 97.8251 -435.851 0 122.58 -441.132 0 147.48 -447.6 0 172.552 -455.262 0 197.866 -464.127 0 223.424 -474.207 0 249.216 -485.516 0 275.202 -498.073 0 301.379 -511.901 0 327.888 -527.028 0 355.584 -543.499 0 384.609 -561.386 0 414.827 -580.754 0 444.82 -601.524 0 474.21 -623.407 0 503.158 -646.107 0 535.201 -669.858 0 571.787 -695.927 0 612.844 -725.699 0 652.699 -759.452 0 687.787 -794.413 0 718.109 -827.282 0 754.736 -856.59 0 808.736 -888.175 0 880.111 -929.702 0 951.787 -986.127 0 996.588 -1046.58 0 1014.17 -1094.45 0 1034.6 -1116.69 0 1131.4 -1131.26 0 1307.93 -1172.09 0 1523.47 -1268.84 0 1624.98 -1391.68 0 1597.81 -1467.86 0 1509.02 -1428.58 0 1761.05 -1317.51 0 2420.97 -1290.72 0 3418.93 -1505.08 0 4025.38 -1931.11 0 4046.28 -2280.79 0 3580.58 -2250.69 0 4804.78 -1980.19 0 8609.29 -2468.68 0 14913.6 -4813.18 0 17436.8 -9264.55 0 12233.4 -13736 0 -696.742 -15740.4 0 -13619.8 -13619.8 0 -18802 -9033.34 0 -16243.4 -4469.29 0 -9889.56 -2015.72 0 -6021.25 -1423.67 0 -4719 -1598.25 0 -5094.41 -1542.15 0 -4975.87 -1117.35 0 -4264.68 -628.313 0 -3156.35 -364.065 0 -2386.08 -354.518 0 -2024.26 -442.846 0 -2005.11 -472.913 0 -1933.95 -399.235 0 -1745.01 -286.974 0 -1452.6 -205.208 0 -1206.32 -182.378 0 -1045.95 -190.539 0 -968.361 -197.702 0 -904.501 -185.394 0 -826.126 -161.391 0 -733.472 -136.479 0 -644.955 -118.295 0 -572.141 -105.772 0 -515.03 -96.3537 0 -467.454 -87.9125 0 -423.244 -80.0355 0 -382.4 -72.7388 0 -344.922 -66.0384 0 -310.809 -59.9501 0 -280.063 -54.4901 0 -252.33 -49.668 0 -226.751 -45.4399 0 -203.285 -41.734 0 -181.933 -38.4784 0 -162.696 -35.6012 0 -145.572 -33.0303 0 -130.39 -30.6953 0 -116.119 -28.5622 0 -102.586 -26.6328 0 -89.7924 -24.9107 0 -77.7375 -23.3995 0 -66.4213 -22.1028 0 -55.8321 -21.024 0 -45.7116 -20.1585 0 -35.9538 -19.4864 0 -26.5589 -18.9857 0 -17.5268 -18.6344 0 -8.8575 -18.4107 0 -0.55106 -18.2927 0 0.231564 -421.551 0 23.2544 -422.146 0 46.4135 -423.894 0 69.7089 -426.807 0 93.1407 -430.893 0 116.709 -436.162 0 140.413 -442.626 0 164.28 -450.294 0 188.374 -459.18 0 212.699 -469.3 0 237.244 -480.67 0 261.973 -493.294 0 286.884 -507.169 0 312.104 -522.295 0 338.394 -538.76 0 365.88 -556.74 0 394.468 -576.407 0 423.161 -597.654 0 451.693 -619.984 0 480.158 -642.876 0 510.613 -666.563 0 543.901 -692.736 0 579.993 -723.253 0 616.679 -758.541 0 652.568 -795.068 0 687.661 -828.629 0 726.482 -857.319 0 773.553 -888.451 0 828.874 -931.642 0 886.365 -993.145 0 936.343 -1059.57 0 978.686 -1110.42 0 1026.45 -1129.68 0 1111.56 -1140.49 0 1235.45 -1186.15 0 1382.4 -1304.63 0 1493.23 -1459.61 0 1562.26 -1561.17 0 1621.51 -1524.44 0 1863.05 -1407.24 0 2318.88 -1410.13 0 2958.42 -1734.66 0 3462.28 -2347.26 0 3745.51 -2888.1 0 3854.4 -2977.99 0 4807.28 -2803.19 0 7020.75 -3648.09 0 10448.2 -6921.76 0 11455.4 -12927.1 0 7759.22 -18911.1 0 -640.316 -21597.5 0 -9033.34 -18802 0 -12710 -12710 0 -11670.3 -6598.87 0 -8197.66 -3222.9 0 -5926.93 -2281.07 0 -4904.71 -2366.47 0 -4715.96 -2196.7 0 -4346.12 -1586.32 0 -3749.06 -914.723 0 -3011.23 -541.952 0 -2457.6 -502.082 0 -2119.3 -594.267 0 -1965.06 -618.592 0 -1807.37 -515.745 0 -1614.98 -367.024 0 -1393.67 -258.714 0 -1203.83 -226.061 0 -1061.52 -233.495 0 -965.2 -240.373 0 -881.09 -223.208 0 -795.363 -191.847 0 -708.131 -159.957 0 -628.03 -137.16 0 -560.484 -121.889 0 -505.495 -110.665 0 -458.483 -100.595 0 -414.872 -91.1384 0 -374.66 -82.3427 0 -337.849 -74.2552 0 -304.437 -66.9232 0 -274.425 -60.3941 0 -247.426 -54.7045 0 -222.494 -49.7962 0 -199.584 -45.5629 0 -178.699 -41.8976 0 -159.836 -38.6932 0 -142.997 -35.8429 0 -128.022 -33.2421 0 -113.953 -30.8437 0 -100.632 -28.6575 0 -88.0583 -26.6959 0 -76.2316 -24.9715 0 -65.1522 -23.4967 0 -54.8071 -22.2836 0 -44.9125 -21.3301 0 -35.3521 -20.6051 0 -26.126 -20.0744 0 -17.2342 -19.7038 0 -8.67675 -19.459 0 -0.453535 -19.306 0 0.20517 -415.724 0 22.0868 -416.32 0 44.0931 -418.056 0 66.224 -420.945 0 88.4795 -425.001 0 110.86 -430.235 0 133.364 -436.662 0 156.019 -444.294 0 178.886 -453.146 0 201.967 -463.23 0 225.258 -474.56 0 248.741 -487.136 0 272.413 -500.948 0 296.376 -515.993 0 321.238 -532.363 0 347.101 -550.256 0 373.917 -569.864 0 401.199 -591.138 0 428.816 -613.693 0 456.796 -637.124 0 485.714 -661.556 0 515.807 -688.153 0 547.086 -718.195 0 580.531 -752.066 0 616.753 -787.684 0 655.755 -822.541 0 696.182 -855.509 0 736.678 -890.988 0 777.245 -934.755 0 821.563 -990.597 0 875.489 -1050.66 0 939.098 -1102.87 0 1010.08 -1137.89 0 1082.79 -1170.2 0 1156.98 -1226.54 0 1239.27 -1330.45 0 1354.62 -1460.6 0 1505.43 -1563.31 0 1691.42 -1588.17 0 1911 -1575.85 0 2163.92 -1658.08 0 2455.17 -1967.39 0 2836.93 -2491.77 0 3323.08 -3018.71 0 3911.01 -3323.94 0 4543.03 -3550.69 0 5195.53 -4555.9 0 5854.78 -7277.41 0 5447.73 -11873 0 3300.32 -16345.3 0 -587.453 -18328 0 -4469.29 -16243.4 0 -6598.87 -11670.3 0 -6976.21 -6976.21 0 -6276.06 -4159.74 0 -5572.53 -3064.7 0 -4879.39 -2754.93 0 -4221.26 -2375.14 0 -3658.39 -1782.83 0 -3193.48 -1202.57 0 -2814.25 -847.169 0 -2474.4 -728.91 0 -2169.49 -715.543 0 -1900.1 -675.541 0 -1669.61 -567.259 0 -1478.59 -438.937 0 -1325.11 -342.035 0 -1189.08 -296.823 0 -1065.14 -280.293 0 -953.248 -266.341 0 -852.068 -239.816 0 -761.061 -206.847 0 -680.219 -176.002 0 -608.984 -153.151 0 -547.009 -136.714 0 -494.291 -123.834 0 -447.929 -112.138 0 -405.018 -101.193 0 -365.558 -91.0477 0 -329.549 -81.7542 0 -296.991 -73.3627 0 -267.885 -65.9238 0 -241.795 -59.4756 0 -217.658 -53.946 0 -195.424 -49.2065 0 -175.096 -45.1281 0 -156.671 -41.5816 0 -140.151 -38.4381 0 -125.392 -35.5715 0 -111.538 -32.925 0 -98.4452 -30.5109 0 -86.1142 -28.3447 0 -74.5449 -26.4417 0 -63.7373 -24.8173 0 -53.6767 -23.4868 0 -44.0434 -22.4477 0 -34.7064 -21.6632 0 -25.6657 -21.0926 0 -16.9213 -20.6949 0 -8.47325 -20.4297 0 -0.321497 -20.2559 0 0.171788 -409.006 0 20.9286 -409.598 0 41.7959 -411.314 0 62.7738 -414.168 0 83.8621 -418.175 0 105.061 -423.35 0 126.37 -429.708 0 147.816 -437.264 0 169.463 -446.028 0 191.313 -456.01 0 213.365 -467.218 0 235.613 -479.655 0 258.056 -493.319 0 280.773 -508.211 0 304.229 -524.414 0 328.503 -542.089 0 353.579 -561.401 0 379.296 -582.395 0 405.61 -604.957 0 432.516 -628.958 0 459.911 -654.39 0 487.753 -681.475 0 516.068 -710.461 0 546.902 -741.594 0 581.54 -775.113 0 619.984 -811.257 0 659.129 -850.169 0 695.869 -891.616 0 730.205 -935.27 0 768.644 -980.972 0 821.546 -1029.54 0 889.042 -1082.15 0 963.994 -1139.89 0 1028.95 -1203.05 0 1083.12 -1271.48 0 1140.03 -1345.23 0 1250.56 -1426.41 0 1419.59 -1518.63 0 1635.03 -1625.82 0 1824.32 -1758.1 0 1975.38 -1931.81 0 2104.78 -2163.57 0 2385.65 -2471.72 0 2864.03 -2876.99 0 3518.5 -3400.57 0 3877.41 -4100.48 0 3747.81 -5106.27 0 3131.49 -6555.45 0 2167.91 -8385.93 0 944.686 -9984.3 0 -538.19 -10642.7 0 -2015.72 -9889.56 0 -3222.9 -8197.66 0 -4159.74 -6276.06 0 -4739.39 -4739.39 0 -4823.61 -3650.87 0 -4410.62 -2874.1 0 -3694.17 -2280.66 0 -3147.89 -1813.42 0 -2793.29 -1452.04 0 -2585.74 -1176.56 0 -2357.42 -968.594 0 -2092.24 -810.871 0 -1802.48 -686.423 0 -1561.76 -584.634 0 -1382.35 -501.243 0 -1259.87 -432.278 0 -1148.43 -374.477 0 -1035.83 -325.556 0 -922.575 -283.312 0 -819.229 -246.303 0 -730.129 -214.57 0 -655.217 -188.324 0 -590.151 -167.369 0 -532.202 -150.385 0 -481.37 -135.861 0 -435.842 -122.543 0 -393.806 -110.198 0 -355.262 -98.8538 0 -320.209 -88.5353 0 -288.649 -79.2685 0 -260.58 -71.0791 0 -235.518 -63.9814 0 -212.28 -57.8892 0 -190.812 -52.6647 0 -171.113 -48.1698 0 -153.184 -44.2663 0 -137.024 -40.8158 0 -122.51 -37.6833 0 -108.896 -34.806 0 -96.0578 -32.193 0 -83.9959 -29.8569 0 -72.71 -27.81 0 -62.2002 -26.0648 0 -52.4502 -24.6335 0 -43.1015 -23.5115 0 -34.0074 -22.6609 0 -25.1681 -22.0402 0 -16.5834 -21.608 0 -8.25344 -21.3226 0 -0.178158 -21.1425 0 0.135697 -401.397 0 19.7861 -401.98 0 39.5318 -403.667 0 59.3727 -406.474 0 79.3089 -410.416 0 99.3404 -415.507 0 119.467 -421.765 0 139.717 -429.203 0 160.16 -437.832 0 180.797 -447.66 0 201.63 -458.695 0 222.657 -470.942 0 243.877 -484.406 0 265.351 -499.093 0 287.432 -515.076 0 310.181 -532.486 0 333.594 -551.46 0 357.643 -572.096 0 382.322 -594.444 0 407.626 -618.548 0 433.473 -644.347 0 459.829 -671.577 0 486.711 -699.952 0 515.512 -729.613 0 547.106 -761.898 0 581.494 -798.344 0 617.074 -839.72 0 652.247 -883.699 0 687.013 -927.184 0 725.263 -968.235 0 773.193 -1011.68 0 830.883 -1064.79 0 894.681 -1133.46 0 955.659 -1211.45 0 1013.41 -1286.31 0 1076.11 -1347.29 0 1174.48 -1407.6 0 1311.47 -1497.71 0 1479.66 -1646.97 0 1634.55 -1850.22 0 1768.73 -2067.79 0 1891.24 -2260.06 0 2096.71 -2457.57 0 2410.29 -2788.27 0 2816.44 -3386.21 0 2973.35 -4257.97 0 2741.17 -5162.6 0 2122.44 -5830.88 0 1315.08 -6101.13 0 443.438 -6108.94 0 -492.489 -6040.81 0 -1423.67 -6021.25 0 -2281.07 -5926.93 0 -3064.7 -5572.53 0 -3650.87 -4823.61 0 -3842.7 -3842.7 0 -3637.66 -2899.81 0 -3176.42 -2236.69 0 -2802.79 -1847.68 0 -2532.4 -1599.76 0 -2341.14 -1365.92 0 -2138.35 -1115.43 0 -1915.36 -886.931 0 -1679.89 -719.144 0 -1478.31 -616.988 0 -1318.34 -551.603 0 -1197.31 -493.003 0 -1087.1 -426.89 0 -980.254 -360.728 0 -877.04 -303.551 0 -783.428 -260.311 0 -701.859 -228.033 0 -632.289 -202.832 0 -571.052 -181.563 0 -515.849 -163.12 0 -466.68 -146.747 0 -422.274 -131.808 0 -381.362 -118.155 0 -343.943 -105.761 0 -310.017 -94.5986 0 -279.585 -84.6407 0 -252.647 -75.86 0 -228.678 -68.2218 0 -206.4 -61.6257 0 -185.753 -55.9376 0 -166.739 -51.023 0 -149.358 -46.7473 0 -133.608 -42.9761 0 -119.384 -39.5777 0 -106.051 -36.4868 0 -93.5029 -33.7039 0 -81.739 -31.2327 0 -70.7596 -29.0765 0 -60.5647 -27.2391 0 -51.1365 -25.7237 0 -42.0836 -24.5213 0 -33.2459 -23.598 0 -24.6234 -22.9174 0 -16.216 -22.4429 0 -8.02378 -22.1378 0 -0.0467315 -21.9658 0 0.101179 -392.897 0 18.6657 -393.465 0 37.3105 -395.116 0 56.0354 -397.864 0 74.8405 -401.722 0 93.7257 -406.707 0 112.691 -412.832 0 131.767 -420.112 0 151.025 -428.558 0 170.471 -438.181 0 190.103 -448.99 0 209.921 -460.996 0 229.926 -474.209 0 250.162 -488.641 0 270.898 -504.352 0 292.178 -521.451 0 314.002 -540.047 0 336.37 -560.248 0 359.282 -582.163 0 382.748 -605.896 0 406.979 -631.419 0 432.063 -658.448 0 458.003 -686.666 0 485.022 -716.156 0 513.258 -748.095 0 542.713 -783.848 0 574.105 -824.141 0 608.153 -867.152 0 644.856 -910.42 0 684.145 -952.438 0 725.907 -997.267 0 770.142 -1050.99 0 818.76 -1118.54 0 876.433 -1195.06 0 943.372 -1270.58 0 1019.19 -1336.61 0 1102.44 -1404.83 0 1192.99 -1501.47 0 1292.81 -1651.75 0 1413.84 -1850.87 0 1558.07 -2063.93 0 1721.95 -2256.04 0 1868.58 -2451.51 0 1988.14 -2756.72 0 2078.85 -3283.14 0 2101.47 -4020.66 0 2039.93 -4723.14 0 1892 -5117.48 0 1482.63 -5065.22 0 701.871 -4799.79 0 -450.281 -4618.3 0 -1598.25 -4719 0 -2366.47 -4904.71 0 -2754.93 -4879.39 0 -2874.1 -4410.62 0 -2899.81 -3637.66 0 -2834.3 -2834.3 0 -2694.52 -2247.38 0 -2521.87 -1887.79 0 -2318.23 -1644.92 0 -2094.1 -1413.14 0 -1888.98 -1168.05 0 -1706.65 -943.81 0 -1545.61 -774.575 0 -1396.86 -664.951 0 -1258.91 -589.986 0 -1131.88 -523.742 0 -1017.15 -453.651 0 -915.067 -385.7 0 -825.494 -327.216 0 -745.177 -282.066 0 -672.788 -247.402 0 -608.306 -219.601 0 -550.193 -195.757 0 -497.481 -174.922 0 -450.172 -156.49 0 -407.277 -139.934 0 -367.81 -125.063 0 -331.771 -111.769 0 -299.16 -99.9441 0 -269.978 -89.4792 0 -244.223 -80.2664 0 -221.356 -72.1969 0 -200.054 -65.1557 0 -180.256 -59.0252 0 -161.964 -53.6874 0 -145.176 -49.0246 0 -129.893 -44.9189 0 -116.025 -41.2546 0 -103.029 -37.9674 0 -90.8134 -35.0435 0 -79.3792 -32.4719 0 -68.7261 -30.2412 0 -58.8542 -28.3401 0 -49.7448 -26.7574 0 -40.987 -25.4772 0 -32.4126 -24.4747 0 -24.0218 -23.7241 0 -15.8145 -23.1996 0 -7.79072 -22.8754 0 0.0495709 -22.7258 0 0.0721432 -383.646 0 17.5735 -384.196 0 35.1414 -385.804 0 52.7756 -388.482 0 70.4764 -392.243 0 88.2436 -397.1 0 106.077 -403.067 0 124.008 -410.155 0 142.109 -418.379 0 160.384 -427.753 0 178.833 -438.294 0 197.457 -450.014 0 216.254 -462.928 0 235.259 -477.054 0 254.676 -492.441 0 274.539 -509.178 0 294.847 -527.351 0 315.6 -547.049 0 336.798 -568.361 0 358.46 -591.373 0 380.977 -616.141 0 404.509 -642.657 0 429.052 -670.904 0 454.238 -700.938 0 479.838 -733.013 0 505.85 -767.415 0 533.928 -804.42 0 565.726 -844.253 0 601.245 -887.13 0 638.792 -933.297 0 675.677 -983.19 0 711.864 -1037.31 0 751.286 -1096.24 0 803.553 -1161.1 0 869.103 -1233.34 0 943.957 -1314.48 0 1013.16 -1406.97 0 1075.28 -1513.99 0 1135.81 -1638.79 0 1227.77 -1786.38 0 1356.64 -1963.55 0 1513.89 -2177.15 0 1610.12 -2434.23 0 1621.59 -2742.14 0 1552.83 -3108.15 0 1504.07 -3529.11 0 1516.29 -3981.65 0 1585.36 -4440.03 0 1388.47 -4863.31 0 722.861 -5168.54 0 -411.487 -5265.56 0 -1542.15 -5094.41 0 -2196.7 -4715.96 0 -2375.14 -4221.26 0 -2280.66 -3694.17 0 -2236.69 -3176.42 0 -2247.38 -2694.52 0 -2272.59 -2272.59 0 -2214.2 -1914.33 0 -2067.76 -1612.93 0 -1857.5 -1361.45 0 -1674.59 -1152.93 0 -1527.75 -980.358 0 -1412.01 -836.792 0 -1297.54 -716.868 0 -1179.35 -616.808 0 -1058.77 -532.915 0 -949.573 -462.116 0 -855.413 -402.202 0 -776.006 -351.03 0 -705.016 -306.911 0 -639.851 -269.026 0 -580.503 -236.658 0 -526.27 -209.067 0 -476.712 -185.44 0 -431.829 -164.953 0 -390.919 -146.886 0 -353.28 -130.933 0 -318.913 -116.892 0 -287.818 -104.561 0 -259.993 -93.7381 0 -235.44 -84.2202 0 -213.632 -75.8129 0 -193.282 -68.3883 0 -174.332 -61.8523 0 -156.781 -56.1112 0 -140.629 -51.0713 0 -125.877 -46.6389 0 -112.444 -42.7218 0 -99.8518 -39.2584 0 -88.0205 -36.2184 0 -76.9499 -33.5729 0 -66.6401 -31.2927 0 -57.0911 -29.3489 0 -48.2842 -27.7123 0 -39.8097 -26.3595 0 -31.5001 -25.2773 0 -23.3552 -24.4537 0 -15.3752 -23.8767 0 -7.56005 -23.5345 0 0.0902995 -23.415 0 0.0492582 -373.989 0 16.5128 -374.521 0 33.0306 -376.082 0 49.6029 -378.684 0 66.2295 -382.339 0 82.9105 -387.058 0 99.6458 -392.853 0 116.465 -399.734 0 133.438 -407.718 0 150.569 -416.824 0 167.857 -427.068 0 185.303 -438.47 0 202.907 -451.046 0 220.694 -464.817 0 238.822 -479.826 0 257.317 -496.143 0 276.178 -513.837 0 295.406 -532.979 0 315.001 -553.638 0 334.98 -575.885 0 355.729 -599.82 0 377.408 -625.603 0 400.013 -653.397 0 423.258 -683.262 0 446.965 -714.954 0 471.135 -748.183 0 496.886 -782.968 0 525.34 -820.575 0 556.497 -862.58 0 589.497 -910.128 0 622.975 -961.832 0 656.912 -1015.39 0 693.565 -1069.16 0 738.447 -1127.24 0 791.809 -1196.72 0 851.368 -1284.03 0 908.551 -1386.82 0 962.535 -1496.4 0 1015.92 -1604.72 0 1084.3 -1721.16 0 1170.29 -1872.6 0 1268.4 -2086 0 1321.53 -2358.58 0 1314.49 -2646.24 0 1249.52 -2902.26 0 1175.82 -3126.91 0 1113.5 -3411.85 0 1060.41 -3859.08 0 847.553 -4481.21 0 368.777 -5043.81 0 -375.92 -5270.15 0 -1117.35 -4975.87 0 -1586.32 -4346.12 0 -1782.83 -3658.39 0 -1813.42 -3147.89 0 -1847.68 -2802.79 0 -1887.79 -2521.87 0 -1914.33 -2214.2 0 -1879.9 -1879.9 0 -1782.33 -1565.91 0 -1637.23 -1316.54 0 -1503.29 -1134.75 0 -1386.13 -993.769 0 -1283.58 -866.863 0 -1182.6 -744.251 0 -1081.02 -633.08 0 -979.591 -541.106 0 -886.215 -470.274 0 -802.992 -414.466 0 -729.788 -366.986 0 -663.698 -323.455 0 -603.533 -283.978 0 -549.276 -249.177 0 -499.656 -219.337 0 -453.875 -193.812 0 -411.933 -171.798 0 -373.426 -152.577 0 -337.951 -135.79 0 -305.509 -121.163 0 -276.098 -108.426 0 -249.72 -97.3051 0 -226.373 -87.5296 0 -205.577 -78.8411 0 -186.149 -71.1017 0 -168.036 -64.2355 0 -151.239 -58.1673 0 -135.758 -52.8217 0 -121.592 -48.1234 0 -108.668 -43.9979 0 -96.542 -40.3861 0 -85.1407 -37.2448 0 -74.464 -34.5315 0 -64.5118 -32.2036 0 -55.2843 -30.2185 0 -46.7636 -28.5338 0 -38.5606 -27.12 0 -30.5159 -25.9726 0 -22.6296 -25.09 0 -14.9017 -24.4706 0 -7.33213 -24.1129 0 0.0790565 -24.0153 0 0.0315249 -363.942 0 15.4853 -364.453 0 30.9829 -365.965 0 46.5241 -368.486 0 62.1091 -372.027 0 77.7378 -376.598 0 93.4102 -382.208 0 109.153 -388.869 0 125.031 -396.596 0 141.048 -405.412 0 157.203 -415.335 0 173.496 -426.386 0 189.928 -438.585 0 206.519 -451.954 0 223.393 -466.53 0 240.571 -482.369 0 258.053 -499.526 0 275.838 -518.059 0 293.928 -538.023 0 312.335 -559.474 0 331.352 -582.516 0 351.101 -607.349 0 371.58 -634.18 0 392.839 -663.095 0 414.908 -693.842 0 437.786 -726.114 0 461.595 -759.897 0 486.459 -796.37 0 512.377 -837.008 0 540.047 -882.898 0 570.582 -932.846 0 603.995 -984.834 0 639.827 -1037.43 0 676.954 -1094.29 0 715.323 -1161.71 0 755.928 -1245.4 0 802.499 -1343.13 0 855.392 -1446.94 0 912.569 -1549.38 0 961.79 -1658.12 0 1001.01 -1795.87 0 1030.29 -1985.45 0 1050.04 -2222.41 0 1060.4 -2464.58 0 1058.6 -2667.33 0 983.894 -2829.67 0 811.425 -3035.25 0 542.016 -3377.37 0 239.654 -3872.81 0 -55.4652 -4326.89 0 -343.341 -4508.78 0 -628.313 -4264.68 0 -914.723 -3749.06 0 -1202.57 -3193.48 0 -1452.04 -2793.29 0 -1599.76 -2532.4 0 -1644.92 -2318.23 0 -1612.93 -2067.76 0 -1565.91 -1782.33 0 -1506.7 -1506.7 0 -1435.6 -1283.2 0 -1353.79 -1116.46 0 -1261.4 -983.913 0 -1160.73 -863.02 0 -1065.71 -745.805 0 -978.658 -638.849 0 -899.26 -549.251 0 -824.196 -478.943 0 -752.585 -422.683 0 -684.521 -374.72 0 -622.088 -331.181 0 -566.14 -291.852 0 -516.65 -256.937 0 -471.588 -226.468 0 -429.677 -200 0 -390.919 -177.01 0 -355.103 -157.004 0 -322.024 -139.634 0 -291.681 -124.583 0 -264.075 -111.535 0 -239.204 -100.175 0 -217.069 -90.1862 0 -197.251 -81.2709 0 -178.727 -73.2857 0 -161.449 -66.1664 0 -145.418 -59.8498 0 -130.633 -54.2727 0 -117.096 -49.3717 0 -104.733 -45.0838 0 -93.1197 -41.3516 0 -82.1831 -38.1233 0 -71.9236 -35.3474 0 -62.3413 -32.9724 0 -53.4362 -30.9469 0 -45.1921 -29.2194 0 -37.2537 -27.7564 0 -29.4758 -26.559 0 -21.8582 -25.6322 0 -14.4011 -24.9811 0 -7.10444 -24.6106 0 0.0318278 -24.526 0 0.0179304 -353.503 0 14.4931 -353.995 0 29.0025 -355.454 0 43.5463 -357.888 0 58.1244 -361.307 0 72.7368 -365.719 0 87.3836 -371.133 0 102.088 -377.558 0 116.908 -385.013 0 131.844 -393.517 0 146.899 -403.094 0 162.071 -413.763 0 177.361 -425.545 0 192.785 -438.464 0 208.445 -452.552 0 224.359 -467.855 0 240.525 -484.419 0 256.945 -502.29 0 273.618 -521.514 0 290.553 -542.138 0 307.956 -564.24 0 325.911 -587.957 0 344.419 -613.437 0 363.71 -640.809 0 383.926 -670.166 0 405.066 -701.59 0 426.746 -735.205 0 448.58 -771.289 0 470.568 -810.16 0 494.049 -852.153 0 521.154 -897.706 0 551.909 -947.292 0 584.622 -1001.42 0 615.154 -1060.86 0 643.316 -1126.53 0 671.426 -1199.39 0 708.198 -1280.86 0 754.464 -1372.66 0 806.243 -1476.54 0 839.643 -1594.09 0 850.681 -1726.71 0 841.929 -1875.8 0 840.238 -2041.34 0 852.75 -2221.41 0 874.709 -2413.92 0 801.5 -2613.31 0 590.327 -2807.23 0 243.301 -2982.58 0 -74.7777 -3124.51 0 -260.381 -3213.3 0 -313.509 -3228.45 0 -364.065 -3156.35 0 -541.952 -3011.23 0 -847.169 -2814.25 0 -1176.56 -2585.74 0 -1365.92 -2341.14 0 -1413.14 -2094.1 0 -1361.45 -1857.5 0 -1316.54 -1637.23 0 -1283.2 -1435.6 0 -1254.73 -1254.73 0 -1205.87 -1094.76 0 -1134.19 -954.368 0 -1043.87 -832.192 0 -959.852 -726.453 0 -886.305 -634.956 0 -822.497 -555.502 0 -760.829 -486.405 0 -699.278 -426.692 0 -638.023 -375.441 0 -581.016 -331.573 0 -529.871 -293.704 0 -484.566 -260.416 0 -443.265 -230.601 0 -404.817 -204.022 0 -369.222 -180.588 0 -336.258 -160.167 0 -305.703 -142.467 0 -277.557 -127.152 0 -251.819 -113.891 0 -228.491 -102.348 0 -207.572 -92.1898 0 -188.719 -83.1024 0 -171.09 -74.9403 0 -154.648 -67.645 0 -139.393 -61.1589 0 -125.324 -55.4244 0 -112.443 -50.3839 0 -100.677 -45.9796 0 -89.6054 -42.155 0 -79.1567 -38.854 0 -69.331 -36.0207 0 -60.1285 -33.5994 0 -51.549 -31.5341 0 -43.5784 -29.7691 0 -35.9032 -28.2688 0 -28.3952 -27.0366 0 -21.0545 -26.0804 0 -13.8809 -25.4082 0 -6.87449 -25.0277 0 -0.0352985 -24.9469 0 0.00746177 -342.674 0 13.5378 -343.146 0 27.0942 -344.549 0 40.6765 -346.89 0 54.2847 -350.179 0 67.9189 -354.421 0 81.5791 -359.626 0 95.2851 -365.803 0 109.085 -372.967 0 122.982 -381.141 0 136.974 -390.345 0 151.063 -400.599 0 165.249 -411.927 0 179.545 -424.347 0 194.037 -437.892 0 208.739 -452.601 0 223.652 -468.514 0 238.775 -485.671 0 254.108 -504.113 0 269.658 -523.88 0 285.578 -545.03 0 301.929 -567.659 0 318.714 -591.866 0 336.1 -617.802 0 354.192 -645.759 0 372.991 -676.055 0 392.257 -708.893 0 411.753 -744.023 0 431.477 -781.081 0 452.251 -819.949 0 475.378 -861.954 0 500.875 -908.942 0 527.652 -962.479 0 553.042 -1021.69 0 576.923 -1084.44 0 600.494 -1148.97 0 628.257 -1218.55 0 660.643 -1300.12 0 695.005 -1400.31 0 715.46 -1517.16 0 719.362 -1640.02 0 708.033 -1758.2 0 695.297 -1874.05 0 684.83 -2008.03 0 673.731 -2181.72 0 598.199 -2387.31 0 432.134 -2559.95 0 176.897 -2628.31 0 -61.2766 -2561.17 0 -215.648 -2438.15 0 -286.217 -2357.85 0 -354.518 -2386.08 0 -502.082 -2457.6 0 -728.91 -2474.4 0 -968.594 -2357.42 0 -1115.43 -2138.35 0 -1168.05 -1888.98 0 -1152.93 -1674.59 0 -1134.75 -1503.29 0 -1116.46 -1353.79 0 -1094.76 -1205.87 0 -1057.24 -1057.24 0 -1002.72 -918.576 0 -933.989 -800.438 0 -867.762 -704.706 0 -806.826 -624.567 0 -750.865 -552.913 0 -696.564 -486.207 0 -643.042 -425.875 0 -590.4 -373.7 0 -540.833 -330.209 0 -495.24 -293.503 0 -453.614 -261.403 0 -415.288 -232.268 0 -379.843 -205.944 0 -347.28 -182.534 0 -317.195 -162.066 0 -289.188 -144.287 0 -263.258 -128.871 0 -239.405 -115.492 0 -217.629 -103.824 0 -197.931 -93.5405 0 -180.042 -84.3356 0 -163.313 -76.0656 0 -147.713 -68.6713 0 -133.242 -62.0945 0 -119.901 -56.2768 0 -107.689 -51.1598 0 -96.5354 -46.6853 0 -86.0194 -42.7962 0 -76.0704 -39.4368 0 -66.6884 -36.5514 0 -57.8733 -34.0844 0 -49.6251 -31.98 0 -41.9316 -30.1829 0 -34.5233 -28.6571 0 -27.29 -27.4054 0 -20.2316 -26.4346 0 -13.3482 -25.7518 0 -6.63974 -25.364 0 -0.106234 -25.2782 0 -0.000893968 -331.454 0 12.6215 -331.906 0 25.2623 -333.249 0 37.9215 -335.492 0 50.5992 -338.642 0 63.2954 -342.705 0 76.01 -347.689 0 88.7593 -353.603 0 101.583 -360.46 0 114.482 -368.282 0 127.457 -377.088 0 140.508 -386.897 0 153.635 -397.729 0 166.85 -409.604 0 180.224 -422.551 0 193.77 -436.607 0 207.487 -451.812 0 221.376 -468.203 0 235.436 -485.819 0 249.673 -504.698 0 264.205 -524.891 0 279.081 -546.476 0 294.301 -569.534 0 309.877 -594.205 0 325.814 -620.798 0 342.113 -649.646 0 358.931 -680.961 0 376.423 -714.446 0 394.589 -749.679 0 413.338 -786.482 0 432.523 -826.12 0 452.143 -870.374 0 472.334 -920.749 0 493.434 -976.295 0 515.456 -1034.8 0 537.719 -1094.4 0 557.657 -1157.98 0 575.022 -1231.85 0 589.583 -1322.05 0 599.937 -1426.18 0 605.852 -1533.38 0 606.153 -1632.75 0 588.566 -1726.15 0 549.827 -1833.19 0 490.101 -1974.53 0 412.989 -2143 0 319.963 -2277.34 0 210.945 -2310.12 0 79.6926 -2213.91 0 -77.7151 -2071.82 0 -261.278 -1985.9 0 -442.846 -2024.26 0 -594.267 -2119.3 0 -715.543 -2169.49 0 -810.871 -2092.24 0 -886.931 -1915.36 0 -943.81 -1706.65 0 -980.358 -1527.75 0 -993.769 -1386.13 0 -983.913 -1261.4 0 -954.368 -1134.19 0 -918.576 -1002.72 0 -877.825 -877.825 0 -832.484 -770.253 0 -784.767 -682.336 0 -735.043 -607.986 0 -683.651 -540.818 0 -634.116 -477.73 0 -587.375 -420.175 0 -543.4 -369.932 0 -501.546 -327.623 0 -461.549 -291.629 0 -423.418 -260.071 0 -387.826 -231.518 0 -355.195 -205.772 0 -325.527 -182.846 0 -298.222 -162.701 0 -272.684 -145.096 0 -248.911 -129.739 0 -226.905 -116.339 0 -206.664 -104.602 0 -188.19 -94.2382 0 -171.285 -84.9705 0 -155.47 -76.6615 0 -140.723 -69.2454 0 -127.044 -62.6566 0 -114.432 -56.8299 0 -102.889 -51.6996 0 -92.3443 -47.2008 0 -82.3822 -43.2752 0 -72.9334 -39.8717 0 -63.9979 -36.9394 0 -55.5757 -34.4274 0 -47.6667 -32.2848 0 -40.2606 -30.4608 0 -33.1281 -28.9214 0 -26.1756 -27.6653 0 -19.403 -26.6948 0 -12.8104 -26.0121 0 -6.39768 -25.6197 0 -0.164891 -25.5198 0 -0.00812577 -319.892 0 11.7458 -320.322 0 23.5113 -321.604 0 35.2884 -323.743 0 47.077 -326.747 0 58.8773 -330.623 0 70.6891 -335.375 0 82.5255 -341.013 0 94.4179 -347.55 0 106.368 -355.002 0 118.375 -363.388 0 130.44 -372.724 0 142.562 -383.027 0 154.751 -394.316 0 167.063 -406.618 0 179.508 -419.973 0 192.086 -434.421 0 204.796 -450.001 0 217.638 -466.753 0 230.617 -484.716 0 243.822 -503.945 0 257.289 -524.522 0 271.017 -546.53 0 284.907 -570.077 0 298.897 -595.327 0 312.987 -622.457 0 327.569 -651.618 0 343.037 -682.868 0 359.388 -716.241 0 375.994 -751.828 0 391.851 -790.052 0 406.946 -831.455 0 422.063 -876.553 0 439.123 -925.613 0 458.212 -978.777 0 477.686 -1036.22 0 491.363 -1098.59 0 498.652 -1166.88 0 500.62 -1242.03 0 503.68 -1323.84 0 508.9 -1410.87 0 513.874 -1501.7 0 493.467 -1595.41 0 440.994 -1691.82 0 358.258 -1790.77 0 284.928 -1888.06 0 237.232 -1971.64 0 214.304 -2028.55 0 148.591 -2051.45 0 -2.34623 -2048.53 0 -238.506 -2030.65 0 -472.913 -2005.11 0 -618.592 -1965.06 0 -675.541 -1900.1 0 -686.423 -1802.48 0 -719.144 -1679.89 0 -774.575 -1545.61 0 -836.792 -1412.01 0 -866.863 -1283.58 0 -863.02 -1160.73 0 -832.192 -1043.87 0 -800.438 -933.989 0 -770.253 -832.484 0 -740.702 -740.702 0 -706.186 -658.795 0 -665.773 -585.718 0 -620.125 -520.377 0 -576.168 -461.95 0 -535.747 -409.982 0 -498.765 -364.049 0 -463.165 -323.633 0 -428.103 -288.038 0 -393.597 -256.547 0 -361.04 -228.54 0 -331.304 -203.668 0 -304.391 -181.629 0 -279.639 -162.132 0 -256.389 -144.928 0 -234.639 -129.781 0 -214.39 -116.454 0 -195.643 -104.711 0 -178.396 -94.3149 0 -162.509 -85.0397 0 -147.634 -76.7576 0 -133.755 -69.3907 0 -120.873 -62.8614 0 -108.988 -57.0922 0 -98.0986 -52.0055 0 -88.14 -47.5246 0 -78.7142 -43.5894 0 -69.7549 -40.157 0 -61.2621 -37.185 0 -53.2359 -34.6311 0 -45.6763 -32.4528 0 -38.5742 -30.6081 0 -31.7316 -29.0662 0 -25.0675 -27.8192 0 -18.5818 -26.8618 0 -12.2746 -26.1885 0 -6.14592 -25.794 0 -0.195696 -25.673 0 -0.0146718 -308.275 0 10.9116 -308.685 0 21.8431 -309.904 0 32.78 -311.94 0 43.7221 -314.799 0 54.6695 -318.486 0 65.6222 -323.007 0 76.5904 -328.369 0 87.5989 -334.584 0 98.6489 -341.667 0 109.74 -349.633 0 120.873 -358.497 0 132.047 -368.273 0 143.269 -378.978 0 154.577 -390.638 0 165.978 -403.293 0 177.471 -416.985 0 189.057 -431.752 0 200.735 -447.636 0 212.508 -464.676 0 224.435 -482.927 0 236.538 -502.469 0 248.818 -523.385 0 261.161 -545.751 0 273.498 -569.618 0 285.829 -595.037 0 298.49 -622.107 0 311.819 -651.136 0 325.816 -682.485 0 339.911 -716.438 0 353.194 -752.839 0 365.655 -791.372 0 377.813 -831.86 0 390.933 -875.322 0 405.075 -923.396 0 418.987 -977.556 0 427.959 -1036.99 0 431.543 -1099.23 0 430.411 -1161.94 0 428.61 -1226.26 0 426.814 -1296.88 0 423.319 -1378.43 0 400.336 -1468.28 0 353.135 -1553.63 0 283.042 -1621.05 0 219.236 -1668.53 0 173.654 -1716.23 0 145.671 -1786.83 0 86.451 -1886.18 0 -34.6822 -1973.56 0 -217.729 -2000.28 0 -399.235 -1933.95 0 -515.745 -1807.37 0 -567.259 -1669.61 0 -584.634 -1561.76 0 -616.988 -1478.31 0 -664.951 -1396.86 0 -716.868 -1297.54 0 -744.251 -1182.6 0 -745.805 -1065.71 0 -726.453 -959.852 0 -704.706 -867.762 0 -682.336 -784.767 0 -658.795 -706.186 0 -630.79 -630.79 0 -597.771 -560.8 0 -560.254 -498.553 0 -523.611 -444.717 0 -489.272 -397.645 0 -457.172 -355.527 0 -425.915 -317.153 0 -394.93 -282.48 0 -364.233 -251.598 0 -335.12 -224.454 0 -308.406 -200.598 0 -284.09 -179.509 0 -261.618 -160.723 0 -240.437 -143.998 0 -220.545 -129.146 0 -201.943 -115.981 0 -184.631 -104.315 0 -168.609 -93.9613 0 -153.771 -84.7394 0 -139.859 -76.5308 0 -126.861 -69.2484 0 -114.777 -62.8055 0 -103.608 -57.1154 0 -93.3518 -52.0911 0 -83.9493 -47.6471 0 -75.0356 -43.7226 0 -66.5501 -40.2815 0 -58.4926 -37.2892 0 -50.8634 -34.7108 0 -43.6622 -32.5115 0 -36.8811 -30.6565 0 -30.3423 -29.1184 0 -23.9734 -27.8838 0 -17.7742 -26.9409 0 -11.7447 -26.278 0 -5.88494 -25.8833 0 -0.19495 -25.7451 0 -0.0204196 -296.653 0 10.1186 -297.041 0 20.2573 -298.199 0 30.3955 -300.133 0 40.5334 -302.847 0 50.6709 -306.346 0 60.808 -310.637 0 70.9526 -315.726 0 81.1238 -321.621 0 91.3225 -328.338 0 101.549 -335.888 0 111.803 -344.285 0 122.084 -353.542 0 132.396 -363.671 0 142.757 -374.7 0 153.171 -386.667 0 163.638 -399.611 0 174.157 -413.572 0 184.728 -428.589 0 195.354 -444.702 0 206.065 -461.96 0 216.875 -480.431 0 227.784 -500.189 0 238.717 -521.284 0 249.63 -543.717 0 260.523 -567.478 0 271.528 -592.636 0 282.777 -619.561 0 294.27 -648.699 0 305.782 -680.389 0 316.954 -714.329 0 327.781 -749.989 0 338.139 -786.996 0 347.724 -826.366 0 356.524 -869.831 0 364.223 -918.937 0 369.641 -972.616 0 372.665 -1027.92 0 372.898 -1082.03 0 367.961 -1136.15 0 357.459 -1195.46 0 341.142 -1265.18 0 316.423 -1342.5 0 282.612 -1413.57 0 239.694 -1463.81 0 187.288 -1492.08 0 125.238 -1523.34 0 53.5786 -1585.52 0 -25.1197 -1686.84 0 -109.241 -1781.11 0 -198.786 -1812.82 0 -286.974 -1745.01 0 -367.024 -1614.98 0 -438.937 -1478.59 0 -501.243 -1382.35 0 -551.603 -1318.34 0 -589.986 -1258.91 0 -616.808 -1179.35 0 -633.08 -1081.02 0 -638.849 -978.658 0 -634.956 -886.305 0 -624.567 -806.826 0 -607.986 -735.043 0 -585.718 -665.773 0 -560.8 -597.771 0 -533.739 -533.739 0 -504.709 -476.505 0 -475.537 -427.006 0 -446.71 -383.556 0 -418.233 -344.279 0 -390.237 -308.001 0 -362.777 -274.911 0 -335.864 -245.352 0 -310.287 -219.45 0 -286.543 -196.723 0 -264.634 -176.589 0 -244.203 -158.535 0 -224.896 -142.341 0 -206.712 -127.86 0 -189.651 -114.942 0 -173.714 -103.441 0 -158.9 -93.2094 0 -145.125 -84.1023 0 -132.183 -76.0105 0 -120.067 -68.8421 0 -108.774 -62.5052 0 -98.3062 -56.9081 0 -88.6626 -51.9588 0 -79.7899 -47.5669 0 -71.3669 -43.6719 0 -63.3403 -40.2434 0 -55.71 -37.2522 0 -48.476 -34.6692 0 -41.6383 -32.4653 0 -35.1894 -30.6115 0 -28.9638 -29.0826 0 -22.8939 -27.8619 0 -16.9797 -26.933 0 -11.2211 -26.2801 0 -5.61811 -25.887 0 -0.170823 -25.7375 0 -0.0252325 -285.024 0 9.36666 -285.392 0 18.7531 -286.489 0 28.1342 -288.32 0 37.5098 -290.891 0 46.88 -294.205 0 56.2448 -298.267 0 65.61 -303.083 0 74.9899 -308.662 0 84.3852 -315.015 0 93.7959 -322.154 0 103.222 -330.089 0 112.663 -338.833 0 122.12 -348.396 0 131.591 -358.805 0 141.077 -370.093 0 150.576 -382.3 0 160.09 -395.46 0 169.619 -409.612 0 179.162 -424.793 0 188.737 -441.043 0 198.349 -458.411 0 207.999 -476.948 0 217.656 -496.691 0 227.303 -517.644 0 236.939 -539.803 0 246.496 -563.219 0 255.903 -588.153 0 265.161 -614.923 0 274.34 -643.788 0 283.553 -674.698 0 292.801 -707.486 0 301.51 -742.039 0 308.28 -778.693 0 313.048 -818.013 0 316.13 -860.514 0 318.726 -905.964 0 320.949 -953.593 0 321.732 -1002.65 0 314.67 -1053.16 0 298.694 -1105.89 0 274.518 -1161.61 0 249.583 -1218.83 0 225.868 -1272.94 0 202.463 -1319.15 0 159.332 -1356 0 88.2813 -1388.57 0 -10.2205 -1422.67 0 -99.5305 -1459.21 0 -156.63 -1485.52 0 -181.518 -1486.63 0 -205.208 -1452.6 0 -258.714 -1393.67 0 -342.035 -1325.11 0 -432.278 -1259.87 0 -493.003 -1197.31 0 -523.742 -1131.88 0 -532.915 -1058.77 0 -541.106 -979.591 0 -549.251 -899.26 0 -555.502 -822.497 0 -552.913 -750.865 0 -540.818 -683.651 0 -520.377 -620.125 0 -498.553 -560.254 0 -476.505 -504.709 0 -454.176 -454.176 0 -430.971 -408.762 0 -406.734 -367.775 0 -381.52 -330.463 0 -356.578 -296.341 0 -332.418 -265.442 0 -309.043 -237.859 0 -286.757 -213.54 0 -265.751 -192.046 0 -246.024 -172.87 0 -227.433 -155.569 0 -209.832 -139.959 0 -193.222 -125.921 0 -177.604 -113.338 0 -162.976 -102.09 0 -149.339 -92.0591 0 -136.62 -83.1284 0 -124.642 -75.1968 0 -113.395 -68.1718 0 -102.879 -61.9605 0 -93.096 -56.4703 0 -84.0443 -51.6086 0 -75.6791 -47.2839 0 -67.7285 -43.4375 0 -60.1472 -40.0426 0 -52.9352 -37.0739 0 -46.0924 -34.5062 0 -39.6189 -32.3143 0 -33.5074 -30.4728 0 -27.5992 -28.9588 0 -21.8292 -27.7534 0 -16.1975 -26.8381 0 -10.7041 -26.1948 0 -5.3489 -25.8049 0 -0.132002 -25.6502 0 -0.028974 -273.389 0 8.65542 -273.736 0 17.3301 -274.773 0 25.9949 -276.503 0 34.65 -278.931 0 43.2954 -282.061 0 51.9309 -285.896 0 60.5608 -290.442 0 69.1949 -295.706 0 77.8337 -301.698 0 86.4771 -308.429 0 95.1252 -315.908 0 103.778 -324.146 0 112.432 -333.154 0 121.069 -342.952 0 129.685 -353.573 0 138.28 -365.051 0 146.855 -377.417 0 155.408 -390.706 0 163.942 -404.949 0 172.467 -420.181 0 180.989 -436.435 0 189.507 -453.744 0 198.014 -472.138 0 206.505 -491.63 0 214.981 -512.235 0 223.252 -533.991 0 231.133 -557.047 0 238.623 -581.581 0 245.879 -607.766 0 253.153 -635.765 0 260.449 -665.738 0 267.183 -697.804 0 271.934 -731.759 0 274.637 -767.229 0 275.582 -803.894 0 275.858 -842.16 0 275.569 -882.957 0 273.82 -927.153 0 265.225 -973.865 0 248.888 -1020.47 0 225.472 -1064.3 0 201.894 -1104.99 0 179.993 -1145.3 0 158.972 -1188.19 0 121.287 -1231.98 0 59.7611 -1265.87 0 -25.1919 -1278.06 0 -101.251 -1263.58 0 -148.112 -1236.33 0 -165.775 -1213.42 0 -182.378 -1206.32 0 -226.061 -1203.83 0 -296.823 -1189.08 0 -374.477 -1148.43 0 -426.89 -1087.1 0 -453.651 -1017.15 0 -462.116 -949.573 0 -470.274 -886.215 0 -478.943 -824.196 0 -486.405 -760.829 0 -486.207 -696.564 0 -477.73 -634.116 0 -461.95 -576.168 0 -444.717 -523.611 0 -427.006 -475.537 0 -408.762 -430.971 0 -389.396 -389.396 0 -368.751 -350.93 0 -346.891 -315.737 0 -325.203 -283.882 0 -304.253 -255.233 0 -284.044 -229.636 0 -264.626 -206.88 0 -246.031 -186.586 0 -228.261 -168.352 0 -211.344 -151.823 0 -195.31 -136.849 0 -180.158 -123.331 0 -165.889 -111.168 0 -152.503 -100.261 0 -140 -90.5105 0 -128.311 -81.8176 0 -117.27 -74.0898 0 -106.869 -67.2374 0 -97.109 -61.1713 0 -87.9894 -55.802 0 -79.5101 -51.0403 0 -71.6344 -46.7982 0 -64.1408 -43.0193 0 -56.9923 -39.6791 0 -50.1891 -36.7544 0 -43.731 -34.2219 0 -37.618 -32.0584 0 -31.8433 -30.2406 0 -26.2515 -28.7469 0 -20.7794 -27.5583 0 -15.4269 -26.6562 0 -10.1941 -26.0221 0 -5.08081 -25.6373 0 -0.0871733 -25.4832 0 -0.0315075 -261.749 0 7.98465 -262.075 0 15.9874 -263.051 0 23.9768 -264.681 0 31.9529 -266.968 0 39.9156 -269.915 0 47.8649 -273.525 0 55.8032 -277.802 0 63.7363 -282.753 0 71.6644 -288.387 0 79.5876 -294.714 0 87.5059 -301.743 0 95.4192 -309.483 0 103.322 -317.943 0 111.179 -327.142 0 118.985 -337.106 0 126.741 -347.864 0 134.445 -359.443 0 142.098 -371.869 0 149.701 -385.171 0 157.266 -399.376 0 164.798 -414.509 0 172.297 -430.598 0 179.763 -447.666 0 187.196 -465.738 0 194.594 -484.834 0 201.717 -504.988 0 208.321 -526.277 0 214.406 -548.786 0 220.091 -572.622 0 225.56 -598.017 0 230.817 -625.243 0 235.51 -654.506 0 238.78 -685.419 0 240.59 -717.29 0 240.869 -749.504 0 239.361 -782.57 0 236.04 -817.8 0 230.584 -856.427 0 221.05 -897.349 0 207.116 -937.138 0 188.884 -972.342 0 167.409 -1003.05 0 142.975 -1034.25 0 115.404 -1071.25 0 80.8078 -1112.47 0 37.597 -1142.98 0 -14.1167 -1146.31 0 -65.6009 -1116.01 0 -111.37 -1073.32 0 -151.423 -1044.18 0 -190.539 -1045.95 0 -233.495 -1061.52 0 -280.293 -1065.14 0 -325.556 -1035.83 0 -360.728 -980.254 0 -385.7 -915.067 0 -402.202 -855.413 0 -414.466 -802.992 0 -422.683 -752.585 0 -426.692 -699.278 0 -425.875 -643.042 0 -420.175 -587.375 0 -409.982 -535.747 0 -397.645 -489.272 0 -383.556 -446.71 0 -367.775 -406.734 0 -350.93 -368.751 0 -333.188 -333.188 0 -314.594 -300.543 0 -296.123 -271.078 0 -278.174 -244.59 0 -260.748 -220.823 0 -243.811 -199.509 0 -227.344 -180.348 0 -211.345 -163.034 0 -195.976 -147.298 0 -181.394 -133.013 0 -167.601 -120.088 0 -154.597 -108.432 0 -142.38 -97.954 0 -130.952 -88.5635 0 -120.247 -80.1701 0 -110.103 -72.6892 0 -100.514 -66.039 0 -91.4792 -60.1376 0 -82.999 -54.9033 0 -75.0733 -50.2541 0 -67.673 -46.1096 0 -60.624 -42.4173 0 -53.8972 -39.153 0 -47.4926 -36.2936 0 -41.4103 -33.8162 0 -35.6501 -31.6976 0 -30.2052 -29.9149 0 -24.9241 -28.447 0 -19.7448 -27.2768 0 -14.6672 -26.3873 0 -9.69139 -25.762 0 -4.81733 -25.3839 0 -0.045025 -25.2363 0 -0.0326977 -250.109 0 7.35406 -250.414 0 14.7246 -251.331 0 22.079 -252.861 0 29.4171 -255.008 0 36.7391 -257.773 0 44.0449 -261.16 0 51.3351 -265.17 0 58.6115 -269.811 0 65.874 -275.091 0 73.1228 -281.018 0 80.3577 -287.602 0 87.5789 -294.851 0 94.7786 -302.773 0 101.911 -311.384 0 108.968 -320.703 0 115.95 -330.751 0 122.857 -341.548 0 129.689 -353.116 0 136.446 -365.473 0 143.141 -378.644 0 149.776 -392.654 0 156.353 -407.53 0 162.871 -423.299 0 169.331 -439.988 0 175.732 -457.623 0 181.813 -476.235 0 187.314 -495.864 0 192.235 -516.555 0 196.622 -538.367 0 200.551 -561.455 0 204.021 -586.007 0 206.919 -612.171 0 208.968 -639.719 0 210.154 -668.236 0 210.101 -697.337 0 207.395 -727.118 0 201.901 -758.016 0 193.771 -790.432 0 183.922 -823.695 0 172.505 -856.069 0 159.122 -885.807 0 139.614 -912.851 0 112.874 -939.49 0 79.278 -968.152 0 47.1177 -997.755 0 19.7847 -1020.38 0 -2.87616 -1027.34 0 -32.9774 -1014.95 0 -78.1281 -993.344 0 -138.328 -975.023 0 -197.702 -968.361 0 -240.373 -965.2 0 -266.341 -953.248 0 -283.312 -922.575 0 -303.551 -877.04 0 -327.216 -825.494 0 -351.03 -776.006 0 -366.986 -729.788 0 -374.72 -684.521 0 -375.441 -638.023 0 -373.7 -590.4 0 -369.932 -543.4 0 -364.049 -498.765 0 -355.527 -457.172 0 -344.279 -418.233 0 -330.463 -381.52 0 -315.737 -346.891 0 -300.543 -314.594 0 -284.905 -284.905 0 -269.332 -257.944 0 -254.034 -233.527 0 -239.01 -211.433 0 -224.222 -191.446 0 -209.645 -173.352 0 -195.278 -156.939 0 -181.366 -142.016 0 -168.151 -128.47 0 -155.634 -116.21 0 -143.815 -105.144 0 -132.693 -95.1799 0 -122.269 -86.2259 0 -112.481 -78.1916 0 -103.178 -71 0 -94.3527 -64.5806 0 -86.0059 -58.8633 0 -78.1373 -53.7778 0 -70.7469 -49.2538 0 -63.8123 -45.2219 0 -57.1986 -41.6348 0 -50.8834 -38.4669 0 -44.8668 -35.6937 0 -39.1487 -33.2906 0 -33.7291 -31.233 0 -28.6014 -29.4963 0 -23.6201 -28.0598 0 -18.7254 -26.9094 0 -13.9175 -26.0324 0 -9.19635 -25.4155 0 -4.56191 -25.0459 0 -0.0142105 -24.9105 0 -0.0325341 -238.619 0 6.76301 -238.904 0 13.5403 -239.763 0 20.2994 -241.196 0 27.0401 -243.207 0 33.7627 -245.796 0 40.467 -248.965 0 47.1519 -252.716 0 53.8149 -257.055 0 60.4558 -261.991 0 67.0746 -267.531 0 73.6712 -273.683 0 80.2458 -280.455 0 86.7895 -287.856 0 93.2498 -295.896 0 99.6179 -304.589 0 105.894 -313.95 0 112.077 -323.991 0 118.169 -334.727 0 124.168 -346.172 0 130.08 -358.345 0 135.904 -371.274 0 141.643 -384.986 0 147.294 -399.51 0 152.859 -414.876 0 158.338 -431.112 0 163.468 -448.244 0 167.988 -466.291 0 171.898 -485.269 0 175.207 -505.2 0 177.93 -526.144 0 180.067 -548.176 0 181.607 -571.356 0 182.524 -595.653 0 182.815 -620.981 0 182.065 -647.243 0 178.713 -674.152 0 172.608 -701.283 0 164.001 -728.216 0 154.394 -754.727 0 144.039 -780.781 0 132.427 -806.348 0 114.271 -831.116 0 88.1649 -854.379 0 54.6375 -875.405 0 25.351 -893.568 0 5.07622 -908.45 0 -6.41166 -919.658 0 -26.6431 -926.473 0 -66.6308 -927.289 0 -126.375 -920.346 0 -185.394 -904.501 0 -223.208 -881.09 0 -239.816 -852.068 0 -246.303 -819.229 0 -260.311 -783.428 0 -282.066 -745.177 0 -306.911 -705.016 0 -323.455 -663.698 0 -331.181 -622.088 0 -331.573 -581.016 0 -330.209 -540.833 0 -327.623 -501.546 0 -323.633 -463.165 0 -317.153 -425.915 0 -308.001 -390.237 0 -296.341 -356.578 0 -283.882 -325.203 0 -271.078 -296.123 0 -257.944 -269.332 0 -244.778 -244.778 0 -231.703 -222.321 0 -218.718 -201.81 0 -205.792 -183.099 0 -192.907 -166.055 0 -180.062 -150.544 0 -167.54 -136.442 0 -155.622 -123.646 0 -144.309 -112.065 0 -133.6 -101.605 0 -123.496 -92.1707 0 -113.997 -83.67 0 -105.049 -76.0113 0 -96.5201 -69.1248 0 -88.4053 -62.9515 0 -80.7043 -57.4325 0 -73.4171 -52.509 0 -66.5437 -48.1223 0 -60.0665 -44.2141 0 -53.88 -40.742 0 -47.9666 -37.6793 0 -42.3264 -34.9999 0 -36.9594 -32.6778 0 -31.8655 -30.687 0 -27.0386 -29.0015 0 -22.3429 -27.6005 0 -17.7229 -26.4737 0 -13.1785 -25.6117 0 -8.70979 -25.0052 0 -4.31676 -24.6451 0 0.000602254 -24.522 0 -0.0312492 -227.339 0 6.21015 -227.606 0 12.4319 -228.408 0 18.6341 -229.749 0 24.8166 -231.628 0 30.9794 -234.047 0 37.1227 -237.006 0 43.2435 -240.508 0 49.3348 -244.558 0 55.3964 -249.163 0 61.4282 -254.33 0 67.4303 -260.066 0 73.4026 -266.38 0 79.336 -273.277 0 85.1752 -280.767 0 90.911 -288.858 0 96.5434 -297.557 0 102.072 -306.875 0 107.498 -316.819 0 112.82 -327.398 0 118.03 -338.628 0 123.124 -350.535 0 128.104 -363.148 0 132.967 -376.495 0 137.716 -390.606 0 142.349 -405.509 0 146.618 -421.226 0 150.274 -437.754 0 153.316 -455.083 0 155.744 -473.203 0 157.553 -492.112 0 158.744 -511.807 0 159.31 -532.292 0 159.236 -553.627 0 158.522 -575.899 0 156.879 -599.161 0 153.228 -622.996 0 147.463 -646.651 0 139.704 -669.392 0 130.653 -691.189 0 120.429 -712.713 0 108.667 -734.64 0 91.5723 -756.493 0 68.134 -776.197 0 38.7714 -791.575 0 12.701 -802.264 0 -6.30678 -811.427 0 -18.4181 -822.63 0 -36.5831 -836.696 0 -68.9373 -846.878 0 -115.481 -845.132 0 -161.391 -826.126 0 -191.847 -795.363 0 -206.847 -761.061 0 -214.57 -730.129 0 -228.033 -701.859 0 -247.402 -672.788 0 -269.026 -639.851 0 -283.978 -603.533 0 -291.852 -566.14 0 -293.704 -529.871 0 -293.503 -495.24 0 -291.629 -461.549 0 -288.038 -428.103 0 -282.48 -394.93 0 -274.911 -362.777 0 -265.442 -332.418 0 -255.233 -304.253 0 -244.59 -278.174 0 -233.527 -254.034 0 -222.321 -231.703 0 -211.086 -211.086 0 -199.821 -192.092 0 -188.509 -174.636 0 -177.137 -158.645 0 -165.705 -144.046 0 -154.498 -130.766 0 -143.803 -118.716 0 -133.62 -107.804 0 -123.947 -97.9362 0 -114.786 -89.0212 0 -106.137 -80.9663 0 -97.956 -73.6821 0 -90.1399 -67.1057 0 -82.6837 -61.1879 0 -75.5874 -55.8794 0 -68.851 -51.131 0 -62.4746 -46.8936 0 -56.4439 -43.1184 0 -50.6741 -39.7676 0 -45.151 -36.8139 0 -39.8747 -34.2306 0 -34.845 -31.9912 0 -30.0621 -30.0689 0 -25.5203 -28.4371 0 -21.0967 -27.0756 0 -16.7411 -25.9766 0 -12.4533 -25.1336 0 -8.23348 -24.5404 0 -4.08154 -24.1904 0 0.00248712 -24.0773 0 -0.0291035 -216.271 0 5.694 -216.519 0 11.3967 -217.268 0 17.0789 -218.518 0 22.7407 -220.271 0 28.3821 -222.526 0 34.003 -225.285 0 39.5989 -228.547 0 45.1587 -232.319 0 50.6818 -236.606 0 56.1683 -241.415 0 61.6181 -246.752 0 67.0313 -252.624 0 72.3986 -259.037 0 77.6654 -265.997 0 82.8223 -273.508 0 87.8694 -281.574 0 92.8067 -290.201 0 97.6341 -299.392 0 102.351 -309.151 0 106.934 -319.492 0 111.373 -330.438 0 115.67 -342.016 0 119.823 -354.254 0 123.833 -367.178 0 127.699 -380.814 0 131.199 -395.181 0 134.107 -410.253 0 136.425 -425.997 0 138.149 -442.378 0 139.279 -459.359 0 139.814 -476.902 0 139.711 -494.979 0 138.866 -513.644 0 137.276 -532.994 0 134.81 -553.1 0 130.984 -573.666 0 125.75 -594.136 0 119.059 -613.965 0 110.611 -633.073 0 100.356 -651.843 0 88.1296 -670.657 0 72.2163 -688.967 0 52.16 -704.935 0 28.194 -716.643 0 5.44954 -723.795 0 -13.9743 -729.257 0 -30.1529 -736.253 0 -48.9649 -745.73 0 -74.1033 -752.344 0 -105.568 -749.677 0 -136.479 -733.472 0 -159.957 -708.131 0 -176.002 -680.219 0 -188.324 -655.217 0 -202.832 -632.289 0 -219.601 -608.306 0 -236.658 -580.503 0 -249.177 -549.276 0 -256.937 -516.65 0 -260.416 -484.566 0 -261.403 -453.614 0 -260.071 -423.418 0 -256.547 -393.597 0 -251.598 -364.233 0 -245.352 -335.864 0 -237.859 -309.043 0 -229.636 -284.044 0 -220.823 -260.748 0 -211.433 -239.01 0 -201.81 -218.718 0 -192.092 -199.821 0 -182.28 -182.28 0 -172.366 -166.056 0 -162.344 -151.12 0 -152.214 -137.444 0 -142.24 -124.99 0 -132.687 -113.68 0 -123.555 -103.426 0 -114.844 -94.1389 0 -106.554 -85.7313 0 -98.6841 -78.1146 0 -91.2054 -71.2039 0 -84.0448 -64.9428 0 -77.199 -59.29 0 -70.6681 -54.2041 0 -64.452 -49.6438 0 -58.5507 -45.5678 0 -52.9523 -41.935 0 -47.5859 -38.7116 0 -42.4396 -35.8708 0 -37.5133 -33.386 0 -32.8071 -31.2308 0 -28.3209 -29.3787 0 -24.05 -27.8033 0 -19.8859 -26.4851 0 -15.7844 -25.4182 0 -11.7455 -24.5982 0 -7.76928 -24.0209 0 -3.85563 -23.6818 0 -0.00459255 -23.5765 0 -0.0263576 -205.413 0 5.21313 -205.644 0 10.4318 -206.341 0 15.6298 -207.505 0 20.8069 -209.136 0 25.9632 -211.234 0 31.0988 -213.8 0 36.2074 -216.833 0 41.2741 -220.339 0 46.298 -224.321 0 51.2793 -228.787 0 56.2179 -233.74 0 61.1138 -239.188 0 65.9582 -245.135 0 70.6988 -251.585 0 75.3268 -258.54 0 79.8421 -266 0 84.2447 -273.968 0 88.5348 -282.445 0 92.7104 -291.431 0 96.7334 -300.936 0 100.588 -310.982 0 104.274 -321.59 0 107.792 -332.786 0 111.142 -344.59 0 114.323 -357.028 0 117.146 -370.109 0 119.421 -383.796 0 121.148 -398.038 0 122.327 -412.784 0 122.957 -427.983 0 123.038 -443.582 0 122.494 -459.536 0 121.139 -475.863 0 118.966 -492.609 0 115.937 -509.813 0 111.906 -527.348 0 106.861 -544.972 0 100.688 -562.442 0 92.7059 -579.573 0 82.801 -596.233 0 70.9247 -612.288 0 56.5688 -627.186 0 39.5981 -639.805 0 20.1244 -648.986 0 0.604899 -654.441 0 -17.9551 -657.571 0 -35.5779 -659.971 0 -54.0054 -662.222 0 -74.3318 -662.111 0 -96.5571 -656.947 0 -118.295 -644.955 0 -137.16 -628.03 0 -153.151 -608.984 0 -167.369 -590.151 0 -181.563 -571.052 0 -195.757 -550.193 0 -209.067 -526.27 0 -219.337 -499.656 0 -226.468 -471.588 0 -230.601 -443.265 0 -232.268 -415.288 0 -231.518 -387.826 0 -228.54 -361.04 0 -224.454 -335.12 0 -219.45 -310.287 0 -213.54 -286.757 0 -206.88 -264.626 0 -199.509 -243.811 0 -191.446 -224.222 0 -183.099 -205.792 0 -174.636 -188.509 0 -166.056 -172.366 0 -157.357 -157.357 0 -148.537 -143.481 0 -139.596 -130.738 0 -130.763 -119.112 0 -122.266 -108.537 0 -114.104 -98.931 0 -106.278 -90.2127 0 -98.7882 -82.3011 0 -91.634 -75.1151 0 -84.7989 -68.5767 0 -78.2424 -62.6361 0 -71.9625 -57.2578 0 -65.9593 -52.4067 0 -60.2328 -48.0474 0 -54.7829 -44.1448 0 -49.5994 -40.6639 0 -44.6203 -37.5741 0 -39.8352 -34.8499 0 -35.2441 -32.4659 0 -30.8471 -30.3965 0 -26.644 -28.6163 0 -22.6308 -27.0998 0 -18.7145 -25.8288 0 -14.8571 -24.7984 0 -11.0587 -24.0055 0 -7.3191 -23.4469 0 -3.63843 -23.1193 0 -0.0166734 -23.0197 0 -0.0232718 -194.766 0 4.76607 -194.98 0 9.53464 -195.628 0 14.2824 -196.709 0 19.0095 -198.223 0 23.7157 -200.171 0 28.4012 -202.552 0 33.0583 -205.366 0 37.6685 -208.616 0 42.231 -212.308 0 46.7458 -216.444 0 51.2128 -221.031 0 55.6321 -226.072 0 59.9955 -231.572 0 64.254 -237.533 0 68.3994 -243.954 0 72.4318 -250.836 0 76.3512 -258.177 0 80.1574 -265.978 0 83.8483 -274.238 0 87.3716 -282.962 0 90.7059 -292.167 0 93.8513 -301.871 0 96.8078 -312.091 0 99.5754 -322.845 0 102.154 -334.15 0 104.391 -346.012 0 106.134 -358.388 0 107.383 -371.223 0 108.139 -384.461 0 108.399 -398.046 0 108.166 -411.922 0 107.34 -426.038 0 105.679 -440.382 0 103.172 -454.958 0 99.8144 -469.772 0 95.5885 -484.786 0 90.4923 -499.934 0 84.4295 -515.143 0 76.822 -530.183 0 67.5736 -544.669 0 56.6782 -558.208 0 44.0721 -570.302 0 29.7385 -580.311 0 13.7292 -587.586 0 -2.81716 -591.863 0 -19.4348 -593.623 0 -36.1266 -593.433 0 -53.1101 -591.604 0 -70.5223 -587.752 0 -88.363 -581.371 0 -105.772 -572.141 0 -121.889 -560.484 0 -136.714 -547.009 0 -150.385 -532.202 0 -163.12 -515.849 0 -174.922 -497.481 0 -185.44 -476.712 0 -193.812 -453.875 0 -200 -429.677 0 -204.022 -404.817 0 -205.944 -379.843 0 -205.772 -355.195 0 -203.668 -331.304 0 -200.598 -308.406 0 -196.723 -286.543 0 -192.046 -265.751 0 -186.586 -246.031 0 -180.348 -227.344 0 -173.352 -209.645 0 -166.055 -192.907 0 -158.645 -177.137 0 -151.12 -162.344 0 -143.481 -148.537 0 -135.728 -135.728 0 -127.861 -123.928 0 -120.066 -113.134 0 -112.53 -103.288 0 -105.254 -94.3197 0 -98.2373 -86.1576 0 -91.4799 -78.7306 0 -84.9819 -71.9677 0 -78.7389 -65.8006 0 -72.7402 -60.1854 0 -66.9851 -55.0912 0 -61.4738 -50.487 0 -56.2062 -46.3418 0 -51.1823 -42.6247 0 -46.3928 -39.3049 0 -41.7821 -36.355 0 -37.3408 -33.7514 0 -33.0689 -31.4704 0 -28.9664 -29.4883 0 -25.0334 -27.7817 0 -21.2662 -26.3269 0 -17.5869 -25.1068 0 -13.9636 -24.1173 0 -10.3962 -23.3554 0 -6.88479 -22.8182 0 -3.42931 -22.503 0 -0.0297921 -22.4067 0 -0.0201067 -184.33 0 4.35138 -184.528 0 8.70235 -185.128 0 13.0328 -186.13 0 17.3427 -187.533 0 21.6321 -189.336 0 25.901 -191.54 0 30.1407 -194.145 0 34.3296 -197.152 0 38.4668 -200.566 0 42.5523 -204.389 0 46.5861 -208.624 0 50.5682 -213.276 0 54.4911 -218.347 0 58.3093 -223.839 0 62.0153 -229.751 0 65.609 -236.081 0 69.0905 -242.828 0 72.4598 -249.992 0 75.714 -257.572 0 78.7906 -265.569 0 81.6642 -273.995 0 84.3346 -282.858 0 86.8019 -292.17 0 89.0661 -301.94 0 91.1271 -312.18 0 92.8662 -322.889 0 94.1643 -334.03 0 95.0214 -345.552 0 95.4376 -357.407 0 95.4128 -369.547 0 94.9471 -381.922 0 93.9298 -394.485 0 92.0906 -407.201 0 89.4171 -420.041 0 85.9094 -432.977 0 81.5674 -445.981 0 76.3912 -459.022 0 70.3316 -472.066 0 63.0932 -484.903 0 54.6268 -497.15 0 44.9325 -508.418 0 34.0103 -518.315 0 21.8601 -526.453 0 8.50867 -532.443 0 -5.45715 -536.063 0 -19.7972 -537.415 0 -34.5116 -536.639 0 -49.6003 -533.876 0 -65.0632 -529.266 0 -80.9004 -522.948 0 -96.3537 -515.03 0 -110.665 -505.495 0 -123.834 -494.291 0 -135.861 -481.37 0 -146.747 -466.68 0 -156.49 -450.172 0 -164.953 -431.829 0 -171.798 -411.933 0 -177.01 -390.919 0 -180.588 -369.222 0 -182.534 -347.28 0 -182.846 -325.527 0 -181.629 -304.391 0 -179.509 -284.09 0 -176.589 -264.634 0 -172.87 -246.024 0 -168.352 -228.261 0 -163.034 -211.345 0 -156.939 -195.278 0 -150.544 -180.062 0 -144.046 -165.705 0 -137.444 -152.214 0 -130.738 -139.596 0 -123.928 -127.861 0 -117.014 -117.014 0 -110.146 -107.054 0 -103.473 -97.9326 0 -96.9935 -89.5918 0 -90.7088 -81.9736 0 -84.6188 -75.0198 0 -78.7233 -68.6725 0 -73.0278 -62.8755 0 -67.5459 -57.5909 0 -62.2781 -52.7903 0 -57.2245 -48.4452 0 -52.3851 -44.527 0 -47.7598 -41.0075 0 -43.3403 -37.8582 0 -39.0763 -35.0544 0 -34.9594 -32.5752 0 -30.9895 -30.3995 0 -27.1667 -28.5064 0 -23.491 -26.875 0 -19.9595 -25.4844 0 -16.5073 -24.3192 0 -13.1081 -23.3749 0 -9.76172 -22.6479 0 -6.46824 -22.135 0 -3.22767 -21.8327 0 -0.0399854 -21.7377 0 -0.0170939 -174.14 0 3.96758 -174.323 0 7.93214 -174.878 0 11.8766 -175.803 0 15.8009 -177.1 0 19.7052 -178.766 0 23.5893 -180.802 0 27.4437 -183.207 0 31.2446 -185.983 0 34.9911 -189.133 0 38.683 -192.657 0 42.3205 -196.559 0 45.9035 -200.84 0 49.4249 -205.504 0 52.8423 -210.55 0 56.1485 -215.977 0 59.3436 -221.784 0 62.4276 -227.971 0 65.4004 -234.535 0 68.259 -241.476 0 70.9357 -248.794 0 73.4027 -256.491 0 75.66 -264.571 0 77.7077 -273.036 0 79.5458 -281.89 0 81.1742 -291.135 0 82.4988 -300.767 0 83.4255 -310.756 0 83.9544 -321.063 0 84.0854 -331.651 0 83.8186 -342.483 0 83.1539 -353.52 0 81.9807 -364.724 0 80.0288 -376.044 0 77.2859 -387.423 0 73.752 -398.805 0 69.4272 -410.134 0 64.3113 -421.353 0 58.3906 -432.401 0 51.5827 -443.116 0 43.8736 -453.235 0 35.2635 -462.49 0 25.7523 -470.612 0 15.3401 -477.335 0 4.04066 -482.392 0 -7.84024 -485.608 0 -20.1775 -486.992 0 -32.9713 -486.573 0 -46.2214 -484.38 0 -59.9279 -480.443 0 -74.0909 -474.79 0 -87.9125 -467.454 0 -100.595 -458.483 0 -112.138 -447.929 0 -122.543 -435.842 0 -131.808 -422.274 0 -139.934 -407.277 0 -146.886 -390.919 0 -152.577 -373.426 0 -157.004 -355.103 0 -160.167 -336.258 0 -162.066 -317.195 0 -162.701 -298.222 0 -162.132 -279.639 0 -160.723 -261.618 0 -158.535 -244.203 0 -155.569 -227.433 0 -151.823 -211.344 0 -147.298 -195.976 0 -142.016 -181.366 0 -136.442 -167.54 0 -130.766 -154.498 0 -124.99 -142.24 0 -119.112 -130.763 0 -113.134 -120.066 0 -107.054 -110.146 0 -100.996 -100.996 0 -95.0803 -92.5762 0 -89.3083 -84.8433 0 -83.6797 -77.7523 0 -78.1943 -71.2584 0 -72.8522 -65.3168 0 -67.6656 -59.8841 0 -62.6642 -54.9278 0 -57.8493 -50.4212 0 -53.221 -46.3373 0 -48.7792 -42.6496 0 -44.5239 -39.3311 0 -40.4478 -36.3553 0 -36.5067 -33.6999 0 -32.6933 -31.3466 0 -29.0074 -29.2774 0 -25.4493 -27.4743 0 -22.0187 -25.9192 0 -18.7134 -24.5942 0 -15.4792 -23.4856 0 -12.2941 -22.5883 0 -9.158 -21.898 0 -6.071 -21.4106 0 -3.03307 -21.1217 0 -0.0442086 -21.0272 0 -0.0143493 -164.231 0 3.61312 -164.4 0 7.221 -164.911 0 10.8093 -165.765 0 14.378 -166.96 0 17.927 -168.496 0 21.4565 -170.372 0 24.9561 -172.589 0 28.4006 -175.146 0 31.7889 -178.045 0 35.121 -181.287 0 38.3969 -184.873 0 41.6165 -188.806 0 44.7732 -193.085 0 47.8268 -197.71 0 50.7704 -202.682 0 53.6042 -207.997 0 56.3281 -213.655 0 58.9421 -219.655 0 61.4431 -225.994 0 63.7626 -232.672 0 65.8726 -239.685 0 67.7732 -247.031 0 69.4642 -254.705 0 70.9457 -262.706 0 72.2178 -271.03 0 73.2027 -279.67 0 73.823 -288.601 0 74.0786 -297.794 0 73.9695 -307.221 0 73.4957 -316.851 0 72.6573 -326.656 0 71.3532 -336.604 0 69.3362 -346.633 0 66.5952 -356.668 0 63.1302 -366.632 0 58.9412 -376.449 0 54.0281 -386.044 0 48.396 -395.337 0 42.0748 -404.207 0 35.0695 -412.484 0 27.38 -419.999 0 19.0064 -426.581 0 9.94859 -432.06 0 0.214255 -436.266 0 -10.0302 -439.067 0 -20.7168 -440.401 0 -31.8455 -440.216 0 -43.4162 -438.457 0 -55.429 -435.072 0 -67.8839 -430.009 0 -80.0355 -423.244 0 -91.1384 -414.872 0 -101.193 -405.018 0 -110.198 -393.806 0 -118.155 -381.362 0 -125.063 -367.81 0 -130.933 -353.28 0 -135.79 -337.951 0 -139.634 -322.024 0 -142.467 -305.703 0 -144.287 -289.188 0 -145.096 -272.684 0 -144.928 -256.389 0 -143.998 -240.437 0 -142.341 -224.896 0 -139.959 -209.832 0 -136.849 -195.31 0 -133.013 -181.394 0 -128.47 -168.151 0 -123.646 -155.622 0 -118.716 -143.803 0 -113.68 -132.687 0 -108.537 -122.266 0 -103.288 -112.53 0 -97.9326 -103.473 0 -92.5762 -95.0803 0 -87.3241 -87.3241 0 -82.1763 -80.1703 0 -77.1329 -73.5854 0 -72.1938 -67.5359 0 -67.359 -61.9882 0 -62.6444 -56.9093 0 -58.0887 -52.2715 0 -53.6938 -48.05 0 -49.4595 -44.2198 0 -45.3859 -40.756 0 -41.4729 -37.6337 0 -37.7145 -34.8281 0 -34.0732 -32.3192 0 -30.5428 -30.0911 0 -27.1233 -28.1285 0 -23.8147 -26.4157 0 -20.6171 -24.9375 0 -17.5283 -23.6782 0 -14.5027 -22.6258 0 -11.5217 -21.7749 0 -8.58518 -21.1206 0 -5.69326 -20.6582 0 -2.8459 -20.383 0 -0.0430924 -20.2901 0 -0.0119601 -154.602 0 3.28647 -154.758 0 6.56587 -155.228 0 9.82625 -156.014 0 13.0676 -157.113 0 16.2899 -158.526 0 19.4932 -160.251 0 22.6668 -162.289 0 25.7845 -164.639 0 28.8453 -167.302 0 31.849 -170.279 0 34.7956 -173.568 0 37.6853 -177.172 0 40.5115 -181.09 0 43.2357 -185.321 0 45.8516 -189.865 0 48.359 -194.719 0 50.7581 -199.882 0 53.0487 -205.352 0 55.228 -211.127 0 57.2301 -217.204 0 59.028 -223.577 0 60.6218 -230.236 0 62.0114 -237.176 0 63.1969 -244.389 0 64.1782 -251.866 0 64.888 -259.599 0 65.2589 -267.566 0 65.2908 -275.746 0 64.9838 -284.115 0 64.3378 -292.65 0 63.3529 -301.329 0 61.944 -310.124 0 59.903 -318.969 0 57.2203 -327.776 0 53.8962 -336.457 0 49.9304 -344.925 0 45.3231 -353.093 0 40.0854 -360.874 0 34.2841 -368.173 0 27.9303 -374.896 0 21.024 -380.944 0 13.5652 -386.22 0 5.55398 -390.627 0 -3.00373 -394.068 0 -11.9756 -396.442 0 -21.3076 -397.644 0 -30.9996 -397.568 0 -41.0517 -396.107 0 -51.4638 -393.155 0 -62.236 -388.606 0 -72.7388 -382.4 0 -82.3427 -374.66 0 -91.0477 -365.558 0 -98.8538 -355.262 0 -105.761 -343.943 0 -111.769 -331.771 0 -116.892 -318.913 0 -121.163 -305.509 0 -124.583 -291.681 0 -127.152 -277.557 0 -128.871 -263.258 0 -129.739 -248.911 0 -129.781 -234.639 0 -129.146 -220.545 0 -127.86 -206.712 0 -125.921 -193.222 0 -123.331 -180.158 0 -120.088 -167.601 0 -116.21 -155.634 0 -112.065 -144.309 0 -107.804 -133.62 0 -103.426 -123.555 0 -98.931 -114.104 0 -94.3197 -105.254 0 -89.5918 -96.9935 0 -84.8433 -89.3083 0 -80.1703 -82.1763 0 -75.5727 -75.5727 0 -71.0505 -69.4729 0 -66.6038 -63.8524 0 -62.2325 -58.6866 0 -57.9539 -53.9509 0 -53.8101 -49.6219 0 -49.8031 -45.6767 0 -45.9329 -42.0925 0 -42.1995 -38.8463 0 -38.6028 -35.9152 0 -35.1378 -33.2765 0 -31.7744 -30.9122 0 -28.5076 -28.8087 0 -25.3373 -26.9526 0 -22.2636 -25.3308 0 -19.2864 -23.9298 0 -16.404 -22.7364 0 -13.5773 -21.7399 0 -10.7902 -20.9346 0 -8.04271 -20.3157 0 -5.33489 -19.878 0 -2.66671 -19.6165 0 -0.0381862 -19.5263 0 -0.0100134 -145.254 0 2.98606 -145.397 0 5.96369 -145.83 0 8.92288 -146.551 0 11.8636 -147.56 0 14.786 -148.856 0 17.6898 -150.439 0 20.5644 -152.309 0 23.3832 -154.465 0 26.1449 -156.906 0 28.8495 -159.632 0 31.4972 -162.643 0 34.0877 -165.939 0 36.6151 -169.519 0 39.042 -173.382 0 41.3624 -177.527 0 43.5763 -181.95 0 45.6835 -186.65 0 47.6842 -191.625 0 49.5756 -196.874 0 51.2967 -202.39 0 52.8228 -208.165 0 54.1537 -214.188 0 55.2895 -220.449 0 56.2303 -226.938 0 56.9759 -233.643 0 57.4649 -240.553 0 57.6356 -247.651 0 57.4881 -254.918 0 57.0223 -262.334 0 56.2383 -269.881 0 55.1361 -277.539 0 53.65 -285.285 0 51.6192 -293.051 0 49.0366 -300.746 0 45.9022 -308.28 0 42.2159 -315.563 0 37.9777 -322.503 0 33.1964 -329.011 0 27.9249 -335.017 0 22.172 -340.471 0 15.9376 -345.326 0 9.22183 -349.53 0 2.02461 -353.036 0 -5.64646 -355.795 0 -13.6248 -357.731 0 -21.8423 -358.719 0 -30.2989 -358.629 0 -38.9947 -357.33 0 -47.9296 -354.69 0 -57.1037 -350.58 0 -66.0384 -344.922 0 -74.2552 -337.849 0 -81.7542 -329.549 0 -88.5353 -320.209 0 -94.5986 -310.017 0 -99.9441 -299.16 0 -104.561 -287.818 0 -108.426 -276.098 0 -111.535 -264.075 0 -113.891 -251.819 0 -115.492 -239.405 0 -116.339 -226.905 0 -116.454 -214.39 0 -115.981 -201.943 0 -114.942 -189.651 0 -113.338 -177.604 0 -111.168 -165.889 0 -108.432 -154.597 0 -105.144 -143.815 0 -101.605 -133.6 0 -97.9362 -123.947 0 -94.1389 -114.844 0 -90.2127 -106.278 0 -86.1576 -98.2373 0 -81.9736 -90.7088 0 -77.7523 -83.6797 0 -73.5854 -77.1329 0 -69.4729 -71.0505 0 -65.4149 -65.4149 0 -61.4112 -60.208 0 -57.4618 -55.412 0 -53.584 -51.009 0 -49.8191 -46.979 0 -46.1692 -43.3014 0 -42.6343 -39.9555 0 -39.2143 -36.9205 0 -35.9092 -34.1757 0 -32.7153 -31.7006 0 -29.6093 -29.479 0 -26.5876 -27.4993 0 -23.6499 -25.75 0 -20.7965 -24.2194 0 -18.0272 -22.8962 0 -15.3405 -21.7687 0 -12.7024 -20.8276 0 -10.0989 -20.0675 0 -7.53001 -19.4832 0 -4.99574 -19.0698 0 -2.49608 -18.8223 0 -0.0310394 -18.7358 0 -0.0085962 -136.187 0 2.71033 -136.318 0 5.41138 -136.715 0 8.09456 -137.375 0 10.7599 -138.299 0 13.4073 -139.486 0 16.0369 -140.936 0 18.6377 -142.648 0 21.1834 -144.621 0 23.6726 -146.854 0 26.1054 -149.347 0 28.4819 -152.098 0 30.8019 -155.107 0 33.0594 -158.373 0 35.2187 -161.893 0 37.2736 -165.666 0 39.2242 -169.69 0 41.0705 -173.96 0 42.8124 -178.476 0 44.4475 -183.234 0 45.9212 -188.23 0 47.2109 -193.451 0 48.3168 -198.887 0 49.2387 -204.525 0 49.9769 -210.353 0 50.5311 -216.361 0 50.8433 -222.534 0 50.8554 -228.856 0 50.5673 -235.31 0 49.9791 -241.879 0 49.0908 -248.543 0 47.9023 -255.287 0 46.3678 -262.087 0 44.3752 -268.88 0 41.9195 -275.58 0 39.0005 -282.102 0 35.6183 -288.361 0 31.773 -294.271 0 27.4666 -299.748 0 22.7117 -304.737 0 17.5105 -309.21 0 11.863 -313.144 0 5.76908 -316.512 0 -0.771138 -319.288 0 -7.74712 -321.448 0 -14.9263 -322.935 0 -22.2136 -323.627 0 -29.6089 -323.4 0 -37.1123 -322.126 0 -44.7238 -319.679 0 -52.4433 -315.932 0 -59.9501 -310.809 0 -66.9232 -304.437 0 -73.3627 -296.991 0 -79.2685 -288.649 0 -84.6407 -279.585 0 -89.4792 -269.978 0 -93.7381 -259.993 0 -97.3051 -249.72 0 -100.175 -239.204 0 -102.348 -228.491 0 -103.824 -217.629 0 -104.602 -206.664 0 -104.711 -195.643 0 -104.315 -184.631 0 -103.441 -173.714 0 -102.09 -162.976 0 -100.261 -152.503 0 -97.954 -142.38 0 -95.1799 -132.693 0 -92.1707 -123.496 0 -89.0212 -114.786 0 -85.7313 -106.554 0 -82.3011 -98.7882 0 -78.7306 -91.4799 0 -75.0198 -84.6188 0 -71.2584 -78.1943 0 -67.5359 -72.1938 0 -63.8524 -66.6038 0 -60.208 -61.4112 0 -56.6025 -56.6025 0 -53.036 -52.1645 0 -49.5244 -48.0836 0 -46.1064 -44.3429 0 -42.7838 -40.9241 0 -39.5565 -37.8087 0 -36.4247 -34.9786 0 -33.3882 -32.4151 0 -30.4443 -30.1002 0 -27.5766 -28.0196 0 -24.7823 -26.163 0 -22.0614 -24.5204 0 -19.4138 -23.0816 0 -16.8397 -21.8366 0 -14.3376 -20.7753 0 -11.8775 -19.8892 0 -9.44713 -19.1734 0 -7.04653 -18.6232 0 -4.67567 -18.2337 0 -2.33456 -18.0005 0 -0.0232014 -17.9186 0 -0.00779571 -127.401 0 2.45772 -127.521 0 4.90588 -127.884 0 7.33666 -128.487 0 9.75008 -129.332 0 12.1461 -130.417 0 14.5248 -131.742 0 16.8755 -133.306 0 19.1721 -135.109 0 21.4134 -137.149 0 23.5994 -139.424 0 25.7301 -141.934 0 27.8056 -144.677 0 29.82 -147.651 0 31.7386 -150.855 0 33.5556 -154.285 0 35.2711 -157.938 0 36.8849 -161.812 0 38.3972 -165.904 0 39.8057 -170.209 0 41.062 -174.723 0 42.1464 -179.435 0 43.0588 -184.332 0 43.7992 -189.403 0 44.3676 -194.636 0 44.7641 -200.019 0 44.9335 -205.54 0 44.8206 -211.181 0 44.4255 -216.923 0 43.7482 -222.748 0 42.7887 -228.637 0 41.5469 -234.571 0 39.9943 -240.529 0 38.0611 -246.455 0 35.7441 -252.277 0 33.0434 -257.923 0 29.9588 -263.321 0 26.4905 -268.399 0 22.6336 -273.086 0 18.359 -277.333 0 13.6618 -281.113 0 8.54212 -284.399 0 2.99988 -287.164 0 -2.9649 -289.383 0 -9.33888 -291.028 0 -15.8286 -292.053 0 -22.3139 -292.368 0 -28.7948 -291.88 0 -35.2714 -290.495 0 -41.7437 -288.12 0 -48.2116 -284.661 0 -54.4901 -280.063 0 -60.3941 -274.425 0 -65.9238 -267.885 0 -71.0791 -260.58 0 -75.86 -252.647 0 -80.2664 -244.223 0 -84.2202 -235.44 0 -87.5296 -226.373 0 -90.1862 -217.069 0 -92.1898 -207.572 0 -93.5405 -197.931 0 -94.2382 -188.19 0 -94.3149 -178.396 0 -93.9613 -168.609 0 -93.2094 -158.9 0 -92.0591 -149.339 0 -90.5105 -140 0 -88.5635 -130.952 0 -86.2259 -122.269 0 -83.67 -113.997 0 -80.9663 -106.137 0 -78.1146 -98.6841 0 -75.1151 -91.634 0 -71.9677 -84.9819 0 -68.6725 -78.7233 0 -65.3168 -72.8522 0 -61.9882 -67.359 0 -58.6866 -62.2325 0 -55.412 -57.4618 0 -52.1645 -53.036 0 -48.9441 -48.9441 0 -45.765 -45.1746 0 -42.6626 -41.7135 0 -39.6385 -38.5446 0 -36.6926 -35.6523 0 -33.8249 -33.0205 0 -31.0355 -30.6335 0 -28.3225 -28.4755 0 -25.6751 -26.534 0 -23.0916 -24.7998 0 -20.572 -23.264 0 -18.1162 -21.9174 0 -15.7243 -20.7511 0 -13.395 -19.756 0 -11.102 -18.9246 0 -8.83417 -18.2525 0 -6.59171 -17.7356 0 -4.37456 -17.3698 0 -2.18273 -17.1509 0 -0.0162217 -17.0748 0 -0.00767807 -118.887 0 2.22672 -118.998 0 4.44416 -119.328 0 6.64464 -119.879 0 8.82816 -120.649 0 10.9947 -121.638 0 13.1443 -122.847 0 15.2666 -124.273 0 17.3363 -125.917 0 19.3522 -127.776 0 21.3144 -129.849 0 23.2228 -132.134 0 25.0774 -134.63 0 26.8727 -137.335 0 28.5753 -140.245 0 30.1796 -143.359 0 31.6857 -146.671 0 33.0935 -150.178 0 34.4031 -153.878 0 35.6124 -157.765 0 36.6786 -161.835 0 37.584 -166.078 0 38.3286 -170.481 0 38.9125 -175.036 0 39.3356 -179.731 0 39.5979 -184.555 0 39.6487 -189.497 0 39.4372 -194.536 0 38.9634 -199.652 0 38.2272 -204.824 0 37.2286 -210.03 0 35.9678 -215.25 0 34.4281 -220.46 0 32.5692 -225.616 0 30.3892 -230.666 0 27.8882 -235.555 0 25.0661 -240.229 0 21.923 -244.636 0 18.4506 -248.72 0 14.5989 -252.434 0 10.3597 -255.735 0 5.73292 -258.578 0 0.718635 -260.92 0 -4.68319 -262.719 0 -10.4582 -263.929 0 -16.2902 -264.509 0 -22.05 -264.414 0 -27.7374 -263.601 0 -33.3526 -262.028 0 -38.8955 -259.65 0 -44.3662 -256.425 0 -49.668 -252.33 0 -54.7045 -247.426 0 -59.4756 -241.795 0 -63.9814 -235.518 0 -68.2218 -228.678 0 -72.1969 -221.356 0 -75.8129 -213.632 0 -78.8411 -205.577 0 -81.2709 -197.251 0 -83.1024 -188.719 0 -84.3356 -180.042 0 -84.9705 -171.285 0 -85.0397 -162.509 0 -84.7394 -153.771 0 -84.1023 -145.125 0 -83.1284 -136.62 0 -81.8176 -128.311 0 -80.1701 -120.247 0 -78.1916 -112.481 0 -76.0113 -105.049 0 -73.6821 -97.956 0 -71.2039 -91.2054 0 -68.5767 -84.7989 0 -65.8006 -78.7389 0 -62.8755 -73.0278 0 -59.8841 -67.6656 0 -56.9093 -62.6444 0 -53.9509 -57.9539 0 -51.009 -53.584 0 -48.0836 -49.5244 0 -45.1746 -45.765 0 -42.2955 -42.2955 0 -39.4784 -39.1033 0 -36.7251 -36.1753 0 -34.0353 -33.4981 0 -31.4093 -31.0582 0 -28.8468 -28.8424 0 -26.3469 -26.8374 0 -23.9033 -25.0324 0 -21.515 -23.419 0 -19.1818 -21.989 0 -16.9039 -20.7342 0 -14.6812 -19.6463 0 -12.5127 -18.717 0 -10.3752 -17.9397 0 -8.2593 -17.3107 0 -6.16498 -16.8265 0 -4.09224 -16.4839 0 -2.04108 -16.2794 0 -0.0114961 -16.2096 0 -0.00812737 -110.627 0 2.01603 -110.727 0 4.02355 -111.028 0 6.01444 -111.529 0 7.9887 -112.229 0 9.94632 -113.129 0 11.8873 -114.227 0 13.8017 -115.524 0 15.6653 -117.018 0 17.4768 -118.707 0 19.2364 -120.59 0 20.944 -122.664 0 22.5996 -124.928 0 24.198 -127.379 0 25.7072 -130.015 0 27.122 -132.831 0 28.4423 -135.824 0 29.6683 -138.99 0 30.7997 -142.324 0 31.835 -145.823 0 32.7355 -149.48 0 33.4854 -153.287 0 34.0847 -157.233 0 34.5334 -161.31 0 34.8314 -165.507 0 34.9789 -169.814 0 34.9309 -174.22 0 34.6425 -178.704 0 34.1137 -183.244 0 33.3445 -187.817 0 32.3349 -192.401 0 31.085 -196.972 0 29.5848 -201.508 0 27.8107 -205.973 0 25.7614 -210.331 0 23.437 -214.542 0 20.8375 -218.566 0 17.9629 -222.367 0 14.8053 -225.904 0 11.3179 -229.13 0 7.49292 -231.991 0 3.3303 -234.431 0 -1.16994 -236.395 0 -6.0078 -237.826 0 -11.1698 -238.671 0 -16.3584 -238.89 0 -21.4521 -238.474 0 -26.4508 -237.421 0 -31.3545 -235.726 0 -36.1632 -233.384 0 -40.8769 -230.391 0 -45.4399 -226.751 0 -49.7962 -222.494 0 -53.946 -217.658 0 -57.8892 -212.28 0 -61.6257 -206.4 0 -65.1557 -200.054 0 -68.3883 -193.282 0 -71.1017 -186.149 0 -73.2857 -178.727 0 -74.9403 -171.09 0 -76.0656 -163.313 0 -76.6615 -155.47 0 -76.7576 -147.634 0 -76.5308 -139.859 0 -76.0105 -132.183 0 -75.1968 -124.642 0 -74.0898 -117.27 0 -72.6892 -110.103 0 -71 -103.178 0 -69.1248 -96.5201 0 -67.1057 -90.1399 0 -64.9428 -84.0448 0 -62.6361 -78.2424 0 -60.1854 -72.7402 0 -57.5909 -67.5459 0 -54.9278 -62.6642 0 -52.2715 -58.0887 0 -49.6219 -53.8101 0 -46.979 -49.8191 0 -44.3429 -46.1064 0 -41.7135 -42.6626 0 -39.1033 -39.4784 0 -36.5432 -36.5432 0 -34.0346 -33.8459 0 -31.5774 -31.3753 0 -29.1715 -29.1204 0 -26.8172 -27.0699 0 -24.5137 -25.2128 0 -22.2581 -23.5398 0 -20.0498 -22.0434 0 -17.8889 -20.7161 0 -15.7754 -19.5503 0 -13.7092 -18.5386 0 -11.6895 -17.6736 0 -9.69641 -16.9492 0 -7.72187 -16.3624 0 -5.76587 -15.9104 0 -3.8284 -15.5905 0 -1.90947 -15.4 0 -0.00908546 -15.3362 0 -0.00893389 -102.618 0 1.8245 -102.71 0 3.64158 -102.983 0 5.4423 -103.437 0 7.22666 -104.071 0 8.99467 -104.887 0 10.7463 -105.882 0 12.4722 -107.057 0 14.1491 -108.411 0 15.776 -109.941 0 17.3529 -111.645 0 18.8798 -113.521 0 20.3567 -115.567 0 21.7786 -117.782 0 23.1153 -120.161 0 24.3618 -122.7 0 25.518 -125.396 0 26.5839 -128.244 0 27.5596 -131.239 0 28.4435 -134.378 0 29.2004 -137.654 0 29.816 -141.059 0 30.2903 -144.584 0 30.6233 -148.22 0 30.8149 -151.958 0 30.8653 -155.789 0 30.7363 -159.702 0 30.3898 -163.676 0 29.8259 -167.688 0 29.0445 -171.715 0 28.0458 -175.735 0 26.8295 -179.722 0 25.3889 -183.656 0 23.7066 -187.508 0 21.7819 -191.253 0 19.6149 -194.862 0 17.2055 -198.309 0 14.5537 -201.566 0 11.6549 -204.604 0 8.48199 -207.38 0 5.03026 -209.833 0 1.29976 -211.901 0 -2.70951 -213.524 0 -6.99755 -214.64 0 -11.553 -215.187 0 -16.126 -215.132 0 -20.6142 -214.491 0 -25.0177 -213.287 0 -29.3364 -211.542 0 -33.5705 -209.279 0 -37.7198 -206.52 0 -41.734 -203.285 0 -45.5629 -199.584 0 -49.2065 -195.424 0 -52.6647 -190.812 0 -55.9376 -185.753 0 -59.0252 -180.256 0 -61.8523 -174.332 0 -64.2355 -168.036 0 -66.1664 -161.449 0 -67.645 -154.648 0 -68.6713 -147.713 0 -69.2454 -140.723 0 -69.3907 -133.755 0 -69.2484 -126.861 0 -68.8421 -120.067 0 -68.1718 -113.395 0 -67.2374 -106.869 0 -66.039 -100.514 0 -64.5806 -94.3527 0 -62.9515 -88.4053 0 -61.1879 -82.6837 0 -59.29 -77.199 0 -57.2578 -71.9625 0 -55.0912 -66.9851 0 -52.7903 -62.2781 0 -50.4212 -57.8493 0 -48.05 -53.6938 0 -45.6767 -49.8031 0 -43.3014 -46.1692 0 -40.9241 -42.7838 0 -38.5446 -39.6385 0 -36.1753 -36.7251 0 -33.8459 -34.0346 0 -31.5578 -31.5578 0 -29.3109 -29.2855 0 -27.1054 -27.2084 0 -24.941 -25.3173 0 -22.8179 -23.603 0 -20.735 -22.0576 0 -18.6925 -20.6741 0 -16.6902 -19.446 0 -14.7281 -18.3665 0 -12.8063 -17.4289 0 -10.924 -16.6263 0 -9.06458 -15.9536 0 -7.22121 -15.4082 0 -5.3939 -14.9879 0 -3.58265 -14.6904 0 -1.78747 -14.5135 0 -0.00836304 -14.455 0 -0.00988718 -94.862 0 1.65098 -94.9449 0 3.29575 -95.1917 0 4.92444 -95.602 0 6.53704 -96.1755 0 8.13354 -96.9121 0 9.71396 -97.8114 0 11.2693 -98.8729 0 12.7778 -100.095 0 14.2385 -101.476 0 15.6512 -103.014 0 17.0161 -104.705 0 18.333 -106.549 0 19.5974 -108.543 0 20.7807 -110.683 0 21.8781 -112.966 0 22.8896 -115.387 0 23.8153 -117.941 0 24.6552 -120.623 0 25.4078 -123.431 0 26.0408 -126.357 0 26.5412 -129.393 0 26.9088 -132.532 0 27.1437 -135.765 0 27.246 -139.083 0 27.2155 -142.479 0 27.0214 -145.942 0 26.6328 -149.451 0 26.0496 -152.983 0 25.2719 -156.518 0 24.2997 -160.031 0 23.1328 -163.5 0 21.7646 -166.904 0 20.1779 -170.221 0 18.3721 -173.432 0 16.347 -176.517 0 14.1029 -179.457 0 11.6395 -182.231 0 8.95725 -184.82 0 6.05768 -187.183 0 2.94106 -189.259 0 -0.392597 -190.988 0 -3.9433 -192.308 0 -7.71105 -193.158 0 -11.6874 -193.477 0 -15.686 -193.236 0 -19.6307 -192.464 0 -23.5216 -191.199 0 -27.3585 -189.477 0 -31.1415 -187.335 0 -34.8706 -184.811 0 -38.4784 -181.933 0 -41.8976 -178.699 0 -45.1281 -175.096 0 -48.1698 -171.113 0 -51.023 -166.739 0 -53.6874 -161.964 0 -56.1112 -156.781 0 -58.1673 -151.239 0 -59.8498 -145.418 0 -61.1589 -139.393 0 -62.0945 -133.242 0 -62.6566 -127.044 0 -62.8614 -120.873 0 -62.8055 -114.777 0 -62.5052 -108.774 0 -61.9605 -102.879 0 -61.1713 -97.109 0 -60.1376 -91.4792 0 -58.8633 -86.0059 0 -57.4325 -80.7043 0 -55.8794 -75.5874 0 -54.2041 -70.6681 0 -52.4067 -65.9593 0 -50.487 -61.4738 0 -48.4452 -57.2245 0 -46.3373 -53.221 0 -44.2198 -49.4595 0 -42.0925 -45.9329 0 -39.9555 -42.6343 0 -37.8087 -39.5565 0 -35.6523 -36.6926 0 -33.4981 -34.0353 0 -31.3753 -31.5774 0 -29.2855 -29.3109 0 -27.2285 -27.2285 0 -25.2043 -25.3223 0 -23.213 -23.5846 0 -21.2546 -22.008 0 -19.33 -20.5855 0 -17.4393 -19.3111 0 -15.5825 -18.1789 0 -13.7596 -17.1828 0 -11.9706 -16.317 0 -10.2149 -15.5753 0 -8.47874 -14.9531 0 -6.75666 -14.4483 0 -5.04861 -14.0591 0 -3.3546 -13.7835 0 -1.67463 -13.6198 0 -0.00869638 -13.566 0 -0.0107768 -87.358 0 1.4943 -87.4327 0 2.98359 -87.6551 0 4.45709 -88.0249 0 5.91479 -88.5417 0 7.35669 -89.2053 0 8.78281 -90.0152 0 10.1847 -90.9711 0 11.5418 -92.0713 0 12.8532 -93.3138 0 14.1189 -94.6963 0 15.3388 -96.2167 0 16.5131 -97.8729 0 17.6371 -99.6626 0 18.6842 -101.583 0 19.65 -103.628 0 20.5344 -105.796 0 21.3374 -108.08 0 22.059 -110.476 0 22.6979 -112.981 0 23.2243 -115.588 0 23.6262 -118.29 0 23.9035 -121.078 0 24.0563 -123.946 0 24.0844 -126.884 0 23.988 -129.886 0 23.7429 -132.94 0 23.3251 -136.029 0 22.7345 -139.13 0 21.9711 -142.224 0 21.035 -145.29 0 19.9262 -148.306 0 18.6364 -151.253 0 17.1457 -154.112 0 15.4531 -156.868 0 13.5587 -159.506 0 11.4625 -162.01 0 9.16444 -164.364 0 6.66997 -166.552 0 4.01158 -168.539 0 1.1947 -170.27 0 -1.78068 -171.691 0 -4.91455 -172.746 0 -8.20692 -173.381 0 -11.6524 -173.542 0 -15.1317 -173.201 0 -18.5962 -172.394 0 -22.0458 -171.157 0 -25.4805 -169.531 0 -28.9004 -167.554 0 -32.3054 -165.266 0 -35.6012 -162.696 0 -38.6932 -159.836 0 -41.5816 -156.671 0 -44.2663 -153.184 0 -46.7473 -149.358 0 -49.0246 -145.176 0 -51.0713 -140.629 0 -52.8217 -135.758 0 -54.2727 -130.633 0 -55.4244 -125.324 0 -56.2768 -119.901 0 -56.8299 -114.432 0 -57.0922 -108.988 0 -57.1154 -103.608 0 -56.9081 -98.3062 0 -56.4703 -93.096 0 -55.802 -87.9894 0 -54.9033 -82.999 0 -53.7778 -78.1373 0 -52.509 -73.4171 0 -51.131 -68.851 0 -49.6438 -64.452 0 -48.0474 -60.2328 0 -46.3418 -56.2062 0 -44.527 -52.3851 0 -42.6496 -48.7792 0 -40.756 -45.3859 0 -38.8463 -42.1995 0 -36.9205 -39.2143 0 -34.9786 -36.4247 0 -33.0205 -33.8249 0 -31.0582 -31.4093 0 -29.1204 -29.1715 0 -27.2084 -27.1054 0 -25.3223 -25.2043 0 -23.4619 -23.4619 0 -21.6275 -21.8719 0 -19.8191 -20.4277 0 -18.0388 -19.1237 0 -16.2867 -17.9544 0 -14.5629 -16.9147 0 -12.8673 -15.9993 0 -11.2001 -15.2029 0 -9.56059 -14.5204 0 -7.93792 -13.9475 0 -6.32757 -13.4826 0 -4.72955 -13.1238 0 -3.14386 -12.8698 0 -1.57049 -12.7189 0 -0.00945303 -12.6694 0 -0.0113922 -80.1061 0 1.35333 -80.1731 0 2.70261 -80.373 0 4.03647 -80.7054 0 5.35489 -81.1699 0 6.65788 -81.7661 0 7.94544 -82.4935 0 9.20965 -83.3517 0 10.4311 -84.3391 0 11.609 -85.4536 0 12.7434 -86.6931 0 13.8341 -88.0555 0 14.8812 -89.5388 0 15.8806 -91.1408 0 16.8071 -92.8583 0 17.6566 -94.687 0 18.4292 -96.6228 0 19.1248 -98.6611 0 19.7434 -100.798 0 20.2837 -103.029 0 20.7185 -105.348 0 21.0365 -107.749 0 21.2378 -110.223 0 21.3223 -112.763 0 21.2901 -115.36 0 21.1411 -118.008 0 20.8572 -120.697 0 20.4201 -123.41 0 19.83 -126.129 0 19.0867 -128.836 0 18.1903 -131.512 0 17.1408 -134.14 0 15.9286 -136.702 0 14.5309 -139.18 0 12.9464 -141.561 0 11.1751 -143.829 0 9.2172 -145.968 0 7.07253 -147.964 0 4.75084 -149.801 0 2.31027 -151.449 0 -0.239468 -152.867 0 -2.89839 -154.011 0 -5.66649 -154.84 0 -8.54376 -155.31 0 -11.5274 -155.38 0 -14.5562 -155.028 0 -17.605 -154.279 0 -20.6737 -153.162 0 -23.7625 -151.704 0 -26.8713 -149.935 0 -30.0002 -147.883 0 -33.0303 -145.572 0 -35.8429 -142.997 0 -38.4381 -140.151 0 -40.8158 -137.024 0 -42.9761 -133.608 0 -44.9189 -129.893 0 -46.6389 -125.877 0 -48.1234 -121.592 0 -49.3717 -117.096 0 -50.3839 -112.443 0 -51.1598 -107.689 0 -51.6996 -102.889 0 -52.0055 -98.0986 0 -52.0911 -93.3518 0 -51.9588 -88.6626 0 -51.6086 -84.0443 0 -51.0403 -79.5101 0 -50.2541 -75.0733 0 -49.2538 -70.7469 0 -48.1223 -66.5437 0 -46.8936 -62.4746 0 -45.5678 -58.5507 0 -44.1448 -54.7829 0 -42.6247 -51.1823 0 -41.0075 -47.7598 0 -39.3311 -44.5239 0 -37.6337 -41.4729 0 -35.9152 -38.6028 0 -34.1757 -35.9092 0 -32.4151 -33.3882 0 -30.6335 -31.0355 0 -28.8424 -28.8468 0 -27.0699 -26.8172 0 -25.3173 -24.941 0 -23.5846 -23.213 0 -21.8719 -21.6275 0 -20.179 -20.179 0 -18.5066 -18.8623 0 -16.857 -17.6721 0 -15.2309 -16.604 0 -13.6281 -15.6534 0 -12.0488 -14.8158 0 -10.4928 -14.0868 0 -8.95978 -13.4617 0 -7.44113 -12.937 0 -5.93329 -12.511 0 -4.43626 -12.1823 0 -2.95003 -11.9494 0 -1.47461 -11.8108 0 -0.0100006 -11.7651 0 -0.0115306 -73.0958 0 1.2269 -73.1555 0 2.45036 -73.3346 0 3.65885 -73.6325 0 4.85237 -74.0489 0 6.03093 -74.583 0 7.19451 -75.2344 0 8.33565 -76.0025 0 9.43605 -76.8858 0 10.4949 -77.8823 0 11.5122 -78.99 0 12.4879 -80.2071 0 13.422 -81.5315 0 14.3107 -82.9613 0 15.1304 -84.4935 0 15.8773 -86.1241 0 16.5514 -87.849 0 17.1527 -89.6644 0 17.6811 -91.566 0 18.1356 -93.55 0 18.4912 -95.6112 0 18.7377 -97.742 0 18.8753 -99.935 0 18.9038 -102.182 0 18.8232 -104.476 0 18.6336 -106.809 0 18.3212 -109.172 0 17.8721 -111.552 0 17.2863 -113.934 0 16.5638 -116.303 0 15.7047 -118.644 0 14.7089 -120.944 0 13.5669 -123.187 0 12.2558 -125.356 0 10.7743 -127.433 0 9.12261 -129.401 0 7.3006 -131.242 0 5.30832 -132.937 0 3.15767 -134.469 0 0.92017 -135.817 0 -1.39226 -136.953 0 -3.77963 -137.854 0 -6.24193 -138.494 0 -8.77916 -138.845 0 -11.3902 -138.884 0 -14.0502 -138.595 0 -16.7489 -137.984 0 -19.4863 -137.06 0 -22.2625 -135.83 0 -25.0774 -134.303 0 -27.931 -132.486 0 -30.6953 -130.39 0 -33.2421 -128.022 0 -35.5715 -125.392 0 -37.6833 -122.51 0 -39.5777 -119.384 0 -41.2546 -116.025 0 -42.7218 -112.444 0 -43.9979 -108.668 0 -45.0838 -104.733 0 -45.9796 -100.677 0 -46.6853 -96.5354 0 -47.2008 -92.3443 0 -47.5246 -88.14 0 -47.6471 -83.9493 0 -47.5669 -79.7899 0 -47.2839 -75.6791 0 -46.7982 -71.6344 0 -46.1096 -67.673 0 -45.2219 -63.8123 0 -44.2141 -60.0665 0 -43.1184 -56.4439 0 -41.935 -52.9523 0 -40.6639 -49.5994 0 -39.3049 -46.3928 0 -37.8582 -43.3403 0 -36.3553 -40.4478 0 -34.8281 -37.7145 0 -33.2765 -35.1378 0 -31.7006 -32.7153 0 -30.1002 -30.4443 0 -28.4755 -28.3225 0 -26.8374 -26.3469 0 -25.2128 -24.5137 0 -23.603 -22.8179 0 -22.008 -21.2546 0 -20.4277 -19.8191 0 -18.8623 -18.5066 0 -17.3121 -17.3121 0 -15.7806 -16.2314 0 -14.2683 -15.2606 0 -12.7752 -14.3959 0 -11.3014 -13.6335 0 -9.84674 -12.9696 0 -8.41101 -12.4002 0 -6.9874 -11.9225 0 -5.57315 -11.5347 0 -4.16826 -11.2354 0 -2.77272 -11.0231 0 -1.38655 -10.8965 0 -0.00972736 -10.8541 0 -0.0111649 -66.2626 0 1.11406 -66.3155 0 2.22489 -66.4749 0 3.32131 -66.7404 0 4.40333 -67.1111 0 5.47094 -67.5867 0 6.52415 -68.1664 0 7.55584 -68.8495 0 8.54865 -69.6347 0 9.50177 -70.5201 0 10.4152 -71.5039 0 11.289 -72.5844 0 12.123 -73.7596 0 12.9138 -75.0277 0 13.6392 -76.3861 0 14.2957 -77.8309 0 14.8832 -79.3585 0 15.4017 -80.9651 0 15.8513 -82.6471 0 16.2309 -84.4007 0 16.5182 -86.2209 0 16.7041 -88.1006 0 16.7885 -90.0323 0 16.7715 -92.0085 0 16.6531 -94.0216 0 16.4332 -96.0643 0 16.1007 -98.1283 0 15.6447 -100.203 0 15.0651 -102.276 0 14.3619 -104.337 0 13.5351 -106.373 0 12.5847 -108.373 0 11.5029 -110.325 0 10.2705 -112.212 0 8.88678 -114.015 0 7.35164 -115.712 0 5.66511 -117.286 0 3.82718 -118.715 0 1.84969 -119.981 0 -0.196305 -121.068 0 -2.29897 -121.964 0 -4.45829 -122.658 0 -6.67429 -123.138 0 -8.94695 -123.392 0 -11.2757 -123.409 0 -13.6478 -123.178 0 -16.058 -122.691 0 -18.5064 -121.939 0 -20.9929 -120.914 0 -23.5176 -119.606 0 -26.0804 -118.009 0 -28.5622 -116.119 0 -30.8437 -113.953 0 -32.925 -111.538 0 -34.806 -108.896 0 -36.4868 -106.051 0 -37.9674 -103.029 0 -39.2584 -99.8518 0 -40.3861 -96.542 0 -41.3516 -93.1197 0 -42.155 -89.6054 0 -42.7962 -86.0194 0 -43.2752 -82.3822 0 -43.5894 -78.7142 0 -43.7226 -75.0356 0 -43.6719 -71.3669 0 -43.4375 -67.7285 0 -43.0193 -64.1408 0 -42.4173 -60.624 0 -41.6348 -57.1986 0 -40.742 -53.88 0 -39.7676 -50.6741 0 -38.7116 -47.5859 0 -37.5741 -44.6203 0 -36.355 -41.7821 0 -35.0544 -39.0763 0 -33.6999 -36.5067 0 -32.3192 -34.0732 0 -30.9122 -31.7744 0 -29.479 -29.6093 0 -28.0196 -27.5766 0 -26.534 -25.6751 0 -25.0324 -23.9033 0 -23.5398 -22.2581 0 -22.0576 -20.735 0 -20.5855 -19.33 0 -19.1237 -18.0388 0 -17.6721 -16.857 0 -16.2314 -15.7806 0 -14.8057 -14.8057 0 -13.3958 -13.9292 0 -12.0016 -13.1479 0 -10.623 -12.4585 0 -9.26021 -11.8579 0 -7.91286 -11.3428 0 -6.57562 -10.9107 0 -5.24633 -10.5599 0 -3.92497 -10.2892 0 -2.61154 -10.0971 0 -1.30605 -9.98225 0 -0.00850106 -9.9432 0 -0.0104438 -59.5958 0 1.01407 -59.6424 0 2.0248 -59.7833 0 3.02175 -60.0179 0 4.00493 -60.3455 0 4.97433 -60.7656 0 5.92995 -61.2775 0 6.865 -61.8805 0 7.76286 -62.5731 0 8.62278 -63.3538 0 9.44476 -64.2209 0 10.2288 -65.1728 0 10.9749 -66.2076 0 11.6796 -67.3239 0 12.3224 -68.5189 0 12.8997 -69.7893 0 13.4117 -71.1317 0 13.8583 -72.5427 0 14.2396 -74.0187 0 14.5545 -75.5565 0 14.7834 -77.1513 0 14.9182 -78.7963 0 14.9588 -80.4844 0 14.9053 -82.2086 0 14.7577 -83.9616 0 14.516 -85.7364 0 14.1705 -87.5255 0 13.7118 -89.32 0 13.1398 -91.1109 0 12.4546 -92.889 0 11.6561 -94.645 0 10.7443 -96.3699 0 9.7141 -98.0536 0 8.55312 -99.6795 0 7.26075 -101.228 0 5.837 -102.678 0 4.28186 -104.01 0 2.59533 -105.204 0 0.787549 -106.24 0 -1.08071 -107.108 0 -2.99931 -107.804 0 -4.96826 -108.328 0 -6.98756 -108.678 0 -9.0572 -108.851 0 -11.1764 -108.846 0 -13.3268 -108.656 0 -15.5011 -108.262 0 -17.6993 -107.647 0 -19.9213 -106.789 0 -22.1671 -105.672 0 -24.4368 -104.274 0 -26.6328 -102.586 0 -28.6575 -100.632 0 -30.5109 -98.4452 0 -32.193 -96.0578 0 -33.7039 -93.5029 0 -35.0435 -90.8134 0 -36.2184 -88.0205 0 -37.2448 -85.1407 0 -38.1233 -82.1831 0 -38.854 -79.1567 0 -39.4368 -76.0704 0 -39.8717 -72.9334 0 -40.157 -69.7549 0 -40.2815 -66.5501 0 -40.2434 -63.3403 0 -40.0426 -60.1472 0 -39.6791 -56.9923 0 -39.153 -53.8972 0 -38.4669 -50.8834 0 -37.6793 -47.9666 0 -36.8139 -45.151 0 -35.8708 -42.4396 0 -34.8499 -39.8352 0 -33.7514 -37.3408 0 -32.5752 -34.9594 0 -31.3466 -32.6933 0 -30.0911 -30.5428 0 -28.8087 -28.5076 0 -27.4993 -26.5876 0 -26.163 -24.7823 0 -24.7998 -23.0916 0 -23.419 -21.515 0 -22.0434 -20.0498 0 -20.6741 -18.6925 0 -19.3111 -17.4393 0 -17.9544 -16.2867 0 -16.604 -15.2309 0 -15.2606 -14.2683 0 -13.9292 -13.3958 0 -12.6107 -12.6107 0 -11.3048 -11.9102 0 -10.0118 -11.2918 0 -8.73157 -10.7528 0 -7.46391 -10.2905 0 -6.20458 -9.90262 0 -4.95183 -9.58785 0 -3.70566 -9.34485 0 -2.46608 -9.17232 0 -1.23308 -9.06896 0 -0.00666853 -9.03345 0 -0.00952375 -53.0955 0 0.926154 -53.1362 0 1.8487 -53.2596 0 2.75812 -53.4651 0 3.65441 -53.7521 0 4.53757 -54.1199 0 5.4076 -54.5679 0 6.25798 -55.0953 0 7.07273 -55.701 0 7.85113 -56.3834 0 8.59318 -57.141 0 9.29889 -57.9723 0 9.96825 -58.8757 0 10.598 -59.8497 0 11.169 -60.892 0 11.6778 -61.9994 0 12.1245 -63.1688 0 12.5091 -64.397 0 12.8316 -65.681 0 13.0913 -67.0175 0 13.2707 -68.4023 0 13.3629 -69.8291 0 13.3678 -71.2914 0 13.2854 -72.7826 0 13.1157 -74.2961 0 12.8588 -75.8253 0 12.5057 -77.3636 0 12.0476 -78.9037 0 11.4844 -80.4382 0 10.8162 -81.9597 0 10.0429 -83.4608 0 9.16466 -84.934 0 8.17947 -86.3712 0 7.08281 -87.757 0 5.87449 -89.0722 0 4.55449 -90.2979 0 3.12282 -91.4149 0 1.57948 -92.4041 0 -0.0680378 -93.2469 0 -1.77477 -93.9357 0 -3.53323 -94.4738 0 -5.34341 -94.865 0 -7.20531 -95.1131 0 -9.11893 -95.2219 0 -11.0827 -95.1953 0 -13.0624 -95.0281 0 -15.044 -94.6986 0 -17.0274 -94.1829 0 -19.0127 -93.4572 0 -20.9999 -92.4978 0 -22.9889 -91.2808 0 -24.9107 -89.7924 0 -26.6959 -88.0583 0 -28.3447 -86.1142 0 -29.8569 -83.9959 0 -31.2327 -81.739 0 -32.4719 -79.3792 0 -33.5729 -76.9499 0 -34.5315 -74.464 0 -35.3474 -71.9236 0 -36.0207 -69.331 0 -36.5514 -66.6884 0 -36.9394 -63.9979 0 -37.185 -61.2621 0 -37.2892 -58.4926 0 -37.2522 -55.71 0 -37.0739 -52.9352 0 -36.7544 -50.1891 0 -36.2936 -47.4926 0 -35.6937 -44.8668 0 -34.9999 -42.3264 0 -34.2306 -39.8747 0 -33.386 -37.5133 0 -32.4659 -35.2441 0 -31.4704 -33.0689 0 -30.3995 -30.9895 0 -29.2774 -29.0074 0 -28.1285 -27.1233 0 -26.9526 -25.3373 0 -25.75 -23.6499 0 -24.5204 -22.0614 0 -23.264 -20.572 0 -21.989 -19.1818 0 -20.7161 -17.8889 0 -19.446 -16.6902 0 -18.1789 -15.5825 0 -16.9147 -14.5629 0 -15.6534 -13.6281 0 -14.3959 -12.7752 0 -13.1479 -12.0016 0 -11.9102 -11.3048 0 -10.6829 -10.6829 0 -9.46587 -10.1334 0 -8.25921 -9.65426 0 -7.06275 -9.2432 0 -5.87304 -8.89833 0 -4.68866 -8.61841 0 -3.50963 -8.40227 0 -2.33595 -8.24875 0 -1.1676 -8.15667 0 -0.00459748 -8.12485 0 -0.00856096 -46.7617 0 0.849575 -46.7969 0 1.69521 -46.9038 0 2.52835 -47.082 0 3.34899 -47.3307 0 4.15713 -47.6494 0 4.95277 -48.0374 0 5.72961 -48.4941 0 6.47225 -49.0184 0 7.18 -49.6089 0 7.85284 -50.2643 0 8.49079 -50.983 0 9.09384 -51.7638 0 9.65896 -52.6053 0 10.168 -53.5053 0 10.618 -54.4611 0 11.0089 -55.4696 0 11.3406 -56.5282 0 11.6133 -57.6338 0 11.8262 -58.7837 0 11.9642 -59.974 0 12.0212 -61.1991 0 11.9971 -62.4532 0 11.8919 -63.7305 0 11.7056 -65.025 0 11.4383 -66.3311 0 11.0813 -67.6428 0 10.6261 -68.9538 0 10.0727 -70.258 0 9.42099 -71.5489 0 8.67107 -72.8202 0 7.8229 -74.0657 0 6.87777 -75.2784 0 5.83883 -76.4448 0 4.70622 -77.5483 0 3.47992 -78.5723 0 2.15996 -79.5 0 0.746317 -80.3149 0 -0.756358 -81.0008 0 -2.32022 -81.5518 0 -3.94064 -81.9726 0 -5.61761 -82.2684 0 -7.35112 -82.4444 0 -9.14119 -82.5055 0 -10.9854 -82.4571 0 -12.8298 -82.2953 0 -14.6525 -81.9997 0 -16.4534 -81.5478 0 -18.2326 -80.9171 0 -19.99 -80.0853 0 -21.7256 -79.0299 0 -23.3995 -77.7375 0 -24.9715 -76.2316 0 -26.4417 -74.5449 0 -27.81 -72.71 0 -29.0765 -70.7596 0 -30.2412 -68.7261 0 -31.2927 -66.6401 0 -32.2036 -64.5118 0 -32.9724 -62.3413 0 -33.5994 -60.1285 0 -34.0844 -57.8733 0 -34.4274 -55.5757 0 -34.6311 -53.2359 0 -34.7108 -50.8634 0 -34.6692 -48.476 0 -34.5062 -46.0924 0 -34.2219 -43.731 0 -33.8162 -41.4103 0 -33.2906 -39.1487 0 -32.6778 -36.9594 0 -31.9912 -34.845 0 -31.2308 -32.8071 0 -30.3965 -30.8471 0 -29.4883 -28.9664 0 -28.5064 -27.1667 0 -27.4743 -25.4493 0 -26.4157 -23.8147 0 -25.3308 -22.2636 0 -24.2194 -20.7965 0 -23.0816 -19.4138 0 -21.9174 -18.1162 0 -20.7342 -16.9039 0 -19.5503 -15.7754 0 -18.3665 -14.7281 0 -17.1828 -13.7596 0 -15.9993 -12.8673 0 -14.8158 -12.0488 0 -13.6335 -11.3014 0 -12.4585 -10.623 0 -11.2918 -10.0118 0 -10.1334 -9.46587 0 -8.98333 -8.98333 0 -7.84155 -8.56233 0 -6.70796 -8.20102 0 -5.57977 -7.8978 0 -4.45583 -7.65161 0 -3.33615 -7.46148 0 -2.22073 -7.32639 0 -1.10957 -7.24537 0 -0.00265562 -7.21741 0 -0.0077118 -40.5943 0 0.783579 -40.6245 0 1.56294 -40.7161 0 2.33038 -40.8685 0 3.08589 -41.0814 0 3.82947 -41.3541 0 4.56112 -41.6861 0 5.27475 -42.0769 0 5.95547 -42.5253 0 6.60258 -43.0303 0 7.2161 -43.5906 0 7.79603 -44.2049 0 8.34235 -44.872 0 8.85224 -45.5907 0 9.3086 -46.359 0 9.70861 -47.1744 0 10.0522 -48.0343 0 10.3395 -48.9361 0 10.5704 -49.8772 0 10.7444 -50.8551 0 10.848 -51.8663 0 10.876 -52.9062 0 10.8284 -53.9698 0 10.705 -55.0522 0 10.506 -56.1485 0 10.2312 -57.2538 0 9.87258 -58.363 0 9.42169 -59.4704 0 8.8786 -60.5702 0 8.24329 -61.6564 0 7.51576 -62.7233 0 6.69602 -63.7649 0 5.78784 -64.775 0 4.80042 -65.7429 0 3.73418 -66.6558 0 2.58912 -67.501 0 1.36524 -68.2656 0 0.062538 -68.9367 0 -1.3167 -69.502 0 -2.7588 -69.956 0 -4.26148 -70.3008 0 -5.82474 -70.5385 0 -7.44859 -70.6713 0 -9.13301 -70.7015 0 -10.8748 -70.6313 0 -12.6042 -70.4573 0 -14.2926 -70.1656 0 -15.9399 -69.7413 0 -17.5462 -69.1691 0 -19.1114 -68.434 0 -20.6357 -67.521 0 -22.1028 -66.4213 0 -23.4967 -65.1522 0 -24.8173 -63.7373 0 -26.0648 -62.2002 0 -27.2391 -60.5647 0 -28.3401 -58.8542 0 -29.3489 -57.0911 0 -30.2185 -55.2843 0 -30.9469 -53.4362 0 -31.5341 -51.549 0 -31.98 -49.6251 0 -32.2848 -47.6667 0 -32.4528 -45.6763 0 -32.5115 -43.6622 0 -32.4653 -41.6383 0 -32.3143 -39.6189 0 -32.0584 -37.618 0 -31.6976 -35.6501 0 -31.233 -33.7291 0 -30.687 -31.8655 0 -30.0689 -30.0621 0 -29.3787 -28.3209 0 -28.6163 -26.644 0 -27.7817 -25.0334 0 -26.875 -23.491 0 -25.9192 -22.0187 0 -24.9375 -20.6171 0 -23.9298 -19.2864 0 -22.8962 -18.0272 0 -21.8366 -16.8397 0 -20.7511 -15.7243 0 -19.6463 -14.6812 0 -18.5386 -13.7092 0 -17.4289 -12.8063 0 -16.317 -11.9706 0 -15.2029 -11.2001 0 -14.0868 -10.4928 0 -12.9696 -9.84674 0 -11.8579 -9.26021 0 -10.7528 -8.73157 0 -9.65426 -8.25921 0 -8.56233 -7.84155 0 -7.47699 -7.47699 0 -6.39813 -7.16393 0 -5.32355 -6.90103 0 -4.25234 -6.68746 0 -3.1845 -6.52246 0 -2.12004 -6.40526 0 -1.05894 -6.33507 0 -0.00121065 -6.31113 0 -0.00713195 -34.5901 0 0.727417 -34.6157 0 1.45051 -34.693 0 2.16215 -34.8215 0 2.86234 -35.0008 0 3.55107 -35.2307 0 4.22834 -35.5105 0 4.88826 -35.8399 0 5.5164 -36.218 0 6.11209 -36.6437 0 6.67534 -37.116 0 7.20615 -37.6337 0 7.70453 -38.1958 0 8.16777 -38.8012 0 8.57979 -39.4481 0 8.9379 -40.1343 0 9.2421 -40.8575 0 9.49239 -41.6153 0 9.68876 -42.4054 0 9.83069 -43.2256 0 9.9062 -44.0729 0 9.91042 -44.9437 0 9.84334 -45.8342 0 9.70497 -46.7404 0 9.49529 -47.6586 0 9.21433 -48.5849 0 8.85455 -49.5152 0 8.40848 -50.4437 0 7.87609 -51.3645 0 7.2574 -52.2714 0 6.55241 -53.1585 0 5.7611 -54.0198 0 4.8885 -54.849 0 3.94682 -55.639 0 2.93662 -56.3823 0 1.85791 -57.0712 0 0.710675 -57.698 0 -0.505075 -58.2551 0 -1.78823 -58.7349 0 -3.13209 -59.1314 0 -4.53554 -59.4396 0 -5.99858 -59.6549 0 -7.52121 -59.7726 0 -9.10343 -59.788 0 -10.7418 -59.6964 0 -12.3611 -59.4939 0 -13.9303 -59.1783 0 -15.4496 -58.7474 0 -16.919 -58.1993 0 -18.3384 -57.5317 0 -19.7078 -56.7428 0 -21.024 -55.8321 0 -22.2836 -54.8071 0 -23.4868 -53.6767 0 -24.6335 -52.4502 0 -25.7237 -51.1365 0 -26.7574 -49.7448 0 -27.7123 -48.2842 0 -28.5338 -46.7636 0 -29.2194 -45.1921 0 -29.7691 -43.5784 0 -30.1829 -41.9316 0 -30.4608 -40.2606 0 -30.6081 -38.5742 0 -30.6565 -36.8811 0 -30.6115 -35.1894 0 -30.4728 -33.5074 0 -30.2406 -31.8433 0 -29.9149 -30.2052 0 -29.4963 -28.6014 0 -29.0015 -27.0386 0 -28.4371 -25.5203 0 -27.8033 -24.05 0 -27.0998 -22.6308 0 -26.3269 -21.2662 0 -25.4844 -19.9595 0 -24.5942 -18.7134 0 -23.6782 -17.5283 0 -22.7364 -16.404 0 -21.7687 -15.3405 0 -20.7753 -14.3376 0 -19.756 -13.395 0 -18.717 -12.5127 0 -17.6736 -11.6895 0 -16.6263 -10.924 0 -15.5753 -10.2149 0 -14.5204 -9.56059 0 -13.4617 -8.95978 0 -12.4002 -8.41101 0 -11.3428 -7.91286 0 -10.2905 -7.46391 0 -9.2432 -7.06275 0 -8.20102 -6.70796 0 -7.16393 -6.39813 0 -6.13185 -6.13185 0 -5.10316 -5.90797 0 -4.0772 -5.72594 0 -3.05396 -5.58524 0 -2.03346 -5.48535 0 -1.01568 -5.42578 0 -0.000627947 -5.40599 0 -0.00689658 -28.6773 0 0.680505 -28.6985 0 1.35681 -28.762 0 2.022 -28.8675 0 2.6761 -29.0147 0 3.31909 -29.2034 0 3.95099 -29.4332 0 4.56606 -29.7037 0 5.15033 -30.0144 0 5.70317 -30.3642 0 6.22457 -30.7522 0 6.71454 -31.1774 0 7.17308 -31.639 0 7.59764 -32.136 0 7.97299 -32.6669 0 8.29661 -33.2298 0 8.56848 -33.8226 0 8.78861 -34.4433 0 8.95699 -35.0899 0 9.07312 -35.7604 0 9.12585 -36.4525 0 9.11061 -37.1635 0 9.0274 -37.8905 0 8.87623 -38.6305 0 8.65708 -39.3809 0 8.36996 -40.1386 0 8.00874 -40.9004 0 7.56726 -41.6607 0 7.04554 -42.4136 0 6.44356 -43.1531 0 5.76134 -43.8733 0 4.99886 -44.5681 0 4.16093 -45.2317 0 3.25928 -45.86 0 2.29442 -46.4497 0 1.26637 -46.9975 0 0.175119 -47.5002 0 -0.979327 -47.9543 0 -2.19555 -48.3566 0 -3.465 -48.7001 0 -4.78625 -48.9748 0 -6.15931 -49.1704 0 -7.58418 -49.2767 0 -9.06086 -49.2833 0 -10.5863 -49.18 0 -12.093 -48.9626 0 -13.5535 -48.6383 0 -14.9678 -48.2157 0 -16.3358 -47.7034 0 -17.6576 -47.1098 0 -18.9331 -46.4437 0 -20.1585 -45.7116 0 -21.3301 -44.9125 0 -22.4477 -44.0434 0 -23.5115 -43.1015 0 -24.5213 -42.0836 0 -25.4772 -40.987 0 -26.3595 -39.8097 0 -27.12 -38.5606 0 -27.7564 -37.2537 0 -28.2688 -35.9032 0 -28.6571 -34.5233 0 -28.9214 -33.1281 0 -29.0662 -31.7316 0 -29.1184 -30.3423 0 -29.0826 -28.9638 0 -28.9588 -27.5992 0 -28.7469 -26.2515 0 -28.447 -24.9241 0 -28.0598 -23.6201 0 -27.6005 -22.3429 0 -27.0756 -21.0967 0 -26.4851 -19.8859 0 -25.8288 -18.7145 0 -25.1068 -17.5869 0 -24.3192 -16.5073 0 -23.4856 -15.4792 0 -22.6258 -14.5027 0 -21.7399 -13.5773 0 -20.8276 -12.7024 0 -19.8892 -11.8775 0 -18.9246 -11.102 0 -17.9397 -10.3752 0 -16.9492 -9.69641 0 -15.9536 -9.06458 0 -14.9531 -8.47874 0 -13.9475 -7.93792 0 -12.937 -7.44113 0 -11.9225 -6.9874 0 -10.9107 -6.57562 0 -9.90262 -6.20458 0 -8.89833 -5.87304 0 -7.8978 -5.57977 0 -6.90103 -5.32355 0 -5.90797 -5.10316 0 -4.91765 -4.91765 0 -3.92966 -4.76667 0 -2.944 -4.64992 0 -1.96067 -4.56709 0 -0.979664 -4.51789 0 -0.000990209 -4.50202 0 -0.00692455 -22.8265 0 0.642589 -22.8433 0 1.28125 -22.8934 0 1.90905 -22.9766 0 2.52599 -23.0926 0 3.13208 -23.2413 0 3.72731 -23.4225 0 4.30614 -23.6359 0 4.855 -23.881 0 5.37328 -24.1569 0 5.86098 -24.4629 0 6.31809 -24.7983 0 6.74462 -25.1622 0 7.13815 -25.5539 0 7.48419 -25.9721 0 7.78031 -26.4153 0 8.02652 -26.8818 0 8.22281 -27.3699 0 8.3692 -27.878 0 8.46518 -28.4044 0 8.50003 -28.9475 0 8.46937 -29.505 0 8.37319 -30.075 0 8.2115 -30.6554 0 7.9843 -31.244 0 7.69157 -31.8388 0 7.32883 -32.4371 0 6.89155 -33.0342 0 6.37974 -33.6246 0 5.7934 -34.2031 0 5.13252 -34.7642 0 4.39711 -35.3026 0 3.59088 -35.8133 0 2.72287 -36.2941 0 1.7935 -36.7444 0 0.802761 -37.1635 0 -0.249335 -37.5507 0 -1.36279 -37.9053 0 -2.53497 -38.2265 0 -3.75002 -38.5078 0 -5.0053 -38.7371 0 -6.30082 -38.9022 0 -7.63656 -38.9907 0 -9.01253 -38.9903 0 -10.4264 -38.889 0 -11.8266 -38.6824 0 -13.1922 -38.3825 0 -14.523 -38.0028 0 -15.8191 -37.5569 0 -17.0806 -37.0584 0 -18.3073 -36.5207 0 -19.4864 -35.9538 0 -20.6051 -35.3521 0 -21.6632 -34.7064 0 -22.6609 -34.0074 0 -23.598 -33.2459 0 -24.4747 -32.4126 0 -25.2773 -31.5001 0 -25.9726 -30.5159 0 -26.559 -29.4758 0 -27.0366 -28.3952 0 -27.4054 -27.29 0 -27.6653 -26.1756 0 -27.8192 -25.0675 0 -27.8838 -23.9734 0 -27.8619 -22.8939 0 -27.7534 -21.8292 0 -27.5583 -20.7794 0 -27.2768 -19.7448 0 -26.9094 -18.7254 0 -26.4737 -17.7229 0 -25.9766 -16.7411 0 -25.4182 -15.7844 0 -24.7984 -14.8571 0 -24.1173 -13.9636 0 -23.3749 -13.1081 0 -22.5883 -12.2941 0 -21.7749 -11.5217 0 -20.9346 -10.7902 0 -20.0675 -10.0989 0 -19.1734 -9.44713 0 -18.2525 -8.83417 0 -17.3107 -8.2593 0 -16.3624 -7.72187 0 -15.4082 -7.22121 0 -14.4483 -6.75666 0 -13.4826 -6.32757 0 -12.511 -5.93329 0 -11.5347 -5.57315 0 -10.5599 -5.24633 0 -9.58785 -4.95183 0 -8.61841 -4.68866 0 -7.65161 -4.45583 0 -6.68746 -4.25234 0 -5.72594 -4.0772 0 -4.76667 -3.92966 0 -3.80951 -3.80951 0 -2.85444 -3.71655 0 -1.90147 -3.65063 0 -0.9506 -3.61157 0 -0.00183117 -3.59919 0 -0.00711675 -17.0377 0 0.613448 -17.0502 0 1.22331 -17.0873 0 1.82248 -17.1487 0 2.41094 -17.2345 0 2.98871 -17.3445 0 3.55577 -17.4785 0 4.10674 -17.6364 0 4.62842 -17.8177 0 5.1202 -18.0219 0 5.5821 -18.2483 0 6.01411 -18.4964 0 6.41622 -18.7654 0 6.78613 -19.0548 0 7.10988 -19.3637 0 7.38515 -19.6909 0 7.61195 -20.0351 0 7.79027 -20.3951 0 7.92011 -20.7697 0 8.001 -21.1577 0 8.02245 -21.5577 0 7.98018 -21.9683 0 7.87418 -22.3879 0 7.70446 -22.8149 0 7.47101 -23.248 0 7.17384 -23.6855 0 6.80993 -24.1254 0 6.3763 -24.5641 0 5.87294 -24.9974 0 5.29986 -25.4212 0 4.65704 -25.8312 0 3.94449 -26.2234 0 3.16459 -26.5938 0 2.32312 -26.9414 0 1.42036 -27.2664 0 0.456296 -27.569 0 -0.569066 -27.8494 0 -1.65573 -28.108 0 -2.79958 -28.3448 0 -3.97595 -28.5544 0 -5.18073 -28.7265 0 -6.41392 -28.8501 0 -7.67552 -28.9146 0 -8.96554 -28.9092 0 -10.2824 -28.8231 0 -11.5922 -28.6533 0 -12.881 -28.4108 0 -14.1489 -28.1088 0 -15.3957 -27.76 0 -16.6216 -27.3774 0 -17.8265 -26.974 0 -18.9857 -26.5589 0 -20.0744 -26.126 0 -21.0926 -25.6657 0 -22.0402 -25.1681 0 -22.9174 -24.6234 0 -23.7241 -24.0218 0 -24.4537 -23.3552 0 -25.09 -22.6296 0 -25.6322 -21.8582 0 -26.0804 -21.0545 0 -26.4346 -20.2316 0 -26.6948 -19.403 0 -26.8618 -18.5818 0 -26.9409 -17.7742 0 -26.933 -16.9797 0 -26.8381 -16.1975 0 -26.6562 -15.4269 0 -26.3873 -14.6672 0 -26.0324 -13.9175 0 -25.6117 -13.1785 0 -25.1336 -12.4533 0 -24.5982 -11.7455 0 -24.0055 -11.0587 0 -23.3554 -10.3962 0 -22.6479 -9.76172 0 -21.898 -9.158 0 -21.1206 -8.58518 0 -20.3157 -8.04271 0 -19.4832 -7.53001 0 -18.6232 -7.04653 0 -17.7356 -6.59171 0 -16.8265 -6.16498 0 -15.9104 -5.76587 0 -14.9879 -5.3939 0 -14.0591 -5.04861 0 -13.1238 -4.72955 0 -12.1823 -4.43626 0 -11.2354 -4.16826 0 -10.2892 -3.92497 0 -9.34485 -3.70566 0 -8.40227 -3.50963 0 -7.46148 -3.33615 0 -6.52246 -3.1845 0 -5.58524 -3.05396 0 -4.64992 -2.944 0 -3.71655 -2.85444 0 -2.78514 -2.78514 0 -1.85568 -2.73598 0 -0.928175 -2.70681 0 -0.00262148 -2.69751 0 -0.00737407 -11.3108 0 0.592864 -11.3191 0 1.18249 -11.3435 0 1.76149 -11.384 0 2.32988 -11.4404 0 2.88766 -11.5128 0 3.43482 -11.6011 0 3.96609 -11.7051 0 4.46859 -11.8246 0 4.94172 -11.9592 0 5.38549 -12.1083 0 5.7999 -12.2716 0 6.18494 -12.4486 0 6.53836 -12.6389 0 6.84656 -12.8418 0 7.10726 -13.0566 0 7.32048 -13.2826 0 7.48621 -13.519 0 7.60446 -13.7651 0 7.67474 -14.0202 0 7.68683 -14.2832 0 7.63653 -14.5532 0 7.52384 -14.8289 0 7.34876 -15.1092 0 7.11129 -15.3928 0 6.81143 -15.6787 0 6.44716 -15.9653 0 6.01648 -16.2505 0 5.51939 -16.5321 0 4.95589 -16.8075 0 4.32597 -17.0743 0 3.62963 -17.3304 0 2.86833 -17.5732 0 2.04557 -17.8018 0 1.16152 -18.0156 0 0.216178 -18.214 0 -0.790456 -18.3965 0 -1.85838 -18.5625 0 -2.98243 -18.7114 0 -4.13154 -18.8401 0 -5.30055 -18.9429 0 -6.48946 -19.0142 0 -7.69827 -19.0484 0 -8.92697 -19.0397 0 -10.1746 -18.9826 0 -11.4201 -18.8751 0 -12.6549 -18.7232 0 -13.879 -18.5335 0 -15.0924 -18.3125 0 -16.295 -18.0669 0 -17.487 -17.8034 0 -18.6344 -17.5268 0 -19.7038 -17.2342 0 -20.6949 -16.9213 0 -21.608 -16.5834 0 -22.4429 -16.216 0 -23.1996 -15.8145 0 -23.8767 -15.3752 0 -24.4706 -14.9017 0 -24.9811 -14.4011 0 -25.4082 -13.8809 0 -25.7518 -13.3482 0 -26.0121 -12.8104 0 -26.1885 -12.2746 0 -26.278 -11.7447 0 -26.2801 -11.2211 0 -26.1948 -10.7041 0 -26.0221 -10.1941 0 -25.762 -9.69139 0 -25.4155 -9.19635 0 -25.0052 -8.70979 0 -24.5404 -8.23348 0 -24.0209 -7.76928 0 -23.4469 -7.3191 0 -22.8182 -6.88479 0 -22.135 -6.46824 0 -21.4106 -6.071 0 -20.6582 -5.69326 0 -19.878 -5.33489 0 -19.0698 -4.99574 0 -18.2337 -4.67567 0 -17.3698 -4.37456 0 -16.4839 -4.09224 0 -15.5905 -3.8284 0 -14.6904 -3.58265 0 -13.7835 -3.3546 0 -12.8698 -3.14386 0 -11.9494 -2.95003 0 -11.0231 -2.77272 0 -10.0971 -2.61154 0 -9.17232 -2.46608 0 -8.24875 -2.33595 0 -7.32639 -2.22073 0 -6.40526 -2.12004 0 -5.48535 -2.03346 0 -4.56709 -1.96067 0 -3.65063 -1.90147 0 -2.73598 -1.85568 0 -1.82313 -1.82313 0 -0.912077 -1.80362 0 -0.0028318 -1.79699 0 -0.0075974 -5.64592 0 0.580617 -5.65009 0 1.15825 -5.66222 0 1.72529 -5.68232 0 2.28175 -5.71037 0 2.82762 -5.74638 0 3.36291 -5.79031 0 3.88243 -5.84216 0 4.37353 -5.90173 0 4.83561 -5.96876 0 5.2687 -6.04296 0 5.67277 -6.12408 0 6.04785 -6.21183 0 6.39166 -6.30596 0 6.69073 -6.40622 0 6.94279 -6.51238 0 7.14785 -6.62424 0 7.30591 -6.74159 0 7.41696 -6.8642 0 7.48057 -6.99186 0 7.48689 -7.12409 0 7.43192 -7.25991 0 7.31564 -7.39828 0 7.13807 -7.53817 0 6.89919 -7.67854 0 6.59902 -7.81835 0 6.23561 -7.95672 0 5.80705 -8.09347 0 5.31332 -8.22855 0 4.75443 -8.36195 0 4.13038 -8.49364 0 3.44117 -8.62358 0 2.68835 -8.75153 0 1.87573 -8.8754 0 1.00349 -8.99212 0 0.0716169 -9.09863 0 -0.919882 -9.19186 0 -1.97101 -9.26875 0 -3.07659 -9.32636 0 -4.20558 -9.36463 0 -5.35281 -9.38638 0 -6.51827 -9.39458 0 -7.70198 -9.39216 0 -8.90392 -9.38208 0 -10.1232 -9.36727 0 -11.3408 -9.34806 0 -12.5487 -9.31972 0 -13.7471 -9.27695 0 -14.9359 -9.21446 0 -16.1151 -9.12692 0 -17.2847 -9.00905 0 -18.4107 -8.8575 0 -19.459 -8.67675 0 -20.4297 -8.47325 0 -21.3226 -8.25344 0 -22.1378 -8.02378 0 -22.8754 -7.79072 0 -23.5345 -7.56005 0 -24.1129 -7.33213 0 -24.6106 -7.10444 0 -25.0277 -6.87449 0 -25.364 -6.63974 0 -25.6197 -6.39768 0 -25.794 -6.14592 0 -25.8833 -5.88494 0 -25.887 -5.61811 0 -25.8049 -5.3489 0 -25.6373 -5.08081 0 -25.3839 -4.81733 0 -25.0459 -4.56191 0 -24.6451 -4.31676 0 -24.1904 -4.08154 0 -23.6818 -3.85563 0 -23.1193 -3.63843 0 -22.503 -3.42931 0 -21.8327 -3.22767 0 -21.1217 -3.03307 0 -20.383 -2.8459 0 -19.6165 -2.66671 0 -18.8223 -2.49608 0 -18.0005 -2.33456 0 -17.1509 -2.18273 0 -16.2794 -2.04108 0 -15.4 -1.90947 0 -14.5135 -1.78747 0 -13.6198 -1.67463 0 -12.7189 -1.57049 0 -11.8108 -1.47461 0 -10.8965 -1.38655 0 -9.98225 -1.30605 0 -9.06896 -1.23308 0 -8.15667 -1.1676 0 -7.24537 -1.10957 0 -6.33507 -1.05894 0 -5.42578 -1.01568 0 -4.51789 -0.979664 0 -3.61157 -0.9506 0 -2.70681 -0.928175 0 -1.80362 -0.912077 0 -0.901995 -0.901995 0 -0.00193278 -0.897617 0 -0.00768764 -0.0430386 0 0.57649 -0.0431029 0 1.15008 -0.0433273 0 1.71307 -0.0437309 0 2.26547 -0.0443329 0 2.80728 -0.0451524 0 3.3385 -0.0462086 0 3.854 -0.0475128 0 4.34124 -0.0490079 0 4.79966 -0.0506013 0 5.22926 -0.0522004 0 5.63004 -0.0537126 0 6.00199 -0.055045 0 6.34284 -0.0561147 0 6.6389 -0.0570607 0 6.88788 -0.0582443 0 7.08978 -0.0600364 0 7.2446 -0.0628078 0 7.35236 -0.0669294 0 7.41262 -0.0727682 0 7.41634 -0.0802252 0 7.35982 -0.0882957 0 7.24305 -0.0958713 0 7.06605 -0.101843 0 6.82879 -0.105103 0 6.53129 -0.104543 0 6.1704 -0.0997209 0 5.74296 -0.0928659 0 5.24897 -0.086874 0 4.68844 -0.0846413 0 4.06136 -0.089064 0 3.36773 -0.103038 0 2.61092 -0.128743 0 1.79914 -0.162122 0 0.932774 -0.195904 0 0.0118187 -0.222796 0 -0.963726 -0.235501 0 -1.99386 -0.226723 0 -3.07513 -0.189635 0 -4.18684 -0.128152 0 -5.32553 -0.0569378 0 -6.4912 0.00888004 0 -7.68385 0.0541721 0 -8.90348 0.0638095 0 -10.1485 0.0227621 0 -11.3845 -0.0720197 0 -12.5972 -0.200318 0 -13.7867 -0.339243 0 -14.9531 -0.465902 0 -16.0962 -0.557404 0 -17.2161 -0.59086 0 -18.2927 -0.55106 0 -19.306 -0.453535 0 -20.2559 -0.321497 0 -21.1425 -0.178158 0 -21.9658 -0.0467315 0 -22.7258 0.0495709 0 -23.415 0.0902995 0 -24.0153 0.0790565 0 -24.526 0.0318278 0 -24.9469 -0.0352985 0 -25.2782 -0.106234 0 -25.5198 -0.164891 0 -25.673 -0.195696 0 -25.7451 -0.19495 0 -25.7375 -0.170823 0 -25.6502 -0.132002 0 -25.4832 -0.0871733 0 -25.2363 -0.045025 0 -24.9105 -0.0142105 0 -24.522 0.000602254 0 -24.0773 0.00248712 0 -23.5765 -0.00459255 0 -23.0197 -0.0166734 0 -22.4067 -0.0297921 0 -21.7377 -0.0399854 0 -21.0272 -0.0442086 0 -20.2901 -0.0430924 0 -19.5263 -0.0381862 0 -18.7358 -0.0310394 0 -17.9186 -0.0232014 0 -17.0748 -0.0162217 0 -16.2096 -0.0114961 0 -15.3362 -0.00908546 0 -14.455 -0.00836304 0 -13.566 -0.00869638 0 -12.6694 -0.00945303 0 -11.7651 -0.0100006 0 -10.8541 -0.00972736 0 -9.9432 -0.00850106 0 -9.03345 -0.00666853 0 -8.12485 -0.00459748 0 -7.21741 -0.00265562 0 -6.31113 -0.00121065 0 -5.40599 -0.000627947 0 -4.50202 -0.000990209 0 -3.59919 -0.00183117 0 -2.69751 -0.00262148 0 -1.79699 -0.0028318 0 -0.897617 -0.00193278 0 0.00060492 0.00060492 0 </DataArray> 
</PointData> 
<Points> 
<DataArray type="Float32" NumberOfComponents="3"> 
0 0 0 0.1 0 0 0.2 0 0 0.3 0 0 0.4 0 0 0.5 0 0 0.6 0 0 0.7 0 0 0.8 0 0 0.9 0 0 1 0 0 1.1 0 0 1.2 0 0 1.3 0 0 1.4 0 0 1.5 0 0 1.6 0 0 1.7 0 0 1.8 0 0 1.9 0 0 2 0 0 2.1 0 0 2.2 0 0 2.3 0 0 2.4 0 0 2.5 0 0 2.6 0 0 2.7 0 0 2.8 0 0 2.9 0 0 3 0 0 3.1 0 0 3.2 0 0 3.3 0 0 3.4 0 0 3.5 0 0 3.6 0 0 3.7 0 0 3.8 0 0 3.9 0 0 4 0 0 4.1 0 0 4.2 0 0 4.3 0 0 4.4 0 0 4.5 0 0 4.6 0 0 4.7 0 0 4.8 0 0 4.9 0 0 5 0 0 5.1 0 0 5.2 0 0 5.3 0 0 5.4 0 0 5.5 0 0 5.6 0 0 5.7 0 0 5.8 0 0 5.9 0 0 6 0 0 6.1 0 0 6.2 0 0 6.3 0 0 6.4 0 0 6.5 0 0 6.6 0 0 6.7 0 0 6.8 0 0 6.9 0 0 7 0 0 7.1 0 0 7.2 0 0 7.3 0 0 7.4 0 0 7.5 0 0 7.6 0 0 7.7 0 0 7.8 0 0 7.9 0 0 8 0 0 8.1 0 0 8.2 0 0 8.3 0 0 8.4 0 0 8.5 0 0 8.6 0 0 8.7 0 0 8.8 0 0 8.9 0 0 9 0 0 9.1 0 0 9.2 0 0 9.3 0 0 9.4 0 0 9.5 0 0 9.6 0 0 9.7 0 0 9.8 0 0 9.9 0 0 10 0 0 0 0.1 0 0.1 0.1 0 0.2 0.1 0 0.3 0.1 0 0.4 0.1 0 0.5 0.1 0 0.6 0.1 0 0.7 0.1 0 0.8 0.1 0 0.9 0.1 0 1 0.1 0 1.1 0.1 0 1.2 0.1 0 1.3 0.1 0 1.4 0.1 0 1.5 0.1 0 1.6 0.1 0 1.7 0.1 0 1.8 0.1 0 1.9 0.1 0 2 0.1 0 2.1 0.1 0 2.2 0.1 0 2.3 0.1 0 2.4 0.1 0 2.5 0.1 0 2.6 0.1 0 2.7 0.1 0 2.8 0.1 0 2.9 0.1 0 3 0.1 0 3.1 0.1 0 3.2 0.1 0 3.3 0.1 0 3.4 0.1 0 3.5 0.1 0 3.6 0.1 0 3.7 0.1 0 3.8 0.1 0 3.9 0.1 0 4 0.1 0 4.1 0.1 0 4.2 0.1 0 4.3 0.1 0 4.4 0.1 0 4.5 0.1 0 4.6 0.1 0 4.7 0.1 0 4.8 0.1 0 4.9 0.1 0 5 0.1 0 5.1 0.1 0 5.2 0.1 0 5.3 0.1 0 5.4 0.1 0 5.5 0.1 0 5.6 0.1 0 5.7 0.1 0 5.8 0.1 0 5.9 0.1 0 6 0.1 0 6.1 0.1 0 6.2 0.1 0 6.3 0.1 0 6.4 0.1 0 6.5 0.1 0 6.6 0.1 0 6.7 0.1 0 6.8 0.1 0 6.9 0.1 0 7 0.1 0 7.1 0.1 0 7.2 0.1 0 7.3 0.1 0 7.4 0.1 0 7.5 0.1 0 7.6 0.1 0 7.7 0.1 0 7.8 0.1 0 7.9 0.1 0 8 0.1 0 8.1 0.1 0 8.2 0.1 0 8.3 0.1 0 8.4 0.1 0 8.5 0.1 0 8.6 0.1 0 8.7 0.1 0 8.8 0.1 0 8.9 0.1 0 9 0.1 0 9.1 0.1 0 9.2 0.1 0 9.3 0.1 0 9.4 0.1 0 9.5 0.1 0 9.6 0.1 0 9.7 0.1 0 9.8 0.1 0 9.9 0.1 0 10 0.1 0 0 0.2 0 0.1 0.2 0 0.2 0.2 0 0.3 0.2 0 0.4 0.2 0 0.5 0.2 0 0.6 0.2 0 0.7 0.2 0 0.8 0.2 0 0.9 0.2 0 1 0.2 0 1.1 0.2 0 1.2 0.2 0 1.3 0.2 0 1.4 0.2 0 1.5 0.2 0 1.6 0.2 0 1.7 0.2 0 1.8 0.2 0 1.9 0.2 0 2 0.2 0 2.1 0.2 0 2.2 0.2 0 2.3 0.2 0 2.4 0.2 0 2.5 0.2 0 2.6 0.2 0 2.7 0.2 0 2.8 0.2 0 2.9 0.2 0 3 0.2 0 3.1 0.2 0 3.2 0.2 0 3.3 0.2 0 3.4 0.2 0 3.5 0.2 0 3.6 0.2 0 3.7 0.2 0 3.8 0.2 0 3.9 0.2 0 4 0.2 0 4.1 0.2 0 4.2 0.2 0 4.3 0.2 0 4.4 0.2 0 4.5 0.2 0 4.6 0.2 0 4.7 0.2 0 4.8 0.2 0 4.9 0.2 0 5 0.2 0 5.1 0.2 0 5.2 0.2 0 5.3 0.2 0 5.4 0.2 0 5.5 0.2 0 5.6 0.2 0 5.7 0.2 0 5.8 0.2 0 5.9 0.2 0 6 0.2 0 6.1 0.2 0 6.2 0.2 0 6.3 0.2 0 6.4 0.2 0 6.5 0.2 0 6.6 0.2 0 6.7 0.2 0 6.8 0.2 0 6.9 0.2 0 7 0.2 0 7.1 0.2 0 7.2 0.2 0 7.3 0.2 0 7.4 0.2 0 7.5 0.2 0 7.6 0.2 0 7.7 0.2 0 7.8 0.2 0 7.9 0.2 0 8 0.2 0 8.1 0.2 0 8.2 0.2 0 8.3 0.2 0 8.4 0.2 0 8.5 0.2 0 8.6 0.2 0 8.7 0.2 0 8.8 0.2 0 8.9 0.2 0 9 0.2 0 9.1 0.2 0 9.2 0.2 0 9.3 0.2 0 9.4 0.2 0 9.5 0.2 0 9.6 0.2 0 9.7 0.2 0 9.8 0.2 0 9.9 0.2 0 10 0.2 0 0 0.3 0 0.1 0.3 0 0.2 0.3 0 0.3 0.3 0 0.4 0.3 0 0.5 0.3 0 0.6 0.3 0 0.7 0.3 0 0.8 0.3 0 0.9 0.3 0 1 0.3 0 1.1 0.3 0 1.2 0.3 0 1.3 0.3 0 1.4 0.3 0 1.5 0.3 0 1.6 0.3 0 1.7 0.3 0 1.8 0.3 0 1.9 0.3 0 2 0.3 0 2.1 0.3 0 2.2 0.3 0 2.3 0.3 0 2.4 0.3 0 2.5 0.3 0 2.6 0.3 0 2.7 0.3 0 2.8 0.3 0 2.9 0.3 0 3 0.3 0 3.1 0.3 0 3.2 0.3 0 3.3 0.3 0 3.4 0.3 0 3.5 0.3 0 3.6 0.3 0 3.7 0.3 0 3.8 0.3 0 3.9 0.3 0 4 0.3 0 4.1 0.3 0 4.2 0.3 0 4.3 0.3 0 4.4 0.3 0 4.5 0.3 0 4.6 0.3 0 4.7 0.3 0 4.8 0.3 0 4.9 0.3 0 5 0.3 0 5.1 0.3 0 5.2 0.3 0 5.3 0.3 0 5.4 0.3 0 5.5 0.3 0 5.6 0.3 0 5.7 0.3 0 5.8 0.3 0 5.9 0.3 0 6 0.3 0 6.1 0.3 0 6.2 0.3 0 6.3 0.3 0 6.4 0.3 0 6.5 0.3 0 6.6 0.3 0 6.7 0.3 0 6.8 0.3 0 6.9 0.3 0 7 0.3 0 7.1 0.3 0 7.2 0.3 0 7.3 0.3 0 7.4 0.3 0 7.5 0.3 0 7.6 0.3 0 7.7 0.3 0 7.8 0.3 0 7.9 0.3 0 8 0.3 0 8.1 0.3 0 8.2 0.3 0 8.3 0.3 0 8.4 0.3 0 8.5 0.3 0 8.6 0.3 0 8.7 0.3 0 8.8 0.3 0 8.9 0.3 0 9 0.3 0 9.1 0.3 0 9.2 0.3 0 9.3 0.3 0 9.4 0.3 0 9.5 0.3 0 9.6 0.3 0 9.7 0.3 0 9.8 0.3 0 9.9 0.3 0 10 0.3 0 0 0.4 0 0.1 0.4 0 0.2 0.4 0 0.3 0.4 0 0.4 0.4 0 0.5 0.4 0 0.6 0.4 0 0.7 0.4 0 0.8 0.4 0 0.9 0.4 0 1 0.4 0 1.1 0.4 0 1.2 0.4 0 1.3 0.4 0 1.4 0.4 0 1.5 0.4 0 1.6 0.4 0 1.7 0.4 0 1.8 0.4 0 1.9 0.4 0 2 0.4 0 2.1 0.4 0 2.2 0.4 0 2.3 0.4 0 2.4 0.4 0 2.5 0.4 0 2.6 0.4 0 2.7 0.4 0 2.8 0.4 0 2.9 0.4 0 3 0.4 0 3.1 0.4 0 3.2 0.4 0 3.3 0.4 0 3.4 0.4 0 3.5 0.4 0 3.6 0.4 0 3.7 0.4 0 3.8 0.4 0 3.9 0.4 0 4 0.4 0 4.1 0.4 0 4.2 0.4 0 4.3 0.4 0 4.4 0.4 0 4.5 0.4 0 4.6 0.4 0 4.7 0.4 0 4.8 0.4 0 4.9 0.4 0 5 0.4 0 5.1 0.4 0 5.2 0.4 0 5.3 0.4 0 5.4 0.4 0 5.5 0.4 0 5.6 0.4 0 5.7 0.4 0 5.8 0.4 0 5.9 0.4 0 6 0.4 0 6.1 0.4 0 6.2 0.4 0 6.3 0.4 0 6.4 0.4 0 6.5 0.4 0 6.6 0.4 0 6.7 0.4 0 6.8 0.4 0 6.9 0.4 0 7 0.4 0 7.1 0.4 0 7.2 0.4 0 7.3 0.4 0 7.4 0.4 0 7.5 0.4 0 7.6 0.4 0 7.7 0.4 0 7.8 0.4 0 7.9 0.4 0 8 0.4 0 8.1 0.4 0 8.2 0.4 0 8.3 0.4 0 8.4 0.4 0 8.5 0.4 0 8.6 0.4 0 8.7 0.4 0 8.8 0.4 0 8.9 0.4 0 9 0.4 0 9.1 0.4 0 9.2 0.4 0 9.3 0.4 0 9.4 0.4 0 9.5 0.4 0 9.6 0.4 0 9.7 0.4 0 9.8 0.4 0 9.9 0.4 0 10 0.4 0 0 0.5 0 0.1 0.5 0 0.2 0.5 0 0.3 0.5 0 0.4 0.5 0 0.5 0.5 0 0.6 0.5 0 0.7 0.5 0 0.8 0.5 0 0.9 0.5 0 1 0.5 0 1.1 0.5 0 1.2 0.5 0 1.3 0.5 0 1.4 0.5 0 1.5 0.5 0 1.6 0.5 0 1.7 0.5 0 1.8 0.5 0 1.9 0.5 0 2 0.5 0 2.1 0.5 0 2.2 0.5 0 2.3 0.5 0 2.4 0.5 0 2.5 0.5 0 2.6 0.5 0 2.7 0.5 0 2.8 0.5 0 2.9 0.5 0 3 0.5 0 3.1 0.5 0 3.2 0.5 0 3.3 0.5 0 3.4 0.5 0 3.5 0.5 0 3.6 0.5 0 3.7 0.5 0 3.8 0.5 0 3.9 0.5 0 4 0.5 0 4.1 0.5 0 4.2 0.5 0 4.3 0.5 0 4.4 0.5 0 4.5 0.5 0 4.6 0.5 0 4.7 0.5 0 4.8 0.5 0 4.9 0.5 0 5 0.5 0 5.1 0.5 0 5.2 0.5 0 5.3 0.5 0 5.4 0.5 0 5.5 0.5 0 5.6 0.5 0 5.7 0.5 0 5.8 0.5 0 5.9 0.5 0 6 0.5 0 6.1 0.5 0 6.2 0.5 0 6.3 0.5 0 6.4 0.5 0 6.5 0.5 0 6.6 0.5 0 6.7 0.5 0 6.8 0.5 0 6.9 0.5 0 7 0.5 0 7.1 0.5 0 7.2 0.5 0 7.3 0.5 0 7.4 0.5 0 7.5 0.5 0 7.6 0.5 0 7.7 0.5 0 7.8 0.5 0 7.9 0.5 0 8 0.5 0 8.1 0.5 0 8.2 0.5 0 8.3 0.5 0 8.4 0.5 0 8.5 0.5 0 8.6 0.5 0 8.7 0.5 0 8.8 0.5 0 8.9 0.5 0 9 0.5 0 9.1 0.5 0 9.2 0.5 0 9.3 0.5 0 9.4 0.5 0 9.5 0.5 0 9.6 0.5 0 9.7 0.5 0 9.8 0.5 0 9.9 0.5 0 10 0.5 0 0 0.6 0 0.1 0.6 0 0.2 0.6 0 0.3 0.6 0 0.4 0.6 0 0.5 0.6 0 0.6 0.6 0 0.7 0.6 0 0.8 0.6 0 0.9 0.6 0 1 0.6 0 1.1 0.6 0 1.2 0.6 0 1.3 0.6 0 1.4 0.6 0 1.5 0.6 0 1.6 0.6 0 1.7 0.6 0 1.8 0.6 0 1.9 0.6 0 2 0.6 0 2.1 0.6 0 2.2 0.6 0 2.3 0.6 0 2.4 0.6 0 2.5 0.6 0 2.6 0.6 0 2.7 0.6 0 2.8 0.6 0 2.9 0.6 0 3 0.6 0 3.1 0.6 0 3.2 0.6 0 3.3 0.6 0 3.4 0.6 0 3.5 0.6 0 3.6 0.6 0 3.7 0.6 0 3.8 0.6 0 3.9 0.6 0 4 0.6 0 4.1 0.6 0 4.2 0.6 0 4.3 0.6 0 4.4 0.6 0 4.5 0.6 0 4.6 0.6 0 4.7 0.6 0 4.8 0.6 0 4.9 0.6 0 5 0.6 0 5.1 0.6 0 5.2 0.6 0 5.3 0.6 0 5.4 0.6 0 5.5 0.6 0 5.6 0.6 0 5.7 0.6 0 5.8 0.6 0 5.9 0.6 0 6 0.6 0 6.1 0.6 0 6.2 0.6 0 6.3 0.6 0 6.4 0.6 0 6.5 0.6 0 6.6 0.6 0 6.7 0.6 0 6.8 0.6 0 6.9 0.6 0 7 0.6 0 7.1 0.6 0 7.2 0.6 0 7.3 0.6 0 7.4 0.6 0 7.5 0.6 0 7.6 0.6 0 7.7 0.6 0 7.8 0.6 0 7.9 0.6 0 8 0.6 0 8.1 0.6 0 8.2 0.6 0 8.3 0.6 0 8.4 0.6 0 8.5 0.6 0 8.6 0.6 0 8.7 0.6 0 8.8 0.6 0 8.9 0.6 0 9 0.6 0 9.1 0.6 0 9.2 0.6 0 9.3 0.6 0 9.4 0.6 0 9.5 0.6 0 9.6 0.6 0 9.7 0.6 0 9.8 0.6 0 9.9 0.6 0 10 0.6 0 0 0.7 0 0.1 0.7 0 0.2 0.7 0 0.3 0.7 0 0.4 0.7 0 0.5 0.7 0 0.6 0.7 0 0.7 0.7 0 0.8 0.7 0 0.9 0.7 0 1 0.7 0 1.1 0.7 0 1.2 0.7 0 1.3 0.7 0 1.4 0.7 0 1.5 0.7 0 1.6 0.7 0 1.7 0.7 0 1.8 0.7 0 1.9 0.7 0 2 0.7 0 2.1 0.7 0 2.2 0.7 0 2.3 0.7 0 2.4 0.7 0 2.5 0.7 0 2.6 0.7 0 2.7 0.7 0 2.8 0.7 0 2.9 0.7 0 3 0.7 0 3.1 0.7 0 3.2 0.7 0 3.3 0.7 0 3.4 0.7 0 3.5 0.7 0 3.6 0.7 0 3.7 0.7 0 3.8 0.7 0 3.9 0.7 0 4 0.7 0 4.1 0.7 0 4.2 0.7 0 4.3 0.7 0 4.4 0.7 0 4.5 0.7 0 4.6 0.7 0 4.7 0.7 0 4.8 0.7 0 4.9 0.7 0 5 0.7 0 5.1 0.7 0 5.2 0.7 0 5.3 0.7 0 5.4 0.7 0 5.5 0.7 0 5.6 0.7 0 5.7 0.7 0 5.8 0.7 0 5.9 0.7 0 6 0.7 0 6.1 0.7 0 6.2 0.7 0 6.3 0.7 0 6.4 0.7 0 6.5 0.7 0 6.6 0.7 0 6.7 0.7 0 6.8 0.7 0 6.9 0.7 0 7 0.7 0 7.1 0.7 0 7.2 0.7 0 7.3 0.7 0 7.4 0.7 0 7.5 0.7 0 7.6 0.7 0 7.7 0.7 0 7.8 0.7 0 7.9 0.7 0 8 0.7 0 8.1 0.7 0 8.2 0.7 0 8.3 0.7 0 8.4 0.7 0 8.5 0.7 0 8.6 0.7 0 8.7 0.7 0 8.8 0.7 0 8.9 0.7 0 9 0.7 0 9.1 0.7 0 9.2 0.7 0 9.3 0.7 0 9.4 0.7 0 9.5 0.7 0 9.6 0.7 0 9.7 0.7 0 9.8 0.7 0 9.9 0.7 0 10 0.7 0 0 0.8 0 0.1 0.8 0 0.2 0.8 0 0.3 0.8 0 0.4 0.8 0 0.5 0.8 0 0.6 0.8 0 0.7 0.8 0 0.8 0.8 0 0.9 0.8 0 1 0.8 0 1.1 0.8 0 1.2 0.8 0 1.3 0.8 0 1.4 0.8 0 1.5 0.8 0 1.6 0.8 0 1.7 0.8 0 1.8 0.8 0 1.9 0.8 0 2 0.8 0 2.1 0.8 0 2.2 0.8 0 2.3 0.8 0 2.4 0.8 0 2.5 0.8 0 2.6 0.8 0 2.7 0.8 0 2.8 0.8 0 2.9 0.8 0 3 0.8 0 3.1 0.8 0 3.2 0.8 0 3.3 0.8 0 3.4 0.8 0 3.5 0.8 0 3.6 0.8 0 3.7 0.8 0 3.8 0.8 0 3.9 0.8 0 4 0.8 0 4.1 0.8 0 4.2 0.8 0 4.3 0.8 0 4.4 0.8 0 4.5 0.8 0 4.6 0.8 0 4.7 0.8 0 4.8 0.8 0 4.9 0.8 0 5 0.8 0 5.1 0.8 0 5.2 0.8 0 5.3 0.8 0 5.4 0.8 0 5.5 0.8 0 5.6 0.8 0 5.7 0.8 0 5.8 0.8 0 5.9 0.8 0 6 0.8 0 6.1 0.8 0 6.2 0.8 0 6.3 0.8 0 6.4 0.8 0 6.5 0.8 0 6.6 0.8 0 6.7 0.8 0 6.8 0.8 0 6.9 0.8 0 7 0.8 0 7.1 0.8 0 7.2 0.8 0 7.3 0.8 0 7.4 0.8 0 7.5 0.8 0 7.6 0.8 0 7.7 0.8 0 7.8 0.8 0 7.9 0.8 0 8 0.8 0 8.1 0.8 0 8.2 0.8 0 8.3 0.8 0 8.4 0.8 0 8.5 0.8 0 8.6 0.8 0 8.7 0.8 0 8.8 0.8 0 8.9 0.8 0 9 0.8 0 9.1 0.8 0 9.2 0.8 0 9.3 0.8 0 9.4 0.8 0 9.5 0.8 0 9.6 0.8 0 9.7 0.8 0 9.8 0.8 0 9.9 0.8 0 10 0.8 0 0 0.9 0 0.1 0.9 0 0.2 0.9 0 0.3 0.9 0 0.4 0.9 0 0.5 0.9 0 0.6 0.9 0 0.7 0.9 0 0.8 0.9 0 0.9 0.9 0 1 0.9 0 1.1 0.9 0 1.2 0.9 0 1.3 0.9 0 1.4 0.9 0 1.5 0.9 0 1.6 0.9 0 1.7 0.9 0 1.8 0.9 0 1.9 0.9 0 2 0.9 0 2.1 0.9 0 2.2 0.9 0 2.3 0.9 0 2.4 0.9 0 2.5 0.9 0 2.6 0.9 0 2.7 0.9 0 2.8 0.9 0 2.9 0.9 0 3 0.9 0 3.1 0.9 0 3.2 0.9 0 3.3 0.9 0 3.4 0.9 0 3.5 0.9 0 3.6 0.9 0 3.7 0.9 0 3.8 0.9 0 3.9 0.9 0 4 0.9 0 4.1 0.9 0 4.2 0.9 0 4.3 0.9 0 4.4 0.9 0 4.5 0.9 0 4.6 0.9 0 4.7 0.9 0 4.8 0.9 0 4.9 0.9 0 5 0.9 0 5.1 0.9 0 5.2 0.9 0 5.3 0.9 0 5.4 0.9 0 5.5 0.9 0 5.6 0.9 0 5.7 0.9 0 5.8 0.9 0 5.9 0.9 0 6 0.9 0 6.1 0.9 0 6.2 0.9 0 6.3 0.9 0 6.4 0.9 0 6.5 0.9 0 6.6 0.9 0 6.7 0.9 0 6.8 0.9 0 6.9 0.9 0 7 0.9 0 7.1 0.9 0 7.2 0.9 0 7.3 0.9 0 7.4 0.9 0 7.5 0.9 0 7.6 0.9 0 7.7 0.9 0 7.8 0.9 0 7.9 0.9 0 8 0.9 0 8.1 0.9 0 8.2 0.9 0 8.3 0.9 0 8.4 0.9 0 8.5 0.9 0 8.6 0.9 0 8.7 0.9 0 8.8 0.9 0 8.9 0.9 0 9 0.9 0 9.1 0.9 0 9.2 0.9 0 9.3 0.9 0 9.4 0.9 0 9.5 0.9 0 9.6 0.9 0 9.7 0.9 0 9.8 0.9 0 9.9 0.9 0 10 0.9 0 0 1 0 0.1 1 0 0.2 1 0 0.3 1 0 0.4 1 0 0.5 1 0 0.6 1 0 0.7 1 0 0.8 1 0 0.9 1 0 1 1 0 1.1 1 0 1.2 1 0 1.3 1 0 1.4 1 0 1.5 1 0 1.6 1 0 1.7 1 0 1.8 1 0 1.9 1 0 2 1 0 2.1 1 0 2.2 1 0 2.3 1 0 2.4 1 0 2.5 1 0 2.6 1 0 2.7 1 0 2.8 1 0 2.9 1 0 3 1 0 3.1 1 0 3.2 1 0 3.3 1 0 3.4 1 0 3.5 1 0 3.6 1 0 3.7 1 0 3.8 1 0 3.9 1 0 4 1 0 4.1 1 0 4.2 1 0 4.3 1 0 4.4 1 0 4.5 1 0 4.6 1 0 4.7 1 0 4.8 1 0 4.9 1 0 5 1 0 5.1 1 0 5.2 1 0 5.3 1 0 5.4 1 0 5.5 1 0 5.6 1 0 5.7 1 0 5.8 1 0 5.9 1 0 6 1 0 6.1 1 0 6.2 1 0 6.3 1 0 6.4 1 0 6.5 1 0 6.6 1 0 6.7 1 0 6.8 1 0 6.9 1 0 7 1 0 7.1 1 0 7.2 1 0 7.3 1 0 7.4 1 0 7.5 1 0 7.6 1 0 7.7 1 0 7.8 1 0 7.9 1 0 8 1 0 8.1 1 0 8.2 1 0 8.3 1 0 8.4 1 0 8.5 1 0 8.6 1 0 8.7 1 0 8.8 1 0 8.9 1 0 9 1 0 9.1 1 0 9.2 1 0 9.3 1 0 9.4 1 0 9.5 1 0 9.6 1 0 9.7 1 0 9.8 1 0 9.9 1 0 10 1 0 0 1.1 0 0.1 1.1 0 0.2 1.1 0 0.3 1.1 0 0.4 1.1 0 0.5 1.1 0 0.6 1.1 0 0.7 1.1 0 0.8 1.1 0 0.9 1.1 0 1 1.1 0 1.1 1.1 0 1.2 1.1 0 1.3 1.1 0 1.4 1.1 0 1.5 1.1 0 1.6 1.1 0 1.7 1.1 0 1.8 1.1 0 1.9 1.1 0 2 1.1 0 2.1 1.1 0 2.2 1.1 0 2.3 1.1 0 2.4 1.1 0 2.5 1.1 0 2.6 1.1 0 2.7 1.1 0 2.8 1.1 0 2.9 1.1 0 3 1.1 0 3.1 1.1 0 3.2 1.1 0 3.3 1.1 0 3.4 1.1 0 3.5 1.1 0 3.6 1.1 0 3.7 1.1 0 3.8 1.1 0 3.9 1.1 0 4 1.1 0 4.1 1.1 0 4.2 1.1 0 4.3 1.1 0 4.4 1.1 0 4.5 1.1 0 4.6 1.1 0 4.7 1.1 0 4.8 1.1 0 4.9 1.1 0 5 1.1 0 5.1 1.1 0 5.2 1.1 0 5.3 1.1 0 5.4 1.1 0 5.5 1.1 0 5.6 1.1 0 5.7 1.1 0 5.8 1.1 0 5.9 1.1 0 6 1.1 0 6.1 1.1 0 6.2 1.1 0 6.3 1.1 0 6.4 1.1 0 6.5 1.1 0 6.6 1.1 0 6.7 1.1 0 6.8 1.1 0 6.9 1.1 0 7 1.1 0 7.1 1.1 0 7.2 1.1 0 7.3 1.1 0 7.4 1.1 0 7.5 1.1 0 7.6 1.1 0 7.7 1.1 0 7.8 1.1 0 7.9 1.1 0 8 1.1 0 8.1 1.1 0 8.2 1.1 0 8.3 1.1 0 8.4 1.1 0 8.5 1.1 0 8.6 1.1 0 8.7 1.1 0 8.8 1.1 0 8.9 1.1 0 9 1.1 0 9.1 1.1 0 9.2 1.1 0 9.3 1.1 0 9.4 1.1 0 9.5 1.1 0 9.6 1.1 0 9.7 1.1 0 9.8 1.1 0 9.9 1.1 0 10 1.1 0 0 1.2 0 0.1 1.2 0 0.2 1.2 0 0.3 1.2 0 0.4 1.2 0 0.5 1.2 0 0.6 1.2 0 0.7 1.2 0 0.8 1.2 0 0.9 1.2 0 1 1.2 0 1.1 1.2 0 1.2 1.2 0 1.3 1.2 0 1.4 1.2 0 1.5 1.2 0 1.6 1.2 0 1.7 1.2 0 1.8 1.2 0 1.9 1.2 0 2 1.2 0 2.1 1.2 0 2.2 1.2 0 2.3 1.2 0 2.4 1.2 0 2.5 1.2 0 2.6 1.2 0 2.7 1.2 0 2.8 1.2 0 2.9 1.2 0 3 1.2 0 3.1 1.2 0 3.2 1.2 0 3.3 1.2 0 3.4 1.2 0 3.5 1.2 0 3.6 1.2 0 3.7 1.2 0 3.8 1.2 0 3.9 1.2 0 4 1.2 0 4.1 1.2 0 4.2 1.2 0 4.3 1.2 0 4.4 1.2 0 4.5 1.2 0 4.6 1.2 0 4.7 1.2 0 4.8 1.2 0 4.9 1.2 0 5 1.2 0 5.1 1.2 0 5.2 1.2 0 5.3 1.2 0 5.4 1.2 0 5.5 1.2 0 5.6 1.2 0 5.7 1.2 0 5.8 1.2 0 5.9 1.2 0 6 1.2 0 6.1 1.2 0 6.2 1.2 0 6.3 1.2 0 6.4 1.2 0 6.5 1.2 0 6.6 1.2 0 6.7 1.2 0 6.8 1.2 0 6.9 1.2 0 7 1.2 0 7.1 1.2 0 7.2 1.2 0 7.3 1.2 0 7.4 1.2 0 7.5 1.2 0 7.6 1.2 0 7.7 1.2 0 7.8 1.2 0 7.9 1.2 0 8 1.2 0 8.1 1.2 0 8.2 1.2 0 8.3 1.2 0 8.4 1.2 0 8.5 1.2 0 8.6 1.2 0 8.7 1.2 0 8.8 1.2 0 8.9 1.2 0 9 1.2 0 9.1 1.2 0 9.2 1.2 0 9.3 1.2 0 9.4 1.2 0 9.5 1.2 0 9.6 1.2 0 9.7 1.2 0 9.8 1.2 0 9.9 1.2 0 10 1.2 0 0 1.3 0 0.1 1.3 0 0.2 1.3 0 0.3 1.3 0 0.4 1.3 0 0.5 1.3 0 0.6 1.3 0 0.7 1.3 0 0.8 1.3 0 0.9 1.3 0 1 1.3 0 1.1 1.3 0 1.2 1.3 0 1.3 1.3 0 1.4 1.3 0 1.5 1.3 0 1.6 1.3 0 1.7 1.3 0 1.8 1.3 0 1.9 1.3 0 2 1.3 0 2.1 1.3 0 2.2 1.3 0 2.3 1.3 0 2.4 1.3 0 2.5 1.3 0 2.6 1.3 0 2.7 1.3 0 2.8 1.3 0 2.9 1.3 0 3 1.3 0 3.1 1.3 0 3.2 1.3 0 3.3 1.3 0 3.4 1.3 0 3.5 1.3 0 3.6 1.3 0 3.7 1.3 0 3.8 1.3 0 3.9 1.3 0 4 1.3 0 4.1 1.3 0 4.2 1.3 0 4.3 1.3 0 4.4 1.3 0 4.5 1.3 0 4.6 1.3 0 4.7 1.3 0 4.8 1.3 0 4.9 1.3 0 5 1.3 0 5.1 1.3 0 5.2 1.3 0 5.3 1.3 0 5.4 1.3 0 5.5 1.3 0 5.6 1.3 0 5.7 1.3 0 5.8 1.3 0 5.9 1.3 0 6 1.3 0 6.1 1.3 0 6.2 1.3 0 6.3 1.3 0 6.4 1.3 0 6.5 1.3 0 6.6 1.3 0 6.7 1.3 0 6.8 1.3 0 6.9 1.3 0 7 1.3 0 7.1 1.3 0 7.2 1.3 0 7.3 1.3 0 7.4 1.3 0 7.5 1.3 0 7.6 1.3 0 7.7 1.3 0 7.8 1.3 0 7.9 1.3 0 8 1.3 0 8.1 1.3 0 8.2 1.3 0 8.3 1.3 0 8.4 1.3 0 8.5 1.3 0 8.6 1.3 0 8.7 1.3 0 8.8 1.3 0 8.9 1.3 0 9 1.3 0 9.1 1.3 0 9.2 1.3 0 9.3 1.3 0 9.4 1.3 0 9.5 1.3 0 9.6 1.3 0 9.7 1.3 0 9.8 1.3 0 9.9 1.3 0 10 1.3 0 0 1.4 0 0.1 1.4 0 0.2 1.4 0 0.3 1.4 0 0.4 1.4 0 0.5 1.4 0 0.6 1.4 0 0.7 1.4 0 0.8 1.4 0 0.9 1.4 0 1 1.4 0 1.1 1.4 0 1.2 1.4 0 1.3 1.4 0 1.4 1.4 0 1.5 1.4 0 1.6 1.4 0 1.7 1.4 0 1.8 1.4 0 1.9 1.4 0 2 1.4 0 2.1 1.4 0 2.2 1.4 0 2.3 1.4 0 2.4 1.4 0 2.5 1.4 0 2.6 1.4 0 2.7 1.4 0 2.8 1.4 0 2.9 1.4 0 3 1.4 0 3.1 1.4 0 3.2 1.4 0 3.3 1.4 0 3.4 1.4 0 3.5 1.4 0 3.6 1.4 0 3.7 1.4 0 3.8 1.4 0 3.9 1.4 0 4 1.4 0 4.1 1.4 0 4.2 1.4 0 4.3 1.4 0 4.4 1.4 0 4.5 1.4 0 4.6 1.4 0 4.7 1.4 0 4.8 1.4 0 4.9 1.4 0 5 1.4 0 5.1 1.4 0 5.2 1.4 0 5.3 1.4 0 5.4 1.4 0 5.5 1.4 0 5.6 1.4 0 5.7 1.4 0 5.8 1.4 0 5.9 1.4 0 6 1.4 0 6.1 1.4 0 6.2 1.4 0 6.3 1.4 0 6.4 1.4 0 6.5 1.4 0 6.6 1.4 0 6.7 1.4 0 6.8 1.4 0 6.9 1.4 0 7 1.4 0 7.1 1.4 0 7.2 1.4 0 7.3 1.4 0 7.4 1.4 0 7.5 1.4 0 7.6 1.4 0 7.7 1.4 0 7.8 1.4 0 7.9 1.4 0 8 1.4 0 8.1 1.4 0 8.2 1.4 0 8.3 1.4 0 8.4 1.4 0 8.5 1.4 0 8.6 1.4 0 8.7 1.4 0 8.8 1.4 0 8.9 1.4 0 9 1.4 0 9.1 1.4 0 9.2 1.4 0 9.3 1.4 0 9.4 1.4 0 9.5 1.4 0 9.6 1.4 0 9.7 1.4 0 9.8 1.4 0 9.9 1.4 0 10 1.4 0 0 1.5 0 0.1 1.5 0 0.2 1.5 0 0.3 1.5 0 0.4 1.5 0 0.5 1.5 0 0.6 1.5 0 0.7 1.5 0 0.8 1.5 0 0.9 1.5 0 1 1.5 0 1.1 1.5 0 1.2 1.5 0 1.3 1.5 0 1.4 1.5 0 1.5 1.5 0 1.6 1.5 0 1.7 1.5 0 1.8 1.5 0 1.9 1.5 0 2 1.5 0 2.1 1.5 0 2.2 1.5 0 2.3 1.5 0 2.4 1.5 0 2.5 1.5 0 2.6 1.5 0 2.7 1.5 0 2.8 1.5 0 2.9 1.5 0 3 1.5 0 3.1 1.5 0 3.2 1.5 0 3.3 1.5 0 3.4 1.5 0 3.5 1.5 0 3.6 1.5 0 3.7 1.5 0 3.8 1.5 0 3.9 1.5 0 4 1.5 0 4.1 1.5 0 4.2 1.5 0 4.3 1.5 0 4.4 1.5 0 4.5 1.5 0 4.6 1.5 0 4.7 1.5 0 4.8 1.5 0 4.9 1.5 0 5 1.5 0 5.1 1.5 0 5.2 1.5 0 5.3 1.5 0 5.4 1.5 0 5.5 1.5 0 5.6 1.5 0 5.7 1.5 0 5.8 1.5 0 5.9 1.5 0 6 1.5 0 6.1 1.5 0 6.2 1.5 0 6.3 1.5 0 6.4 1.5 0 6.5 1.5 0 6.6 1.5 0 6.7 1.5 0 6.8 1.5 0 6.9 1.5 0 7 1.5 0 7.1 1.5 0 7.2 1.5 0 7.3 1.5 0 7.4 1.5 0 7.5 1.5 0 7.6 1.5 0 7.7 1.5 0 7.8 1.5 0 7.9 1.5 0 8 1.5 0 8.1 1.5 0 8.2 1.5 0 8.3 1.5 0 8.4 1.5 0 8.5 1.5 0 8.6 1.5 0 8.7 1.5 0 8.8 1.5 0 8.9 1.5 0 9 1.5 0 9.1 1.5 0 9.2 1.5 0 9.3 1.5 0 9.4 1.5 0 9.5 1.5 0 9.6 1.5 0 9.7 1.5 0 9.8 1.5 0 9.9 1.5 0 10 1.5 0 0 1.6 0 0.1 1.6 0 0.2 1.6 0 0.3 1.6 0 0.4 1.6 0 0.5 1.6 0 0.6 1.6 0 0.7 1.6 0 0.8 1.6 0 0.9 1.6 0 1 1.6 0 1.1 1.6 0 1.2 1.6 0 1.3 1.6 0 1.4 1.6 0 1.5 1.6 0 1.6 1.6 0 1.7 1.6 0 1.8 1.6 0 1.9 1.6 0 2 1.6 0 2.1 1.6 0 2.2 1.6 0 2.3 1.6 0 2.4 1.6 0 2.5 1.6 0 2.6 1.6 0 2.7 1.6 0 2.8 1.6 0 2.9 1.6 0 3 1.6 0 3.1 1.6 0 3.2 1.6 0 3.3 1.6 0 3.4 1.6 0 3.5 1.6 0 3.6 1.6 0 3.7 1.6 0 3.8 1.6 0 3.9 1.6 0 4 1.6 0 4.1 1.6 0 4.2 1.6 0 4.3 1.6 0 4.4 1.6 0 4.5 1.6 0 4.6 1.6 0 4.7 1.6 0 4.8 1.6 0 4.9 1.6 0 5 1.6 0 5.1 1.6 0 5.2 1.6 0 5.3 1.6 0 5.4 1.6 0 5.5 1.6 0 5.6 1.6 0 5.7 1.6 0 5.8 1.6 0 5.9 1.6 0 6 1.6 0 6.1 1.6 0 6.2 1.6 0 6.3 1.6 0 6.4 1.6 0 6.5 1.6 0 6.6 1.6 0 6.7 1.6 0 6.8 1.6 0 6.9 1.6 0 7 1.6 0 7.1 1.6 0 7.2 1.6 0 7.3 1.6 0 7.4 1.6 0 7.5 1.6 0 7.6 1.6 0 7.7 1.6 0 7.8 1.6 0 7.9 1.6 0 8 1.6 0 8.1 1.6 0 8.2 1.6 0 8.3 1.6 0 8.4 1.6 0 8.5 1.6 0 8.6 1.6 0 8.7 1.6 0 8.8 1.6 0 8.9 1.6 0 9 1.6 0 9.1 1.6 0 9.2 1.6 0 9.3 1.6 0 9.4 1.6 0 9.5 1.6 0 9.6 1.6 0 9.7 1.6 0 9.8 1.6 0 9.9 1.6 0 10 1.6 0 0 1.7 0 0.1 1.7 0 0.2 1.7 0 0.3 1.7 0 0.4 1.7 0 0.5 1.7 0 0.6 1.7 0 0.7 1.7 0 0.8 1.7 0 0.9 1.7 0 1 1.7 0 1.1 1.7 0 1.2 1.7 0 1.3 1.7 0 1.4 1.7 0 1.5 1.7 0 1.6 1.7 0 1.7 1.7 0 1.8 1.7 0 1.9 1.7 0 2 1.7 0 2.1 1.7 0 2.2 1.7 0 2.3 1.7 0 2.4 1.7 0 2.5 1.7 0 2.6 1.7 0 2.7 1.7 0 2.8 1.7 0 2.9 1.7 0 3 1.7 0 3.1 1.7 0 3.2 1.7 0 3.3 1.7 0 3.4 1.7 0 3.5 1.7 0 3.6 1.7 0 3.7 1.7 0 3.8 1.7 0 3.9 1.7 0 4 1.7 0 4.1 1.7 0 4.2 1.7 0 4.3 1.7 0 4.4 1.7 0 4.5 1.7 0 4.6 1.7 0 4.7 1.7 0 4.8 1.7 0 4.9 1.7 0 5 1.7 0 5.1 1.7 0 5.2 1.7 0 5.3 1.7 0 5.4 1.7 0 5.5 1.7 0 5.6 1.7 0 5.7 1.7 0 5.8 1.7 0 5.9 1.7 0 6 1.7 0 6.1 1.7 0 6.2 1.7 0 6.3 1.7 0 6.4 1.7 0 6.5 1.7 0 6.6 1.7 0 6.7 1.7 0 6.8 1.7 0 6.9 1.7 0 7 1.7 0 7.1 1.7 0 7.2 1.7 0 7.3 1.7 0 7.4 1.7 0 7.5 1.7 0 7.6 1.7 0 7.7 1.7 0 7.8 1.7 0 7.9 1.7 0 8 1.7 0 8.1 1.7 0 8.2 1.7 0 8.3 1.7 0 8.4 1.7 0 8.5 1.7 0 8.6 1.7 0 8.7 1.7 0 8.8 1.7 0 8.9 1.7 0 9 1.7 0 9.1 1.7 0 9.2 1.7 0 9.3 1.7 0 9.4 1.7 0 9.5 1.7 0 9.6 1.7 0 9.7 1.7 0 9.8 1.7 0 9.9 1.7 0 10 1.7 0 0 1.8 0 0.1 1.8 0 0.2 1.8 0 0.3 1.8 0 0.4 1.8 0 0.5 1.8 0 0.6 1.8 0 0.7 1.8 0 0.8 1.8 0 0.9 1.8 0 1 1.8 0 1.1 1.8 0 1.2 1.8 0 1.3 1.8 0 1.4 1.8 0 1.5 1.8 0 1.6 1.8 0 1.7 1.8 0 1.8 1.8 0 1.9 1.8 0 2 1.8 0 2.1 1.8 0 2.2 1.8 0 2.3 1.8 0 2.4 1.8 0 2.5 1.8 0 2.6 1.8 0 2.7 1.8 0 2.8 1.8 0 2.9 1.8 0 3 1.8 0 3.1 1.8 0 3.2 1.8 0 3.3 1.8 0 3.4 1.8 0 3.5 1.8 0 3.6 1.8 0 3.7 1.8 0 3.8 1.8 0 3.9 1.8 0 4 1.8 0 4.1 1.8 0 4.2 1.8 0 4.3 1.8 0 4.4 1.8 0 4.5 1.8 0 4.6 1.8 0 4.7 1.8 0 4.8 1.8 0 4.9 1.8 0 5 1.8 0 5.1 1.8 0 5.2 1.8 0 5.3 1.8 0 5.4 1.8 0 5.5 1.8 0 5.6 1.8 0 5.7 1.8 0 5.8 1.8 0 5.9 1.8 0 6 1.8 0 6.1 1.8 0 6.2 1.8 0 6.3 1.8 0 6.4 1.8 0 6.5 1.8 0 6.6 1.8 0 6.7 1.8 0 6.8 1.8 0 6.9 1.8 0 7 1.8 0 7.1 1.8 0 7.2 1.8 0 7.3 1.8 0 7.4 1.8 0 7.5 1.8 0 7.6 1.8 0 7.7 1.8 0 7.8 1.8 0 7.9 1.8 0 8 1.8 0 8.1 1.8 0 8.2 1.8 0 8.3 1.8 0 8.4 1.8 0 8.5 1.8 0 8.6 1.8 0 8.7 1.8 0 8.8 1.8 0 8.9 1.8 0 9 1.8 0 9.1 1.8 0 9.2 1.8 0 9.3 1.8 0 9.4 1.8 0 9.5 1.8 0 9.6 1.8 0 9.7 1.8 0 9.8 1.8 0 9.9 1.8 0 10 1.8 0 0 1.9 0 0.1 1.9 0 0.2 1.9 0 0.3 1.9 0 0.4 1.9 0 0.5 1.9 0 0.6 1.9 0 0.7 1.9 0 0.8 1.9 0 0.9 1.9 0 1 1.9 0 1.1 1.9 0 1.2 1.9 0 1.3 1.9 0 1.4 1.9 0 1.5 1.9 0 1.6 1.9 0 1.7 1.9 0 1.8 1.9 0 1.9 1.9 0 2 1.9 0 2.1 1.9 0 2.2 1.9 0 2.3 1.9 0 2.4 1.9 0 2.5 1.9 0 2.6 1.9 0 2.7 1.9 0 2.8 1.9 0 2.9 1.9 0 3 1.9 0 3.1 1.9 0 3.2 1.9 0 3.3 1.9 0 3.4 1.9 0 3.5 1.9 0 3.6 1.9 0 3.7 1.9 0 3.8 1.9 0 3.9 1.9 0 4 1.9 0 4.1 1.9 0 4.2 1.9 0 4.3 1.9 0 4.4 1.9 0 4.5 1.9 0 4.6 1.9 0 4.7 1.9 0 4.8 1.9 0 4.9 1.9 0 5 1.9 0 5.1 1.9 0 5.2 1.9 0 5.3 1.9 0 5.4 1.9 0 5.5 1.9 0 5.6 1.9 0 5.7 1.9 0 5.8 1.9 0 5.9 1.9 0 6 1.9 0 6.1 1.9 0 6.2 1.9 0 6.3 1.9 0 6.4 1.9 0 6.5 1.9 0 6.6 1.9 0 6.7 1.9 0 6.8 1.9 0 6.9 1.9 0 7 1.9 0 7.1 1.9 0 7.2 1.9 0 7.3 1.9 0 7.4 1.9 0 7.5 1.9 0 7.6 1.9 0 7.7 1.9 0 7.8 1.9 0 7.9 1.9 0 8 1.9 0 8.1 1.9 0 8.2 1.9 0 8.3 1.9 0 8.4 1.9 0 8.5 1.9 0 8.6 1.9 0 8.7 1.9 0 8.8 1.9 0 8.9 1.9 0 9 1.9 0 9.1 1.9 0 9.2 1.9 0 9.3 1.9 0 9.4 1.9 0 9.5 1.9 0 9.6 1.9 0 9.7 1.9 0 9.8 1.9 0 9.9 1.9 0 10 1.9 0 0 2 0 0.1 2 0 0.2 2 0 0.3 2 0 0.4 2 0 0.5 2 0 0.6 2 0 0.7 2 0 0.8 2 0 0.9 2 0 1 2 0 1.1 2 0 1.2 2 0 1.3 2 0 1.4 2 0 1.5 2 0 1.6 2 0 1.7 2 0 1.8 2 0 1.9 2 0 2 2 0 2.1 2 0 2.2 2 0 2.3 2 0 2.4 2 0 2.5 2 0 2.6 2 0 2.7 2 0 2.8 2 0 2.9 2 0 3 2 0 3.1 2 0 3.2 2 0 3.3 2 0 3.4 2 0 3.5 2 0 3.6 2 0 3.7 2 0 3.8 2 0 3.9 2 0 4 2 0 4.1 2 0 4.2 2 0 4.3 2 0 4.4 2 0 4.5 2 0 4.6 2 0 4.7 2 0 4.8 2 0 4.9 2 0 5 2 0 5.1 2 0 5.2 2 0 5.3 2 0 5.4 2 0 5.5 2 0 5.6 2 0 5.7 2 0 5.8 2 0 5.9 2 0 6 2 0 6.1 2 0 6.2 2 0 6.3 2 0 6.4 2 0 6.5 2 0 6.6 2 0 6.7 2 0 6.8 2 0 6.9 2 0 7 2 0 7.1 2 0 7.2 2 0 7.3 2 0 7.4 2 0 7.5 2 0 7.6 2 0 7.7 2 0 7.8 2 0 7.9 2 0 8 2 0 8.1 2 0 8.2 2 0 8.3 2 0 8.4 2 0 8.5 2 0 8.6 2 0 8.7 2 0 8.8 2 0 8.9 2 0 9 2 0 9.1 2 0 9.2 2 0 9.3 2 0 9.4 2 0 9.5 2 0 9.6 2 0 9.7 2 0 9.8 2 0 9.9 2 0 10 2 0 0 2.1 0 0.1 2.1 0 0.2 2.1 0 0.3 2.1 0 0.4 2.1 0 0.5 2.1 0 0.6 2.1 0 0.7 2.1 0 0.8 2.1 0 0.9 2.1 0 1 2.1 0 1.1 2.1 0 1.2 2.1 0 1.3 2.1 0 1.4 2.1 0 1.5 2.1 0 1.6 2.1 0 1.7 2.1 0 1.8 2.1 0 1.9 2.1 0 2 2.1 0 2.1 2.1 0 2.2 2.1 0 2.3 2.1 0 2.4 2.1 0 2.5 2.1 0 2.6 2.1 0 2.7 2.1 0 2.8 2.1 0 2.9 2.1 0 3 2.1 0 3.1 2.1 0 3.2 2.1 0 3.3 2.1 0 3.4 2.1 0 3.5 2.1 0 3.6 2.1 0 3.7 2.1 0 3.8 2.1 0 3.9 2.1 0 4 2.1 0 4.1 2.1 0 4.2 2.1 0 4.3 2.1 0 4.4 2.1 0 4.5 2.1 0 4.6 2.1 0 4.7 2.1 0 4.8 2.1 0 4.9 2.1 0 5 2.1 0 5.1 2.1 0 5.2 2.1 0 5.3 2.1 0 5.4 2.1 0 5.5 2.1 0 5.6 2.1 0 5.7 2.1 0 5.8 2.1 0 5.9 2.1 0 6 2.1 0 6.1 2.1 0 6.2 2.1 0 6.3 2.1 0 6.4 2.1 0 6.5 2.1 0 6.6 2.1 0 6.7 2.1 0 6.8 2.1 0 6.9 2.1 0 7 2.1 0 7.1 2.1 0 7.2 2.1 0 7.3 2.1 0 7.4 2.1 0 7.5 2.1 0 7.6 2.1 0 7.7 2.1 0 7.8 2.1 0 7.9 2.1 0 8 2.1 0 8.1 2.1 0 8.2 2.1 0 8.3 2.1 0 8.4 2.1 0 8.5 2.1 0 8.6 2.1 0 8.7 2.1 0 8.8 2.1 0 8.9 2.1 0 9 2.1 0 9.1 2.1 0 9.2 2.1 0 9.3 2.1 0 9.4 2.1 0 9.5 2.1 0 9.6 2.1 0 9.7 2.1 0 9.8 2.1 0 9.9 2.1 0 10 2.1 0 0 2.2 0 0.1 2.2 0 0.2 2.2 0 0.3 2.2 0 0.4 2.2 0 0.5 2.2 0 0.6 2.2 0 0.7 2.2 0 0.8 2.2 0 0.9 2.2 0 1 2.2 0 1.1 2.2 0 1.2 2.2 0 1.3 2.2 0 1.4 2.2 0 1.5 2.2 0 1.6 2.2 0 1.7 2.2 0 1.8 2.2 0 1.9 2.2 0 2 2.2 0 2.1 2.2 0 2.2 2.2 0 2.3 2.2 0 2.4 2.2 0 2.5 2.2 0 2.6 2.2 0 2.7 2.2 0 2.8 2.2 0 2.9 2.2 0 3 2.2 0 3.1 2.2 0 3.2 2.2 0 3.3 2.2 0 3.4 2.2 0 3.5 2.2 0 3.6 2.2 0 3.7 2.2 0 3.8 2.2 0 3.9 2.2 0 4 2.2 0 4.1 2.2 0 4.2 2.2 0 4.3 2.2 0 4.4 2.2 0 4.5 2.2 0 4.6 2.2 0 4.7 2.2 0 4.8 2.2 0 4.9 2.2 0 5 2.2 0 5.1 2.2 0 5.2 2.2 0 5.3 2.2 0 5.4 2.2 0 5.5 2.2 0 5.6 2.2 0 5.7 2.2 0 5.8 2.2 0 5.9 2.2 0 6 2.2 0 6.1 2.2 0 6.2 2.2 0 6.3 2.2 0 6.4 2.2 0 6.5 2.2 0 6.6 2.2 0 6.7 2.2 0 6.8 2.2 0 6.9 2.2 0 7 2.2 0 7.1 2.2 0 7.2 2.2 0 7.3 2.2 0 7.4 2.2 0 7.5 2.2 0 7.6 2.2 0 7.7 2.2 0 7.8 2.2 0 7.9 2.2 0 8 2.2 0 8.1 2.2 0 8.2 2.2 0 8.3 2.2 0 8.4 2.2 0 8.5 2.2 0 8.6 2.2 0 8.7 2.2 0 8.8 2.2 0 8.9 2.2 0 9 2.2 0 9.1 2.2 0 9.2 2.2 0 9.3 2.2 0 9.4 2.2 0 9.5 2.2 0 9.6 2.2 0 9.7 2.2 0 9.8 2.2 0 9.9 2.2 0 10 2.2 0 0 2.3 0 0.1 2.3 0 0.2 2.3 0 0.3 2.3 0 0.4 2.3 0 0.5 2.3 0 0.6 2.3 0 0.7 2.3 0 0.8 2.3 0 0.9 2.3 0 1 2.3 0 1.1 2.3 0 1.2 2.3 0 1.3 2.3 0 1.4 2.3 0 1.5 2.3 0 1.6 2.3 0 1.7 2.3 0 1.8 2.3 0 1.9 2.3 0 2 2.3 0 2.1 2.3 0 2.2 2.3 0 2.3 2.3 0 2.4 2.3 0 2.5 2.3 0 2.6 2.3 0 2.7 2.3 0 2.8 2.3 0 2.9 2.3 0 3 2.3 0 3.1 2.3 0 3.2 2.3 0 3.3 2.3 0 3.4 2.3 0 3.5 2.3 0 3.6 2.3 0 3.7 2.3 0 3.8 2.3 0 3.9 2.3 0 4 2.3 0 4.1 2.3 0 4.2 2.3 0 4.3 2.3 0 4.4 2.3 0 4.5 2.3 0 4.6 2.3 0 4.7 2.3 0 4.8 2.3 0 4.9 2.3 0 5 2.3 0 5.1 2.3 0 5.2 2.3 0 5.3 2.3 0 5.4 2.3 0 5.5 2.3 0 5.6 2.3 0 5.7 2.3 0 5.8 2.3 0 5.9 2.3 0 6 2.3 0 6.1 2.3 0 6.2 2.3 0 6.3 2.3 0 6.4 2.3 0 6.5 2.3 0 6.6 2.3 0 6.7 2.3 0 6.8 2.3 0 6.9 2.3 0 7 2.3 0 7.1 2.3 0 7.2 2.3 0 7.3 2.3 0 7.4 2.3 0 7.5 2.3 0 7.6 2.3 0 7.7 2.3 0 7.8 2.3 0 7.9 2.3 0 8 2.3 0 8.1 2.3 0 8.2 2.3 0 8.3 2.3 0 8.4 2.3 0 8.5 2.3 0 8.6 2.3 0 8.7 2.3 0 8.8 2.3 0 8.9 2.3 0 9 2.3 0 9.1 2.3 0 9.2 2.3 0 9.3 2.3 0 9.4 2.3 0 9.5 2.3 0 9.6 2.3 0 9.7 2.3 0 9.8 2.3 0 9.9 2.3 0 10 2.3 0 0 2.4 0 0.1 2.4 0 0.2 2.4 0 0.3 2.4 0 0.4 2.4 0 0.5 2.4 0 0.6 2.4 0 0.7 2.4 0 0.8 2.4 0 0.9 2.4 0 1 2.4 0 1.1 2.4 0 1.2 2.4 0 1.3 2.4 0 1.4 2.4 0 1.5 2.4 0 1.6 2.4 0 1.7 2.4 0 1.8 2.4 0 1.9 2.4 0 2 2.4 0 2.1 2.4 0 2.2 2.4 0 2.3 2.4 0 2.4 2.4 0 2.5 2.4 0 2.6 2.4 0 2.7 2.4 0 2.8 2.4 0 2.9 2.4 0 3 2.4 0 3.1 2.4 0 3.2 2.4 0 3.3 2.4 0 3.4 2.4 0 3.5 2.4 0 3.6 2.4 0 3.7 2.4 0 3.8 2.4 0 3.9 2.4 0 4 2.4 0 4.1 2.4 0 4.2 2.4 0 4.3 2.4 0 4.4 2.4 0 4.5 2.4 0 4.6 2.4 0 4.7 2.4 0 4.8 2.4 0 4.9 2.4 0 5 2.4 0 5.1 2.4 0 5.2 2.4 0 5.3 2.4 0 5.4 2.4 0 5.5 2.4 0 5.6 2.4 0 5.7 2.4 0 5.8 2.4 0 5.9 2.4 0 6 2.4 0 6.1 2.4 0 6.2 2.4 0 6.3 2.4 0 6.4 2.4 0 6.5 2.4 0 6.6 2.4 0 6.7 2.4 0 6.8 2.4 0 6.9 2.4 0 7 2.4 0 7.1 2.4 0 7.2 2.4 0 7.3 2.4 0 7.4 2.4 0 7.5 2.4 0 7.6 2.4 0 7.7 2.4 0 7.8 2.4 0 7.9 2.4 0 8 2.4 0 8.1 2.4 0 8.2 2.4 0 8.3 2.4 0 8.4 2.4 0 8.5 2.4 0 8.6 2.4 0 8.7 2.4 0 8.8 2.4 0 8.9 2.4 0 9 2.4 0 9.1 2.4 0 9.2 2.4 0 9.3 2.4 0 9.4 2.4 0 9.5 2.4 0 9.6 2.4 0 9.7 2.4 0 9.8 2.4 0 9.9 2.4 0 10 2.4 0 0 2.5 0 0.1 2.5 0 0.2 2.5 0 0.3 2.5 0 0.4 2.5 0 0.5 2.5 0 0.6 2.5 0 0.7 2.5 0 0.8 2.5 0 0.9 2.5 0 1 2.5 0 1.1 2.5 0 1.2 2.5 0 1.3 2.5 0 1.4 2.5 0 1.5 2.5 0 1.6 2.5 0 1.7 2.5 0 1.8 2.5 0 1.9 2.5 0 2 2.5 0 2.1 2.5 0 2.2 2.5 0 2.3 2.5 0 2.4 2.5 0 2.5 2.5 0 2.6 2.5 0 2.7 2.5 0 2.8 2.5 0 2.9 2.5 0 3 2.5 0 3.1 2.5 0 3.2 2.5 0 3.3 2.5 0 3.4 2.5 0 3.5 2.5 0 3.6 2.5 0 3.7 2.5 0 3.8 2.5 0 3.9 2.5 0 4 2.5 0 4.1 2.5 0 4.2 2.5 0 4.3 2.5 0 4.4 2.5 0 4.5 2.5 0 4.6 2.5 0 4.7 2.5 0 4.8 2.5 0 4.9 2.5 0 5 2.5 0 5.1 2.5 0 5.2 2.5 0 5.3 2.5 0 5.4 2.5 0 5.5 2.5 0 5.6 2.5 0 5.7 2.5 0 5.8 2.5 0 5.9 2.5 0 6 2.5 0 6.1 2.5 0 6.2 2.5 0 6.3 2.5 0 6.4 2.5 0 6.5 2.5 0 6.6 2.5 0 6.7 2.5 0 6.8 2.5 0 6.9 2.5 0 7 2.5 0 7.1 2.5 0 7.2 2.5 0 7.3 2.5 0 7.4 2.5 0 7.5 2.5 0 7.6 2.5 0 7.7 2.5 0 7.8 2.5 0 7.9 2.5 0 8 2.5 0 8.1 2.5 0 8.2 2.5 0 8.3 2.5 0 8.4 2.5 0 8.5 2.5 0 8.6 2.5 0 8.7 2.5 0 8.8 2.5 0 8.9 2.5 0 9 2.5 0 9.1 2.5 0 9.2 2.5 0 9.3 2.5 0 9.4 2.5 0 9.5 2.5 0 9.6 2.5 0 9.7 2.5 0 9.8 2.5 0 9.9 2.5 0 10 2.5 0 0 2.6 0 0.1 2.6 0 0.2 2.6 0 0.3 2.6 0 0.4 2.6 0 0.5 2.6 0 0.6 2.6 0 0.7 2.6 0 0.8 2.6 0 0.9 2.6 0 1 2.6 0 1.1 2.6 0 1.2 2.6 0 1.3 2.6 0 1.4 2.6 0 1.5 2.6 0 1.6 2.6 0 1.7 2.6 0 1.8 2.6 0 1.9 2.6 0 2 2.6 0 2.1 2.6 0 2.2 2.6 0 2.3 2.6 0 2.4 2.6 0 2.5 2.6 0 2.6 2.6 0 2.7 2.6 0 2.8 2.6 0 2.9 2.6 0 3 2.6 0 3.1 2.6 0 3.2 2.6 0 3.3 2.6 0 3.4 2.6 0 3.5 2.6 0 3.6 2.6 0 3.7 2.6 0 3.8 2.6 0 3.9 2.6 0 4 2.6 0 4.1 2.6 0 4.2 2.6 0 4.3 2.6 0 4.4 2.6 0 4.5 2.6 0 4.6 2.6 0 4.7 2.6 0 4.8 2.6 0 4.9 2.6 0 5 2.6 0 5.1 2.6 0 5.2 2.6 0 5.3 2.6 0 5.4 2.6 0 5.5 2.6 0 5.6 2.6 0 5.7 2.6 0 5.8 2.6 0 5.9 2.6 0 6 2.6 0 6.1 2.6 0 6.2 2.6 0 6.3 2.6 0 6.4 2.6 0 6.5 2.6 0 6.6 2.6 0 6.7 2.6 0 6.8 2.6 0 6.9 2.6 0 7 2.6 0 7.1 2.6 0 7.2 2.6 0 7.3 2.6 0 7.4 2.6 0 7.5 2.6 0 7.6 2.6 0 7.7 2.6 0 7.8 2.6 0 7.9 2.6 0 8 2.6 0 8.1 2.6 0 8.2 2.6 0 8.3 2.6 0 8.4 2.6 0 8.5 2.6 0 8.6 2.6 0 8.7 2.6 0 8.8 2.6 0 8.9 2.6 0 9 2.6 0 9.1 2.6 0 9.2 2.6 0 9.3 2.6 0 9.4 2.6 0 9.5 2.6 0 9.6 2.6 0 9.7 2.6 0 9.8 2.6 0 9.9 2.6 0 10 2.6 0 0 2.7 0 0.1 2.7 0 0.2 2.7 0 0.3 2.7 0 0.4 2.7 0 0.5 2.7 0 0.6 2.7 0 0.7 2.7 0 0.8 2.7 0 0.9 2.7 0 1 2.7 0 1.1 2.7 0 1.2 2.7 0 1.3 2.7 0 1.4 2.7 0 1.5 2.7 0 1.6 2.7 0 1.7 2.7 0 1.8 2.7 0 1.9 2.7 0 2 2.7 0 2.1 2.7 0 2.2 2.7 0 2.3 2.7 0 2.4 2.7 0 2.5 2.7 0 2.6 2.7 0 2.7 2.7 0 2.8 2.7 0 2.9 2.7 0 3 2.7 0 3.1 2.7 0 3.2 2.7 0 3.3 2.7 0 3.4 2.7 0 3.5 2.7 0 3.6 2.7 0 3.7 2.7 0 3.8 2.7 0 3.9 2.7 0 4 2.7 0 4.1 2.7 0 4.2 2.7 0 4.3 2.7 0 4.4 2.7 0 4.5 2.7 0 4.6 2.7 0 4.7 2.7 0 4.8 2.7 0 4.9 2.7 0 5 2.7 0 5.1 2.7 0 5.2 2.7 0 5.3 2.7 0 5.4 2.7 0 5.5 2.7 0 5.6 2.7 0 5.7 2.7 0 5.8 2.7 0 5.9 2.7 0 6 2.7 0 6.1 2.7 0 6.2 2.7 0 6.3 2.7 0 6.4 2.7 0 6.5 2.7 0 6.6 2.7 0 6.7 2.7 0 6.8 2.7 0 6.9 2.7 0 7 2.7 0 7.1 2.7 0 7.2 2.7 0 7.3 2.7 0 7.4 2.7 0 7.5 2.7 0 7.6 2.7 0 7.7 2.7 0 7.8 2.7 0 7.9 2.7 0 8 2.7 0 8.1 2.7 0 8.2 2.7 0 8.3 2.7 0 8.4 2.7 0 8.5 2.7 0 8.6 2.7 0 8.7 2.7 0 8.8 2.7 0 8.9 2.7 0 9 2.7 0 9.1 2.7 0 9.2 2.7 0 9.3 2.7 0 9.4 2.7 0 9.5 2.7 0 9.6 2.7 0 9.7 2.7 0 9.8 2.7 0 9.9 2.7 0 10 2.7 0 0 2.8 0 0.1 2.8 0 0.2 2.8 0 0.3 2.8 0 0.4 2.8 0 0.5 2.8 0 0.6 2.8 0 0.7 2.8 0 0.8 2.8 0 0.9 2.8 0 1 2.8 0 1.1 2.8 0 1.2 2.8 0 1.3 2.8 0 1.4 2.8 0 1.5 2.8 0 1.6 2.8 0 1.7 2.8 0 1.8 2.8 0 1.9 2.8 0 2 2.8 0 2.1 2.8 0 2.2 2.8 0 2.3 2.8 0 2.4 2.8 0 2.5 2.8 0 2.6 2.8 0 2.7 2.8 0 2.8 2.8 0 2.9 2.8 0 3 2.8 0 3.1 2.8 0 3.2 2.8 0 3.3 2.8 0 3.4 2.8 0 3.5 2.8 0 3.6 2.8 0 3.7 2.8 0 3.8 2.8 0 3.9 2.8 0 4 2.8 0 4.1 2.8 0 4.2 2.8 0 4.3 2.8 0 4.4 2.8 0 4.5 2.8 0 4.6 2.8 0 4.7 2.8 0 4.8 2.8 0 4.9 2.8 0 5 2.8 0 5.1 2.8 0 5.2 2.8 0 5.3 2.8 0 5.4 2.8 0 5.5 2.8 0 5.6 2.8 0 5.7 2.8 0 5.8 2.8 0 5.9 2.8 0 6 2.8 0 6.1 2.8 0 6.2 2.8 0 6.3 2.8 0 6.4 2.8 0 6.5 2.8 0 6.6 2.8 0 6.7 2.8 0 6.8 2.8 0 6.9 2.8 0 7 2.8 0 7.1 2.8 0 7.2 2.8 0 7.3 2.8 0 7.4 2.8 0 7.5 2.8 0 7.6 2.8 0 7.7 2.8 0 7.8 2.8 0 7.9 2.8 0 8 2.8 0 8.1 2.8 0 8.2 2.8 0 8.3 2.8 0 8.4 2.8 0 8.5 2.8 0 8.6 2.8 0 8.7 2.8 0 8.8 2.8 0 8.9 2.8 0 9 2.8 0 9.1 2.8 0 9.2 2.8 0 9.3 2.8 0 9.4 2.8 0 9.5 2.8 0 9.6 2.8 0 9.7 2.8 0 9.8 2.8 0 9.9 2.8 0 10 2.8 0 0 2.9 0 0.1 2.9 0 0.2 2.9 0 0.3 2.9 0 0.4 2.9 0 0.5 2.9 0 0.6 2.9 0 0.7 2.9 0 0.8 2.9 0 0.9 2.9 0 1 2.9 0 1.1 2.9 0 1.2 2.9 0 1.3 2.9 0 1.4 2.9 0 1.5 2.9 0 1.6 2.9 0 1.7 2.9 0 1.8 2.9 0 1.9 2.9 0 2 2.9 0 2.1 2.9 0 2.2 2.9 0 2.3 2.9 0 2.4 2.9 0 2.5 2.9 0 2.6 2.9 0 2.7 2.9 0 2.8 2.9 0 2.9 2.9 0 3 2.9 0 3.1 2.9 0 3.2 2.9 0 3.3 2.9 0 3.4 2.9 0 3.5 2.9 0 3.6 2.9 0 3.7 2.9 0 3.8 2.9 0 3.9 2.9 0 4 2.9 0 4.1 2.9 0 4.2 2.9 0 4.3 2.9 0 4.4 2.9 0 4.5 2.9 0 4.6 2.9 0 4.7 2.9 0 4.8 2.9 0 4.9 2.9 0 5 2.9 0 5.1 2.9 0 5.2 2.9 0 5.3 2.9 0 5.4 2.9 0 5.5 2.9 0 5.6 2.9 0 5.7 2.9 0 5.8 2.9 0 5.9 2.9 0 6 2.9 0 6.1 2.9 0 6.2 2.9 0 6.3 2.9 0 6.4 2.9 0 6.5 2.9 0 6.6 2.9 0 6.7 2.9 0 6.8 2.9 0 6.9 2.9 0 7 2.9 0 7.1 2.9 0 7.2 2.9 0 7.3 2.9 0 7.4 2.9 0 7.5 2.9 0 7.6 2.9 0 7.7 2.9 0 7.8 2.9 0 7.9 2.9 0 8 2.9 0 8.1 2.9 0 8.2 2.9 0 8.3 2.9 0 8.4 2.9 0 8.5 2.9 0 8.6 2.9 0 8.7 2.9 0 8.8 2.9 0 8.9 2.9 0 9 2.9 0 9.1 2.9 0 9.2 2.9 0 9.3 2.9 0 9.4 2.9 0 9.5 2.9 0 9.6 2.9 0 9.7 2.9 0 9.8 2.9 0 9.9 2.9 0 10 2.9 0 0 3 0 0.1 3 0 0.2 3 0 0.3 3 0 0.4 3 0 0.5 3 0 0.6 3 0 0.7 3 0 0.8 3 0 0.9 3 0 1 3 0 1.1 3 0 1.2 3 0 1.3 3 0 1.4 3 0 1.5 3 0 1.6 3 0 1.7 3 0 1.8 3 0 1.9 3 0 2 3 0 2.1 3 0 2.2 3 0 2.3 3 0 2.4 3 0 2.5 3 0 2.6 3 0 2.7 3 0 2.8 3 0 2.9 3 0 3 3 0 3.1 3 0 3.2 3 0 3.3 3 0 3.4 3 0 3.5 3 0 3.6 3 0 3.7 3 0 3.8 3 0 3.9 3 0 4 3 0 4.1 3 0 4.2 3 0 4.3 3 0 4.4 3 0 4.5 3 0 4.6 3 0 4.7 3 0 4.8 3 0 4.9 3 0 5 3 0 5.1 3 0 5.2 3 0 5.3 3 0 5.4 3 0 5.5 3 0 5.6 3 0 5.7 3 0 5.8 3 0 5.9 3 0 6 3 0 6.1 3 0 6.2 3 0 6.3 3 0 6.4 3 0 6.5 3 0 6.6 3 0 6.7 3 0 6.8 3 0 6.9 3 0 7 3 0 7.1 3 0 7.2 3 0 7.3 3 0 7.4 3 0 7.5 3 0 7.6 3 0 7.7 3 0 7.8 3 0 7.9 3 0 8 3 0 8.1 3 0 8.2 3 0 8.3 3 0 8.4 3 0 8.5 3 0 8.6 3 0 8.7 3 0 8.8 3 0 8.9 3 0 9 3 0 9.1 3 0 9.2 3 0 9.3 3 0 9.4 3 0 9.5 3 0 9.6 3 0 9.7 3 0 9.8 3 0 9.9 3 0 10 3 0 0 3.1 0 0.1 3.1 0 0.2 3.1 0 0.3 3.1 0 0.4 3.1 0 0.5 3.1 0 0.6 3.1 0 0.7 3.1 0 0.8 3.1 0 0.9 3.1 0 1 3.1 0 1.1 3.1 0 1.2 3.1 0 1.3 3.1 0 1.4 3.1 0 1.5 3.1 0 1.6 3.1 0 1.7 3.1 0 1.8 3.1 0 1.9 3.1 0 2 3.1 0 2.1 3.1 0 2.2 3.1 0 2.3 3.1 0 2.4 3.1 0 2.5 3.1 0 2.6 3.1 0 2.7 3.1 0 2.8 3.1 0 2.9 3.1 0 3 3.1 0 3.1 3.1 0 3.2 3.1 0 3.3 3.1 0 3.4 3.1 0 3.5 3.1 0 3.6 3.1 0 3.7 3.1 0 3.8 3.1 0 3.9 3.1 0 4 3.1 0 4.1 3.1 0 4.2 3.1 0 4.3 3.1 0 4.4 3.1 0 4.5 3.1 0 4.6 3.1 0 4.7 3.1 0 4.8 3.1 0 4.9 3.1 0 5 3.1 0 5.1 3.1 0 5.2 3.1 0 5.3 3.1 0 5.4 3.1 0 5.5 3.1 0 5.6 3.1 0 5.7 3.1 0 5.8 3.1 0 5.9 3.1 0 6 3.1 0 6.1 3.1 0 6.2 3.1 0 6.3 3.1 0 6.4 3.1 0 6.5 3.1 0 6.6 3.1 0 6.7 3.1 0 6.8 3.1 0 6.9 3.1 0 7 3.1 0 7.1 3.1 0 7.2 3.1 0 7.3 3.1 0 7.4 3.1 0 7.5 3.1 0 7.6 3.1 0 7.7 3.1 0 7.8 3.1 0 7.9 3.1 0 8 3.1 0 8.1 3.1 0 8.2 3.1 0 8.3 3.1 0 8.4 3.1 0 8.5 3.1 0 8.6 3.1 0 8.7 3.1 0 8.8 3.1 0 8.9 3.1 0 9 3.1 0 9.1 3.1 0 9.2 3.1 0 9.3 3.1 0 9.4 3.1 0 9.5 3.1 0 9.6 3.1 0 9.7 3.1 0 9.8 3.1 0 9.9 3.1 0 10 3.1 0 0 3.2 0 0.1 3.2 0 0.2 3.2 0 0.3 3.2 0 0.4 3.2 0 0.5 3.2 0 0.6 3.2 0 0.7 3.2 0 0.8 3.2 0 0.9 3.2 0 1 3.2 0 1.1 3.2 0 1.2 3.2 0 1.3 3.2 0 1.4 3.2 0 1.5 3.2 0 1.6 3.2 0 1.7 3.2 0 1.8 3.2 0 1.9 3.2 0 2 3.2 0 2.1 3.2 0 2.2 3.2 0 2.3 3.2 0 2.4 3.2 0 2.5 3.2 0 2.6 3.2 0 2.7 3.2 0 2.8 3.2 0 2.9 3.2 0 3 3.2 0 3.1 3.2 0 3.2 3.2 0 3.3 3.2 0 3.4 3.2 0 3.5 3.2 0 3.6 3.2 0 3.7 3.2 0 3.8 3.2 0 3.9 3.2 0 4 3.2 0 4.1 3.2 0 4.2 3.2 0 4.3 3.2 0 4.4 3.2 0 4.5 3.2 0 4.6 3.2 0 4.7 3.2 0 4.8 3.2 0 4.9 3.2 0 5 3.2 0 5.1 3.2 0 5.2 3.2 0 5.3 3.2 0 5.4 3.2 0 5.5 3.2 0 5.6 3.2 0 5.7 3.2 0 5.8 3.2 0 5.9 3.2 0 6 3.2 0 6.1 3.2 0 6.2 3.2 0 6.3 3.2 0 6.4 3.2 0 6.5 3.2 0 6.6 3.2 0 6.7 3.2 0 6.8 3.2 0 6.9 3.2 0 7 3.2 0 7.1 3.2 0 7.2 3.2 0 7.3 3.2 0 7.4 3.2 0 7.5 3.2 0 7.6 3.2 0 7.7 3.2 0 7.8 3.2 0 7.9 3.2 0 8 3.2 0 8.1 3.2 0 8.2 3.2 0 8.3 3.2 0 8.4 3.2 0 8.5 3.2 0 8.6 3.2 0 8.7 3.2 0 8.8 3.2 0 8.9 3.2 0 9 3.2 0 9.1 3.2 0 9.2 3.2 0 9.3 3.2 0 9.4 3.2 0 9.5 3.2 0 9.6 3.2 0 9.7 3.2 0 9.8 3.2 0 9.9 3.2 0 10 3.2 0 0 3.3 0 0.1 3.3 0 0.2 3.3 0 0.3 3.3 0 0.4 3.3 0 0.5 3.3 0 0.6 3.3 0 0.7 3.3 0 0.8 3.3 0 0.9 3.3 0 1 3.3 0 1.1 3.3 0 1.2 3.3 0 1.3 3.3 0 1.4 3.3 0 1.5 3.3 0 1.6 3.3 0 1.7 3.3 0 1.8 3.3 0 1.9 3.3 0 2 3.3 0 2.1 3.3 0 2.2 3.3 0 2.3 3.3 0 2.4 3.3 0 2.5 3.3 0 2.6 3.3 0 2.7 3.3 0 2.8 3.3 0 2.9 3.3 0 3 3.3 0 3.1 3.3 0 3.2 3.3 0 3.3 3.3 0 3.4 3.3 0 3.5 3.3 0 3.6 3.3 0 3.7 3.3 0 3.8 3.3 0 3.9 3.3 0 4 3.3 0 4.1 3.3 0 4.2 3.3 0 4.3 3.3 0 4.4 3.3 0 4.5 3.3 0 4.6 3.3 0 4.7 3.3 0 4.8 3.3 0 4.9 3.3 0 5 3.3 0 5.1 3.3 0 5.2 3.3 0 5.3 3.3 0 5.4 3.3 0 5.5 3.3 0 5.6 3.3 0 5.7 3.3 0 5.8 3.3 0 5.9 3.3 0 6 3.3 0 6.1 3.3 0 6.2 3.3 0 6.3 3.3 0 6.4 3.3 0 6.5 3.3 0 6.6 3.3 0 6.7 3.3 0 6.8 3.3 0 6.9 3.3 0 7 3.3 0 7.1 3.3 0 7.2 3.3 0 7.3 3.3 0 7.4 3.3 0 7.5 3.3 0 7.6 3.3 0 7.7 3.3 0 7.8 3.3 0 7.9 3.3 0 8 3.3 0 8.1 3.3 0 8.2 3.3 0 8.3 3.3 0 8.4 3.3 0 8.5 3.3 0 8.6 3.3 0 8.7 3.3 0 8.8 3.3 0 8.9 3.3 0 9 3.3 0 9.1 3.3 0 9.2 3.3 0 9.3 3.3 0 9.4 3.3 0 9.5 3.3 0 9.6 3.3 0 9.7 3.3 0 9.8 3.3 0 9.9 3.3 0 10 3.3 0 0 3.4 0 0.1 3.4 0 0.2 3.4 0 0.3 3.4 0 0.4 3.4 0 0.5 3.4 0 0.6 3.4 0 0.7 3.4 0 0.8 3.4 0 0.9 3.4 0 1 3.4 0 1.1 3.4 0 1.2 3.4 0 1.3 3.4 0 1.4 3.4 0 1.5 3.4 0 1.6 3.4 0 1.7 3.4 0 1.8 3.4 0 1.9 3.4 0 2 3.4 0 2.1 3.4 0 2.2 3.4 0 2.3 3.4 0 2.4 3.4 0 2.5 3.4 0 2.6 3.4 0 2.7 3.4 0 2.8 3.4 0 2.9 3.4 0 3 3.4 0 3.1 3.4 0 3.2 3.4 0 3.3 3.4 0 3.4 3.4 0 3.5 3.4 0 3.6 3.4 0 3.7 3.4 0 3.8 3.4 0 3.9 3.4 0 4 3.4 0 4.1 3.4 0 4.2 3.4 0 4.3 3.4 0 4.4 3.4 0 4.5 3.4 0 4.6 3.4 0 4.7 3.4 0 4.8 3.4 0 4.9 3.4 0 5 3.4 0 5.1 3.4 0 5.2 3.4 0 5.3 3.4 0 5.4 3.4 0 5.5 3.4 0 5.6 3.4 0 5.7 3.4 0 5.8 3.4 0 5.9 3.4 0 6 3.4 0 6.1 3.4 0 6.2 3.4 0 6.3 3.4 0 6.4 3.4 0 6.5 3.4 0 6.6 3.4 0 6.7 3.4 0 6.8 3.4 0 6.9 3.4 0 7 3.4 0 7.1 3.4 0 7.2 3.4 0 7.3 3.4 0 7.4 3.4 0 7.5 3.4 0 7.6 3.4 0 7.7 3.4 0 7.8 3.4 0 7.9 3.4 0 8 3.4 0 8.1 3.4 0 8.2 3.4 0 8.3 3.4 0 8.4 3.4 0 8.5 3.4 0 8.6 3.4 0 8.7 3.4 0 8.8 3.4 0 8.9 3.4 0 9 3.4 0 9.1 3.4 0 9.2 3.4 0 9.3 3.4 0 9.4 3.4 0 9.5 3.4 0 9.6 3.4 0 9.7 3.4 0 9.8 3.4 0 9.9 3.4 0 10 3.4 0 0 3.5 0 0.1 3.5 0 0.2 3.5 0 0.3 3.5 0 0.4 3.5 0 0.5 3.5 0 0.6 3.5 0 0.7 3.5 0 0.8 3.5 0 0.9 3.5 0 1 3.5 0 1.1 3.5 0 1.2 3.5 0 1.3 3.5 0 1.4 3.5 0 1.5 3.5 0 1.6 3.5 0 1.7 3.5 0 1.8 3.5 0 1.9 3.5 0 2 3.5 0 2.1 3.5 0 2.2 3.5 0 2.3 3.5 0 2.4 3.5 0 2.5 3.5 0 2.6 3.5 0 2.7 3.5 0 2.8 3.5 0 2.9 3.5 0 3 3.5 0 3.1 3.5 0 3.2 3.5 0 3.3 3.5 0 3.4 3.5 0 3.5 3.5 0 3.6 3.5 0 3.7 3.5 0 3.8 3.5 0 3.9 3.5 0 4 3.5 0 4.1 3.5 0 4.2 3.5 0 4.3 3.5 0 4.4 3.5 0 4.5 3.5 0 4.6 3.5 0 4.7 3.5 0 4.8 3.5 0 4.9 3.5 0 5 3.5 0 5.1 3.5 0 5.2 3.5 0 5.3 3.5 0 5.4 3.5 0 5.5 3.5 0 5.6 3.5 0 5.7 3.5 0 5.8 3.5 0 5.9 3.5 0 6 3.5 0 6.1 3.5 0 6.2 3.5 0 6.3 3.5 0 6.4 3.5 0 6.5 3.5 0 6.6 3.5 0 6.7 3.5 0 6.8 3.5 0 6.9 3.5 0 7 3.5 0 7.1 3.5 0 7.2 3.5 0 7.3 3.5 0 7.4 3.5 0 7.5 3.5 0 7.6 3.5 0 7.7 3.5 0 7.8 3.5 0 7.9 3.5 0 8 3.5 0 8.1 3.5 0 8.2 3.5 0 8.3 3.5 0 8.4 3.5 0 8.5 3.5 0 8.6 3.5 0 8.7 3.5 0 8.8 3.5 0 8.9 3.5 0 9 3.5 0 9.1 3.5 0 9.2 3.5 0 9.3 3.5 0 9.4 3.5 0 9.5 3.5 0 9.6 3.5 0 9.7 3.5 0 9.8 3.5 0 9.9 3.5 0 10 3.5 0 0 3.6 0 0.1 3.6 0 0.2 3.6 0 0.3 3.6 0 0.4 3.6 0 0.5 3.6 0 0.6 3.6 0 0.7 3.6 0 0.8 3.6 0 0.9 3.6 0 1 3.6 0 1.1 3.6 0 1.2 3.6 0 1.3 3.6 0 1.4 3.6 0 1.5 3.6 0 1.6 3.6 0 1.7 3.6 0 1.8 3.6 0 1.9 3.6 0 2 3.6 0 2.1 3.6 0 2.2 3.6 0 2.3 3.6 0 2.4 3.6 0 2.5 3.6 0 2.6 3.6 0 2.7 3.6 0 2.8 3.6 0 2.9 3.6 0 3 3.6 0 3.1 3.6 0 3.2 3.6 0 3.3 3.6 0 3.4 3.6 0 3.5 3.6 0 3.6 3.6 0 3.7 3.6 0 3.8 3.6 0 3.9 3.6 0 4 3.6 0 4.1 3.6 0 4.2 3.6 0 4.3 3.6 0 4.4 3.6 0 4.5 3.6 0 4.6 3.6 0 4.7 3.6 0 4.8 3.6 0 4.9 3.6 0 5 3.6 0 5.1 3.6 0 5.2 3.6 0 5.3 3.6 0 5.4 3.6 0 5.5 3.6 0 5.6 3.6 0 5.7 3.6 0 5.8 3.6 0 5.9 3.6 0 6 3.6 0 6.1 3.6 0 6.2 3.6 0 6.3 3.6 0 6.4 3.6 0 6.5 3.6 0 6.6 3.6 0 6.7 3.6 0 6.8 3.6 0 6.9 3.6 0 7 3.6 0 7.1 3.6 0 7.2 3.6 0 7.3 3.6 0 7.4 3.6 0 7.5 3.6 0 7.6 3.6 0 7.7 3.6 0 7.8 3.6 0 7.9 3.6 0 8 3.6 0 8.1 3.6 0 8.2 3.6 0 8.3 3.6 0 8.4 3.6 0 8.5 3.6 0 8.6 3.6 0 8.7 3.6 0 8.8 3.6 0 8.9 3.6 0 9 3.6 0 9.1 3.6 0 9.2 3.6 0 9.3 3.6 0 9.4 3.6 0 9.5 3.6 0 9.6 3.6 0 9.7 3.6 0 9.8 3.6 0 9.9 3.6 0 10 3.6 0 0 3.7 0 0.1 3.7 0 0.2 3.7 0 0.3 3.7 0 0.4 3.7 0 0.5 3.7 0 0.6 3.7 0 0.7 3.7 0 0.8 3.7 0 0.9 3.7 0 1 3.7 0 1.1 3.7 0 1.2 3.7 0 1.3 3.7 0 1.4 3.7 0 1.5 3.7 0 1.6 3.7 0 1.7 3.7 0 1.8 3.7 0 1.9 3.7 0 2 3.7 0 2.1 3.7 0 2.2 3.7 0 2.3 3.7 0 2.4 3.7 0 2.5 3.7 0 2.6 3.7 0 2.7 3.7 0 2.8 3.7 0 2.9 3.7 0 3 3.7 0 3.1 3.7 0 3.2 3.7 0 3.3 3.7 0 3.4 3.7 0 3.5 3.7 0 3.6 3.7 0 3.7 3.7 0 3.8 3.7 0 3.9 3.7 0 4 3.7 0 4.1 3.7 0 4.2 3.7 0 4.3 3.7 0 4.4 3.7 0 4.5 3.7 0 4.6 3.7 0 4.7 3.7 0 4.8 3.7 0 4.9 3.7 0 5 3.7 0 5.1 3.7 0 5.2 3.7 0 5.3 3.7 0 5.4 3.7 0 5.5 3.7 0 5.6 3.7 0 5.7 3.7 0 5.8 3.7 0 5.9 3.7 0 6 3.7 0 6.1 3.7 0 6.2 3.7 0 6.3 3.7 0 6.4 3.7 0 6.5 3.7 0 6.6 3.7 0 6.7 3.7 0 6.8 3.7 0 6.9 3.7 0 7 3.7 0 7.1 3.7 0 7.2 3.7 0 7.3 3.7 0 7.4 3.7 0 7.5 3.7 0 7.6 3.7 0 7.7 3.7 0 7.8 3.7 0 7.9 3.7 0 8 3.7 0 8.1 3.7 0 8.2 3.7 0 8.3 3.7 0 8.4 3.7 0 8.5 3.7 0 8.6 3.7 0 8.7 3.7 0 8.8 3.7 0 8.9 3.7 0 9 3.7 0 9.1 3.7 0 9.2 3.7 0 9.3 3.7 0 9.4 3.7 0 9.5 3.7 0 9.6 3.7 0 9.7 3.7 0 9.8 3.7 0 9.9 3.7 0 10 3.7 0 0 3.8 0 0.1 3.8 0 0.2 3.8 0 0.3 3.8 0 0.4 3.8 0 0.5 3.8 0 0.6 3.8 0 0.7 3.8 0 0.8 3.8 0 0.9 3.8 0 1 3.8 0 1.1 3.8 0 1.2 3.8 0 1.3 3.8 0 1.4 3.8 0 1.5 3.8 0 1.6 3.8 0 1.7 3.8 0 1.8 3.8 0 1.9 3.8 0 2 3.8 0 2.1 3.8 0 2.2 3.8 0 2.3 3.8 0 2.4 3.8 0 2.5 3.8 0 2.6 3.8 0 2.7 3.8 0 2.8 3.8 0 2.9 3.8 0 3 3.8 0 3.1 3.8 0 3.2 3.8 0 3.3 3.8 0 3.4 3.8 0 3.5 3.8 0 3.6 3.8 0 3.7 3.8 0 3.8 3.8 0 3.9 3.8 0 4 3.8 0 4.1 3.8 0 4.2 3.8 0 4.3 3.8 0 4.4 3.8 0 4.5 3.8 0 4.6 3.8 0 4.7 3.8 0 4.8 3.8 0 4.9 3.8 0 5 3.8 0 5.1 3.8 0 5.2 3.8 0 5.3 3.8 0 5.4 3.8 0 5.5 3.8 0 5.6 3.8 0 5.7 3.8 0 5.8 3.8 0 5.9 3.8 0 6 3.8 0 6.1 3.8 0 6.2 3.8 0 6.3 3.8 0 6.4 3.8 0 6.5 3.8 0 6.6 3.8 0 6.7 3.8 0 6.8 3.8 0 6.9 3.8 0 7 3.8 0 7.1 3.8 0 7.2 3.8 0 7.3 3.8 0 7.4 3.8 0 7.5 3.8 0 7.6 3.8 0 7.7 3.8 0 7.8 3.8 0 7.9 3.8 0 8 3.8 0 8.1 3.8 0 8.2 3.8 0 8.3 3.8 0 8.4 3.8 0 8.5 3.8 0 8.6 3.8 0 8.7 3.8 0 8.8 3.8 0 8.9 3.8 0 9 3.8 0 9.1 3.8 0 9.2 3.8 0 9.3 3.8 0 9.4 3.8 0 9.5 3.8 0 9.6 3.8 0 9.7 3.8 0 9.8 3.8 0 9.9 3.8 0 10 3.8 0 0 3.9 0 0.1 3.9 0 0.2 3.9 0 0.3 3.9 0 0.4 3.9 0 0.5 3.9 0 0.6 3.9 0 0.7 3.9 0 0.8 3.9 0 0.9 3.9 0 1 3.9 0 1.1 3.9 0 1.2 3.9 0 1.3 3.9 0 1.4 3.9 0 1.5 3.9 0 1.6 3.9 0 1.7 3.9 0 1.8 3.9 0 1.9 3.9 0 2 3.9 0 2.1 3.9 0 2.2 3.9 0 2.3 3.9 0 2.4 3.9 0 2.5 3.9 0 2.6 3.9 0 2.7 3.9 0 2.8 3.9 0 2.9 3.9 0 3 3.9 0 3.1 3.9 0 3.2 3.9 0 3.3 3.9 0 3.4 3.9 0 3.5 3.9 0 3.6 3.9 0 3.7 3.9 0 3.8 3.9 0 3.9 3.9 0 4 3.9 0 4.1 3.9 0 4.2 3.9 0 4.3 3.9 0 4.4 3.9 0 4.5 3.9 0 4.6 3.9 0 4.7 3.9 0 4.8 3.9 0 4.9 3.9 0 5 3.9 0 5.1 3.9 0 5.2 3.9 0 5.3 3.9 0 5.4 3.9 0 5.5 3.9 0 5.6 3.9 0 5.7 3.9 0 5.8 3.9 0 5.9 3.9 0 6 3.9 0 6.1 3.9 0 6.2 3.9 0 6.3 3.9 0 6.4 3.9 0 6.5 3.9 0 6.6 3.9 0 6.7 3.9 0 6.8 3.9 0 6.9 3.9 0 7 3.9 0 7.1 3.9 0 7.2 3.9 0 7.3 3.9 0 7.4 3.9 0 7.5 3.9 0 7.6 3.9 0 7.7 3.9 0 7.8 3.9 0 7.9 3.9 0 8 3.9 0 8.1 3.9 0 8.2 3.9 0 8.3 3.9 0 8.4 3.9 0 8.5 3.9 0 8.6 3.9 0 8.7 3.9 0 8.8 3.9 0 8.9 3.9 0 9 3.9 0 9.1 3.9 0 9.2 3.9 0 9.3 3.9 0 9.4 3.9 0 9.5 3.9 0 9.6 3.9 0 9.7 3.9 0 9.8 3.9 0 9.9 3.9 0 10 3.9 0 0 4 0 0.1 4 0 0.2 4 0 0.3 4 0 0.4 4 0 0.5 4 0 0.6 4 0 0.7 4 0 0.8 4 0 0.9 4 0 1 4 0 1.1 4 0 1.2 4 0 1.3 4 0 1.4 4 0 1.5 4 0 1.6 4 0 1.7 4 0 1.8 4 0 1.9 4 0 2 4 0 2.1 4 0 2.2 4 0 2.3 4 0 2.4 4 0 2.5 4 0 2.6 4 0 2.7 4 0 2.8 4 0 2.9 4 0 3 4 0 3.1 4 0 3.2 4 0 3.3 4 0 3.4 4 0 3.5 4 0 3.6 4 0 3.7 4 0 3.8 4 0 3.9 4 0 4 4 0 4.1 4 0 4.2 4 0 4.3 4 0 4.4 4 0 4.5 4 0 4.6 4 0 4.7 4 0 4.8 4 0 4.9 4 0 5 4 0 5.1 4 0 5.2 4 0 5.3 4 0 5.4 4 0 5.5 4 0 5.6 4 0 5.7 4 0 5.8 4 0 5.9 4 0 6 4 0 6.1 4 0 6.2 4 0 6.3 4 0 6.4 4 0 6.5 4 0 6.6 4 0 6.7 4 0 6.8 4 0 6.9 4 0 7 4 0 7.1 4 0 7.2 4 0 7.3 4 0 7.4 4 0 7.5 4 0 7.6 4 0 7.7 4 0 7.8 4 0 7.9 4 0 8 4 0 8.1 4 0 8.2 4 0 8.3 4 0 8.4 4 0 8.5 4 0 8.6 4 0 8.7 4 0 8.8 4 0 8.9 4 0 9 4 0 9.1 4 0 9.2 4 0 9.3 4 0 9.4 4 0 9.5 4 0 9.6 4 0 9.7 4 0 9.8 4 0 9.9 4 0 10 4 0 0 4.1 0 0.1 4.1 0 0.2 4.1 0 0.3 4.1 0 0.4 4.1 0 0.5 4.1 0 0.6 4.1 0 0.7 4.1 0 0.8 4.1 0 0.9 4.1 0 1 4.1 0 1.1 4.1 0 1.2 4.1 0 1.3 4.1 0 1.4 4.1 0 1.5 4.1 0 1.6 4.1 0 1.7 4.1 0 1.8 4.1 0 1.9 4.1 0 2 4.1 0 2.1 4.1 0 2.2 4.1 0 2.3 4.1 0 2.4 4.1 0 2.5 4.1 0 2.6 4.1 0 2.7 4.1 0 2.8 4.1 0 2.9 4.1 0 3 4.1 0 3.1 4.1 0 3.2 4.1 0 3.3 4.1 0 3.4 4.1 0 3.5 4.1 0 3.6 4.1 0 3.7 4.1 0 3.8 4.1 0 3.9 4.1 0 4 4.1 0 4.1 4.1 0 4.2 4.1 0 4.3 4.1 0 4.4 4.1 0 4.5 4.1 0 4.6 4.1 0 4.7 4.1 0 4.8 4.1 0 4.9 4.1 0 5 4.1 0 5.1 4.1 0 5.2 4.1 0 5.3 4.1 0 5.4 4.1 0 5.5 4.1 0 5.6 4.1 0 5.7 4.1 0 5.8 4.1 0 5.9 4.1 0 6 4.1 0 6.1 4.1 0 6.2 4.1 0 6.3 4.1 0 6.4 4.1 0 6.5 4.1 0 6.6 4.1 0 6.7 4.1 0 6.8 4.1 0 6.9 4.1 0 7 4.1 0 7.1 4.1 0 7.2 4.1 0 7.3 4.1 0 7.4 4.1 0 7.5 4.1 0 7.6 4.1 0 7.7 4.1 0 7.8 4.1 0 7.9 4.1 0 8 4.1 0 8.1 4.1 0 8.2 4.1 0 8.3 4.1 0 8.4 4.1 0 8.5 4.1 0 8.6 4.1 0 8.7 4.1 0 8.8 4.1 0 8.9 4.1 0 9 4.1 0 9.1 4.1 0 9.2 4.1 0 9.3 4.1 0 9.4 4.1 0 9.5 4.1 0 9.6 4.1 0 9.7 4.1 0 9.8 4.1 0 9.9 4.1 0 10 4.1 0 0 4.2 0 0.1 4.2 0 0.2 4.2 0 0.3 4.2 0 0.4 4.2 0 0.5 4.2 0 0.6 4.2 0 0.7 4.2 0 0.8 4.2 0 0.9 4.2 0 1 4.2 0 1.1 4.2 0 1.2 4.2 0 1.3 4.2 0 1.4 4.2 0 1.5 4.2 0 1.6 4.2 0 1.7 4.2 0 1.8 4.2 0 1.9 4.2 0 2 4.2 0 2.1 4.2 0 2.2 4.2 0 2.3 4.2 0 2.4 4.2 0 2.5 4.2 0 2.6 4.2 0 2.7 4.2 0 2.8 4.2 0 2.9 4.2 0 3 4.2 0 3.1 4.2 0 3.2 4.2 0 3.3 4.2 0 3.4 4.2 0 3.5 4.2 0 3.6 4.2 0 3.7 4.2 0 3.8 4.2 0 3.9 4.2 0 4 4.2 0 4.1 4.2 0 4.2 4.2 0 4.3 4.2 0 4.4 4.2 0 4.5 4.2 0 4.6 4.2 0 4.7 4.2 0 4.8 4.2 0 4.9 4.2 0 5 4.2 0 5.1 4.2 0 5.2 4.2 0 5.3 4.2 0 5.4 4.2 0 5.5 4.2 0 5.6 4.2 0 5.7 4.2 0 5.8 4.2 0 5.9 4.2 0 6 4.2 0 6.1 4.2 0 6.2 4.2 0 6.3 4.2 0 6.4 4.2 0 6.5 4.2 0 6.6 4.2 0 6.7 4.2 0 6.8 4.2 0 6.9 4.2 0 7 4.2 0 7.1 4.2 0 7.2 4.2 0 7.3 4.2 0 7.4 4.2 0 7.5 4.2 0 7.6 4.2 0 7.7 4.2 0 7.8 4.2 0 7.9 4.2 0 8 4.2 0 8.1 4.2 0 8.2 4.2 0 8.3 4.2 0 8.4 4.2 0 8.5 4.2 0 8.6 4.2 0 8.7 4.2 0 8.8 4.2 0 8.9 4.2 0 9 4.2 0 9.1 4.2 0 9.2 4.2 0 9.3 4.2 0 9.4 4.2 0 9.5 4.2 0 9.6 4.2 0 9.7 4.2 0 9.8 4.2 0 9.9 4.2 0 10 4.2 0 0 4.3 0 0.1 4.3 0 0.2 4.3 0 0.3 4.3 0 0.4 4.3 0 0.5 4.3 0 0.6 4.3 0 0.7 4.3 0 0.8 4.3 0 0.9 4.3 0 1 4.3 0 1.1 4.3 0 1.2 4.3 0 1.3 4.3 0 1.4 4.3 0 1.5 4.3 0 1.6 4.3 0 1.7 4.3 0 1.8 4.3 0 1.9 4.3 0 2 4.3 0 2.1 4.3 0 2.2 4.3 0 2.3 4.3 0 2.4 4.3 0 2.5 4.3 0 2.6 4.3 0 2.7 4.3 0 2.8 4.3 0 2.9 4.3 0 3 4.3 0 3.1 4.3 0 3.2 4.3 0 3.3 4.3 0 3.4 4.3 0 3.5 4.3 0 3.6 4.3 0 3.7 4.3 0 3.8 4.3 0 3.9 4.3 0 4 4.3 0 4.1 4.3 0 4.2 4.3 0 4.3 4.3 0 4.4 4.3 0 4.5 4.3 0 4.6 4.3 0 4.7 4.3 0 4.8 4.3 0 4.9 4.3 0 5 4.3 0 5.1 4.3 0 5.2 4.3 0 5.3 4.3 0 5.4 4.3 0 5.5 4.3 0 5.6 4.3 0 5.7 4.3 0 5.8 4.3 0 5.9 4.3 0 6 4.3 0 6.1 4.3 0 6.2 4.3 0 6.3 4.3 0 6.4 4.3 0 6.5 4.3 0 6.6 4.3 0 6.7 4.3 0 6.8 4.3 0 6.9 4.3 0 7 4.3 0 7.1 4.3 0 7.2 4.3 0 7.3 4.3 0 7.4 4.3 0 7.5 4.3 0 7.6 4.3 0 7.7 4.3 0 7.8 4.3 0 7.9 4.3 0 8 4.3 0 8.1 4.3 0 8.2 4.3 0 8.3 4.3 0 8.4 4.3 0 8.5 4.3 0 8.6 4.3 0 8.7 4.3 0 8.8 4.3 0 8.9 4.3 0 9 4.3 0 9.1 4.3 0 9.2 4.3 0 9.3 4.3 0 9.4 4.3 0 9.5 4.3 0 9.6 4.3 0 9.7 4.3 0 9.8 4.3 0 9.9 4.3 0 10 4.3 0 0 4.4 0 0.1 4.4 0 0.2 4.4 0 0.3 4.4 0 0.4 4.4 0 0.5 4.4 0 0.6 4.4 0 0.7 4.4 0 0.8 4.4 0 0.9 4.4 0 1 4.4 0 1.1 4.4 0 1.2 4.4 0 1.3 4.4 0 1.4 4.4 0 1.5 4.4 0 1.6 4.4 0 1.7 4.4 0 1.8 4.4 0 1.9 4.4 0 2 4.4 0 2.1 4.4 0 2.2 4.4 0 2.3 4.4 0 2.4 4.4 0 2.5 4.4 0 2.6 4.4 0 2.7 4.4 0 2.8 4.4 0 2.9 4.4 0 3 4.4 0 3.1 4.4 0 3.2 4.4 0 3.3 4.4 0 3.4 4.4 0 3.5 4.4 0 3.6 4.4 0 3.7 4.4 0 3.8 4.4 0 3.9 4.4 0 4 4.4 0 4.1 4.4 0 4.2 4.4 0 4.3 4.4 0 4.4 4.4 0 4.5 4.4 0 4.6 4.4 0 4.7 4.4 0 4.8 4.4 0 4.9 4.4 0 5 4.4 0 5.1 4.4 0 5.2 4.4 0 5.3 4.4 0 5.4 4.4 0 5.5 4.4 0 5.6 4.4 0 5.7 4.4 0 5.8 4.4 0 5.9 4.4 0 6 4.4 0 6.1 4.4 0 6.2 4.4 0 6.3 4.4 0 6.4 4.4 0 6.5 4.4 0 6.6 4.4 0 6.7 4.4 0 6.8 4.4 0 6.9 4.4 0 7 4.4 0 7.1 4.4 0 7.2 4.4 0 7.3 4.4 0 7.4 4.4 0 7.5 4.4 0 7.6 4.4 0 7.7 4.4 0 7.8 4.4 0 7.9 4.4 0 8 4.4 0 8.1 4.4 0 8.2 4.4 0 8.3 4.4 0 8.4 4.4 0 8.5 4.4 0 8.6 4.4 0 8.7 4.4 0 8.8 4.4 0 8.9 4.4 0 9 4.4 0 9.1 4.4 0 9.2 4.4 0 9.3 4.4 0 9.4 4.4 0 9.5 4.4 0 9.6 4.4 0 9.7 4.4 0 9.8 4.4 0 9.9 4.4 0 10 4.4 0 0 4.5 0 0.1 4.5 0 0.2 4.5 0 0.3 4.5 0 0.4 4.5 0 0.5 4.5 0 0.6 4.5 0 0.7 4.5 0 0.8 4.5 0 0.9 4.5 0 1 4.5 0 1.1 4.5 0 1.2 4.5 0 1.3 4.5 0 1.4 4.5 0 1.5 4.5 0 1.6 4.5 0 1.7 4.5 0 1.8 4.5 0 1.9 4.5 0 2 4.5 0 2.1 4.5 0 2.2 4.5 0 2.3 4.5 0 2.4 4.5 0 2.5 4.5 0 2.6 4.5 0 2.7 4.5 0 2.8 4.5 0 2.9 4.5 0 3 4.5 0 3.1 4.5 0 3.2 4.5 0 3.3 4.5 0 3.4 4.5 0 3.5 4.5 0 3.6 4.5 0 3.7 4.5 0 3.8 4.5 0 3.9 4.5 0 4 4.5 0 4.1 4.5 0 4.2 4.5 0 4.3 4.5 0 4.4 4.5 0 4.5 4.5 0 4.6 4.5 0 4.7 4.5 0 4.8 4.5 0 4.9 4.5 0 5 4.5 0 5.1 4.5 0 5.2 4.5 0 5.3 4.5 0 5.4 4.5 0 5.5 4.5 0 5.6 4.5 0 5.7 4.5 0 5.8 4.5 0 5.9 4.5 0 6 4.5 0 6.1 4.5 0 6.2 4.5 0 6.3 4.5 0 6.4 4.5 0 6.5 4.5 0 6.6 4.5 0 6.7 4.5 0 6.8 4.5 0 6.9 4.5 0 7 4.5 0 7.1 4.5 0 7.2 4.5 0 7.3 4.5 0 7.4 4.5 0 7.5 4.5 0 7.6 4.5 0 7.7 4.5 0 7.8 4.5 0 7.9 4.5 0 8 4.5 0 8.1 4.5 0 8.2 4.5 0 8.3 4.5 0 8.4 4.5 0 8.5 4.5 0 8.6 4.5 0 8.7 4.5 0 8.8 4.5 0 8.9 4.5 0 9 4.5 0 9.1 4.5 0 9.2 4.5 0 9.3 4.5 0 9.4 4.5 0 9.5 4.5 0 9.6 4.5 0 9.7 4.5 0 9.8 4.5 0 9.9 4.5 0 10 4.5 0 0 4.6 0 0.1 4.6 0 0.2 4.6 0 0.3 4.6 0 0.4 4.6 0 0.5 4.6 0 0.6 4.6 0 0.7 4.6 0 0.8 4.6 0 0.9 4.6 0 1 4.6 0 1.1 4.6 0 1.2 4.6 0 1.3 4.6 0 1.4 4.6 0 1.5 4.6 0 1.6 4.6 0 1.7 4.6 0 1.8 4.6 0 1.9 4.6 0 2 4.6 0 2.1 4.6 0 2.2 4.6 0 2.3 4.6 0 2.4 4.6 0 2.5 4.6 0 2.6 4.6 0 2.7 4.6 0 2.8 4.6 0 2.9 4.6 0 3 4.6 0 3.1 4.6 0 3.2 4.6 0 3.3 4.6 0 3.4 4.6 0 3.5 4.6 0 3.6 4.6 0 3.7 4.6 0 3.8 4.6 0 3.9 4.6 0 4 4.6 0 4.1 4.6 0 4.2 4.6 0 4.3 4.6 0 4.4 4.6 0 4.5 4.6 0 4.6 4.6 0 4.7 4.6 0 4.8 4.6 0 4.9 4.6 0 5 4.6 0 5.1 4.6 0 5.2 4.6 0 5.3 4.6 0 5.4 4.6 0 5.5 4.6 0 5.6 4.6 0 5.7 4.6 0 5.8 4.6 0 5.9 4.6 0 6 4.6 0 6.1 4.6 0 6.2 4.6 0 6.3 4.6 0 6.4 4.6 0 6.5 4.6 0 6.6 4.6 0 6.7 4.6 0 6.8 4.6 0 6.9 4.6 0 7 4.6 0 7.1 4.6 0 7.2 4.6 0 7.3 4.6 0 7.4 4.6 0 7.5 4.6 0 7.6 4.6 0 7.7 4.6 0 7.8 4.6 0 7.9 4.6 0 8 4.6 0 8.1 4.6 0 8.2 4.6 0 8.3 4.6 0 8.4 4.6 0 8.5 4.6 0 8.6 4.6 0 8.7 4.6 0 8.8 4.6 0 8.9 4.6 0 9 4.6 0 9.1 4.6 0 9.2 4.6 0 9.3 4.6 0 9.4 4.6 0 9.5 4.6 0 9.6 4.6 0 9.7 4.6 0 9.8 4.6 0 9.9 4.6 0 10 4.6 0 0 4.7 0 0.1 4.7 0 0.2 4.7 0 0.3 4.7 0 0.4 4.7 0 0.5 4.7 0 0.6 4.7 0 0.7 4.7 0 0.8 4.7 0 0.9 4.7 0 1 4.7 0 1.1 4.7 0 1.2 4.7 0 1.3 4.7 0 1.4 4.7 0 1.5 4.7 0 1.6 4.7 0 1.7 4.7 0 1.8 4.7 0 1.9 4.7 0 2 4.7 0 2.1 4.7 0 2.2 4.7 0 2.3 4.7 0 2.4 4.7 0 2.5 4.7 0 2.6 4.7 0 2.7 4.7 0 2.8 4.7 0 2.9 4.7 0 3 4.7 0 3.1 4.7 0 3.2 4.7 0 3.3 4.7 0 3.4 4.7 0 3.5 4.7 0 3.6 4.7 0 3.7 4.7 0 3.8 4.7 0 3.9 4.7 0 4 4.7 0 4.1 4.7 0 4.2 4.7 0 4.3 4.7 0 4.4 4.7 0 4.5 4.7 0 4.6 4.7 0 4.7 4.7 0 4.8 4.7 0 4.9 4.7 0 5 4.7 0 5.1 4.7 0 5.2 4.7 0 5.3 4.7 0 5.4 4.7 0 5.5 4.7 0 5.6 4.7 0 5.7 4.7 0 5.8 4.7 0 5.9 4.7 0 6 4.7 0 6.1 4.7 0 6.2 4.7 0 6.3 4.7 0 6.4 4.7 0 6.5 4.7 0 6.6 4.7 0 6.7 4.7 0 6.8 4.7 0 6.9 4.7 0 7 4.7 0 7.1 4.7 0 7.2 4.7 0 7.3 4.7 0 7.4 4.7 0 7.5 4.7 0 7.6 4.7 0 7.7 4.7 0 7.8 4.7 0 7.9 4.7 0 8 4.7 0 8.1 4.7 0 8.2 4.7 0 8.3 4.7 0 8.4 4.7 0 8.5 4.7 0 8.6 4.7 0 8.7 4.7 0 8.8 4.7 0 8.9 4.7 0 9 4.7 0 9.1 4.7 0 9.2 4.7 0 9.3 4.7 0 9.4 4.7 0 9.5 4.7 0 9.6 4.7 0 9.7 4.7 0 9.8 4.7 0 9.9 4.7 0 10 4.7 0 0 4.8 0 0.1 4.8 0 0.2 4.8 0 0.3 4.8 0 0.4 4.8 0 0.5 4.8 0 0.6 4.8 0 0.7 4.8 0 0.8 4.8 0 0.9 4.8 0 1 4.8 0 1.1 4.8 0 1.2 4.8 0 1.3 4.8 0 1.4 4.8 0 1.5 4.8 0 1.6 4.8 0 1.7 4.8 0 1.8 4.8 0 1.9 4.8 0 2 4.8 0 2.1 4.8 0 2.2 4.8 0 2.3 4.8 0 2.4 4.8 0 2.5 4.8 0 2.6 4.8 0 2.7 4.8 0 2.8 4.8 0 2.9 4.8 0 3 4.8 0 3.1 4.8 0 3.2 4.8 0 3.3 4.8 0 3.4 4.8 0 3.5 4.8 0 3.6 4.8 0 3.7 4.8 0 3.8 4.8 0 3.9 4.8 0 4 4.8 0 4.1 4.8 0 4.2 4.8 0 4.3 4.8 0 4.4 4.8 0 4.5 4.8 0 4.6 4.8 0 4.7 4.8 0 4.8 4.8 0 4.9 4.8 0 5 4.8 0 5.1 4.8 0 5.2 4.8 0 5.3 4.8 0 5.4 4.8 0 5.5 4.8 0 5.6 4.8 0 5.7 4.8 0 5.8 4.8 0 5.9 4.8 0 6 4.8 0 6.1 4.8 0 6.2 4.8 0 6.3 4.8 0 6.4 4.8 0 6.5 4.8 0 6.6 4.8 0 6.7 4.8 0 6.8 4.8 0 6.9 4.8 0 7 4.8 0 7.1 4.8 0 7.2 4.8 0 7.3 4.8 0 7.4 4.8 0 7.5 4.8 0 7.6 4.8 0 7.7 4.8 0 7.8 4.8 0 7.9 4.8 0 8 4.8 0 8.1 4.8 0 8.2 4.8 0 8.3 4.8 0 8.4 4.8 0 8.5 4.8 0 8.6 4.8 0 8.7 4.8 0 8.8 4.8 0 8.9 4.8 0 9 4.8 0 9.1 4.8 0 9.2 4.8 0 9.3 4.8 0 9.4 4.8 0 9.5 4.8 0 9.6 4.8 0 9.7 4.8 0 9.8 4.8 0 9.9 4.8 0 10 4.8 0 0 4.9 0 0.1 4.9 0 0.2 4.9 0 0.3 4.9 0 0.4 4.9 0 0.5 4.9 0 0.6 4.9 0 0.7 4.9 0 0.8 4.9 0 0.9 4.9 0 1 4.9 0 1.1 4.9 0 1.2 4.9 0 1.3 4.9 0 1.4 4.9 0 1.5 4.9 0 1.6 4.9 0 1.7 4.9 0 1.8 4.9 0 1.9 4.9 0 2 4.9 0 2.1 4.9 0 2.2 4.9 0 2.3 4.9 0 2.4 4.9 0 2.5 4.9 0 2.6 4.9 0 2.7 4.9 0 2.8 4.9 0 2.9 4.9 0 3 4.9 0 3.1 4.9 0 3.2 4.9 0 3.3 4.9 0 3.4 4.9 0 3.5 4.9 0 3.6 4.9 0 3.7 4.9 0 3.8 4.9 0 3.9 4.9 0 4 4.9 0 4.1 4.9 0 4.2 4.9 0 4.3 4.9 0 4.4 4.9 0 4.5 4.9 0 4.6 4.9 0 4.7 4.9 0 4.8 4.9 0 4.9 4.9 0 5 4.9 0 5.1 4.9 0 5.2 4.9 0 5.3 4.9 0 5.4 4.9 0 5.5 4.9 0 5.6 4.9 0 5.7 4.9 0 5.8 4.9 0 5.9 4.9 0 6 4.9 0 6.1 4.9 0 6.2 4.9 0 6.3 4.9 0 6.4 4.9 0 6.5 4.9 0 6.6 4.9 0 6.7 4.9 0 6.8 4.9 0 6.9 4.9 0 7 4.9 0 7.1 4.9 0 7.2 4.9 0 7.3 4.9 0 7.4 4.9 0 7.5 4.9 0 7.6 4.9 0 7.7 4.9 0 7.8 4.9 0 7.9 4.9 0 8 4.9 0 8.1 4.9 0 8.2 4.9 0 8.3 4.9 0 8.4 4.9 0 8.5 4.9 0 8.6 4.9 0 8.7 4.9 0 8.8 4.9 0 8.9 4.9 0 9 4.9 0 9.1 4.9 0 9.2 4.9 0 9.3 4.9 0 9.4 4.9 0 9.5 4.9 0 9.6 4.9 0 9.7 4.9 0 9.8 4.9 0 9.9 4.9 0 10 4.9 0 0 5 0 0.1 5 0 0.2 5 0 0.3 5 0 0.4 5 0 0.5 5 0 0.6 5 0 0.7 5 0 0.8 5 0 0.9 5 0 1 5 0 1.1 5 0 1.2 5 0 1.3 5 0 1.4 5 0 1.5 5 0 1.6 5 0 1.7 5 0 1.8 5 0 1.9 5 0 2 5 0 2.1 5 0 2.2 5 0 2.3 5 0 2.4 5 0 2.5 5 0 2.6 5 0 2.7 5 0 2.8 5 0 2.9 5 0 3 5 0 3.1 5 0 3.2 5 0 3.3 5 0 3.4 5 0 3.5 5 0 3.6 5 0 3.7 5 0 3.8 5 0 3.9 5 0 4 5 0 4.1 5 0 4.2 5 0 4.3 5 0 4.4 5 0 4.5 5 0 4.6 5 0 4.7 5 0 4.8 5 0 4.9 5 0 5 5 0 5.1 5 0 5.2 5 0 5.3 5 0 5.4 5 0 5.5 5 0 5.6 5 0 5.7 5 0 5.8 5 0 5.9 5 0 6 5 0 6.1 5 0 6.2 5 0 6.3 5 0 6.4 5 0 6.5 5 0 6.6 5 0 6.7 5 0 6.8 5 0 6.9 5 0 7 5 0 7.1 5 0 7.2 5 0 7.3 5 0 7.4 5 0 7.5 5 0 7.6 5 0 7.7 5 0 7.8 5 0 7.9 5 0 8 5 0 8.1 5 0 8.2 5 0 8.3 5 0 8.4 5 0 8.5 5 0 8.6 5 0 8.7 5 0 8.8 5 0 8.9 5 0 9 5 0 9.1 5 0 9.2 5 0 9.3 5 0 9.4 5 0 9.5 5 0 9.6 5 0 9.7 5 0 9.8 5 0 9.9 5 0 10 5 0 0 5.1 0 0.1 5.1 0 0.2 5.1 0 0.3 5.1 0 0.4 5.1 0 0.5 5.1 0 0.6 5.1 0 0.7 5.1 0 0.8 5.1 0 0.9 5.1 0 1 5.1 0 1.1 5.1 0 1.2 5.1 0 1.3 5.1 0 1.4 5.1 0 1.5 5.1 0 1.6 5.1 0 1.7 5.1 0 1.8 5.1 0 1.9 5.1 0 2 5.1 0 2.1 5.1 0 2.2 5.1 0 2.3 5.1 0 2.4 5.1 0 2.5 5.1 0 2.6 5.1 0 2.7 5.1 0 2.8 5.1 0 2.9 5.1 0 3 5.1 0 3.1 5.1 0 3.2 5.1 0 3.3 5.1 0 3.4 5.1 0 3.5 5.1 0 3.6 5.1 0 3.7 5.1 0 3.8 5.1 0 3.9 5.1 0 4 5.1 0 4.1 5.1 0 4.2 5.1 0 4.3 5.1 0 4.4 5.1 0 4.5 5.1 0 4.6 5.1 0 4.7 5.1 0 4.8 5.1 0 4.9 5.1 0 5 5.1 0 5.1 5.1 0 5.2 5.1 0 5.3 5.1 0 5.4 5.1 0 5.5 5.1 0 5.6 5.1 0 5.7 5.1 0 5.8 5.1 0 5.9 5.1 0 6 5.1 0 6.1 5.1 0 6.2 5.1 0 6.3 5.1 0 6.4 5.1 0 6.5 5.1 0 6.6 5.1 0 6.7 5.1 0 6.8 5.1 0 6.9 5.1 0 7 5.1 0 7.1 5.1 0 7.2 5.1 0 7.3 5.1 0 7.4 5.1 0 7.5 5.1 0 7.6 5.1 0 7.7 5.1 0 7.8 5.1 0 7.9 5.1 0 8 5.1 0 8.1 5.1 0 8.2 5.1 0 8.3 5.1 0 8.4 5.1 0 8.5 5.1 0 8.6 5.1 0 8.7 5.1 0 8.8 5.1 0 8.9 5.1 0 9 5.1 0 9.1 5.1 0 9.2 5.1 0 9.3 5.1 0 9.4 5.1 0 9.5 5.1 0 9.6 5.1 0 9.7 5.1 0 9.8 5.1 0 9.9 5.1 0 10 5.1 0 0 5.2 0 0.1 5.2 0 0.2 5.2 0 0.3 5.2 0 0.4 5.2 0 0.5 5.2 0 0.6 5.2 0 0.7 5.2 0 0.8 5.2 0 0.9 5.2 0 1 5.2 0 1.1 5.2 0 1.2 5.2 0 1.3 5.2 0 1.4 5.2 0 1.5 5.2 0 1.6 5.2 0 1.7 5.2 0 1.8 5.2 0 1.9 5.2 0 2 5.2 0 2.1 5.2 0 2.2 5.2 0 2.3 5.2 0 2.4 5.2 0 2.5 5.2 0 2.6 5.2 0 2.7 5.2 0 2.8 5.2 0 2.9 5.2 0 3 5.2 0 3.1 5.2 0 3.2 5.2 0 3.3 5.2 0 3.4 5.2 0 3.5 5.2 0 3.6 5.2 0 3.7 5.2 0 3.8 5.2 0 3.9 5.2 0 4 5.2 0 4.1 5.2 0 4.2 5.2 0 4.3 5.2 0 4.4 5.2 0 4.5 5.2 0 4.6 5.2 0 4.7 5.2 0 4.8 5.2 0 4.9 5.2 0 5 5.2 0 5.1 5.2 0 5.2 5.2 0 5.3 5.2 0 5.4 5.2 0 5.5 5.2 0 5.6 5.2 0 5.7 5.2 0 5.8 5.2 0 5.9 5.2 0 6 5.2 0 6.1 5.2 0 6.2 5.2 0 6.3 5.2 0 6.4 5.2 0 6.5 5.2 0 6.6 5.2 0 6.7 5.2 0 6.8 5.2 0 6.9 5.2 0 7 5.2 0 7.1 5.2 0 7.2 5.2 0 7.3 5.2 0 7.4 5.2 0 7.5 5.2 0 7.6 5.2 0 7.7 5.2 0 7.8 5.2 0 7.9 5.2 0 8 5.2 0 8.1 5.2 0 8.2 5.2 0 8.3 5.2 0 8.4 5.2 0 8.5 5.2 0 8.6 5.2 0 8.7 5.2 0 8.8 5.2 0 8.9 5.2 0 9 5.2 0 9.1 5.2 0 9.2 5.2 0 9.3 5.2 0 9.4 5.2 0 9.5 5.2 0 9.6 5.2 0 9.7 5.2 0 9.8 5.2 0 9.9 5.2 0 10 5.2 0 0 5.3 0 0.1 5.3 0 0.2 5.3 0 0.3 5.3 0 0.4 5.3 0 0.5 5.3 0 0.6 5.3 0 0.7 5.3 0 0.8 5.3 0 0.9 5.3 0 1 5.3 0 1.1 5.3 0 1.2 5.3 0 1.3 5.3 0 1.4 5.3 0 1.5 5.3 0 1.6 5.3 0 1.7 5.3 0 1.8 5.3 0 1.9 5.3 0 2 5.3 0 2.1 5.3 0 2.2 5.3 0 2.3 5.3 0 2.4 5.3 0 2.5 5.3 0 2.6 5.3 0 2.7 5.3 0 2.8 5.3 0 2.9 5.3 0 3 5.3 0 3.1 5.3 0 3.2 5.3 0 3.3 5.3 0 3.4 5.3 0 3.5 5.3 0 3.6 5.3 0 3.7 5.3 0 3.8 5.3 0 3.9 5.3 0 4 5.3 0 4.1 5.3 0 4.2 5.3 0 4.3 5.3 0 4.4 5.3 0 4.5 5.3 0 4.6 5.3 0 4.7 5.3 0 4.8 5.3 0 4.9 5.3 0 5 5.3 0 5.1 5.3 0 5.2 5.3 0 5.3 5.3 0 5.4 5.3 0 5.5 5.3 0 5.6 5.3 0 5.7 5.3 0 5.8 5.3 0 5.9 5.3 0 6 5.3 0 6.1 5.3 0 6.2 5.3 0 6.3 5.3 0 6.4 5.3 0 6.5 5.3 0 6.6 5.3 0 6.7 5.3 0 6.8 5.3 0 6.9 5.3 0 7 5.3 0 7.1 5.3 0 7.2 5.3 0 7.3 5.3 0 7.4 5.3 0 7.5 5.3 0 7.6 5.3 0 7.7 5.3 0 7.8 5.3 0 7.9 5.3 0 8 5.3 0 8.1 5.3 0 8.2 5.3 0 8.3 5.3 0 8.4 5.3 0 8.5 5.3 0 8.6 5.3 0 8.7 5.3 0 8.8 5.3 0 8.9 5.3 0 9 5.3 0 9.1 5.3 0 9.2 5.3 0 9.3 5.3 0 9.4 5.3 0 9.5 5.3 0 9.6 5.3 0 9.7 5.3 0 9.8 5.3 0 9.9 5.3 0 10 5.3 0 0 5.4 0 0.1 5.4 0 0.2 5.4 0 0.3 5.4 0 0.4 5.4 0 0.5 5.4 0 0.6 5.4 0 0.7 5.4 0 0.8 5.4 0 0.9 5.4 0 1 5.4 0 1.1 5.4 0 1.2 5.4 0 1.3 5.4 0 1.4 5.4 0 1.5 5.4 0 1.6 5.4 0 1.7 5.4 0 1.8 5.4 0 1.9 5.4 0 2 5.4 0 2.1 5.4 0 2.2 5.4 0 2.3 5.4 0 2.4 5.4 0 2.5 5.4 0 2.6 5.4 0 2.7 5.4 0 2.8 5.4 0 2.9 5.4 0 3 5.4 0 3.1 5.4 0 3.2 5.4 0 3.3 5.4 0 3.4 5.4 0 3.5 5.4 0 3.6 5.4 0 3.7 5.4 0 3.8 5.4 0 3.9 5.4 0 4 5.4 0 4.1 5.4 0 4.2 5.4 0 4.3 5.4 0 4.4 5.4 0 4.5 5.4 0 4.6 5.4 0 4.7 5.4 0 4.8 5.4 0 4.9 5.4 0 5 5.4 0 5.1 5.4 0 5.2 5.4 0 5.3 5.4 0 5.4 5.4 0 5.5 5.4 0 5.6 5.4 0 5.7 5.4 0 5.8 5.4 0 5.9 5.4 0 6 5.4 0 6.1 5.4 0 6.2 5.4 0 6.3 5.4 0 6.4 5.4 0 6.5 5.4 0 6.6 5.4 0 6.7 5.4 0 6.8 5.4 0 6.9 5.4 0 7 5.4 0 7.1 5.4 0 7.2 5.4 0 7.3 5.4 0 7.4 5.4 0 7.5 5.4 0 7.6 5.4 0 7.7 5.4 0 7.8 5.4 0 7.9 5.4 0 8 5.4 0 8.1 5.4 0 8.2 5.4 0 8.3 5.4 0 8.4 5.4 0 8.5 5.4 0 8.6 5.4 0 8.7 5.4 0 8.8 5.4 0 8.9 5.4 0 9 5.4 0 9.1 5.4 0 9.2 5.4 0 9.3 5.4 0 9.4 5.4 0 9.5 5.4 0 9.6 5.4 0 9.7 5.4 0 9.8 5.4 0 9.9 5.4 0 10 5.4 0 0 5.5 0 0.1 5.5 0 0.2 5.5 0 0.3 5.5 0 0.4 5.5 0 0.5 5.5 0 0.6 5.5 0 0.7 5.5 0 0.8 5.5 0 0.9 5.5 0 1 5.5 0 1.1 5.5 0 1.2 5.5 0 1.3 5.5 0 1.4 5.5 0 1.5 5.5 0 1.6 5.5 0 1.7 5.5 0 1.8 5.5 0 1.9 5.5 0 2 5.5 0 2.1 5.5 0 2.2 5.5 0 2.3 5.5 0 2.4 5.5 0 2.5 5.5 0 2.6 5.5 0 2.7 5.5 0 2.8 5.5 0 2.9 5.5 0 3 5.5 0 3.1 5.5 0 3.2 5.5 0 3.3 5.5 0 3.4 5.5 0 3.5 5.5 0 3.6 5.5 0 3.7 5.5 0 3.8 5.5 0 3.9 5.5 0 4 5.5 0 4.1 5.5 0 4.2 5.5 0 4.3 5.5 0 4.4 5.5 0 4.5 5.5 0 4.6 5.5 0 4.7 5.5 0 4.8 5.5 0 4.9 5.5 0 5 5.5 0 5.1 5.5 0 5.2 5.5 0 5.3 5.5 0 5.4 5.5 0 5.5 5.5 0 5.6 5.5 0 5.7 5.5 0 5.8 5.5 0 5.9 5.5 0 6 5.5 0 6.1 5.5 0 6.2 5.5 0 6.3 5.5 0 6.4 5.5 0 6.5 5.5 0 6.6 5.5 0 6.7 5.5 0 6.8 5.5 0 6.9 5.5 0 7 5.5 0 7.1 5.5 0 7.2 5.5 0 7.3 5.5 0 7.4 5.5 0 7.5 5.5 0 7.6 5.5 0 7.7 5.5 0 7.8 5.5 0 7.9 5.5 0 8 5.5 0 8.1 5.5 0 8.2 5.5 0 8.3 5.5 0 8.4 5.5 0 8.5 5.5 0 8.6 5.5 0 8.7 5.5 0 8.8 5.5 0 8.9 5.5 0 9 5.5 0 9.1 5.5 0 9.2 5.5 0 9.3 5.5 0 9.4 5.5 0 9.5 5.5 0 9.6 5.5 0 9.7 5.5 0 9.8 5.5 0 9.9 5.5 0 10 5.5 0 0 5.6 0 0.1 5.6 0 0.2 5.6 0 0.3 5.6 0 0.4 5.6 0 0.5 5.6 0 0.6 5.6 0 0.7 5.6 0 0.8 5.6 0 0.9 5.6 0 1 5.6 0 1.1 5.6 0 1.2 5.6 0 1.3 5.6 0 1.4 5.6 0 1.5 5.6 0 1.6 5.6 0 1.7 5.6 0 1.8 5.6 0 1.9 5.6 0 2 5.6 0 2.1 5.6 0 2.2 5.6 0 2.3 5.6 0 2.4 5.6 0 2.5 5.6 0 2.6 5.6 0 2.7 5.6 0 2.8 5.6 0 2.9 5.6 0 3 5.6 0 3.1 5.6 0 3.2 5.6 0 3.3 5.6 0 3.4 5.6 0 3.5 5.6 0 3.6 5.6 0 3.7 5.6 0 3.8 5.6 0 3.9 5.6 0 4 5.6 0 4.1 5.6 0 4.2 5.6 0 4.3 5.6 0 4.4 5.6 0 4.5 5.6 0 4.6 5.6 0 4.7 5.6 0 4.8 5.6 0 4.9 5.6 0 5 5.6 0 5.1 5.6 0 5.2 5.6 0 5.3 5.6 0 5.4 5.6 0 5.5 5.6 0 5.6 5.6 0 5.7 5.6 0 5.8 5.6 0 5.9 5.6 0 6 5.6 0 6.1 5.6 0 6.2 5.6 0 6.3 5.6 0 6.4 5.6 0 6.5 5.6 0 6.6 5.6 0 6.7 5.6 0 6.8 5.6 0 6.9 5.6 0 7 5.6 0 7.1 5.6 0 7.2 5.6 0 7.3 5.6 0 7.4 5.6 0 7.5 5.6 0 7.6 5.6 0 7.7 5.6 0 7.8 5.6 0 7.9 5.6 0 8 5.6 0 8.1 5.6 0 8.2 5.6 0 8.3 5.6 0 8.4 5.6 0 8.5 5.6 0 8.6 5.6 0 8.7 5.6 0 8.8 5.6 0 8.9 5.6 0 9 5.6 0 9.1 5.6 0 9.2 5.6 0 9.3 5.6 0 9.4 5.6 0 9.5 5.6 0 9.6 5.6 0 9.7 5.6 0 9.8 5.6 0 9.9 5.6 0 10 5.6 0 0 5.7 0 0.1 5.7 0 0.2 5.7 0 0.3 5.7 0 0.4 5.7 0 0.5 5.7 0 0.6 5.7 0 0.7 5.7 0 0.8 5.7 0 0.9 5.7 0 1 5.7 0 1.1 5.7 0 1.2 5.7 0 1.3 5.7 0 1.4 5.7 0 1.5 5.7 0 1.6 5.7 0 1.7 5.7 0 1.8 5.7 0 1.9 5.7 0 2 5.7 0 2.1 5.7 0 2.2 5.7 0 2.3 5.7 0 2.4 5.7 0 2.5 5.7 0 2.6 5.7 0 2.7 5.7 0 2.8 5.7 0 2.9 5.7 0 3 5.7 0 3.1 5.7 0 3.2 5.7 0 3.3 5.7 0 3.4 5.7 0 3.5 5.7 0 3.6 5.7 0 3.7 5.7 0 3.8 5.7 0 3.9 5.7 0 4 5.7 0 4.1 5.7 0 4.2 5.7 0 4.3 5.7 0 4.4 5.7 0 4.5 5.7 0 4.6 5.7 0 4.7 5.7 0 4.8 5.7 0 4.9 5.7 0 5 5.7 0 5.1 5.7 0 5.2 5.7 0 5.3 5.7 0 5.4 5.7 0 5.5 5.7 0 5.6 5.7 0 5.7 5.7 0 5.8 5.7 0 5.9 5.7 0 6 5.7 0 6.1 5.7 0 6.2 5.7 0 6.3 5.7 0 6.4 5.7 0 6.5 5.7 0 6.6 5.7 0 6.7 5.7 0 6.8 5.7 0 6.9 5.7 0 7 5.7 0 7.1 5.7 0 7.2 5.7 0 7.3 5.7 0 7.4 5.7 0 7.5 5.7 0 7.6 5.7 0 7.7 5.7 0 7.8 5.7 0 7.9 5.7 0 8 5.7 0 8.1 5.7 0 8.2 5.7 0 8.3 5.7 0 8.4 5.7 0 8.5 5.7 0 8.6 5.7 0 8.7 5.7 0 8.8 5.7 0 8.9 5.7 0 9 5.7 0 9.1 5.7 0 9.2 5.7 0 9.3 5.7 0 9.4 5.7 0 9.5 5.7 0 9.6 5.7 0 9.7 5.7 0 9.8 5.7 0 9.9 5.7 0 10 5.7 0 0 5.8 0 0.1 5.8 0 0.2 5.8 0 0.3 5.8 0 0.4 5.8 0 0.5 5.8 0 0.6 5.8 0 0.7 5.8 0 0.8 5.8 0 0.9 5.8 0 1 5.8 0 1.1 5.8 0 1.2 5.8 0 1.3 5.8 0 1.4 5.8 0 1.5 5.8 0 1.6 5.8 0 1.7 5.8 0 1.8 5.8 0 1.9 5.8 0 2 5.8 0 2.1 5.8 0 2.2 5.8 0 2.3 5.8 0 2.4 5.8 0 2.5 5.8 0 2.6 5.8 0 2.7 5.8 0 2.8 5.8 0 2.9 5.8 0 3 5.8 0 3.1 5.8 0 3.2 5.8 0 3.3 5.8 0 3.4 5.8 0 3.5 5.8 0 3.6 5.8 0 3.7 5.8 0 3.8 5.8 0 3.9 5.8 0 4 5.8 0 4.1 5.8 0 4.2 5.8 0 4.3 5.8 0 4.4 5.8 0 4.5 5.8 0 4.6 5.8 0 4.7 5.8 0 4.8 5.8 0 4.9 5.8 0 5 5.8 0 5.1 5.8 0 5.2 5.8 0 5.3 5.8 0 5.4 5.8 0 5.5 5.8 0 5.6 5.8 0 5.7 5.8 0 5.8 5.8 0 5.9 5.8 0 6 5.8 0 6.1 5.8 0 6.2 5.8 0 6.3 5.8 0 6.4 5.8 0 6.5 5.8 0 6.6 5.8 0 6.7 5.8 0 6.8 5.8 0 6.9 5.8 0 7 5.8 0 7.1 5.8 0 7.2 5.8 0 7.3 5.8 0 7.4 5.8 0 7.5 5.8 0 7.6 5.8 0 7.7 5.8 0 7.8 5.8 0 7.9 5.8 0 8 5.8 0 8.1 5.8 0 8.2 5.8 0 8.3 5.8 0 8.4 5.8 0 8.5 5.8 0 8.6 5.8 0 8.7 5.8 0 8.8 5.8 0 8.9 5.8 0 9 5.8 0 9.1 5.8 0 9.2 5.8 0 9.3 5.8 0 9.4 5.8 0 9.5 5.8 0 9.6 5.8 0 9.7 5.8 0 9.8 5.8 0 9.9 5.8 0 10 5.8 0 0 5.9 0 0.1 5.9 0 0.2 5.9 0 0.3 5.9 0 0.4 5.9 0 0.5 5.9 0 0.6 5.9 0 0.7 5.9 0 0.8 5.9 0 0.9 5.9 0 1 5.9 0 1.1 5.9 0 1.2 5.9 0 1.3 5.9 0 1.4 5.9 0 1.5 5.9 0 1.6 5.9 0 1.7 5.9 0 1.8 5.9 0 1.9 5.9 0 2 5.9 0 2.1 5.9 0 2.2 5.9 0 2.3 5.9 0 2.4 5.9 0 2.5 5.9 0 2.6 5.9 0 2.7 5.9 0 2.8 5.9 0 2.9 5.9 0 3 5.9 0 3.1 5.9 0 3.2 5.9 0 3.3 5.9 0 3.4 5.9 0 3.5 5.9 0 3.6 5.9 0 3.7 5.9 0 3.8 5.9 0 3.9 5.9 0 4 5.9 0 4.1 5.9 0 4.2 5.9 0 4.3 5.9 0 4.4 5.9 0 4.5 5.9 0 4.6 5.9 0 4.7 5.9 0 4.8 5.9 0 4.9 5.9 0 5 5.9 0 5.1 5.9 0 5.2 5.9 0 5.3 5.9 0 5.4 5.9 0 5.5 5.9 0 5.6 5.9 0 5.7 5.9 0 5.8 5.9 0 5.9 5.9 0 6 5.9 0 6.1 5.9 0 6.2 5.9 0 6.3 5.9 0 6.4 5.9 0 6.5 5.9 0 6.6 5.9 0 6.7 5.9 0 6.8 5.9 0 6.9 5.9 0 7 5.9 0 7.1 5.9 0 7.2 5.9 0 7.3 5.9 0 7.4 5.9 0 7.5 5.9 0 7.6 5.9 0 7.7 5.9 0 7.8 5.9 0 7.9 5.9 0 8 5.9 0 8.1 5.9 0 8.2 5.9 0 8.3 5.9 0 8.4 5.9 0 8.5 5.9 0 8.6 5.9 0 8.7 5.9 0 8.8 5.9 0 8.9 5.9 0 9 5.9 0 9.1 5.9 0 9.2 5.9 0 9.3 5.9 0 9.4 5.9 0 9.5 5.9 0 9.6 5.9 0 9.7 5.9 0 9.8 5.9 0 9.9 5.9 0 10 5.9 0 0 6 0 0.1 6 0 0.2 6 0 0.3 6 0 0.4 6 0 0.5 6 0 0.6 6 0 0.7 6 0 0.8 6 0 0.9 6 0 1 6 0 1.1 6 0 1.2 6 0 1.3 6 0 1.4 6 0 1.5 6 0 1.6 6 0 1.7 6 0 1.8 6 0 1.9 6 0 2 6 0 2.1 6 0 2.2 6 0 2.3 6 0 2.4 6 0 2.5 6 0 2.6 6 0 2.7 6 0 2.8 6 0 2.9 6 0 3 6 0 3.1 6 0 3.2 6 0 3.3 6 0 3.4 6 0 3.5 6 0 3.6 6 0 3.7 6 0 3.8 6 0 3.9 6 0 4 6 0 4.1 6 0 4.2 6 0 4.3 6 0 4.4 6 0 4.5 6 0 4.6 6 0 4.7 6 0 4.8 6 0 4.9 6 0 5 6 0 5.1 6 0 5.2 6 0 5.3 6 0 5.4 6 0 5.5 6 0 5.6 6 0 5.7 6 0 5.8 6 0 5.9 6 0 6 6 0 6.1 6 0 6.2 6 0 6.3 6 0 6.4 6 0 6.5 6 0 6.6 6 0 6.7 6 0 6.8 6 0 6.9 6 0 7 6 0 7.1 6 0 7.2 6 0 7.3 6 0 7.4 6 0 7.5 6 0 7.6 6 0 7.7 6 0 7.8 6 0 7.9 6 0 8 6 0 8.1 6 0 8.2 6 0 8.3 6 0 8.4 6 0 8.5 6 0 8.6 6 0 8.7 6 0 8.8 6 0 8.9 6 0 9 6 0 9.1 6 0 9.2 6 0 9.3 6 0 9.4 6 0 9.5 6 0 9.6 6 0 9.7 6 0 9.8 6 0 9.9 6 0 10 6 0 0 6.1 0 0.1 6.1 0 0.2 6.1 0 0.3 6.1 0 0.4 6.1 0 0.5 6.1 0 0.6 6.1 0 0.7 6.1 0 0.8 6.1 0 0.9 6.1 0 1 6.1 0 1.1 6.1 0 1.2 6.1 0 1.3 6.1 0 1.4 6.1 0 1.5 6.1 0 1.6 6.1 0 1.7 6.1 0 1.8 6.1 0 1.9 6.1 0 2 6.1 0 2.1 6.1 0 2.2 6.1 0 2.3 6.1 0 2.4 6.1 0 2.5 6.1 0 2.6 6.1 0 2.7 6.1 0 2.8 6.1 0 2.9 6.1 0 3 6.1 0 3.1 6.1 0 3.2 6.1 0 3.3 6.1 0 3.4 6.1 0 3.5 6.1 0 3.6 6.1 0 3.7 6.1 0 3.8 6.1 0 3.9 6.1 0 4 6.1 0 4.1 6.1 0 4.2 6.1 0 4.3 6.1 0 4.4 6.1 0 4.5 6.1 0 4.6 6.1 0 4.7 6.1 0 4.8 6.1 0 4.9 6.1 0 5 6.1 0 5.1 6.1 0 5.2 6.1 0 5.3 6.1 0 5.4 6.1 0 5.5 6.1 0 5.6 6.1 0 5.7 6.1 0 5.8 6.1 0 5.9 6.1 0 6 6.1 0 6.1 6.1 0 6.2 6.1 0 6.3 6.1 0 6.4 6.1 0 6.5 6.1 0 6.6 6.1 0 6.7 6.1 0 6.8 6.1 0 6.9 6.1 0 7 6.1 0 7.1 6.1 0 7.2 6.1 0 7.3 6.1 0 7.4 6.1 0 7.5 6.1 0 7.6 6.1 0 7.7 6.1 0 7.8 6.1 0 7.9 6.1 0 8 6.1 0 8.1 6.1 0 8.2 6.1 0 8.3 6.1 0 8.4 6.1 0 8.5 6.1 0 8.6 6.1 0 8.7 6.1 0 8.8 6.1 0 8.9 6.1 0 9 6.1 0 9.1 6.1 0 9.2 6.1 0 9.3 6.1 0 9.4 6.1 0 9.5 6.1 0 9.6 6.1 0 9.7 6.1 0 9.8 6.1 0 9.9 6.1 0 10 6.1 0 0 6.2 0 0.1 6.2 0 0.2 6.2 0 0.3 6.2 0 0.4 6.2 0 0.5 6.2 0 0.6 6.2 0 0.7 6.2 0 0.8 6.2 0 0.9 6.2 0 1 6.2 0 1.1 6.2 0 1.2 6.2 0 1.3 6.2 0 1.4 6.2 0 1.5 6.2 0 1.6 6.2 0 1.7 6.2 0 1.8 6.2 0 1.9 6.2 0 2 6.2 0 2.1 6.2 0 2.2 6.2 0 2.3 6.2 0 2.4 6.2 0 2.5 6.2 0 2.6 6.2 0 2.7 6.2 0 2.8 6.2 0 2.9 6.2 0 3 6.2 0 3.1 6.2 0 3.2 6.2 0 3.3 6.2 0 3.4 6.2 0 3.5 6.2 0 3.6 6.2 0 3.7 6.2 0 3.8 6.2 0 3.9 6.2 0 4 6.2 0 4.1 6.2 0 4.2 6.2 0 4.3 6.2 0 4.4 6.2 0 4.5 6.2 0 4.6 6.2 0 4.7 6.2 0 4.8 6.2 0 4.9 6.2 0 5 6.2 0 5.1 6.2 0 5.2 6.2 0 5.3 6.2 0 5.4 6.2 0 5.5 6.2 0 5.6 6.2 0 5.7 6.2 0 5.8 6.2 0 5.9 6.2 0 6 6.2 0 6.1 6.2 0 6.2 6.2 0 6.3 6.2 0 6.4 6.2 0 6.5 6.2 0 6.6 6.2 0 6.7 6.2 0 6.8 6.2 0 6.9 6.2 0 7 6.2 0 7.1 6.2 0 7.2 6.2 0 7.3 6.2 0 7.4 6.2 0 7.5 6.2 0 7.6 6.2 0 7.7 6.2 0 7.8 6.2 0 7.9 6.2 0 8 6.2 0 8.1 6.2 0 8.2 6.2 0 8.3 6.2 0 8.4 6.2 0 8.5 6.2 0 8.6 6.2 0 8.7 6.2 0 8.8 6.2 0 8.9 6.2 0 9 6.2 0 9.1 6.2 0 9.2 6.2 0 9.3 6.2 0 9.4 6.2 0 9.5 6.2 0 9.6 6.2 0 9.7 6.2 0 9.8 6.2 0 9.9 6.2 0 10 6.2 0 0 6.3 0 0.1 6.3 0 0.2 6.3 0 0.3 6.3 0 0.4 6.3 0 0.5 6.3 0 0.6 6.3 0 0.7 6.3 0 0.8 6.3 0 0.9 6.3 0 1 6.3 0 1.1 6.3 0 1.2 6.3 0 1.3 6.3 0 1.4 6.3 0 1.5 6.3 0 1.6 6.3 0 1.7 6.3 0 1.8 6.3 0 1.9 6.3 0 2 6.3 0 2.1 6.3 0 2.2 6.3 0 2.3 6.3 0 2.4 6.3 0 2.5 6.3 0 2.6 6.3 0 2.7 6.3 0 2.8 6.3 0 2.9 6.3 0 3 6.3 0 3.1 6.3 0 3.2 6.3 0 3.3 6.3 0 3.4 6.3 0 3.5 6.3 0 3.6 6.3 0 3.7 6.3 0 3.8 6.3 0 3.9 6.3 0 4 6.3 0 4.1 6.3 0 4.2 6.3 0 4.3 6.3 0 4.4 6.3 0 4.5 6.3 0 4.6 6.3 0 4.7 6.3 0 4.8 6.3 0 4.9 6.3 0 5 6.3 0 5.1 6.3 0 5.2 6.3 0 5.3 6.3 0 5.4 6.3 0 5.5 6.3 0 5.6 6.3 0 5.7 6.3 0 5.8 6.3 0 5.9 6.3 0 6 6.3 0 6.1 6.3 0 6.2 6.3 0 6.3 6.3 0 6.4 6.3 0 6.5 6.3 0 6.6 6.3 0 6.7 6.3 0 6.8 6.3 0 6.9 6.3 0 7 6.3 0 7.1 6.3 0 7.2 6.3 0 7.3 6.3 0 7.4 6.3 0 7.5 6.3 0 7.6 6.3 0 7.7 6.3 0 7.8 6.3 0 7.9 6.3 0 8 6.3 0 8.1 6.3 0 8.2 6.3 0 8.3 6.3 0 8.4 6.3 0 8.5 6.3 0 8.6 6.3 0 8.7 6.3 0 8.8 6.3 0 8.9 6.3 0 9 6.3 0 9.1 6.3 0 9.2 6.3 0 9.3 6.3 0 9.4 6.3 0 9.5 6.3 0 9.6 6.3 0 9.7 6.3 0 9.8 6.3 0 9.9 6.3 0 10 6.3 0 0 6.4 0 0.1 6.4 0 0.2 6.4 0 0.3 6.4 0 0.4 6.4 0 0.5 6.4 0 0.6 6.4 0 0.7 6.4 0 0.8 6.4 0 0.9 6.4 0 1 6.4 0 1.1 6.4 0 1.2 6.4 0 1.3 6.4 0 1.4 6.4 0 1.5 6.4 0 1.6 6.4 0 1.7 6.4 0 1.8 6.4 0 1.9 6.4 0 2 6.4 0 2.1 6.4 0 2.2 6.4 0 2.3 6.4 0 2.4 6.4 0 2.5 6.4 0 2.6 6.4 0 2.7 6.4 0 2.8 6.4 0 2.9 6.4 0 3 6.4 0 3.1 6.4 0 3.2 6.4 0 3.3 6.4 0 3.4 6.4 0 3.5 6.4 0 3.6 6.4 0 3.7 6.4 0 3.8 6.4 0 3.9 6.4 0 4 6.4 0 4.1 6.4 0 4.2 6.4 0 4.3 6.4 0 4.4 6.4 0 4.5 6.4 0 4.6 6.4 0 4.7 6.4 0 4.8 6.4 0 4.9 6.4 0 5 6.4 0 5.1 6.4 0 5.2 6.4 0 5.3 6.4 0 5.4 6.4 0 5.5 6.4 0 5.6 6.4 0 5.7 6.4 0 5.8 6.4 0 5.9 6.4 0 6 6.4 0 6.1 6.4 0 6.2 6.4 0 6.3 6.4 0 6.4 6.4 0 6.5 6.4 0 6.6 6.4 0 6.7 6.4 0 6.8 6.4 0 6.9 6.4 0 7 6.4 0 7.1 6.4 0 7.2 6.4 0 7.3 6.4 0 7.4 6.4 0 7.5 6.4 0 7.6 6.4 0 7.7 6.4 0 7.8 6.4 0 7.9 6.4 0 8 6.4 0 8.1 6.4 0 8.2 6.4 0 8.3 6.4 0 8.4 6.4 0 8.5 6.4 0 8.6 6.4 0 8.7 6.4 0 8.8 6.4 0 8.9 6.4 0 9 6.4 0 9.1 6.4 0 9.2 6.4 0 9.3 6.4 0 9.4 6.4 0 9.5 6.4 0 9.6 6.4 0 9.7 6.4 0 9.8 6.4 0 9.9 6.4 0 10 6.4 0 0 6.5 0 0.1 6.5 0 0.2 6.5 0 0.3 6.5 0 0.4 6.5 0 0.5 6.5 0 0.6 6.5 0 0.7 6.5 0 0.8 6.5 0 0.9 6.5 0 1 6.5 0 1.1 6.5 0 1.2 6.5 0 1.3 6.5 0 1.4 6.5 0 1.5 6.5 0 1.6 6.5 0 1.7 6.5 0 1.8 6.5 0 1.9 6.5 0 2 6.5 0 2.1 6.5 0 2.2 6.5 0 2.3 6.5 0 2.4 6.5 0 2.5 6.5 0 2.6 6.5 0 2.7 6.5 0 2.8 6.5 0 2.9 6.5 0 3 6.5 0 3.1 6.5 0 3.2 6.5 0 3.3 6.5 0 3.4 6.5 0 3.5 6.5 0 3.6 6.5 0 3.7 6.5 0 3.8 6.5 0 3.9 6.5 0 4 6.5 0 4.1 6.5 0 4.2 6.5 0 4.3 6.5 0 4.4 6.5 0 4.5 6.5 0 4.6 6.5 0 4.7 6.5 0 4.8 6.5 0 4.9 6.5 0 5 6.5 0 5.1 6.5 0 5.2 6.5 0 5.3 6.5 0 5.4 6.5 0 5.5 6.5 0 5.6 6.5 0 5.7 6.5 0 5.8 6.5 0 5.9 6.5 0 6 6.5 0 6.1 6.5 0 6.2 6.5 0 6.3 6.5 0 6.4 6.5 0 6.5 6.5 0 6.6 6.5 0 6.7 6.5 0 6.8 6.5 0 6.9 6.5 0 7 6.5 0 7.1 6.5 0 7.2 6.5 0 7.3 6.5 0 7.4 6.5 0 7.5 6.5 0 7.6 6.5 0 7.7 6.5 0 7.8 6.5 0 7.9 6.5 0 8 6.5 0 8.1 6.5 0 8.2 6.5 0 8.3 6.5 0 8.4 6.5 0 8.5 6.5 0 8.6 6.5 0 8.7 6.5 0 8.8 6.5 0 8.9 6.5 0 9 6.5 0 9.1 6.5 0 9.2 6.5 0 9.3 6.5 0 9.4 6.5 0 9.5 6.5 0 9.6 6.5 0 9.7 6.5 0 9.8 6.5 0 9.9 6.5 0 10 6.5 0 0 6.6 0 0.1 6.6 0 0.2 6.6 0 0.3 6.6 0 0.4 6.6 0 0.5 6.6 0 0.6 6.6 0 0.7 6.6 0 0.8 6.6 0 0.9 6.6 0 1 6.6 0 1.1 6.6 0 1.2 6.6 0 1.3 6.6 0 1.4 6.6 0 1.5 6.6 0 1.6 6.6 0 1.7 6.6 0 1.8 6.6 0 1.9 6.6 0 2 6.6 0 2.1 6.6 0 2.2 6.6 0 2.3 6.6 0 2.4 6.6 0 2.5 6.6 0 2.6 6.6 0 2.7 6.6 0 2.8 6.6 0 2.9 6.6 0 3 6.6 0 3.1 6.6 0 3.2 6.6 0 3.3 6.6 0 3.4 6.6 0 3.5 6.6 0 3.6 6.6 0 3.7 6.6 0 3.8 6.6 0 3.9 6.6 0 4 6.6 0 4.1 6.6 0 4.2 6.6 0 4.3 6.6 0 4.4 6.6 0 4.5 6.6 0 4.6 6.6 0 4.7 6.6 0 4.8 6.6 0 4.9 6.6 0 5 6.6 0 5.1 6.6 0 5.2 6.6 0 5.3 6.6 0 5.4 6.6 0 5.5 6.6 0 5.6 6.6 0 5.7 6.6 0 5.8 6.6 0 5.9 6.6 0 6 6.6 0 6.1 6.6 0 6.2 6.6 0 6.3 6.6 0 6.4 6.6 0 6.5 6.6 0 6.6 6.6 0 6.7 6.6 0 6.8 6.6 0 6.9 6.6 0 7 6.6 0 7.1 6.6 0 7.2 6.6 0 7.3 6.6 0 7.4 6.6 0 7.5 6.6 0 7.6 6.6 0 7.7 6.6 0 7.8 6.6 0 7.9 6.6 0 8 6.6 0 8.1 6.6 0 8.2 6.6 0 8.3 6.6 0 8.4 6.6 0 8.5 6.6 0 8.6 6.6 0 8.7 6.6 0 8.8 6.6 0 8.9 6.6 0 9 6.6 0 9.1 6.6 0 9.2 6.6 0 9.3 6.6 0 9.4 6.6 0 9.5 6.6 0 9.6 6.6 0 9.7 6.6 0 9.8 6.6 0 9.9 6.6 0 10 6.6 0 0 6.7 0 0.1 6.7 0 0.2 6.7 0 0.3 6.7 0 0.4 6.7 0 0.5 6.7 0 0.6 6.7 0 0.7 6.7 0 0.8 6.7 0 0.9 6.7 0 1 6.7 0 1.1 6.7 0 1.2 6.7 0 1.3 6.7 0 1.4 6.7 0 1.5 6.7 0 1.6 6.7 0 1.7 6.7 0 1.8 6.7 0 1.9 6.7 0 2 6.7 0 2.1 6.7 0 2.2 6.7 0 2.3 6.7 0 2.4 6.7 0 2.5 6.7 0 2.6 6.7 0 2.7 6.7 0 2.8 6.7 0 2.9 6.7 0 3 6.7 0 3.1 6.7 0 3.2 6.7 0 3.3 6.7 0 3.4 6.7 0 3.5 6.7 0 3.6 6.7 0 3.7 6.7 0 3.8 6.7 0 3.9 6.7 0 4 6.7 0 4.1 6.7 0 4.2 6.7 0 4.3 6.7 0 4.4 6.7 0 4.5 6.7 0 4.6 6.7 0 4.7 6.7 0 4.8 6.7 0 4.9 6.7 0 5 6.7 0 5.1 6.7 0 5.2 6.7 0 5.3 6.7 0 5.4 6.7 0 5.5 6.7 0 5.6 6.7 0 5.7 6.7 0 5.8 6.7 0 5.9 6.7 0 6 6.7 0 6.1 6.7 0 6.2 6.7 0 6.3 6.7 0 6.4 6.7 0 6.5 6.7 0 6.6 6.7 0 6.7 6.7 0 6.8 6.7 0 6.9 6.7 0 7 6.7 0 7.1 6.7 0 7.2 6.7 0 7.3 6.7 0 7.4 6.7 0 7.5 6.7 0 7.6 6.7 0 7.7 6.7 0 7.8 6.7 0 7.9 6.7 0 8 6.7 0 8.1 6.7 0 8.2 6.7 0 8.3 6.7 0 8.4 6.7 0 8.5 6.7 0 8.6 6.7 0 8.7 6.7 0 8.8 6.7 0 8.9 6.7 0 9 6.7 0 9.1 6.7 0 9.2 6.7 0 9.3 6.7 0 9.4 6.7 0 9.5 6.7 0 9.6 6.7 0 9.7 6.7 0 9.8 6.7 0 9.9 6.7 0 10 6.7 0 0 6.8 0 0.1 6.8 0 0.2 6.8 0 0.3 6.8 0 0.4 6.8 0 0.5 6.8 0 0.6 6.8 0 0.7 6.8 0 0.8 6.8 0 0.9 6.8 0 1 6.8 0 1.1 6.8 0 1.2 6.8 0 1.3 6.8 0 1.4 6.8 0 1.5 6.8 0 1.6 6.8 0 1.7 6.8 0 1.8 6.8 0 1.9 6.8 0 2 6.8 0 2.1 6.8 0 2.2 6.8 0 2.3 6.8 0 2.4 6.8 0 2.5 6.8 0 2.6 6.8 0 2.7 6.8 0 2.8 6.8 0 2.9 6.8 0 3 6.8 0 3.1 6.8 0 3.2 6.8 0 3.3 6.8 0 3.4 6.8 0 3.5 6.8 0 3.6 6.8 0 3.7 6.8 0 3.8 6.8 0 3.9 6.8 0 4 6.8 0 4.1 6.8 0 4.2 6.8 0 4.3 6.8 0 4.4 6.8 0 4.5 6.8 0 4.6 6.8 0 4.7 6.8 0 4.8 6.8 0 4.9 6.8 0 5 6.8 0 5.1 6.8 0 5.2 6.8 0 5.3 6.8 0 5.4 6.8 0 5.5 6.8 0 5.6 6.8 0 5.7 6.8 0 5.8 6.8 0 5.9 6.8 0 6 6.8 0 6.1 6.8 0 6.2 6.8 0 6.3 6.8 0 6.4 6.8 0 6.5 6.8 0 6.6 6.8 0 6.7 6.8 0 6.8 6.8 0 6.9 6.8 0 7 6.8 0 7.1 6.8 0 7.2 6.8 0 7.3 6.8 0 7.4 6.8 0 7.5 6.8 0 7.6 6.8 0 7.7 6.8 0 7.8 6.8 0 7.9 6.8 0 8 6.8 0 8.1 6.8 0 8.2 6.8 0 8.3 6.8 0 8.4 6.8 0 8.5 6.8 0 8.6 6.8 0 8.7 6.8 0 8.8 6.8 0 8.9 6.8 0 9 6.8 0 9.1 6.8 0 9.2 6.8 0 9.3 6.8 0 9.4 6.8 0 9.5 6.8 0 9.6 6.8 0 9.7 6.8 0 9.8 6.8 0 9.9 6.8 0 10 6.8 0 0 6.9 0 0.1 6.9 0 0.2 6.9 0 0.3 6.9 0 0.4 6.9 0 0.5 6.9 0 0.6 6.9 0 0.7 6.9 0 0.8 6.9 0 0.9 6.9 0 1 6.9 0 1.1 6.9 0 1.2 6.9 0 1.3 6.9 0 1.4 6.9 0 1.5 6.9 0 1.6 6.9 0 1.7 6.9 0 1.8 6.9 0 1.9 6.9 0 2 6.9 0 2.1 6.9 0 2.2 6.9 0 2.3 6.9 0 2.4 6.9 0 2.5 6.9 0 2.6 6.9 0 2.7 6.9 0 2.8 6.9 0 2.9 6.9 0 3 6.9 0 3.1 6.9 0 3.2 6.9 0 3.3 6.9 0 3.4 6.9 0 3.5 6.9 0 3.6 6.9 0 3.7 6.9 0 3.8 6.9 0 3.9 6.9 0 4 6.9 0 4.1 6.9 0 4.2 6.9 0 4.3 6.9 0 4.4 6.9 0 4.5 6.9 0 4.6 6.9 0 4.7 6.9 0 4.8 6.9 0 4.9 6.9 0 5 6.9 0 5.1 6.9 0 5.2 6.9 0 5.3 6.9 0 5.4 6.9 0 5.5 6.9 0 5.6 6.9 0 5.7 6.9 0 5.8 6.9 0 5.9 6.9 0 6 6.9 0 6.1 6.9 0 6.2 6.9 0 6.3 6.9 0 6.4 6.9 0 6.5 6.9 0 6.6 6.9 0 6.7 6.9 0 6.8 6.9 0 6.9 6.9 0 7 6.9 0 7.1 6.9 0 7.2 6.9 0 7.3 6.9 0 7.4 6.9 0 7.5 6.9 0 7.6 6.9 0 7.7 6.9 0 7.8 6.9 0 7.9 6.9 0 8 6.9 0 8.1 6.9 0 8.2 6.9 0 8.3 6.9 0 8.4 6.9 0 8.5 6.9 0 8.6 6.9 0 8.7 6.9 0 8.8 6.9 0 8.9 6.9 0 9 6.9 0 9.1 6.9 0 9.2 6.9 0 9.3 6.9 0 9.4 6.9 0 9.5 6.9 0 9.6 6.9 0 9.7 6.9 0 9.8 6.9 0 9.9 6.9 0 10 6.9 0 0 7 0 0.1 7 0 0.2 7 0 0.3 7 0 0.4 7 0 0.5 7 0 0.6 7 0 0.7 7 0 0.8 7 0 0.9 7 0 1 7 0 1.1 7 0 1.2 7 0 1.3 7 0 1.4 7 0 1.5 7 0 1.6 7 0 1.7 7 0 1.8 7 0 1.9 7 0 2 7 0 2.1 7 0 2.2 7 0 2.3 7 0 2.4 7 0 2.5 7 0 2.6 7 0 2.7 7 0 2.8 7 0 2.9 7 0 3 7 0 3.1 7 0 3.2 7 0 3.3 7 0 3.4 7 0 3.5 7 0 3.6 7 0 3.7 7 0 3.8 7 0 3.9 7 0 4 7 0 4.1 7 0 4.2 7 0 4.3 7 0 4.4 7 0 4.5 7 0 4.6 7 0 4.7 7 0 4.8 7 0 4.9 7 0 5 7 0 5.1 7 0 5.2 7 0 5.3 7 0 5.4 7 0 5.5 7 0 5.6 7 0 5.7 7 0 5.8 7 0 5.9 7 0 6 7 0 6.1 7 0 6.2 7 0 6.3 7 0 6.4 7 0 6.5 7 0 6.6 7 0 6.7 7 0 6.8 7 0 6.9 7 0 7 7 0 7.1 7 0 7.2 7 0 7.3 7 0 7.4 7 0 7.5 7 0 7.6 7 0 7.7 7 0 7.8 7 0 7.9 7 0 8 7 0 8.1 7 0 8.2 7 0 8.3 7 0 8.4 7 0 8.5 7 0 8.6 7 0 8.7 7 0 8.8 7 0 8.9 7 0 9 7 0 9.1 7 0 9.2 7 0 9.3 7 0 9.4 7 0 9.5 7 0 9.6 7 0 9.7 7 0 9.8 7 0 9.9 7 0 10 7 0 0 7.1 0 0.1 7.1 0 0.2 7.1 0 0.3 7.1 0 0.4 7.1 0 0.5 7.1 0 0.6 7.1 0 0.7 7.1 0 0.8 7.1 0 0.9 7.1 0 1 7.1 0 1.1 7.1 0 1.2 7.1 0 1.3 7.1 0 1.4 7.1 0 1.5 7.1 0 1.6 7.1 0 1.7 7.1 0 1.8 7.1 0 1.9 7.1 0 2 7.1 0 2.1 7.1 0 2.2 7.1 0 2.3 7.1 0 2.4 7.1 0 2.5 7.1 0 2.6 7.1 0 2.7 7.1 0 2.8 7.1 0 2.9 7.1 0 3 7.1 0 3.1 7.1 0 3.2 7.1 0 3.3 7.1 0 3.4 7.1 0 3.5 7.1 0 3.6 7.1 0 3.7 7.1 0 3.8 7.1 0 3.9 7.1 0 4 7.1 0 4.1 7.1 0 4.2 7.1 0 4.3 7.1 0 4.4 7.1 0 4.5 7.1 0 4.6 7.1 0 4.7 7.1 0 4.8 7.1 0 4.9 7.1 0 5 7.1 0 5.1 7.1 0 5.2 7.1 0 5.3 7.1 0 5.4 7.1 0 5.5 7.1 0 5.6 7.1 0 5.7 7.1 0 5.8 7.1 0 5.9 7.1 0 6 7.1 0 6.1 7.1 0 6.2 7.1 0 6.3 7.1 0 6.4 7.1 0 6.5 7.1 0 6.6 7.1 0 6.7 7.1 0 6.8 7.1 0 6.9 7.1 0 7 7.1 0 7.1 7.1 0 7.2 7.1 0 7.3 7.1 0 7.4 7.1 0 7.5 7.1 0 7.6 7.1 0 7.7 7.1 0 7.8 7.1 0 7.9 7.1 0 8 7.1 0 8.1 7.1 0 8.2 7.1 0 8.3 7.1 0 8.4 7.1 0 8.5 7.1 0 8.6 7.1 0 8.7 7.1 0 8.8 7.1 0 8.9 7.1 0 9 7.1 0 9.1 7.1 0 9.2 7.1 0 9.3 7.1 0 9.4 7.1 0 9.5 7.1 0 9.6 7.1 0 9.7 7.1 0 9.8 7.1 0 9.9 7.1 0 10 7.1 0 0 7.2 0 0.1 7.2 0 0.2 7.2 0 0.3 7.2 0 0.4 7.2 0 0.5 7.2 0 0.6 7.2 0 0.7 7.2 0 0.8 7.2 0 0.9 7.2 0 1 7.2 0 1.1 7.2 0 1.2 7.2 0 1.3 7.2 0 1.4 7.2 0 1.5 7.2 0 1.6 7.2 0 1.7 7.2 0 1.8 7.2 0 1.9 7.2 0 2 7.2 0 2.1 7.2 0 2.2 7.2 0 2.3 7.2 0 2.4 7.2 0 2.5 7.2 0 2.6 7.2 0 2.7 7.2 0 2.8 7.2 0 2.9 7.2 0 3 7.2 0 3.1 7.2 0 3.2 7.2 0 3.3 7.2 0 3.4 7.2 0 3.5 7.2 0 3.6 7.2 0 3.7 7.2 0 3.8 7.2 0 3.9 7.2 0 4 7.2 0 4.1 7.2 0 4.2 7.2 0 4.3 7.2 0 4.4 7.2 0 4.5 7.2 0 4.6 7.2 0 4.7 7.2 0 4.8 7.2 0 4.9 7.2 0 5 7.2 0 5.1 7.2 0 5.2 7.2 0 5.3 7.2 0 5.4 7.2 0 5.5 7.2 0 5.6 7.2 0 5.7 7.2 0 5.8 7.2 0 5.9 7.2 0 6 7.2 0 6.1 7.2 0 6.2 7.2 0 6.3 7.2 0 6.4 7.2 0 6.5 7.2 0 6.6 7.2 0 6.7 7.2 0 6.8 7.2 0 6.9 7.2 0 7 7.2 0 7.1 7.2 0 7.2 7.2 0 7.3 7.2 0 7.4 7.2 0 7.5 7.2 0 7.6 7.2 0 7.7 7.2 0 7.8 7.2 0 7.9 7.2 0 8 7.2 0 8.1 7.2 0 8.2 7.2 0 8.3 7.2 0 8.4 7.2 0 8.5 7.2 0 8.6 7.2 0 8.7 7.2 0 8.8 7.2 0 8.9 7.2 0 9 7.2 0 9.1 7.2 0 9.2 7.2 0 9.3 7.2 0 9.4 7.2 0 9.5 7.2 0 9.6 7.2 0 9.7 7.2 0 9.8 7.2 0 9.9 7.2 0 10 7.2 0 0 7.3 0 0.1 7.3 0 0.2 7.3 0 0.3 7.3 0 0.4 7.3 0 0.5 7.3 0 0.6 7.3 0 0.7 7.3 0 0.8 7.3 0 0.9 7.3 0 1 7.3 0 1.1 7.3 0 1.2 7.3 0 1.3 7.3 0 1.4 7.3 0 1.5 7.3 0 1.6 7.3 0 1.7 7.3 0 1.8 7.3 0 1.9 7.3 0 2 7.3 0 2.1 7.3 0 2.2 7.3 0 2.3 7.3 0 2.4 7.3 0 2.5 7.3 0 2.6 7.3 0 2.7 7.3 0 2.8 7.3 0 2.9 7.3 0 3 7.3 0 3.1 7.3 0 3.2 7.3 0 3.3 7.3 0 3.4 7.3 0 3.5 7.3 0 3.6 7.3 0 3.7 7.3 0 3.8 7.3 0 3.9 7.3 0 4 7.3 0 4.1 7.3 0 4.2 7.3 0 4.3 7.3 0 4.4 7.3 0 4.5 7.3 0 4.6 7.3 0 4.7 7.3 0 4.8 7.3 0 4.9 7.3 0 5 7.3 0 5.1 7.3 0 5.2 7.3 0 5.3 7.3 0 5.4 7.3 0 5.5 7.3 0 5.6 7.3 0 5.7 7.3 0 5.8 7.3 0 5.9 7.3 0 6 7.3 0 6.1 7.3 0 6.2 7.3 0 6.3 7.3 0 6.4 7.3 0 6.5 7.3 0 6.6 7.3 0 6.7 7.3 0 6.8 7.3 0 6.9 7.3 0 7 7.3 0 7.1 7.3 0 7.2 7.3 0 7.3 7.3 0 7.4 7.3 0 7.5 7.3 0 7.6 7.3 0 7.7 7.3 0 7.8 7.3 0 7.9 7.3 0 8 7.3 0 8.1 7.3 0 8.2 7.3 0 8.3 7.3 0 8.4 7.3 0 8.5 7.3 0 8.6 7.3 0 8.7 7.3 0 8.8 7.3 0 8.9 7.3 0 9 7.3 0 9.1 7.3 0 9.2 7.3 0 9.3 7.3 0 9.4 7.3 0 9.5 7.3 0 9.6 7.3 0 9.7 7.3 0 9.8 7.3 0 9.9 7.3 0 10 7.3 0 0 7.4 0 0.1 7.4 0 0.2 7.4 0 0.3 7.4 0 0.4 7.4 0 0.5 7.4 0 0.6 7.4 0 0.7 7.4 0 0.8 7.4 0 0.9 7.4 0 1 7.4 0 1.1 7.4 0 1.2 7.4 0 1.3 7.4 0 1.4 7.4 0 1.5 7.4 0 1.6 7.4 0 1.7 7.4 0 1.8 7.4 0 1.9 7.4 0 2 7.4 0 2.1 7.4 0 2.2 7.4 0 2.3 7.4 0 2.4 7.4 0 2.5 7.4 0 2.6 7.4 0 2.7 7.4 0 2.8 7.4 0 2.9 7.4 0 3 7.4 0 3.1 7.4 0 3.2 7.4 0 3.3 7.4 0 3.4 7.4 0 3.5 7.4 0 3.6 7.4 0 3.7 7.4 0 3.8 7.4 0 3.9 7.4 0 4 7.4 0 4.1 7.4 0 4.2 7.4 0 4.3 7.4 0 4.4 7.4 0 4.5 7.4 0 4.6 7.4 0 4.7 7.4 0 4.8 7.4 0 4.9 7.4 0 5 7.4 0 5.1 7.4 0 5.2 7.4 0 5.3 7.4 0 5.4 7.4 0 5.5 7.4 0 5.6 7.4 0 5.7 7.4 0 5.8 7.4 0 5.9 7.4 0 6 7.4 0 6.1 7.4 0 6.2 7.4 0 6.3 7.4 0 6.4 7.4 0 6.5 7.4 0 6.6 7.4 0 6.7 7.4 0 6.8 7.4 0 6.9 7.4 0 7 7.4 0 7.1 7.4 0 7.2 7.4 0 7.3 7.4 0 7.4 7.4 0 7.5 7.4 0 7.6 7.4 0 7.7 7.4 0 7.8 7.4 0 7.9 7.4 0 8 7.4 0 8.1 7.4 0 8.2 7.4 0 8.3 7.4 0 8.4 7.4 0 8.5 7.4 0 8.6 7.4 0 8.7 7.4 0 8.8 7.4 0 8.9 7.4 0 9 7.4 0 9.1 7.4 0 9.2 7.4 0 9.3 7.4 0 9.4 7.4 0 9.5 7.4 0 9.6 7.4 0 9.7 7.4 0 9.8 7.4 0 9.9 7.4 0 10 7.4 0 0 7.5 0 0.1 7.5 0 0.2 7.5 0 0.3 7.5 0 0.4 7.5 0 0.5 7.5 0 0.6 7.5 0 0.7 7.5 0 0.8 7.5 0 0.9 7.5 0 1 7.5 0 1.1 7.5 0 1.2 7.5 0 1.3 7.5 0 1.4 7.5 0 1.5 7.5 0 1.6 7.5 0 1.7 7.5 0 1.8 7.5 0 1.9 7.5 0 2 7.5 0 2.1 7.5 0 2.2 7.5 0 2.3 7.5 0 2.4 7.5 0 2.5 7.5 0 2.6 7.5 0 2.7 7.5 0 2.8 7.5 0 2.9 7.5 0 3 7.5 0 3.1 7.5 0 3.2 7.5 0 3.3 7.5 0 3.4 7.5 0 3.5 7.5 0 3.6 7.5 0 3.7 7.5 0 3.8 7.5 0 3.9 7.5 0 4 7.5 0 4.1 7.5 0 4.2 7.5 0 4.3 7.5 0 4.4 7.5 0 4.5 7.5 0 4.6 7.5 0 4.7 7.5 0 4.8 7.5 0 4.9 7.5 0 5 7.5 0 5.1 7.5 0 5.2 7.5 0 5.3 7.5 0 5.4 7.5 0 5.5 7.5 0 5.6 7.5 0 5.7 7.5 0 5.8 7.5 0 5.9 7.5 0 6 7.5 0 6.1 7.5 0 6.2 7.5 0 6.3 7.5 0 6.4 7.5 0 6.5 7.5 0 6.6 7.5 0 6.7 7.5 0 6.8 7.5 0 6.9 7.5 0 7 7.5 0 7.1 7.5 0 7.2 7.5 0 7.3 7.5 0 7.4 7.5 0 7.5 7.5 0 7.6 7.5 0 7.7 7.5 0 7.8 7.5 0 7.9 7.5 0 8 7.5 0 8.1 7.5 0 8.2 7.5 0 8.3 7.5 0 8.4 7.5 0 8.5 7.5 0 8.6 7.5 0 8.7 7.5 0 8.8 7.5 0 8.9 7.5 0 9 7.5 0 9.1 7.5 0 9.2 7.5 0 9.3 7.5 0 9.4 7.5 0 9.5 7.5 0 9.6 7.5 0 9.7 7.5 0 9.8 7.5 0 9.9 7.5 0 10 7.5 0 0 7.6 0 0.1 7.6 0 0.2 7.6 0 0.3 7.6 0 0.4 7.6 0 0.5 7.6 0 0.6 7.6 0 0.7 7.6 0 0.8 7.6 0 0.9 7.6 0 1 7.6 0 1.1 7.6 0 1.2 7.6 0 1.3 7.6 0 1.4 7.6 0 1.5 7.6 0 1.6 7.6 0 1.7 7.6 0 1.8 7.6 0 1.9 7.6 0 2 7.6 0 2.1 7.6 0 2.2 7.6 0 2.3 7.6 0 2.4 7.6 0 2.5 7.6 0 2.6 7.6 0 2.7 7.6 0 2.8 7.6 0 2.9 7.6 0 3 7.6 0 3.1 7.6 0 3.2 7.6 0 3.3 7.6 0 3.4 7.6 0 3.5 7.6 0 3.6 7.6 0 3.7 7.6 0 3.8 7.6 0 3.9 7.6 0 4 7.6 0 4.1 7.6 0 4.2 7.6 0 4.3 7.6 0 4.4 7.6 0 4.5 7.6 0 4.6 7.6 0 4.7 7.6 0 4.8 7.6 0 4.9 7.6 0 5 7.6 0 5.1 7.6 0 5.2 7.6 0 5.3 7.6 0 5.4 7.6 0 5.5 7.6 0 5.6 7.6 0 5.7 7.6 0 5.8 7.6 0 5.9 7.6 0 6 7.6 0 6.1 7.6 0 6.2 7.6 0 6.3 7.6 0 6.4 7.6 0 6.5 7.6 0 6.6 7.6 0 6.7 7.6 0 6.8 7.6 0 6.9 7.6 0 7 7.6 0 7.1 7.6 0 7.2 7.6 0 7.3 7.6 0 7.4 7.6 0 7.5 7.6 0 7.6 7.6 0 7.7 7.6 0 7.8 7.6 0 7.9 7.6 0 8 7.6 0 8.1 7.6 0 8.2 7.6 0 8.3 7.6 0 8.4 7.6 0 8.5 7.6 0 8.6 7.6 0 8.7 7.6 0 8.8 7.6 0 8.9 7.6 0 9 7.6 0 9.1 7.6 0 9.2 7.6 0 9.3 7.6 0 9.4 7.6 0 9.5 7.6 0 9.6 7.6 0 9.7 7.6 0 9.8 7.6 0 9.9 7.6 0 10 7.6 0 0 7.7 0 0.1 7.7 0 0.2 7.7 0 0.3 7.7 0 0.4 7.7 0 0.5 7.7 0 0.6 7.7 0 0.7 7.7 0 0.8 7.7 0 0.9 7.7 0 1 7.7 0 1.1 7.7 0 1.2 7.7 0 1.3 7.7 0 1.4 7.7 0 1.5 7.7 0 1.6 7.7 0 1.7 7.7 0 1.8 7.7 0 1.9 7.7 0 2 7.7 0 2.1 7.7 0 2.2 7.7 0 2.3 7.7 0 2.4 7.7 0 2.5 7.7 0 2.6 7.7 0 2.7 7.7 0 2.8 7.7 0 2.9 7.7 0 3 7.7 0 3.1 7.7 0 3.2 7.7 0 3.3 7.7 0 3.4 7.7 0 3.5 7.7 0 3.6 7.7 0 3.7 7.7 0 3.8 7.7 0 3.9 7.7 0 4 7.7 0 4.1 7.7 0 4.2 7.7 0 4.3 7.7 0 4.4 7.7 0 4.5 7.7 0 4.6 7.7 0 4.7 7.7 0 4.8 7.7 0 4.9 7.7 0 5 7.7 0 5.1 7.7 0 5.2 7.7 0 5.3 7.7 0 5.4 7.7 0 5.5 7.7 0 5.6 7.7 0 5.7 7.7 0 5.8 7.7 0 5.9 7.7 0 6 7.7 0 6.1 7.7 0 6.2 7.7 0 6.3 7.7 0 6.4 7.7 0 6.5 7.7 0 6.6 7.7 0 6.7 7.7 0 6.8 7.7 0 6.9 7.7 0 7 7.7 0 7.1 7.7 0 7.2 7.7 0 7.3 7.7 0 7.4 7.7 0 7.5 7.7 0 7.6 7.7 0 7.7 7.7 0 7.8 7.7 0 7.9 7.7 0 8 7.7 0 8.1 7.7 0 8.2 7.7 0 8.3 7.7 0 8.4 7.7 0 8.5 7.7 0 8.6 7.7 0 8.7 7.7 0 8.8 7.7 0 8.9 7.7 0 9 7.7 0 9.1 7.7 0 9.2 7.7 0 9.3 7.7 0 9.4 7.7 0 9.5 7.7 0 9.6 7.7 0 9.7 7.7 0 9.8 7.7 0 9.9 7.7 0 10 7.7 0 0 7.8 0 0.1 7.8 0 0.2 7.8 0 0.3 7.8 0 0.4 7.8 0 0.5 7.8 0 0.6 7.8 0 0.7 7.8 0 0.8 7.8 0 0.9 7.8 0 1 7.8 0 1.1 7.8 0 1.2 7.8 0 1.3 7.8 0 1.4 7.8 0 1.5 7.8 0 1.6 7.8 0 1.7 7.8 0 1.8 7.8 0 1.9 7.8 0 2 7.8 0 2.1 7.8 0 2.2 7.8 0 2.3 7.8 0 2.4 7.8 0 2.5 7.8 0 2.6 7.8 0 2.7 7.8 0 2.8 7.8 0 2.9 7.8 0 3 7.8 0 3.1 7.8 0 3.2 7.8 0 3.3 7.8 0 3.4 7.8 0 3.5 7.8 0 3.6 7.8 0 3.7 7.8 0 3.8 7.8 0 3.9 7.8 0 4 7.8 0 4.1 7.8 0 4.2 7.8 0 4.3 7.8 0 4.4 7.8 0 4.5 7.8 0 4.6 7.8 0 4.7 7.8 0 4.8 7.8 0 4.9 7.8 0 5 7.8 0 5.1 7.8 0 5.2 7.8 0 5.3 7.8 0 5.4 7.8 0 5.5 7.8 0 5.6 7.8 0 5.7 7.8 0 5.8 7.8 0 5.9 7.8 0 6 7.8 0 6.1 7.8 0 6.2 7.8 0 6.3 7.8 0 6.4 7.8 0 6.5 7.8 0 6.6 7.8 0 6.7 7.8 0 6.8 7.8 0 6.9 7.8 0 7 7.8 0 7.1 7.8 0 7.2 7.8 0 7.3 7.8 0 7.4 7.8 0 7.5 7.8 0 7.6 7.8 0 7.7 7.8 0 7.8 7.8 0 7.9 7.8 0 8 7.8 0 8.1 7.8 0 8.2 7.8 0 8.3 7.8 0 8.4 7.8 0 8.5 7.8 0 8.6 7.8 0 8.7 7.8 0 8.8 7.8 0 8.9 7.8 0 9 7.8 0 9.1 7.8 0 9.2 7.8 0 9.3 7.8 0 9.4 7.8 0 9.5 7.8 0 9.6 7.8 0 9.7 7.8 0 9.8 7.8 0 9.9 7.8 0 10 7.8 0 0 7.9 0 0.1 7.9 0 0.2 7.9 0 0.3 7.9 0 0.4 7.9 0 0.5 7.9 0 0.6 7.9 0 0.7 7.9 0 0.8 7.9 0 0.9 7.9 0 1 7.9 0 1.1 7.9 0 1.2 7.9 0 1.3 7.9 0 1.4 7.9 0 1.5 7.9 0 1.6 7.9 0 1.7 7.9 0 1.8 7.9 0 1.9 7.9 0 2 7.9 0 2.1 7.9 0 2.2 7.9 0 2.3 7.9 0 2.4 7.9 0 2.5 7.9 0 2.6 7.9 0 2.7 7.9 0 2.8 7.9 0 2.9 7.9 0 3 7.9 0 3.1 7.9 0 3.2 7.9 0 3.3 7.9 0 3.4 7.9 0 3.5 7.9 0 3.6 7.9 0 3.7 7.9 0 3.8 7.9 0 3.9 7.9 0 4 7.9 0 4.1 7.9 0 4.2 7.9 0 4.3 7.9 0 4.4 7.9 0 4.5 7.9 0 4.6 7.9 0 4.7 7.9 0 4.8 7.9 0 4.9 7.9 0 5 7.9 0 5.1 7.9 0 5.2 7.9 0 5.3 7.9 0 5.4 7.9 0 5.5 7.9 0 5.6 7.9 0 5.7 7.9 0 5.8 7.9 0 5.9 7.9 0 6 7.9 0 6.1 7.9 0 6.2 7.9 0 6.3 7.9 0 6.4 7.9 0 6.5 7.9 0 6.6 7.9 0 6.7 7.9 0 6.8 7.9 0 6.9 7.9 0 7 7.9 0 7.1 7.9 0 7.2 7.9 0 7.3 7.9 0 7.4 7.9 0 7.5 7.9 0 7.6 7.9 0 7.7 7.9 0 7.8 7.9 0 7.9 7.9 0 8 7.9 0 8.1 7.9 0 8.2 7.9 0 8.3 7.9 0 8.4 7.9 0 8.5 7.9 0 8.6 7.9 0 8.7 7.9 0 8.8 7.9 0 8.9 7.9 0 9 7.9 0 9.1 7.9 0 9.2 7.9 0 9.3 7.9 0 9.4 7.9 0 9.5 7.9 0 9.6 7.9 0 9.7 7.9 0 9.8 7.9 0 9.9 7.9 0 10 7.9 0 0 8 0 0.1 8 0 0.2 8 0 0.3 8 0 0.4 8 0 0.5 8 0 0.6 8 0 0.7 8 0 0.8 8 0 0.9 8 0 1 8 0 1.1 8 0 1.2 8 0 1.3 8 0 1.4 8 0 1.5 8 0 1.6 8 0 1.7 8 0 1.8 8 0 1.9 8 0 2 8 0 2.1 8 0 2.2 8 0 2.3 8 0 2.4 8 0 2.5 8 0 2.6 8 0 2.7 8 0 2.8 8 0 2.9 8 0 3 8 0 3.1 8 0 3.2 8 0 3.3 8 0 3.4 8 0 3.5 8 0 3.6 8 0 3.7 8 0 3.8 8 0 3.9 8 0 4 8 0 4.1 8 0 4.2 8 0 4.3 8 0 4.4 8 0 4.5 8 0 4.6 8 0 4.7 8 0 4.8 8 0 4.9 8 0 5 8 0 5.1 8 0 5.2 8 0 5.3 8 0 5.4 8 0 5.5 8 0 5.6 8 0 5.7 8 0 5.8 8 0 5.9 8 0 6 8 0 6.1 8 0 6.2 8 0 6.3 8 0 6.4 8 0 6.5 8 0 6.6 8 0 6.7 8 0 6.8 8 0 6.9 8 0 7 8 0 7.1 8 0 7.2 8 0 7.3 8 0 7.4 8 0 7.5 8 0 7.6 8 0 7.7 8 0 7.8 8 0 7.9 8 0 8 8 0 8.1 8 0 8.2 8 0 8.3 8 0 8.4 8 0 8.5 8 0 8.6 8 0 8.7 8 0 8.8 8 0 8.9 8 0 9 8 0 9.1 8 0 9.2 8 0 9.3 8 0 9.4 8 0 9.5 8 0 9.6 8 0 9.7 8 0 9.8 8 0 9.9 8 0 10 8 0 0 8.1 0 0.1 8.1 0 0.2 8.1 0 0.3 8.1 0 0.4 8.1 0 0.5 8.1 0 0.6 8.1 0 0.7 8.1 0 0.8 8.1 0 0.9 8.1 0 1 8.1 0 1.1 8.1 0 1.2 8.1 0 1.3 8.1 0 1.4 8.1 0 1.5 8.1 0 1.6 8.1 0 1.7 8.1 0 1.8 8.1 0 1.9 8.1 0 2 8.1 0 2.1 8.1 0 2.2 8.1 0 2.3 8.1 0 2.4 8.1 0 2.5 8.1 0 2.6 8.1 0 2.7 8.1 0 2.8 8.1 0 2.9 8.1 0 3 8.1 0 3.1 8.1 0 3.2 8.1 0 3.3 8.1 0 3.4 8.1 0 3.5 8.1 0 3.6 8.1 0 3.7 8.1 0 3.8 8.1 0 3.9 8.1 0 4 8.1 0 4.1 8.1 0 4.2 8.1 0 4.3 8.1 0 4.4 8.1 0 4.5 8.1 0 4.6 8.1 0 4.7 8.1 0 4.8 8.1 0 4.9 8.1 0 5 8.1 0 5.1 8.1 0 5.2 8.1 0 5.3 8.1 0 5.4 8.1 0 5.5 8.1 0 5.6 8.1 0 5.7 8.1 0 5.8 8.1 0 5.9 8.1 0 6 8.1 0 6.1 8.1 0 6.2 8.1 0 6.3 8.1 0 6.4 8.1 0 6.5 8.1 0 6.6 8.1 0 6.7 8.1 0 6.8 8.1 0 6.9 8.1 0 7 8.1 0 7.1 8.1 0 7.2 8.1 0 7.3 8.1 0 7.4 8.1 0 7.5 8.1 0 7.6 8.1 0 7.7 8.1 0 7.8 8.1 0 7.9 8.1 0 8 8.1 0 8.1 8.1 0 8.2 8.1 0 8.3 8.1 0 8.4 8.1 0 8.5 8.1 0 8.6 8.1 0 8.7 8.1 0 8.8 8.1 0 8.9 8.1 0 9 8.1 0 9.1 8.1 0 9.2 8.1 0 9.3 8.1 0 9.4 8.1 0 9.5 8.1 0 9.6 8.1 0 9.7 8.1 0 9.8 8.1 0 9.9 8.1 0 10 8.1 0 0 8.2 0 0.1 8.2 0 0.2 8.2 0 0.3 8.2 0 0.4 8.2 0 0.5 8.2 0 0.6 8.2 0 0.7 8.2 0 0.8 8.2 0 0.9 8.2 0 1 8.2 0 1.1 8.2 0 1.2 8.2 0 1.3 8.2 0 1.4 8.2 0 1.5 8.2 0 1.6 8.2 0 1.7 8.2 0 1.8 8.2 0 1.9 8.2 0 2 8.2 0 2.1 8.2 0 2.2 8.2 0 2.3 8.2 0 2.4 8.2 0 2.5 8.2 0 2.6 8.2 0 2.7 8.2 0 2.8 8.2 0 2.9 8.2 0 3 8.2 0 3.1 8.2 0 3.2 8.2 0 3.3 8.2 0 3.4 8.2 0 3.5 8.2 0 3.6 8.2 0 3.7 8.2 0 3.8 8.2 0 3.9 8.2 0 4 8.2 0 4.1 8.2 0 4.2 8.2 0 4.3 8.2 0 4.4 8.2 0 4.5 8.2 0 4.6 8.2 0 4.7 8.2 0 4.8 8.2 0 4.9 8.2 0 5 8.2 0 5.1 8.2 0 5.2 8.2 0 5.3 8.2 0 5.4 8.2 0 5.5 8.2 0 5.6 8.2 0 5.7 8.2 0 5.8 8.2 0 5.9 8.2 0 6 8.2 0 6.1 8.2 0 6.2 8.2 0 6.3 8.2 0 6.4 8.2 0 6.5 8.2 0 6.6 8.2 0 6.7 8.2 0 6.8 8.2 0 6.9 8.2 0 7 8.2 0 7.1 8.2 0 7.2 8.2 0 7.3 8.2 0 7.4 8.2 0 7.5 8.2 0 7.6 8.2 0 7.7 8.2 0 7.8 8.2 0 7.9 8.2 0 8 8.2 0 8.1 8.2 0 8.2 8.2 0 8.3 8.2 0 8.4 8.2 0 8.5 8.2 0 8.6 8.2 0 8.7 8.2 0 8.8 8.2 0 8.9 8.2 0 9 8.2 0 9.1 8.2 0 9.2 8.2 0 9.3 8.2 0 9.4 8.2 0 9.5 8.2 0 9.6 8.2 0 9.7 8.2 0 9.8 8.2 0 9.9 8.2 0 10 8.2 0 0 8.3 0 0.1 8.3 0 0.2 8.3 0 0.3 8.3 0 0.4 8.3 0 0.5 8.3 0 0.6 8.3 0 0.7 8.3 0 0.8 8.3 0 0.9 8.3 0 1 8.3 0 1.1 8.3 0 1.2 8.3 0 1.3 8.3 0 1.4 8.3 0 1.5 8.3 0 1.6 8.3 0 1.7 8.3 0 1.8 8.3 0 1.9 8.3 0 2 8.3 0 2.1 8.3 0 2.2 8.3 0 2.3 8.3 0 2.4 8.3 0 2.5 8.3 0 2.6 8.3 0 2.7 8.3 0 2.8 8.3 0 2.9 8.3 0 3 8.3 0 3.1 8.3 0 3.2 8.3 0 3.3 8.3 0 3.4 8.3 0 3.5 8.3 0 3.6 8.3 0 3.7 8.3 0 3.8 8.3 0 3.9 8.3 0 4 8.3 0 4.1 8.3 0 4.2 8.3 0 4.3 8.3 0 4.4 8.3 0 4.5 8.3 0 4.6 8.3 0 4.7 8.3 0 4.8 8.3 0 4.9 8.3 0 5 8.3 0 5.1 8.3 0 5.2 8.3 0 5.3 8.3 0 5.4 8.3 0 5.5 8.3 0 5.6 8.3 0 5.7 8.3 0 5.8 8.3 0 5.9 8.3 0 6 8.3 0 6.1 8.3 0 6.2 8.3 0 6.3 8.3 0 6.4 8.3 0 6.5 8.3 0 6.6 8.3 0 6.7 8.3 0 6.8 8.3 0 6.9 8.3 0 7 8.3 0 7.1 8.3 0 7.2 8.3 0 7.3 8.3 0 7.4 8.3 0 7.5 8.3 0 7.6 8.3 0 7.7 8.3 0 7.8 8.3 0 7.9 8.3 0 8 8.3 0 8.1 8.3 0 8.2 8.3 0 8.3 8.3 0 8.4 8.3 0 8.5 8.3 0 8.6 8.3 0 8.7 8.3 0 8.8 8.3 0 8.9 8.3 0 9 8.3 0 9.1 8.3 0 9.2 8.3 0 9.3 8.3 0 9.4 8.3 0 9.5 8.3 0 9.6 8.3 0 9.7 8.3 0 9.8 8.3 0 9.9 8.3 0 10 8.3 0 0 8.4 0 0.1 8.4 0 0.2 8.4 0 0.3 8.4 0 0.4 8.4 0 0.5 8.4 0 0.6 8.4 0 0.7 8.4 0 0.8 8.4 0 0.9 8.4 0 1 8.4 0 1.1 8.4 0 1.2 8.4 0 1.3 8.4 0 1.4 8.4 0 1.5 8.4 0 1.6 8.4 0 1.7 8.4 0 1.8 8.4 0 1.9 8.4 0 2 8.4 0 2.1 8.4 0 2.2 8.4 0 2.3 8.4 0 2.4 8.4 0 2.5 8.4 0 2.6 8.4 0 2.7 8.4 0 2.8 8.4 0 2.9 8.4 0 3 8.4 0 3.1 8.4 0 3.2 8.4 0 3.3 8.4 0 3.4 8.4 0 3.5 8.4 0 3.6 8.4 0 3.7 8.4 0 3.8 8.4 0 3.9 8.4 0 4 8.4 0 4.1 8.4 0 4.2 8.4 0 4.3 8.4 0 4.4 8.4 0 4.5 8.4 0 4.6 8.4 0 4.7 8.4 0 4.8 8.4 0 4.9 8.4 0 5 8.4 0 5.1 8.4 0 5.2 8.4 0 5.3 8.4 0 5.4 8.4 0 5.5 8.4 0 5.6 8.4 0 5.7 8.4 0 5.8 8.4 0 5.9 8.4 0 6 8.4 0 6.1 8.4 0 6.2 8.4 0 6.3 8.4 0 6.4 8.4 0 6.5 8.4 0 6.6 8.4 0 6.7 8.4 0 6.8 8.4 0 6.9 8.4 0 7 8.4 0 7.1 8.4 0 7.2 8.4 0 7.3 8.4 0 7.4 8.4 0 7.5 8.4 0 7.6 8.4 0 7.7 8.4 0 7.8 8.4 0 7.9 8.4 0 8 8.4 0 8.1 8.4 0 8.2 8.4 0 8.3 8.4 0 8.4 8.4 0 8.5 8.4 0 8.6 8.4 0 8.7 8.4 0 8.8 8.4 0 8.9 8.4 0 9 8.4 0 9.1 8.4 0 9.2 8.4 0 9.3 8.4 0 9.4 8.4 0 9.5 8.4 0 9.6 8.4 0 9.7 8.4 0 9.8 8.4 0 9.9 8.4 0 10 8.4 0 0 8.5 0 0.1 8.5 0 0.2 8.5 0 0.3 8.5 0 0.4 8.5 0 0.5 8.5 0 0.6 8.5 0 0.7 8.5 0 0.8 8.5 0 0.9 8.5 0 1 8.5 0 1.1 8.5 0 1.2 8.5 0 1.3 8.5 0 1.4 8.5 0 1.5 8.5 0 1.6 8.5 0 1.7 8.5 0 1.8 8.5 0 1.9 8.5 0 2 8.5 0 2.1 8.5 0 2.2 8.5 0 2.3 8.5 0 2.4 8.5 0 2.5 8.5 0 2.6 8.5 0 2.7 8.5 0 2.8 8.5 0 2.9 8.5 0 3 8.5 0 3.1 8.5 0 3.2 8.5 0 3.3 8.5 0 3.4 8.5 0 3.5 8.5 0 3.6 8.5 0 3.7 8.5 0 3.8 8.5 0 3.9 8.5 0 4 8.5 0 4.1 8.5 0 4.2 8.5 0 4.3 8.5 0 4.4 8.5 0 4.5 8.5 0 4.6 8.5 0 4.7 8.5 0 4.8 8.5 0 4.9 8.5 0 5 8.5 0 5.1 8.5 0 5.2 8.5 0 5.3 8.5 0 5.4 8.5 0 5.5 8.5 0 5.6 8.5 0 5.7 8.5 0 5.8 8.5 0 5.9 8.5 0 6 8.5 0 6.1 8.5 0 6.2 8.5 0 6.3 8.5 0 6.4 8.5 0 6.5 8.5 0 6.6 8.5 0 6.7 8.5 0 6.8 8.5 0 6.9 8.5 0 7 8.5 0 7.1 8.5 0 7.2 8.5 0 7.3 8.5 0 7.4 8.5 0 7.5 8.5 0 7.6 8.5 0 7.7 8.5 0 7.8 8.5 0 7.9 8.5 0 8 8.5 0 8.1 8.5 0 8.2 8.5 0 8.3 8.5 0 8.4 8.5 0 8.5 8.5 0 8.6 8.5 0 8.7 8.5 0 8.8 8.5 0 8.9 8.5 0 9 8.5 0 9.1 8.5 0 9.2 8.5 0 9.3 8.5 0 9.4 8.5 0 9.5 8.5 0 9.6 8.5 0 9.7 8.5 0 9.8 8.5 0 9.9 8.5 0 10 8.5 0 0 8.6 0 0.1 8.6 0 0.2 8.6 0 0.3 8.6 0 0.4 8.6 0 0.5 8.6 0 0.6 8.6 0 0.7 8.6 0 0.8 8.6 0 0.9 8.6 0 1 8.6 0 1.1 8.6 0 1.2 8.6 0 1.3 8.6 0 1.4 8.6 0 1.5 8.6 0 1.6 8.6 0 1.7 8.6 0 1.8 8.6 0 1.9 8.6 0 2 8.6 0 2.1 8.6 0 2.2 8.6 0 2.3 8.6 0 2.4 8.6 0 2.5 8.6 0 2.6 8.6 0 2.7 8.6 0 2.8 8.6 0 2.9 8.6 0 3 8.6 0 3.1 8.6 0 3.2 8.6 0 3.3 8.6 0 3.4 8.6 0 3.5 8.6 0 3.6 8.6 0 3.7 8.6 0 3.8 8.6 0 3.9 8.6 0 4 8.6 0 4.1 8.6 0 4.2 8.6 0 4.3 8.6 0 4.4 8.6 0 4.5 8.6 0 4.6 8.6 0 4.7 8.6 0 4.8 8.6 0 4.9 8.6 0 5 8.6 0 5.1 8.6 0 5.2 8.6 0 5.3 8.6 0 5.4 8.6 0 5.5 8.6 0 5.6 8.6 0 5.7 8.6 0 5.8 8.6 0 5.9 8.6 0 6 8.6 0 6.1 8.6 0 6.2 8.6 0 6.3 8.6 0 6.4 8.6 0 6.5 8.6 0 6.6 8.6 0 6.7 8.6 0 6.8 8.6 0 6.9 8.6 0 7 8.6 0 7.1 8.6 0 7.2 8.6 0 7.3 8.6 0 7.4 8.6 0 7.5 8.6 0 7.6 8.6 0 7.7 8.6 0 7.8 8.6 0 7.9 8.6 0 8 8.6 0 8.1 8.6 0 8.2 8.6 0 8.3 8.6 0 8.4 8.6 0 8.5 8.6 0 8.6 8.6 0 8.7 8.6 0 8.8 8.6 0 8.9 8.6 0 9 8.6 0 9.1 8.6 0 9.2 8.6 0 9.3 8.6 0 9.4 8.6 0 9.5 8.6 0 9.6 8.6 0 9.7 8.6 0 9.8 8.6 0 9.9 8.6 0 10 8.6 0 0 8.7 0 0.1 8.7 0 0.2 8.7 0 0.3 8.7 0 0.4 8.7 0 0.5 8.7 0 0.6 8.7 0 0.7 8.7 0 0.8 8.7 0 0.9 8.7 0 1 8.7 0 1.1 8.7 0 1.2 8.7 0 1.3 8.7 0 1.4 8.7 0 1.5 8.7 0 1.6 8.7 0 1.7 8.7 0 1.8 8.7 0 1.9 8.7 0 2 8.7 0 2.1 8.7 0 2.2 8.7 0 2.3 8.7 0 2.4 8.7 0 2.5 8.7 0 2.6 8.7 0 2.7 8.7 0 2.8 8.7 0 2.9 8.7 0 3 8.7 0 3.1 8.7 0 3.2 8.7 0 3.3 8.7 0 3.4 8.7 0 3.5 8.7 0 3.6 8.7 0 3.7 8.7 0 3.8 8.7 0 3.9 8.7 0 4 8.7 0 4.1 8.7 0 4.2 8.7 0 4.3 8.7 0 4.4 8.7 0 4.5 8.7 0 4.6 8.7 0 4.7 8.7 0 4.8 8.7 0 4.9 8.7 0 5 8.7 0 5.1 8.7 0 5.2 8.7 0 5.3 8.7 0 5.4 8.7 0 5.5 8.7 0 5.6 8.7 0 5.7 8.7 0 5.8 8.7 0 5.9 8.7 0 6 8.7 0 6.1 8.7 0 6.2 8.7 0 6.3 8.7 0 6.4 8.7 0 6.5 8.7 0 6.6 8.7 0 6.7 8.7 0 6.8 8.7 0 6.9 8.7 0 7 8.7 0 7.1 8.7 0 7.2 8.7 0 7.3 8.7 0 7.4 8.7 0 7.5 8.7 0 7.6 8.7 0 7.7 8.7 0 7.8 8.7 0 7.9 8.7 0 8 8.7 0 8.1 8.7 0 8.2 8.7 0 8.3 8.7 0 8.4 8.7 0 8.5 8.7 0 8.6 8.7 0 8.7 8.7 0 8.8 8.7 0 8.9 8.7 0 9 8.7 0 9.1 8.7 0 9.2 8.7 0 9.3 8.7 0 9.4 8.7 0 9.5 8.7 0 9.6 8.7 0 9.7 8.7 0 9.8 8.7 0 9.9 8.7 0 10 8.7 0 0 8.8 0 0.1 8.8 0 0.2 8.8 0 0.3 8.8 0 0.4 8.8 0 0.5 8.8 0 0.6 8.8 0 0.7 8.8 0 0.8 8.8 0 0.9 8.8 0 1 8.8 0 1.1 8.8 0 1.2 8.8 0 1.3 8.8 0 1.4 8.8 0 1.5 8.8 0 1.6 8.8 0 1.7 8.8 0 1.8 8.8 0 1.9 8.8 0 2 8.8 0 2.1 8.8 0 2.2 8.8 0 2.3 8.8 0 2.4 8.8 0 2.5 8.8 0 2.6 8.8 0 2.7 8.8 0 2.8 8.8 0 2.9 8.8 0 3 8.8 0 3.1 8.8 0 3.2 8.8 0 3.3 8.8 0 3.4 8.8 0 3.5 8.8 0 3.6 8.8 0 3.7 8.8 0 3.8 8.8 0 3.9 8.8 0 4 8.8 0 4.1 8.8 0 4.2 8.8 0 4.3 8.8 0 4.4 8.8 0 4.5 8.8 0 4.6 8.8 0 4.7 8.8 0 4.8 8.8 0 4.9 8.8 0 5 8.8 0 5.1 8.8 0 5.2 8.8 0 5.3 8.8 0 5.4 8.8 0 5.5 8.8 0 5.6 8.8 0 5.7 8.8 0 5.8 8.8 0 5.9 8.8 0 6 8.8 0 6.1 8.8 0 6.2 8.8 0 6.3 8.8 0 6.4 8.8 0 6.5 8.8 0 6.6 8.8 0 6.7 8.8 0 6.8 8.8 0 6.9 8.8 0 7 8.8 0 7.1 8.8 0 7.2 8.8 0 7.3 8.8 0 7.4 8.8 0 7.5 8.8 0 7.6 8.8 0 7.7 8.8 0 7.8 8.8 0 7.9 8.8 0 8 8.8 0 8.1 8.8 0 8.2 8.8 0 8.3 8.8 0 8.4 8.8 0 8.5 8.8 0 8.6 8.8 0 8.7 8.8 0 8.8 8.8 0 8.9 8.8 0 9 8.8 0 9.1 8.8 0 9.2 8.8 0 9.3 8.8 0 9.4 8.8 0 9.5 8.8 0 9.6 8.8 0 9.7 8.8 0 9.8 8.8 0 9.9 8.8 0 10 8.8 0 0 8.9 0 0.1 8.9 0 0.2 8.9 0 0.3 8.9 0 0.4 8.9 0 0.5 8.9 0 0.6 8.9 0 0.7 8.9 0 0.8 8.9 0 0.9 8.9 0 1 8.9 0 1.1 8.9 0 1.2 8.9 0 1.3 8.9 0 1.4 8.9 0 1.5 8.9 0 1.6 8.9 0 1.7 8.9 0 1.8 8.9 0 1.9 8.9 0 2 8.9 0 2.1 8.9 0 2.2 8.9 0 2.3 8.9 0 2.4 8.9 0 2.5 8.9 0 2.6 8.9 0 2.7 8.9 0 2.8 8.9 0 2.9 8.9 0 3 8.9 0 3.1 8.9 0 3.2 8.9 0 3.3 8.9 0 3.4 8.9 0 3.5 8.9 0 3.6 8.9 0 3.7 8.9 0 3.8 8.9 0 3.9 8.9 0 4 8.9 0 4.1 8.9 0 4.2 8.9 0 4.3 8.9 0 4.4 8.9 0 4.5 8.9 0 4.6 8.9 0 4.7 8.9 0 4.8 8.9 0 4.9 8.9 0 5 8.9 0 5.1 8.9 0 5.2 8.9 0 5.3 8.9 0 5.4 8.9 0 5.5 8.9 0 5.6 8.9 0 5.7 8.9 0 5.8 8.9 0 5.9 8.9 0 6 8.9 0 6.1 8.9 0 6.2 8.9 0 6.3 8.9 0 6.4 8.9 0 6.5 8.9 0 6.6 8.9 0 6.7 8.9 0 6.8 8.9 0 6.9 8.9 0 7 8.9 0 7.1 8.9 0 7.2 8.9 0 7.3 8.9 0 7.4 8.9 0 7.5 8.9 0 7.6 8.9 0 7.7 8.9 0 7.8 8.9 0 7.9 8.9 0 8 8.9 0 8.1 8.9 0 8.2 8.9 0 8.3 8.9 0 8.4 8.9 0 8.5 8.9 0 8.6 8.9 0 8.7 8.9 0 8.8 8.9 0 8.9 8.9 0 9 8.9 0 9.1 8.9 0 9.2 8.9 0 9.3 8.9 0 9.4 8.9 0 9.5 8.9 0 9.6 8.9 0 9.7 8.9 0 9.8 8.9 0 9.9 8.9 0 10 8.9 0 0 9 0 0.1 9 0 0.2 9 0 0.3 9 0 0.4 9 0 0.5 9 0 0.6 9 0 0.7 9 0 0.8 9 0 0.9 9 0 1 9 0 1.1 9 0 1.2 9 0 1.3 9 0 1.4 9 0 1.5 9 0 1.6 9 0 1.7 9 0 1.8 9 0 1.9 9 0 2 9 0 2.1 9 0 2.2 9 0 2.3 9 0 2.4 9 0 2.5 9 0 2.6 9 0 2.7 9 0 2.8 9 0 2.9 9 0 3 9 0 3.1 9 0 3.2 9 0 3.3 9 0 3.4 9 0 3.5 9 0 3.6 9 0 3.7 9 0 3.8 9 0 3.9 9 0 4 9 0 4.1 9 0 4.2 9 0 4.3 9 0 4.4 9 0 4.5 9 0 4.6 9 0 4.7 9 0 4.8 9 0 4.9 9 0 5 9 0 5.1 9 0 5.2 9 0 5.3 9 0 5.4 9 0 5.5 9 0 5.6 9 0 5.7 9 0 5.8 9 0 5.9 9 0 6 9 0 6.1 9 0 6.2 9 0 6.3 9 0 6.4 9 0 6.5 9 0 6.6 9 0 6.7 9 0 6.8 9 0 6.9 9 0 7 9 0 7.1 9 0 7.2 9 0 7.3 9 0 7.4 9 0 7.5 9 0 7.6 9 0 7.7 9 0 7.8 9 0 7.9 9 0 8 9 0 8.1 9 0 8.2 9 0 8.3 9 0 8.4 9 0 8.5 9 0 8.6 9 0 8.7 9 0 8.8 9 0 8.9 9 0 9 9 0 9.1 9 0 9.2 9 0 9.3 9 0 9.4 9 0 9.5 9 0 9.6 9 0 9.7 9 0 9.8 9 0 9.9 9 0 10 9 0 0 9.1 0 0.1 9.1 0 0.2 9.1 0 0.3 9.1 0 0.4 9.1 0 0.5 9.1 0 0.6 9.1 0 0.7 9.1 0 0.8 9.1 0 0.9 9.1 0 1 9.1 0 1.1 9.1 0 1.2 9.1 0 1.3 9.1 0 1.4 9.1 0 1.5 9.1 0 1.6 9.1 0 1.7 9.1 0 1.8 9.1 0 1.9 9.1 0 2 9.1 0 2.1 9.1 0 2.2 9.1 0 2.3 9.1 0 2.4 9.1 0 2.5 9.1 0 2.6 9.1 0 2.7 9.1 0 2.8 9.1 0 2.9 9.1 0 3 9.1 0 3.1 9.1 0 3.2 9.1 0 3.3 9.1 0 3.4 9.1 0 3.5 9.1 0 3.6 9.1 0 3.7 9.1 0 3.8 9.1 0 3.9 9.1 0 4 9.1 0 4.1 9.1 0 4.2 9.1 0 4.3 9.1 0 4.4 9.1 0 4.5 9.1 0 4.6 9.1 0 4.7 9.1 0 4.8 9.1 0 4.9 9.1 0 5 9.1 0 5.1 9.1 0 5.2 9.1 0 5.3 9.1 0 5.4 9.1 0 5.5 9.1 0 5.6 9.1 0 5.7 9.1 0 5.8 9.1 0 5.9 9.1 0 6 9.1 0 6.1 9.1 0 6.2 9.1 0 6.3 9.1 0 6.4 9.1 0 6.5 9.1 0 6.6 9.1 0 6.7 9.1 0 6.8 9.1 0 6.9 9.1 0 7 9.1 0 7.1 9.1 0 7.2 9.1 0 7.3 9.1 0 7.4 9.1 0 7.5 9.1 0 7.6 9.1 0 7.7 9.1 0 7.8 9.1 0 7.9 9.1 0 8 9.1 0 8.1 9.1 0 8.2 9.1 0 8.3 9.1 0 8.4 9.1 0 8.5 9.1 0 8.6 9.1 0 8.7 9.1 0 8.8 9.1 0 8.9 9.1 0 9 9.1 0 9.1 9.1 0 9.2 9.1 0 9.3 9.1 0 9.4 9.1 0 9.5 9.1 0 9.6 9.1 0 9.7 9.1 0 9.8 9.1 0 9.9 9.1 0 10 9.1 0 0 9.2 0 0.1 9.2 0 0.2 9.2 0 0.3 9.2 0 0.4 9.2 0 0.5 9.2 0 0.6 9.2 0 0.7 9.2 0 0.8 9.2 0 0.9 9.2 0 1 9.2 0 1.1 9.2 0 1.2 9.2 0 1.3 9.2 0 1.4 9.2 0 1.5 9.2 0 1.6 9.2 0 1.7 9.2 0 1.8 9.2 0 1.9 9.2 0 2 9.2 0 2.1 9.2 0 2.2 9.2 0 2.3 9.2 0 2.4 9.2 0 2.5 9.2 0 2.6 9.2 0 2.7 9.2 0 2.8 9.2 0 2.9 9.2 0 3 9.2 0 3.1 9.2 0 3.2 9.2 0 3.3 9.2 0 3.4 9.2 0 3.5 9.2 0 3.6 9.2 0 3.7 9.2 0 3.8 9.2 0 3.9 9.2 0 4 9.2 0 4.1 9.2 0 4.2 9.2 0 4.3 9.2 0 4.4 9.2 0 4.5 9.2 0 4.6 9.2 0 4.7 9.2 0 4.8 9.2 0 4.9 9.2 0 5 9.2 0 5.1 9.2 0 5.2 9.2 0 5.3 9.2 0 5.4 9.2 0 5.5 9.2 0 5.6 9.2 0 5.7 9.2 0 5.8 9.2 0 5.9 9.2 0 6 9.2 0 6.1 9.2 0 6.2 9.2 0 6.3 9.2 0 6.4 9.2 0 6.5 9.2 0 6.6 9.2 0 6.7 9.2 0 6.8 9.2 0 6.9 9.2 0 7 9.2 0 7.1 9.2 0 7.2 9.2 0 7.3 9.2 0 7.4 9.2 0 7.5 9.2 0 7.6 9.2 0 7.7 9.2 0 7.8 9.2 0 7.9 9.2 0 8 9.2 0 8.1 9.2 0 8.2 9.2 0 8.3 9.2 0 8.4 9.2 0 8.5 9.2 0 8.6 9.2 0 8.7 9.2 0 8.8 9.2 0 8.9 9.2 0 9 9.2 0 9.1 9.2 0 9.2 9.2 0 9.3 9.2 0 9.4 9.2 0 9.5 9.2 0 9.6 9.2 0 9.7 9.2 0 9.8 9.2 0 9.9 9.2 0 10 9.2 0 0 9.3 0 0.1 9.3 0 0.2 9.3 0 0.3 9.3 0 0.4 9.3 0 0.5 9.3 0 0.6 9.3 0 0.7 9.3 0 0.8 9.3 0 0.9 9.3 0 1 9.3 0 1.1 9.3 0 1.2 9.3 0 1.3 9.3 0 1.4 9.3 0 1.5 9.3 0 1.6 9.3 0 1.7 9.3 0 1.8 9.3 0 1.9 9.3 0 2 9.3 0 2.1 9.3 0 2.2 9.3 0 2.3 9.3 0 2.4 9.3 0 2.5 9.3 0 2.6 9.3 0 2.7 9.3 0 2.8 9.3 0 2.9 9.3 0 3 9.3 0 3.1 9.3 0 3.2 9.3 0 3.3 9.3 0 3.4 9.3 0 3.5 9.3 0 3.6 9.3 0 3.7 9.3 0 3.8 9.3 0 3.9 9.3 0 4 9.3 0 4.1 9.3 0 4.2 9.3 0 4.3 9.3 0 4.4 9.3 0 4.5 9.3 0 4.6 9.3 0 4.7 9.3 0 4.8 9.3 0 4.9 9.3 0 5 9.3 0 5.1 9.3 0 5.2 9.3 0 5.3 9.3 0 5.4 9.3 0 5.5 9.3 0 5.6 9.3 0 5.7 9.3 0 5.8 9.3 0 5.9 9.3 0 6 9.3 0 6.1 9.3 0 6.2 9.3 0 6.3 9.3 0 6.4 9.3 0 6.5 9.3 0 6.6 9.3 0 6.7 9.3 0 6.8 9.3 0 6.9 9.3 0 7 9.3 0 7.1 9.3 0 7.2 9.3 0 7.3 9.3 0 7.4 9.3 0 7.5 9.3 0 7.6 9.3 0 7.7 9.3 0 7.8 9.3 0 7.9 9.3 0 8 9.3 0 8.1 9.3 0 8.2 9.3 0 8.3 9.3 0 8.4 9.3 0 8.5 9.3 0 8.6 9.3 0 8.7 9.3 0 8.8 9.3 0 8.9 9.3 0 9 9.3 0 9.1 9.3 0 9.2 9.3 0 9.3 9.3 0 9.4 9.3 0 9.5 9.3 0 9.6 9.3 0 9.7 9.3 0 9.8 9.3 0 9.9 9.3 0 10 9.3 0 0 9.4 0 0.1 9.4 0 0.2 9.4 0 0.3 9.4 0 0.4 9.4 0 0.5 9.4 0 0.6 9.4 0 0.7 9.4 0 0.8 9.4 0 0.9 9.4 0 1 9.4 0 1.1 9.4 0 1.2 9.4 0 1.3 9.4 0 1.4 9.4 0 1.5 9.4 0 1.6 9.4 0 1.7 9.4 0 1.8 9.4 0 1.9 9.4 0 2 9.4 0 2.1 9.4 0 2.2 9.4 0 2.3 9.4 0 2.4 9.4 0 2.5 9.4 0 2.6 9.4 0 2.7 9.4 0 2.8 9.4 0 2.9 9.4 0 3 9.4 0 3.1 9.4 0 3.2 9.4 0 3.3 9.4 0 3.4 9.4 0 3.5 9.4 0 3.6 9.4 0 3.7 9.4 0 3.8 9.4 0 3.9 9.4 0 4 9.4 0 4.1 9.4 0 4.2 9.4 0 4.3 9.4 0 4.4 9.4 0 4.5 9.4 0 4.6 9.4 0 4.7 9.4 0 4.8 9.4 0 4.9 9.4 0 5 9.4 0 5.1 9.4 0 5.2 9.4 0 5.3 9.4 0 5.4 9.4 0 5.5 9.4 0 5.6 9.4 0 5.7 9.4 0 5.8 9.4 0 5.9 9.4 0 6 9.4 0 6.1 9.4 0 6.2 9.4 0 6.3 9.4 0 6.4 9.4 0 6.5 9.4 0 6.6 9.4 0 6.7 9.4 0 6.8 9.4 0 6.9 9.4 0 7 9.4 0 7.1 9.4 0 7.2 9.4 0 7.3 9.4 0 7.4 9.4 0 7.5 9.4 0 7.6 9.4 0 7.7 9.4 0 7.8 9.4 0 7.9 9.4 0 8 9.4 0 8.1 9.4 0 8.2 9.4 0 8.3 9.4 0 8.4 9.4 0 8.5 9.4 0 8.6 9.4 0 8.7 9.4 0 8.8 9.4 0 8.9 9.4 0 9 9.4 0 9.1 9.4 0 9.2 9.4 0 9.3 9.4 0 9.4 9.4 0 9.5 9.4 0 9.6 9.4 0 9.7 9.4 0 9.8 9.4 0 9.9 9.4 0 10 9.4 0 0 9.5 0 0.1 9.5 0 0.2 9.5 0 0.3 9.5 0 0.4 9.5 0 0.5 9.5 0 0.6 9.5 0 0.7 9.5 0 0.8 9.5 0 0.9 9.5 0 1 9.5 0 1.1 9.5 0 1.2 9.5 0 1.3 9.5 0 1.4 9.5 0 1.5 9.5 0 1.6 9.5 0 1.7 9.5 0 1.8 9.5 0 1.9 9.5 0 2 9.5 0 2.1 9.5 0 2.2 9.5 0 2.3 9.5 0 2.4 9.5 0 2.5 9.5 0 2.6 9.5 0 2.7 9.5 0 2.8 9.5 0 2.9 9.5 0 3 9.5 0 3.1 9.5 0 3.2 9.5 0 3.3 9.5 0 3.4 9.5 0 3.5 9.5 0 3.6 9.5 0 3.7 9.5 0 3.8 9.5 0 3.9 9.5 0 4 9.5 0 4.1 9.5 0 4.2 9.5 0 4.3 9.5 0 4.4 9.5 0 4.5 9.5 0 4.6 9.5 0 4.7 9.5 0 4.8 9.5 0 4.9 9.5 0 5 9.5 0 5.1 9.5 0 5.2 9.5 0 5.3 9.5 0 5.4 9.5 0 5.5 9.5 0 5.6 9.5 0 5.7 9.5 0 5.8 9.5 0 5.9 9.5 0 6 9.5 0 6.1 9.5 0 6.2 9.5 0 6.3 9.5 0 6.4 9.5 0 6.5 9.5 0 6.6 9.5 0 6.7 9.5 0 6.8 9.5 0 6.9 9.5 0 7 9.5 0 7.1 9.5 0 7.2 9.5 0 7.3 9.5 0 7.4 9.5 0 7.5 9.5 0 7.6 9.5 0 7.7 9.5 0 7.8 9.5 0 7.9 9.5 0 8 9.5 0 8.1 9.5 0 8.2 9.5 0 8.3 9.5 0 8.4 9.5 0 8.5 9.5 0 8.6 9.5 0 8.7 9.5 0 8.8 9.5 0 8.9 9.5 0 9 9.5 0 9.1 9.5 0 9.2 9.5 0 9.3 9.5 0 9.4 9.5 0 9.5 9.5 0 9.6 9.5 0 9.7 9.5 0 9.8 9.5 0 9.9 9.5 0 10 9.5 0 0 9.6 0 0.1 9.6 0 0.2 9.6 0 0.3 9.6 0 0.4 9.6 0 0.5 9.6 0 0.6 9.6 0 0.7 9.6 0 0.8 9.6 0 0.9 9.6 0 1 9.6 0 1.1 9.6 0 1.2 9.6 0 1.3 9.6 0 1.4 9.6 0 1.5 9.6 0 1.6 9.6 0 1.7 9.6 0 1.8 9.6 0 1.9 9.6 0 2 9.6 0 2.1 9.6 0 2.2 9.6 0 2.3 9.6 0 2.4 9.6 0 2.5 9.6 0 2.6 9.6 0 2.7 9.6 0 2.8 9.6 0 2.9 9.6 0 3 9.6 0 3.1 9.6 0 3.2 9.6 0 3.3 9.6 0 3.4 9.6 0 3.5 9.6 0 3.6 9.6 0 3.7 9.6 0 3.8 9.6 0 3.9 9.6 0 4 9.6 0 4.1 9.6 0 4.2 9.6 0 4.3 9.6 0 4.4 9.6 0 4.5 9.6 0 4.6 9.6 0 4.7 9.6 0 4.8 9.6 0 4.9 9.6 0 5 9.6 0 5.1 9.6 0 5.2 9.6 0 5.3 9.6 0 5.4 9.6 0 5.5 9.6 0 5.6 9.6 0 5.7 9.6 0 5.8 9.6 0 5.9 9.6 0 6 9.6 0 6.1 9.6 0 6.2 9.6 0 6.3 9.6 0 6.4 9.6 0 6.5 9.6 0 6.6 9.6 0 6.7 9.6 0 6.8 9.6 0 6.9 9.6 0 7 9.6 0 7.1 9.6 0 7.2 9.6 0 7.3 9.6 0 7.4 9.6 0 7.5 9.6 0 7.6 9.6 0 7.7 9.6 0 7.8 9.6 0 7.9 9.6 0 8 9.6 0 8.1 9.6 0 8.2 9.6 0 8.3 9.6 0 8.4 9.6 0 8.5 9.6 0 8.6 9.6 0 8.7 9.6 0 8.8 9.6 0 8.9 9.6 0 9 9.6 0 9.1 9.6 0 9.2 9.6 0 9.3 9.6 0 9.4 9.6 0 9.5 9.6 0 9.6 9.6 0 9.7 9.6 0 9.8 9.6 0 9.9 9.6 0 10 9.6 0 0 9.7 0 0.1 9.7 0 0.2 9.7 0 0.3 9.7 0 0.4 9.7 0 0.5 9.7 0 0.6 9.7 0 0.7 9.7 0 0.8 9.7 0 0.9 9.7 0 1 9.7 0 1.1 9.7 0 1.2 9.7 0 1.3 9.7 0 1.4 9.7 0 1.5 9.7 0 1.6 9.7 0 1.7 9.7 0 1.8 9.7 0 1.9 9.7 0 2 9.7 0 2.1 9.7 0 2.2 9.7 0 2.3 9.7 0 2.4 9.7 0 2.5 9.7 0 2.6 9.7 0 2.7 9.7 0 2.8 9.7 0 2.9 9.7 0 3 9.7 0 3.1 9.7 0 3.2 9.7 0 3.3 9.7 0 3.4 9.7 0 3.5 9.7 0 3.6 9.7 0 3.7 9.7 0 3.8 9.7 0 3.9 9.7 0 4 9.7 0 4.1 9.7 0 4.2 9.7 0 4.3 9.7 0 4.4 9.7 0 4.5 9.7 0 4.6 9.7 0 4.7 9.7 0 4.8 9.7 0 4.9 9.7 0 5 9.7 0 5.1 9.7 0 5.2 9.7 0 5.3 9.7 0 5.4 9.7 0 5.5 9.7 0 5.6 9.7 0 5.7 9.7 0 5.8 9.7 0 5.9 9.7 0 6 9.7 0 6.1 9.7 0 6.2 9.7 0 6.3 9.7 0 6.4 9.7 0 6.5 9.7 0 6.6 9.7 0 6.7 9.7 0 6.8 9.7 0 6.9 9.7 0 7 9.7 0 7.1 9.7 0 7.2 9.7 0 7.3 9.7 0 7.4 9.7 0 7.5 9.7 0 7.6 9.7 0 7.7 9.7 0 7.8 9.7 0 7.9 9.7 0 8 9.7 0 8.1 9.7 0 8.2 9.7 0 8.3 9.7 0 8.4 9.7 0 8.5 9.7 0 8.6 9.7 0 8.7 9.7 0 8.8 9.7 0 8.9 9.7 0 9 9.7 0 9.1 9.7 0 9.2 9.7 0 9.3 9.7 0 9.4 9.7 0 9.5 9.7 0 9.6 9.7 0 9.7 9.7 0 9.8 9.7 0 9.9 9.7 0 10 9.7 0 0 9.8 0 0.1 9.8 0 0.2 9.8 0 0.3 9.8 0 0.4 9.8 0 0.5 9.8 0 0.6 9.8 0 0.7 9.8 0 0.8 9.8 0 0.9 9.8 0 1 9.8 0 1.1 9.8 0 1.2 9.8 0 1.3 9.8 0 1.4 9.8 0 1.5 9.8 0 1.6 9.8 0 1.7 9.8 0 1.8 9.8 0 1.9 9.8 0 2 9.8 0 2.1 9.8 0 2.2 9.8 0 2.3 9.8 0 2.4 9.8 0 2.5 9.8 0 2.6 9.8 0 2.7 9.8 0 2.8 9.8 0 2.9 9.8 0 3 9.8 0 3.1 9.8 0 3.2 9.8 0 3.3 9.8 0 3.4 9.8 0 3.5 9.8 0 3.6 9.8 0 3.7 9.8 0 3.8 9.8 0 3.9 9.8 0 4 9.8 0 4.1 9.8 0 4.2 9.8 0 4.3 9.8 0 4.4 9.8 0 4.5 9.8 0 4.6 9.8 0 4.7 9.8 0 4.8 9.8 0 4.9 9.8 0 5 9.8 0 5.1 9.8 0 5.2 9.8 0 5.3 9.8 0 5.4 9.8 0 5.5 9.8 0 5.6 9.8 0 5.7 9.8 0 5.8 9.8 0 5.9 9.8 0 6 9.8 0 6.1 9.8 0 6.2 9.8 0 6.3 9.8 0 6.4 9.8 0 6.5 9.8 0 6.6 9.8 0 6.7 9.8 0 6.8 9.8 0 6.9 9.8 0 7 9.8 0 7.1 9.8 0 7.2 9.8 0 7.3 9.8 0 7.4 9.8 0 7.5 9.8 0 7.6 9.8 0 7.7 9.8 0 7.8 9.8 0 7.9 9.8 0 8 9.8 0 8.1 9.8 0 8.2 9.8 0 8.3 9.8 0 8.4 9.8 0 8.5 9.8 0 8.6 9.8 0 8.7 9.8 0 8.8 9.8 0 8.9 9.8 0 9 9.8 0 9.1 9.8 0 9.2 9.8 0 9.3 9.8 0 9.4 9.8 0 9.5 9.8 0 9.6 9.8 0 9.7 9.8 0 9.8 9.8 0 9.9 9.8 0 10 9.8 0 0 9.9 0 0.1 9.9 0 0.2 9.9 0 0.3 9.9 0 0.4 9.9 0 0.5 9.9 0 0.6 9.9 0 0.7 9.9 0 0.8 9.9 0 0.9 9.9 0 1 9.9 0 1.1 9.9 0 1.2 9.9 0 1.3 9.9 0 1.4 9.9 0 1.5 9.9 0 1.6 9.9 0 1.7 9.9 0 1.8 9.9 0 1.9 9.9 0 2 9.9 0 2.1 9.9 0 2.2 9.9 0 2.3 9.9 0 2.4 9.9 0 2.5 9.9 0 2.6 9.9 0 2.7 9.9 0 2.8 9.9 0 2.9 9.9 0 3 9.9 0 3.1 9.9 0 3.2 9.9 0 3.3 9.9 0 3.4 9.9 0 3.5 9.9 0 3.6 9.9 0 3.7 9.9 0 3.8 9.9 0 3.9 9.9 0 4 9.9 0 4.1 9.9 0 4.2 9.9 0 4.3 9.9 0 4.4 9.9 0 4.5 9.9 0 4.6 9.9 0 4.7 9.9 0 4.8 9.9 0 4.9 9.9 0 5 9.9 0 5.1 9.9 0 5.2 9.9 0 5.3 9.9 0 5.4 9.9 0 5.5 9.9 0 5.6 9.9 0 5.7 9.9 0 5.8 9.9 0 5.9 9.9 0 6 9.9 0 6.1 9.9 0 6.2 9.9 0 6.3 9.9 0 6.4 9.9 0 6.5 9.9 0 6.6 9.9 0 6.7 9.9 0 6.8 9.9 0 6.9 9.9 0 7 9.9 0 7.1 9.9 0 7.2 9.9 0 7.3 9.9 0 7.4 9.9 0 7.5 9.9 0 7.6 9.9 0 7.7 9.9 0 7.8 9.9 0 7.9 9.9 0 8 9.9 0 8.1 9.9 0 8.2 9.9 0 8.3 9.9 0 8.4 9.9 0 8.5 9.9 0 8.6 9.9 0 8.7 9.9 0 8.8 9.9 0 8.9 9.9 0 9 9.9 0 9.1 9.9 0 9.2 9.9 0 9.3 9.9 0 9.4 9.9 0 9.5 9.9 0 9.6 9.9 0 9.7 9.9 0 9.8 9.9 0 9.9 9.9 0 10 9.9 0 0 10 0 0.1 10 0 0.2 10 0 0.3 10 0 0.4 10 0 0.5 10 0 0.6 10 0 0.7 10 0 0.8 10 0 0.9 10 0 1 10 0 1.1 10 0 1.2 10 0 1.3 10 0 1.4 10 0 1.5 10 0 1.6 10 0 1.7 10 0 1.8 10 0 1.9 10 0 2 10 0 2.1 10 0 2.2 10 0 2.3 10 0 2.4 10 0 2.5 10 0 2.6 10 0 2.7 10 0 2.8 10 0 2.9 10 0 3 10 0 3.1 10 0 3.2 10 0 3.3 10 0 3.4 10 0 3.5 10 0 3.6 10 0 3.7 10 0 3.8 10 0 3.9 10 0 4 10 0 4.1 10 0 4.2 10 0 4.3 10 0 4.4 10 0 4.5 10 0 4.6 10 0 4.7 10 0 4.8 10 0 4.9 10 0 5 10 0 5.1 10 0 5.2 10 0 5.3 10 0 5.4 10 0 5.5 10 0 5.6 10 0 5.7 10 0 5.8 10 0 5.9 10 0 6 10 0 6.1 10 0 6.2 10 0 6.3 10 0 6.4 10 0 6.5 10 0 6.6 10 0 6.7 10 0 6.8 10 0 6.9 10 0 7 10 0 7.1 10 0 7.2 10 0 7.3 10 0 7.4 10 0 7.5 10 0 7.6 10 0 7.7 10 0 7.8 10 0 7.9 10 0 8 10 0 8.1 10 0 8.2 10 0 8.3 10 0 8.4 10 0 8.5 10 0 8.6 10 0 8.7 10 0 8.8 10 0 8.9 10 0 9 10 0 9.1 10 0 9.2 10 0 9.3 10 0 9.4 10 0 9.5 10 0 9.6 10 0 9.7 10 0 9.8 10 0 9.9 10 0 10 10 0 
</DataArray>
</Points> 
</Piece> 
</StructuredGrid> 
</VTKFile> 
