<?xml version="1.0"?> 
<VTKFile type="StructuredGrid" version="0.1"> 
<StructuredGrid WholeExtent="0 100 0 100 0 0"> 
<Piece Extent="0 100 0 100 0 0"> 
<PointData>
<DataArray type="Float32" Name="value" format="ascii" NumberOfComponents="1"> 
90.5916 90.5921 90.5942 90.5972 90.6008 90.6045 90.6079 90.6104 90.6111 90.6088 90.6025 90.591 90.5731 90.5477 90.5134 90.4687 90.4121 90.3421 90.2571 90.1556 90.0361 89.8972 89.7374 89.5553 89.3494 89.1184 88.8609 88.5758 88.2624 87.9196 87.5467 87.1426 86.7066 86.2382 85.7375 85.2042 84.6384 84.0399 83.4087 82.7451 82.0499 81.3238 80.5677 79.7823 78.9684 78.127 77.2595 76.3675 75.4525 74.5158 73.5591 72.5839 71.5919 70.5852 69.5656 68.535 67.4953 66.4484 65.3962 64.3408 63.2841 62.2281 61.1747 60.1259 59.0837 58.0496 57.0256 56.0133 55.0146 54.0312 53.0648 52.1167 51.1885 50.2814 49.3968 48.5363 47.701 46.8921 46.1104 45.3571 44.6331 43.9393 43.2768 42.6462 42.0482 41.4833 40.9523 40.4556 39.9939 39.5676 39.1771 38.8227 38.5048 38.2235 37.9793 37.7724 37.6029 37.4708 37.3764 37.3198 37.3009 90.5921 90.5927 90.5948 90.598 90.6017 90.6056 90.6092 90.612 90.613 90.6111 90.6052 90.5941 90.5767 90.5518 90.518 90.4739 90.4179 90.3485 90.2642 90.1633 90.0446 89.9063 89.7473 89.5659 89.3608 89.1306 88.8738 88.5895 88.2769 87.9349 87.5627 87.1593 86.724 86.2564 85.7563 85.2237 84.6586 84.0607 83.4301 82.767 82.0723 81.3467 80.591 79.806 78.9924 78.1514 77.2842 76.3924 75.4775 74.541 73.5843 72.6091 71.6172 70.6104 69.5907 68.56 67.5201 66.473 65.4206 64.3649 63.3079 62.2515 61.1977 60.1485 59.1058 58.0713 57.0468 56.0341 55.0349 54.051 53.084 52.1355 51.2067 50.299 49.414 48.5529 47.7171 46.9076 46.1255 45.3717 44.6472 43.953 43.29 42.659 42.0605 41.4952 40.9638 40.4667 40.0047 39.5781 39.1874 38.8327 38.5145 38.2331 37.9887 37.7816 37.6119 37.4798 37.3854 37.3286 37.3097 90.5942 90.5948 90.5971 90.6006 90.6048 90.6093 90.6136 90.6172 90.6192 90.6184 90.6136 90.6038 90.5878 90.5644 90.5323 90.4899 90.4357 90.3682 90.2858 90.187 90.0703 89.9342 89.7774 89.5982 89.3954 89.1674 88.913 88.631 88.3206 87.9809 87.611 87.2099 86.7767 86.3112 85.8132 85.2826 84.7194 84.1233 83.4944 82.833 82.1398 81.4156 80.6612 79.8774 79.0649 78.2247 77.3583 76.4671 75.5528 74.6166 73.6602 72.6851 71.6931 70.6862 69.6661 68.635 67.5945 66.5468 65.4936 64.4371 63.3791 62.3216 61.2667 60.2163 59.1723 58.1365 57.1106 56.0964 55.0957 54.1103 53.1417 52.1916 51.2612 50.352 49.4653 48.6026 47.7653 46.9543 46.1707 45.4154 44.6894 43.9938 43.3294 42.6971 42.0974 41.5309 40.9983 40.5002 40.0372 39.6097 39.2181 38.8627 38.5437 38.2617 38.0167 37.8092 37.6392 37.5068 37.4121 37.3552 37.3363 90.5972 90.598 90.6006 90.6046 90.6096 90.615 90.6205 90.6255 90.6291 90.63 90.6273 90.6197 90.606 90.5851 90.5557 90.5161 90.4649 90.4006 90.3214 90.226 90.1128 89.9803 89.8271 89.6517 89.4526 89.2285 88.9779 88.6997 88.3932 88.0573 87.6911 87.2937 86.8642 86.4023 85.9077 85.3805 84.8204 84.2274 83.6014 82.9427 82.2521 81.5303 80.778 79.9962 79.1854 78.3467 77.4816 76.5916 75.678 74.7425 73.7865 72.8116 71.8195 70.8123 69.7918 68.7599 67.7186 66.6698 65.6154 64.5574 63.4978 62.4386 61.3818 60.3294 59.2832 58.2451 57.2168 56.2002 55.197 54.2091 53.238 52.2852 51.3521 50.4403 49.551 48.6856 47.8457 47.0321 46.2459 45.4882 44.7598 44.0618 43.3952 42.7607 42.1589 41.5905 41.056 40.5561 40.0914 39.6623 39.2693 38.9126 38.5925 38.3094 38.0635 37.8552 37.6846 37.5517 37.4566 37.3995 37.3805 90.6008 90.6017 90.6048 90.6096 90.6156 90.6224 90.6295 90.6364 90.6422 90.6457 90.6457 90.6411 90.6307 90.6134 90.5877 90.5521 90.5051 90.4451 90.3706 90.2799 90.1715 90.044 89.8959 89.7258 89.532 89.3132 89.0679 88.7952 88.494 88.1635 87.8026 87.4104 86.986 86.529 86.0393 85.5167 84.9612 84.3725 83.7506 83.0958 82.4087 81.6902 80.9411 80.162 79.3537 78.5172 77.6539 76.7654 75.8531 74.9185 73.9631 72.9884 71.9963 70.9888 69.9676 68.9348 67.8923 66.8419 65.7858 64.7258 63.6639 62.6023 61.5429 60.4876 59.4385 58.3972 57.3657 56.3457 55.339 54.3475 53.3727 52.4163 51.4796 50.564 49.671 48.802 47.9583 47.1411 46.3514 45.5902 44.8584 44.1572 43.4874 42.8498 42.2451 41.6739 41.1367 40.6343 40.1673 39.7361 39.341 38.9825 38.6608 38.3762 38.1291 37.9197 37.7481 37.6145 37.519 37.4616 37.4425 90.6045 90.6056 90.6093 90.615 90.6224 90.6309 90.6402 90.6496 90.6582 90.6649 90.6684 90.6677 90.6615 90.6486 90.6278 90.5973 90.5557 90.5013 90.4326 90.348 90.2459 90.1249 89.9833 89.8199 89.6329 89.4209 89.1826 88.9168 88.6225 88.2989 87.9448 87.5593 87.1415 86.6909 86.2075 85.691 85.1413 84.5582 83.9416 83.2917 82.6094 81.8952 81.15 80.3745 79.5695 78.7358 77.875 76.9885 76.0778 75.1444 74.1898 73.2155 72.2234 71.2154 70.1935 69.1595 68.1154 67.0632 66.0048 64.9423 63.8776 62.8128 61.75 60.6912 59.6382 58.5929 57.5572 56.5328 55.5217 54.5256 53.5462 52.585 51.6435 50.7232 49.8254 48.9516 48.1033 47.2815 46.4872 45.7215 44.9854 44.2799 43.606 42.9645 42.356 41.7812 41.2406 40.735 40.265 39.831 39.4334 39.0725 38.7486 38.4621 38.2134 38.0026 37.8299 37.6954 37.5993 37.5415 37.5223 90.6079 90.6092 90.6136 90.6205 90.6295 90.6402 90.6519 90.6644 90.6764 90.687 90.6949 90.6989 90.6978 90.6905 90.6755 90.6512 90.6162 90.5686 90.5071 90.4299 90.3354 90.2222 90.0888 89.9334 89.7548 89.5512 89.3213 89.064 88.7782 88.463 88.1172 87.74 87.3303 86.8876 86.4119 85.9028 85.3603 84.784 84.1739 83.5302 82.8536 82.1448 81.4045 80.6335 79.8324 79.0023 78.1445 77.2606 76.3519 75.42 74.4664 73.4927 72.5006 71.4922 70.4693 69.4339 68.388 67.3335 66.2724 65.2068 64.1387 63.0702 62.0033 60.94 59.8824 58.8322 57.7913 56.7617 55.7451 54.7434 53.7583 52.7914 51.8441 50.9179 50.0143 49.1348 48.2807 47.4532 46.6533 45.8821 45.1407 44.43 43.7511 43.1048 42.4917 41.9125 41.3678 40.8582 40.3845 39.9471 39.5463 39.1825 38.8561 38.5673 38.3165 38.104 37.93 37.7944 37.6974 37.6392 37.6198 90.6104 90.612 90.6172 90.6255 90.6364 90.6496 90.6644 90.6803 90.6965 90.7116 90.7246 90.7341 90.7391 90.7382 90.7302 90.7133 90.6859 90.6465 90.5933 90.5249 90.4395 90.3355 90.2116 90.0659 89.8971 89.7034 89.4836 89.2363 88.9605 88.6552 88.3194 87.9519 87.5518 87.1185 86.6519 86.1517 85.6176 85.0495 84.4472 83.8108 83.141 82.4386 81.7042 80.9386 80.1423 79.3164 78.4623 77.5814 76.6752 75.7452 74.7929 73.8198 72.8278 71.8189 70.795 69.758 68.71 67.6529 66.5886 65.5194 64.4473 63.3743 62.3026 61.2342 60.1711 59.1151 58.0683 57.0324 56.0093 55.001 54.0093 53.0356 52.0814 51.1483 50.2378 49.3514 48.4905 47.6563 46.8499 46.0722 45.3245 44.6077 43.9228 43.2708 42.6522 42.0678 41.5181 41.0039 40.5258 40.0843 39.6798 39.3126 38.9831 38.6916 38.4385 38.224 38.0482 37.9114 37.8135 37.7547 37.7351 90.6111 90.613 90.6192 90.6291 90.6422 90.6582 90.6764 90.6965 90.7173 90.7377 90.7565 90.7724 90.7843 90.7909 90.7908 90.7823 90.7639 90.7337 90.6903 90.6319 90.5569 90.4636 90.3506 90.2161 90.0586 89.8764 89.6681 89.4324 89.1682 88.8745 88.5501 88.1939 87.8049 87.3825 86.9265 86.4365 85.9124 85.3538 84.7604 84.1326 83.4709 82.7759 82.0484 81.289 80.4984 79.6775 78.8276 77.9504 77.0472 76.1194 75.1687 74.1965 73.2047 72.1953 71.1703 70.1316 69.0812 68.0211 66.9534 65.8801 64.8034 63.7254 62.6481 61.5738 60.5044 59.4418 58.388 57.345 56.3145 55.2987 54.2992 53.3176 52.3555 51.4145 50.4961 49.6017 48.733 47.8911 47.077 46.2919 45.5368 44.8129 44.1213 43.4626 42.8377 42.2472 41.6918 41.1722 40.6891 40.2429 39.8341 39.463 39.1299 38.8352 38.5794 38.3625 38.1849 38.0465 37.9475 37.8881 37.8683 90.6088 90.6111 90.6184 90.63 90.6457 90.6649 90.687 90.7116 90.7377 90.764 90.7894 90.8125 90.8322 90.8472 90.8561 90.8571 90.8486 90.829 90.7965 90.7495 90.6862 90.6051 90.5044 90.3825 90.2378 90.0687 89.8734 89.6509 89.3999 89.1193 88.8079 88.4646 88.0882 87.6782 87.2343 86.7561 86.2433 85.6955 85.1126 84.4945 83.842 83.1557 82.4361 81.684 80.8999 80.0848 79.24 78.367 77.4673 76.5423 75.5935 74.6224 73.631 72.6212 71.5951 70.5545 69.5015 68.4382 67.3665 66.2887 65.2069 64.1233 63.0399 61.9589 60.8824 59.8124 58.7508 57.6997 56.6609 55.6364 54.6282 53.6378 52.6667 51.7167 50.7893 49.886 49.0083 48.1576 47.3349 46.5413 45.778 45.046 44.3466 43.6804 43.0483 42.451 41.8891 41.3633 40.8744 40.4229 40.0092 39.6336 39.2965 38.9982 38.7392 38.5197 38.3399 38.1998 38.0996 38.0394 38.0194 90.6025 90.6052 90.6136 90.6273 90.6457 90.6684 90.6949 90.7246 90.7565 90.7894 90.822 90.8531 90.8815 90.9058 90.9246 90.9362 90.9389 90.9309 90.9106 90.8762 90.8261 90.7584 90.6715 90.5638 90.4334 90.2787 90.0982 89.8904 89.6541 89.3882 89.0915 88.7626 88.4005 88.0044 87.5741 87.1091 86.6091 86.0736 85.5024 84.8955 84.2534 83.5769 82.8664 82.1225 81.346 80.5375 79.6985 78.8305 77.9349 77.0132 76.0667 75.0971 74.1063 73.0962 72.069 71.0265 69.9708 68.904 67.8281 66.7454 65.658 64.5681 63.4779 62.3896 61.3053 60.227 59.1568 58.0966 57.0485 56.0145 54.9966 53.9962 53.0152 52.0551 51.1176 50.2043 49.3167 48.4561 47.6237 46.8206 46.048 45.3071 44.5989 43.9243 43.2842 42.6791 42.1099 41.5773 41.0819 40.6244 40.2052 39.8245 39.4829 39.1806 38.9181 38.6956 38.5133 38.3713 38.2698 38.2088 38.1885 90.591 90.5941 90.6038 90.6197 90.6411 90.6677 90.6989 90.7341 90.7724 90.8125 90.8531 90.893 90.9308 90.9654 90.9951 91.0183 91.0333 91.0382 91.0312 91.0108 90.975 90.9222 90.8505 90.7583 90.6438 90.5052 90.3408 90.1493 89.9294 89.6799 89.3993 89.0865 88.7402 88.3597 87.9446 87.4943 87.0086 86.4869 85.9288 85.3343 84.7041 84.0385 83.3383 82.6039 81.8358 81.0349 80.2026 79.3403 78.4495 77.5316 76.5879 75.6202 74.6302 73.6201 72.5918 71.5474 70.4889 69.4184 68.338 67.2499 66.1565 65.0599 63.9623 62.866 61.7732 60.6858 59.6061 58.536 57.4777 56.4332 55.4045 54.3932 53.4012 52.43 51.4813 50.5569 49.6583 48.7869 47.9437 47.1301 46.3472 45.5962 44.8784 44.1945 43.5454 42.9318 42.3545 41.8142 41.3117 40.8476 40.4222 40.036 39.6893 39.3825 39.1161 38.8903 38.7053 38.5612 38.4581 38.3962 38.3756 90.5731 90.5767 90.5878 90.606 90.6307 90.6615 90.6978 90.7391 90.7843 90.8322 90.8815 90.9308 90.979 91.0247 91.0663 91.1021 91.1304 91.1492 91.1569 91.1516 91.1316 91.095 91.04 90.9648 90.8676 90.7465 90.5999 90.4263 90.2244 89.9927 89.73 89.4349 89.106 88.7427 88.3443 87.9105 87.4406 86.9341 86.3906 85.81 85.1929 84.5397 83.8509 83.127 82.3685 81.5763 80.7515 79.8958 79.0105 78.097 77.1567 76.1912 75.2024 74.1924 73.1633 72.117 71.0556 69.9813 68.8961 67.8024 66.7025 65.5986 64.4931 63.3882 62.2861 61.1889 60.0989 59.018 57.9486 56.8926 55.8521 54.829 53.8248 52.8415 51.8806 50.944 50.0334 49.15 48.295 47.4699 46.6757 45.9137 45.1852 44.4911 43.8322 43.2092 42.623 42.0743 41.5639 41.0925 40.6603 40.268 39.9157 39.604 39.3333 39.1039 38.9158 38.7694 38.6646 38.6017 38.5808 90.5477 90.5518 90.5644 90.5851 90.6134 90.6486 90.6905 90.7382 90.7909 90.8472 90.9058 90.9654 91.0247 91.0823 91.1368 91.1862 91.2289 91.2628 91.2863 91.2974 91.2944 91.2753 91.2384 91.1816 91.1032 91.0013 90.874 90.7199 90.5375 90.3254 90.0822 89.8064 89.4966 89.1521 88.7721 88.3562 87.9037 87.4141 86.8867 86.3215 85.7189 85.0793 84.4033 83.6911 82.9434 82.1608 81.3446 80.4963 79.6172 78.7088 77.7725 76.8098 75.8226 74.813 73.7832 72.7351 71.6708 70.5925 69.5024 68.4028 67.296 66.1845 65.0704 63.9563 62.8442 61.7365 60.6353 59.5428 58.4613 57.3929 56.3397 55.3036 54.2864 53.2898 52.3157 51.3659 50.4421 49.5457 48.6779 47.8401 47.0336 46.2597 45.5196 44.8143 44.1447 43.5114 42.9155 42.3576 41.8387 41.3592 40.9197 40.5206 40.1623 39.8452 39.5698 39.3364 39.1451 38.9961 38.8895 38.8255 38.8042 90.5134 90.518 90.5323 90.5557 90.5877 90.6278 90.6755 90.7302 90.7908 90.8561 90.9246 90.9951 91.0663 91.1368 91.205 91.269 91.3271 91.3772 91.4176 91.4464 91.4617 91.4615 91.4439 91.407 91.3489 91.2676 91.1612 91.0281 90.8669 90.676 90.4539 90.1991 89.9102 89.5861 89.2262 88.8299 88.3964 87.9252 87.4154 86.8671 86.2805 85.6561 84.9941 84.295 83.5592 82.7873 81.9807 81.1408 80.2689 79.3664 78.4347 77.4753 76.4902 75.4814 74.4511 73.4014 72.3343 71.252 70.1568 69.051 67.9371 66.8174 65.6944 64.5703 63.4477 62.3286 61.2155 60.1106 59.0161 57.9344 56.8676 55.8175 54.7862 53.7753 52.7869 51.8228 50.8848 49.9742 49.0926 48.2412 47.4213 46.6344 45.8817 45.1643 44.483 43.8387 43.2322 42.6644 42.1361 41.648 41.2005 40.7941 40.4292 40.1062 39.8257 39.5879 39.3931 39.2413 39.1327 39.0675 39.0458 90.4687 90.4739 90.4899 90.5161 90.5521 90.5973 90.6512 90.7133 90.7823 90.8571 90.9362 91.0183 91.1021 91.1862 91.269 91.3486 91.423 91.4904 91.5489 91.5965 91.6313 91.6513 91.6545 91.6389 91.6024 91.5432 91.4592 91.3488 91.2104 91.0423 90.843 90.6109 90.3444 90.0425 89.7044 89.3294 88.9167 88.4655 87.975 87.4451 86.8761 86.2682 85.6218 84.9371 84.2145 83.4547 82.6588 81.8283 80.9645 80.0688 79.1424 78.187 77.2045 76.197 75.1666 74.1155 73.0458 71.9595 70.8591 69.747 68.6256 67.4975 66.365 65.2306 64.0967 62.9657 61.84 60.7218 59.6135 58.5175 57.4361 56.3711 55.3246 54.2984 53.2946 52.3151 51.3618 50.4361 49.5395 48.6733 47.8391 47.0382 46.272 45.5415 44.8476 44.1913 43.5734 42.9949 42.4565 41.959 41.5028 41.0885 40.7165 40.3872 40.1011 39.8586 39.6599 39.5051 39.3944 39.3279 39.3058 90.4121 90.4179 90.4357 90.4649 90.5051 90.5557 90.6162 90.6859 90.7639 90.8486 90.9389 91.0333 91.1304 91.2289 91.3271 91.423 91.5148 91.6005 91.678 91.7456 91.8011 91.8425 91.8678 91.8749 91.8616 91.8259 91.7659 91.6797 91.5657 91.4221 91.2473 91.0395 90.7972 90.5192 90.2046 89.8526 89.4623 89.0329 88.5634 88.0537 87.5038 86.9141 86.2847 85.6159 84.9079 84.1614 83.3775 82.5576 81.703 80.815 79.8949 78.9443 77.965 76.9593 75.9293 74.8771 73.8049 72.7148 71.6092 70.4907 69.3617 68.2248 67.0825 65.9373 64.7916 63.648 62.5089 61.3766 60.2537 59.1426 58.0456 56.9647 55.902 54.8595 53.8393 52.8433 51.8736 50.9316 50.019 49.137 48.2874 47.4714 46.6906 45.9461 45.2387 44.5695 43.9394 43.3492 42.8 42.2924 41.8269 41.4041 41.0243 40.6882 40.3962 40.1487 39.9458 39.7878 39.6747 39.6068 39.5842 90.3421 90.3485 90.3682 90.4006 90.4451 90.5013 90.5686 90.6465 90.7337 90.829 90.9309 91.0382 91.1492 91.2628 91.3772 91.4904 91.6005 91.7053 91.8031 91.8917 91.9691 92.0332 92.0818 92.1128 92.1241 92.1135 92.0789 92.0185 91.9305 91.813 91.6643 91.4827 91.2663 91.0139 90.7247 90.3975 90.0314 89.6255 89.1788 88.6909 88.1619 87.5919 86.9812 86.3299 85.638 84.9062 84.1356 83.3276 82.4833 81.6041 80.6913 79.7462 78.771 77.7678 76.7387 75.6859 74.6115 73.5177 72.4071 71.2821 70.1454 68.9994 67.847 66.6905 65.5326 64.3757 63.2225 62.0755 60.9371 59.81 58.6965 57.5987 56.5188 55.459 54.4212 53.4077 52.4205 51.4612 50.5314 49.6326 48.7664 47.9344 47.138 46.3784 45.6566 44.9735 44.3303 43.7277 43.1668 42.6484 42.1729 41.7409 41.353 41.0095 40.7111 40.4581 40.2508 40.0893 39.9738 39.9044 39.8813 90.2571 90.2642 90.2858 90.3214 90.3706 90.4326 90.5071 90.5933 90.6903 90.7965 90.9106 91.0312 91.1569 91.2863 91.4176 91.5489 91.678 91.8031 91.922 92.0327 92.1331 92.221 92.2943 92.3506 92.3878 92.4037 92.396 92.3629 92.3025 92.2128 92.092 91.9382 91.7495 91.5246 91.2624 90.9618 90.6218 90.2412 89.8191 89.3548 88.8485 88.3001 87.7097 87.0775 86.4033 85.6878 84.9319 84.137 83.3044 82.4352 81.5306 80.5922 79.6219 78.6218 77.5942 76.5413 75.4652 74.3681 73.2525 72.1211 70.9765 69.8215 68.6586 67.4904 66.3198 65.1492 63.9813 62.8187 61.6641 60.5201 59.3892 58.2735 57.1755 56.0972 55.0409 54.0088 53.003 52.0253 51.0772 50.1605 49.2767 48.4275 47.6144 46.8388 46.1015 45.4037 44.7464 44.1305 43.5572 43.0272 42.541 42.0993 41.7025 41.3512 41.046 40.7872 40.5751 40.4099 40.2917 40.2207 40.1971 90.1556 90.1633 90.187 90.226 90.2799 90.348 90.4299 90.5249 90.6319 90.7495 90.8762 91.0108 91.1516 91.2974 91.4464 91.5965 91.7456 91.8917 92.0327 92.1665 92.291 92.404 92.503 92.586 92.6504 92.6942 92.715 92.7107 92.6795 92.6192 92.528 92.4037 92.2445 92.0488 91.8156 91.5435 91.2314 90.8781 90.4824 90.0437 89.5618 89.0368 88.4686 87.8571 87.2024 86.5047 85.7651 84.9849 84.1652 83.3073 82.4122 81.4814 80.5169 79.5209 78.4956 77.4431 76.3657 75.2656 74.1453 73.0077 71.8553 70.691 69.5174 68.3373 67.1535 65.9686 64.7854 63.6066 62.435 61.2733 60.124 58.9897 57.8724 56.7747 55.6987 54.6469 53.6215 52.6242 51.6568 50.721 49.8186 48.9511 48.1203 47.3275 46.5738 45.8603 45.1879 44.5579 43.9713 43.429 42.9314 42.4793 42.0731 41.7135 41.4009 41.136 40.9188 40.7496 40.6286 40.5559 40.5316 90.0361 90.0446 90.0703 90.1128 90.1715 90.2459 90.3354 90.4395 90.5569 90.6862 90.8261 90.975 91.1316 91.2944 91.4617 91.6313 91.8011 91.9691 92.1331 92.291 92.4407 92.5797 92.7058 92.8166 92.9096 92.9827 93.0333 93.0595 93.059 93.0298 92.9698 92.8768 92.7489 92.5843 92.3819 92.1403 91.858 91.5339 91.1666 90.7553 90.2999 89.8001 89.256 88.6671 88.0336 87.3554 86.6338 85.8698 85.0646 84.2193 83.335 82.413 81.4554 80.4644 79.4421 78.3908 77.3127 76.2101 75.0855 73.9417 72.7816 71.608 70.4237 69.2314 68.034 66.8344 65.6353 64.4396 63.2503 62.07 60.9016 59.7475 58.6101 57.4919 56.3952 55.3226 54.2764 53.2585 52.2706 51.3147 50.3924 49.5056 48.656 47.8451 47.0738 46.3435 45.6553 45.0102 44.4095 43.854 43.3444 42.8812 42.465 42.0965 41.7762 41.5047 41.2821 41.1087 40.9846 40.91 40.8852 89.8972 89.9063 89.9342 89.9803 90.044 90.1249 90.2222 90.3355 90.4636 90.6051 90.7584 90.9222 91.095 91.2753 91.4615 91.6513 91.8425 92.0332 92.221 92.404 92.5797 92.7459 92.9001 93.0399 93.1628 93.2664 93.3484 93.4064 93.4382 93.4417 93.4146 93.3547 93.2598 93.1283 92.9585 92.7492 92.4988 92.2058 91.8689 91.4871 91.0601 90.5876 90.0694 89.5052 88.8947 88.238 87.5361 86.79 86.0009 85.1697 84.2976 83.3858 82.4363 81.4513 80.4331 79.3839 78.3058 77.2012 76.0727 74.9232 73.7556 72.5727 71.3775 70.1729 68.9616 67.7468 66.5314 65.3183 64.1105 62.9109 61.7225 60.5477 59.3892 58.2494 57.131 56.0366 54.9685 53.9287 52.9193 51.942 50.9988 50.0915 49.222 48.3918 47.602 46.854 46.1488 45.4878 44.8721 44.3026 43.7801 43.3052 42.8784 42.5005 42.172 41.8934 41.6651 41.4872 41.3598 41.2834 41.2579 89.7374 89.7473 89.7774 89.8271 89.8959 89.9833 90.0888 90.2116 90.3506 90.5044 90.6715 90.8505 91.04 91.2384 91.4439 91.6545 91.8678 92.0818 92.2943 92.503 92.7058 92.9001 93.0835 93.2534 93.4073 93.5428 93.6574 93.7487 93.8144 93.8521 93.8596 93.8344 93.7744 93.6776 93.5425 93.3675 93.1509 92.8911 92.5866 92.2364 91.8399 91.3968 90.9067 90.3691 89.7836 89.1503 88.47 87.7437 86.9724 86.1571 85.2987 84.3985 83.4585 82.4809 81.4678 80.4216 79.3444 78.2386 77.1068 75.952 74.7771 73.5852 72.3792 71.1621 69.9368 68.7065 67.4742 66.2431 65.0162 63.7966 62.5873 61.391 60.2103 59.048 57.9068 56.7894 55.6983 54.6356 53.6034 52.6036 51.6383 50.7094 49.8189 48.9683 48.1589 47.392 46.669 45.991 45.3594 44.7752 44.2391 43.7517 43.3136 42.9257 42.5885 42.3025 42.068 41.8853 41.7546 41.676 41.6499 89.5553 89.5659 89.5982 89.6517 89.7258 89.8199 89.9334 90.0659 90.2161 90.3825 90.5638 90.7583 90.9648 91.1816 91.407 91.6389 91.8749 92.1128 92.3506 92.586 92.8166 93.0399 93.2534 93.4545 93.6406 93.8092 93.9577 94.0836 94.1846 94.2581 94.3018 94.3131 94.2897 94.2296 94.131 93.9922 93.8115 93.587 93.317 93.0005 92.6367 92.2251 91.7652 91.2564 90.6981 90.0902 89.4336 88.7291 87.9775 87.1799 86.3371 85.4501 84.5211 83.5521 82.5455 81.5035 80.4282 79.322 78.1875 77.028 75.8463 74.6457 73.429 72.1993 70.9598 69.7138 68.4643 67.2146 65.968 64.7277 63.4967 62.278 61.0743 59.8885 58.7234 57.5818 56.4665 55.3797 54.3236 53.3001 52.3115 51.3598 50.4471 49.575 48.7449 47.9582 47.2162 46.5203 45.8719 45.2721 44.7215 44.2209 43.771 43.3724 43.0259 42.7321 42.4911 42.3034 42.169 42.0883 42.0614 89.3494 89.3608 89.3954 89.4526 89.532 89.6329 89.7548 89.8971 90.0586 90.2378 90.4334 90.6438 90.8676 91.1032 91.3489 91.6024 91.8616 92.1241 92.3878 92.6504 92.9096 93.1628 93.4073 93.6406 93.8599 94.0628 94.2464 94.4084 94.5461 94.6569 94.7383 94.7878 94.8028 94.7812 94.7211 94.6206 94.4777 94.2906 94.0574 93.7767 93.4479 93.0701 92.6427 92.1649 91.636 91.0558 90.425 89.7444 89.0147 88.2367 87.4112 86.5393 85.6229 84.6642 83.6655 82.6289 81.5566 80.4509 79.3147 78.1511 76.9632 75.7541 74.5269 73.2849 72.0311 70.7691 69.5021 68.2335 66.9666 65.7048 64.4514 63.2094 61.9817 60.7713 59.5813 58.4145 57.2739 56.1618 55.0804 54.0321 53.0189 52.0432 51.1072 50.2124 49.3605 48.5528 47.7909 47.0761 46.41 45.7937 45.2278 44.7132 44.2507 43.8408 43.4846 43.1824 42.9346 42.7415 42.6033 42.5202 42.4926 89.1184 89.1306 89.1674 89.2285 89.3132 89.4209 89.5512 89.7034 89.8764 90.0687 90.2787 90.5052 90.7465 91.0013 91.2676 91.5432 91.8259 92.1135 92.4037 92.6942 92.9827 93.2664 93.5428 93.8092 94.0628 94.3009 94.5209 94.7202 94.8959 95.0455 95.1663 95.2556 95.3108 95.3295 95.3099 95.2496 95.1468 94.9993 94.805 94.5625 94.2709 93.9292 93.5366 93.0923 92.5952 92.045 91.4423 90.7878 90.0821 89.3259 88.5198 87.6649 86.7629 85.8162 84.8269 83.7971 82.7292 81.6252 80.4882 79.3213 78.1277 76.9107 75.6734 74.4191 73.1511 71.8729 70.5881 69.3001 68.0124 66.7286 65.4521 64.1859 62.9333 61.6974 60.4813 59.2882 58.121 56.9824 55.8747 54.8001 53.7612 52.7603 51.7996 50.8811 50.0062 49.1765 48.3935 47.6589 46.9741 46.3402 45.7583 45.2289 44.753 44.3313 43.9646 43.6536 43.3986 43.1998 43.0576 42.9721 42.9437 88.8609 88.8738 88.913 88.9779 89.0679 89.1826 89.3213 89.4836 89.6681 89.8734 90.0982 90.3408 90.5999 90.874 91.1612 91.4592 91.7659 92.0789 92.396 92.715 93.0333 93.3484 93.6574 93.9577 94.2464 94.5209 94.7784 95.0161 95.2313 95.4211 95.5828 95.7135 95.8106 95.8716 95.8943 95.8764 95.8157 95.71 95.5569 95.3549 95.1029 94.7998 94.4446 94.036 93.5732 93.0556 92.4835 91.8575 91.1781 90.4459 89.6615 88.8255 87.94 87.0071 86.0289 85.0076 83.9454 82.8444 81.7076 80.5384 79.3399 78.1155 76.8685 75.6022 74.3201 73.0257 71.7229 70.4152 69.1062 67.7998 66.4993 65.2082 63.9298 62.6673 61.4241 60.2035 59.0087 57.8424 56.7069 55.605 54.539 53.5116 52.5251 51.5815 50.6825 49.8296 49.0246 48.269 47.5644 46.9122 46.3132 45.7683 45.2782 44.844 44.4664 44.1461 43.8834 43.6787 43.5321 43.4441 43.4148 88.5758 88.5895 88.631 88.6997 88.7952 88.9168 89.064 89.2363 89.4324 89.6509 89.8904 90.1493 90.4263 90.7199 91.0281 91.3488 91.6797 92.0185 92.3629 92.7107 93.0595 93.4064 93.7487 94.0836 94.4084 94.7202 95.0161 95.2935 95.5493 95.7806 95.9846 96.1584 96.2991 96.4041 96.4711 96.4975 96.4811 96.4193 96.3098 96.1507 95.9407 95.6787 95.3633 94.9932 94.5672 94.0847 93.5457 92.9508 92.3003 91.5946 90.8341 90.0195 89.1526 88.2355 87.2704 86.2593 85.2044 84.1078 82.9726 81.8021 80.5996 79.3687 78.1126 76.8346 75.5386 74.2281 72.9071 71.5795 70.2489 68.9192 67.5942 66.2774 64.9723 63.6823 62.4109 61.1617 59.938 58.7426 57.5783 56.4476 55.3533 54.298 53.2844 52.3146 51.3902 50.5129 49.6846 48.907 48.1817 47.5101 46.8931 46.3317 45.8268 45.3793 44.9901 44.66 44.3893 44.1782 44.0272 43.9364 43.9062 88.2624 88.2769 88.3206 88.3932 88.494 88.6225 88.7782 88.9605 89.1682 89.3999 89.6541 89.9294 90.2244 90.5375 90.8669 91.2104 91.5657 91.9305 92.3025 92.6795 93.059 93.4382 93.8144 94.1846 94.5461 94.8959 95.2313 95.5493 95.8468 96.1209 96.3686 96.5869 96.7728 96.9236 97.0367 97.1094 97.1393 97.1237 97.06 96.9462 96.7808 96.5624 96.2894 95.9605 95.5741 95.1294 94.6265 94.0654 93.4463 92.7697 92.0356 91.2448 90.3989 89.4999 88.55 87.5511 86.5053 85.4148 84.2826 83.1121 81.9069 80.6703 79.4058 78.1168 76.8072 75.4808 74.1417 72.7939 71.4413 70.088 68.7379 67.3946 66.0618 64.7433 63.4428 62.1638 60.91 59.6844 58.4897 57.329 56.205 55.1206 54.0786 53.0811 52.13 51.2272 50.3744 49.5735 48.8263 48.1343 47.4984 46.9197 46.3991 45.9376 45.5362 45.1957 44.9165 44.6988 44.543 44.4493 44.4182 87.9196 87.9349 87.9809 88.0573 88.1635 88.2989 88.463 88.6552 88.8745 89.1193 89.3882 89.6799 89.9927 90.3254 90.676 91.0423 91.4221 91.813 92.2128 92.6192 93.0298 93.4417 93.8521 94.2581 94.6569 95.0455 95.4211 95.7806 96.1209 96.439 96.7316 96.9958 97.2284 97.4266 97.5876 97.7086 97.7869 97.8196 97.804 97.738 97.6197 97.4475 97.2197 96.9347 96.5908 96.1869 95.7228 95.1984 94.6137 93.9688 93.2639 92.4995 91.6771 90.7988 89.8664 88.8818 87.8472 86.7647 85.6372 84.4682 83.2615 82.0203 80.7484 79.4491 78.1264 76.7844 75.4273 74.0593 72.6845 71.3071 69.9312 68.5608 67.1996 65.8517 64.5208 63.211 61.9259 60.6687 59.4425 58.2503 57.0953 55.9803 54.9084 53.882 52.9028 51.973 51.0945 50.2691 49.499 48.7854 48.1296 47.5326 46.9955 46.5192 46.105 45.7536 45.4654 45.2407 45.0798 44.9831 44.9509 87.5467 87.5627 87.611 87.6911 87.8026 87.9448 88.1172 88.3194 88.5501 88.8079 89.0915 89.3993 89.73 90.0822 90.4539 90.843 91.2473 91.6643 92.092 92.528 92.9698 93.4146 93.8596 94.3018 94.7383 95.1663 95.5828 95.9846 96.3686 96.7316 97.0704 97.3818 97.6626 97.9098 98.1204 98.2915 98.4202 98.5034 98.5383 98.5225 98.4539 98.3306 98.1507 97.9124 97.614 97.2539 96.8317 96.3471 95.7997 95.1895 94.5167 93.7816 92.9856 92.1306 91.2182 90.2504 89.2292 88.1567 87.0357 85.8701 84.6633 83.4189 82.1406 80.8319 79.4968 78.1396 76.7647 75.3765 73.9793 72.5776 71.1755 69.7772 68.3868 67.0084 65.6463 64.3044 62.9867 61.6968 60.4376 59.2127 58.0251 56.8781 55.775 54.718 53.7095 52.7513 51.8456 50.9945 50.2001 49.4639 48.7871 48.1709 47.6163 47.1246 46.6968 46.3339 46.0362 45.8041 45.6379 45.5381 45.5048 87.1426 87.1593 87.2099 87.2937 87.4104 87.5593 87.74 87.9519 88.1939 88.4646 88.7626 89.0865 89.4349 89.8064 90.1991 90.6109 91.0395 91.4827 91.9382 92.4037 92.8768 93.3547 93.8344 94.3131 94.7878 95.2556 95.7135 96.1584 96.5869 96.9958 97.3818 97.7416 98.0719 98.3696 98.6315 98.8546 99.0357 99.1716 99.2593 99.2962 99.2798 99.2082 99.0791 98.8905 98.6404 98.3273 97.9502 97.5085 97.0016 96.4294 95.7919 95.0891 94.3226 93.4937 92.6042 91.6558 90.6505 89.5901 88.4779 87.3174 86.1123 84.8662 83.5827 82.2656 80.9188 79.547 78.1547 76.7465 75.3269 73.9004 72.4716 71.0448 69.6244 68.2148 66.8202 65.4451 64.0937 62.7696 61.4763 60.2171 58.9955 57.8151 56.6791 55.5902 54.5507 53.5626 52.6284 51.7502 50.9303 50.1702 49.4714 48.8349 48.2621 47.7541 47.312 46.937 46.6293 46.3894 46.2176 46.1144 46.08 86.7066 86.724 86.7767 86.8642 86.986 87.1415 87.3303 87.5518 87.8049 88.0882 88.4005 88.7402 89.106 89.4966 89.9102 90.3444 90.7972 91.2663 91.7495 92.2445 92.7489 93.2598 93.7744 94.2897 94.8028 95.3108 95.8106 96.2991 96.7728 97.2284 97.6626 98.0719 98.453 98.8027 99.1176 99.3944 99.6298 99.8206 99.9634 100.055 100.094 100.077 100.001 99.8655 99.6669 99.4038 99.0751 98.6796 98.2167 97.6859 97.087 96.42 95.6862 94.8867 94.023 93.0968 92.1099 91.0643 89.963 88.8098 87.6082 86.3621 85.0749 83.7506 82.3931 81.0074 79.5981 78.1701 76.728 75.2766 73.8207 72.3648 70.9136 69.4718 68.0438 66.6344 65.2481 63.8885 62.5595 61.2646 60.0076 58.7922 57.6218 56.4994 55.4273 54.4079 53.4436 52.5369 51.6901 50.905 50.1829 49.5252 48.9332 48.408 47.951 47.5631 47.245 46.9968 46.8192 46.7124 46.6768 86.2382 86.2564 86.3112 86.4023 86.529 86.6909 86.8876 87.1185 87.3825 87.6782 88.0044 88.3597 88.7427 89.1521 89.5861 90.0425 90.5192 91.0139 91.5246 92.0488 92.5843 93.1283 93.6776 94.2296 94.7812 95.3295 95.8716 96.4041 96.9236 97.4266 97.9098 98.3696 98.8027 99.2056 99.5749 99.9071 100.199 100.446 100.647 100.796 100.893 100.933 100.914 100.833 100.69 100.48 100.203 99.8571 99.4416 98.9558 98.3992 97.7716 97.0739 96.3072 95.4726 94.5717 93.6062 92.5781 91.4904 90.3468 89.151 87.9066 86.6175 85.2872 83.9203 82.5215 81.0959 79.6484 78.1839 76.7076 75.2242 73.7387 72.256 70.7811 69.3187 67.8738 66.4512 65.0549 63.6888 62.3567 61.0627 59.8107 58.6043 57.4467 56.3404 55.288 54.2922 53.3554 52.4803 51.6689 50.9225 50.2424 49.6301 49.0869 48.6141 48.2128 47.8836 47.6268 47.4429 47.3323 47.2956 85.7375 85.7563 85.8132 85.9077 86.0393 86.2075 86.4119 86.6519 86.9265 87.2343 87.5741 87.9446 88.3443 88.7721 89.2262 89.7044 90.2046 90.7247 91.2624 91.8156 92.3819 92.9585 93.5425 94.131 94.7211 95.3099 95.8943 96.4711 97.0367 97.5876 98.1204 98.6315 99.1176 99.5749 100 100.389 100.739 101.045 101.305 101.515 101.671 101.771 101.812 101.79 101.704 101.551 101.329 101.037 100.673 100.236 99.7253 99.1409 98.4831 97.7527 96.9507 96.0784 95.1377 94.1302 93.0591 91.9279 90.7402 89.4997 88.2104 86.8759 85.5007 84.0901 82.6489 81.1825 79.696 78.1946 76.6836 75.168 73.6532 72.1443 70.6465 69.1651 67.7049 66.2704 64.8657 63.4949 62.1623 60.872 59.6279 58.4334 57.2913 56.2043 55.1752 54.2069 53.3021 52.4629 51.6908 50.9872 50.3536 49.7913 49.3019 48.8865 48.5456 48.2796 48.0892 47.9747 47.9366 85.2042 85.2237 85.2826 85.3805 85.5167 85.691 85.9028 86.1517 86.4365 86.7561 87.1091 87.4943 87.9105 88.3562 88.8299 89.3294 89.8526 90.3975 90.9618 91.5435 92.1403 92.7492 93.3675 93.9922 94.6206 95.2496 95.8764 96.4975 97.1094 97.7086 98.2915 98.8546 99.3944 99.9071 100.389 100.837 101.246 101.613 101.934 102.206 102.425 102.588 102.691 102.731 102.707 102.614 102.451 102.216 101.907 101.523 101.062 100.525 99.9108 99.2207 98.4551 97.6152 96.7027 95.7194 94.6681 93.5524 92.3755 91.1413 89.8538 88.5168 87.1352 85.7139 84.2583 82.7737 81.2655 79.7392 78.2004 76.6545 75.1069 73.5633 72.0291 70.5099 69.0108 67.5367 66.0919 64.6808 63.3078 61.9775 60.694 59.4609 58.2811 57.1578 56.0939 55.0924 54.1563 53.2879 52.4887 51.7603 51.1042 50.5219 50.015 49.5846 49.2313 48.9557 48.7583 48.6397 48.6002 84.6384 84.6586 84.7194 84.8204 84.9612 85.1413 85.3603 85.6176 85.9124 86.2433 86.6091 87.0086 87.4406 87.9037 88.3964 88.9167 89.4623 90.0314 90.6218 91.2314 91.858 92.4988 93.1509 93.8115 94.4777 95.1468 95.8157 96.4811 97.1393 97.7869 98.4202 99.0357 99.6298 100.199 100.739 101.246 101.716 102.145 102.53 102.866 103.15 103.378 103.547 103.653 103.693 103.664 103.564 103.39 103.14 102.812 102.406 101.92 101.354 100.708 99.9831 99.1796 98.2994 97.3441 96.3163 95.2193 94.0563 92.8311 91.5477 90.2105 88.8242 87.3939 85.9251 84.4231 82.8938 81.3429 79.7763 78.1997 76.619 75.0399 73.4683 71.9101 70.3709 68.8556 67.369 65.9158 64.5007 63.1286 61.8038 60.5303 59.3112 58.1498 57.0493 56.0129 55.0439 54.1448 53.3171 52.5625 51.8826 51.2792 50.7537 50.3075 49.9412 49.6555 49.4508 49.3277 49.2868 84.0399 84.0607 84.1233 84.2274 84.3725 84.5582 84.784 85.0495 85.3538 85.6955 86.0736 86.4869 86.9341 87.4141 87.9252 88.4655 89.0329 89.6255 90.2412 90.8781 91.5339 92.2058 92.8911 93.587 94.2906 94.9993 95.71 96.4193 97.1237 97.8196 98.5034 99.1716 99.8206 100.446 101.045 101.613 102.145 102.638 103.088 103.491 103.842 104.138 104.375 104.55 104.658 104.696 104.663 104.554 104.367 104.101 103.753 103.323 102.809 102.212 101.532 100.77 99.9258 99.0025 98.0021 96.9276 95.7818 94.5686 93.2923 91.9573 90.5684 89.1309 87.6503 86.1321 84.5825 83.0075 81.4132 79.8058 78.1913 76.5761 74.9661 73.3677 71.7868 70.2287 68.6986 67.2015 65.7425 64.3266 62.9588 61.643 60.3827 59.1814 58.0425 56.9696 55.966 55.0345 54.1767 53.3945 52.6895 52.0637 51.5186 51.0557 50.6757 50.3792 50.1668 50.0391 49.9967 83.4087 83.4301 83.4944 83.6014 83.7506 83.9416 84.1739 84.4472 84.7604 85.1126 85.5024 85.9288 86.3906 86.8867 87.4154 87.975 88.5634 89.1788 89.8191 90.4824 91.1666 91.8689 92.5866 93.317 94.0574 94.805 95.5569 96.3098 97.06 97.804 98.5383 99.2593 99.9634 100.647 101.305 101.934 102.53 103.088 103.605 104.076 104.497 104.863 105.171 105.417 105.597 105.707 105.743 105.703 105.584 105.384 105.099 104.729 104.273 103.73 103.1 102.383 101.58 100.693 99.7241 98.6759 97.5511 96.3536 95.0875 93.7575 92.3684 90.9258 89.435 87.902 86.333 84.7344 83.1128 81.4744 79.8259 78.1738 76.5246 74.8847 73.2606 71.658 70.0824 68.5395 67.0346 65.5731 64.1603 62.8003 61.4969 60.2538 59.0748 57.9635 56.9236 55.9579 55.0684 54.257 53.5255 52.876 52.3102 51.8297 51.4353 51.1274 50.9069 50.7743 50.7303 82.7451 82.767 82.833 82.9427 83.0958 83.2917 83.5302 83.8108 84.1326 84.4945 84.8955 85.3343 85.81 86.3215 86.8671 87.4451 88.0537 88.6909 89.3548 90.0437 90.7553 91.4871 92.2364 93.0005 93.7767 94.5625 95.3549 96.1507 96.9462 97.738 98.5225 99.2962 100.055 100.796 101.515 102.206 102.866 103.491 104.076 104.617 105.109 105.549 105.931 106.251 106.505 106.69 106.8 106.834 106.787 106.656 106.44 106.136 105.742 105.258 104.682 104.016 103.259 102.413 101.48 100.463 99.3633 98.1853 96.9332 95.6114 94.2249 92.7794 91.2804 89.734 88.1469 86.5257 84.877 83.2078 81.5249 79.8354 78.1459 76.4634 74.7946 73.1457 71.5229 69.9321 68.3793 66.8702 65.4102 64.004 62.6555 61.3686 60.1474 58.9958 57.9176 56.916 55.993 55.1508 54.3913 53.7167 53.1291 52.63 52.2203 51.9005 51.6714 51.5336 51.4878 82.0499 82.0723 82.1398 82.2521 82.4087 82.6094 82.8536 83.141 83.4709 83.842 84.2534 84.7041 85.1929 85.7189 86.2805 86.8761 87.5038 88.1619 88.8485 89.5618 90.2999 91.0601 91.8399 92.6367 93.4479 94.2709 95.1029 95.9407 96.7808 97.6197 98.4539 99.2798 100.094 100.893 101.671 102.425 103.15 103.842 104.497 105.109 105.675 106.189 106.648 107.045 107.377 107.64 107.829 107.94 107.969 107.914 107.771 107.537 107.211 106.791 106.275 105.665 104.96 104.161 103.269 102.287 101.217 100.063 98.8289 97.5189 96.1382 94.6924 93.1876 91.6298 90.026 88.383 86.7079 85.0081 83.2907 81.5632 79.8328 78.1066 76.3917 74.695 73.023 71.3825 69.7797 68.2206 66.7113 65.2565 63.8606 62.5277 61.2621 60.0679 58.9495 57.9099 56.9516 56.0768 55.2877 54.5867 53.9759 53.4572 53.0312 52.6988 52.4607 52.3174 52.2697 81.3238 81.3467 81.4156 81.5303 81.6902 81.8952 82.1448 82.4386 82.7759 83.1557 83.5769 84.0385 84.5397 85.0793 85.6561 86.2682 86.9141 87.5919 88.3001 89.0368 89.8001 90.5876 91.3968 92.2251 93.0701 93.9292 94.7998 95.6787 96.5624 97.4475 98.3306 99.2082 100.077 100.933 101.771 102.588 103.378 104.138 104.863 105.549 106.189 106.781 107.317 107.795 108.208 108.553 108.823 109.016 109.127 109.151 109.086 108.928 108.675 108.325 107.876 107.328 106.68 105.933 105.087 104.146 103.112 101.986 100.774 99.48 98.1086 96.6658 95.1576 93.5906 91.9718 90.3084 88.6077 86.8775 85.1256 83.3599 81.5878 79.817 78.0549 76.3088 74.586 72.8937 71.2386 69.6272 68.0661 66.5603 65.1144 63.7329 62.4204 61.1813 60.0203 58.9407 57.9451 57.0359 56.2156 55.4866 54.8513 54.3118 53.8687 53.5229 53.2751 53.1261 53.0765 80.5677 80.591 80.6612 80.778 80.9411 81.15 81.4045 81.7042 82.0484 82.4361 82.8664 83.3383 83.8509 84.4033 84.9941 85.6218 86.2847 86.9812 87.7097 88.4686 89.256 90.0694 90.9067 91.7652 92.6427 93.5366 94.4446 95.3633 96.2894 97.2197 98.1507 99.0791 100.001 100.914 101.812 102.691 103.547 104.375 105.171 105.931 106.648 107.317 107.935 108.495 108.992 109.422 109.778 110.057 110.253 110.362 110.38 110.304 110.13 109.855 109.479 108.999 108.414 107.726 106.933 106.039 105.045 103.953 102.769 101.495 100.136 98.7001 97.1917 95.618 93.9862 92.3038 90.5785 88.8186 87.0324 85.2282 83.4139 81.5975 79.787 77.9902 76.2149 74.4688 72.7591 71.093 69.4773 67.9177 66.419 64.9862 63.624 62.3374 61.1313 60.0094 58.9744 58.0289 57.1756 56.4171 55.756 55.1944 54.7332 54.3733 54.1153 53.9601 53.9084 79.7823 79.806 79.8774 79.9962 80.162 80.3745 80.6335 80.9386 81.289 81.684 82.1225 82.6039 83.127 83.6911 84.295 84.9371 85.6159 86.3299 87.0775 87.8571 88.6671 89.5052 90.3691 91.2564 92.1649 93.0923 94.036 94.9932 95.9605 96.9347 97.9124 98.8905 99.8655 100.833 101.79 102.731 103.653 104.55 105.417 106.251 107.045 107.795 108.495 109.14 109.723 110.241 110.687 111.055 111.341 111.54 111.647 111.658 111.569 111.377 111.079 110.674 110.16 109.536 108.803 107.962 107.015 105.963 104.811 103.562 102.222 100.796 99.2909 97.7134 96.0711 94.3717 92.6233 90.8346 89.0144 87.1714 85.3141 83.4512 81.5912 79.7423 77.9128 76.1109 74.3443 72.6207 70.9477 69.3312 67.7767 66.2894 64.8746 63.5376 62.2838 61.1171 60.0405 59.0567 58.1686 57.3789 56.6906 56.1057 55.6253 55.2503 54.9814 54.8197 54.766 78.9684 78.9924 79.0649 79.1854 79.3537 79.5695 79.8324 80.1423 80.4984 80.8999 81.346 81.8358 82.3685 82.9434 83.5592 84.2145 84.9079 85.638 86.4033 87.2024 88.0336 88.8947 89.7836 90.6981 91.636 92.5952 93.5732 94.5672 95.5741 96.5908 97.614 98.6404 99.6669 100.69 101.704 102.707 103.693 104.658 105.597 106.505 107.377 108.208 108.992 109.723 110.396 111.005 111.543 112.005 112.386 112.679 112.88 112.984 112.986 112.883 112.671 112.348 111.911 111.36 110.694 109.913 109.019 108.013 106.9 105.682 104.365 102.954 101.456 99.8785 98.2285 96.5144 94.7448 92.9286 91.0748 89.1927 87.2916 85.381 83.4704 81.5682 79.683 77.8232 75.9971 74.2132 72.4797 70.8032 69.1895 67.6444 66.1737 64.7833 63.4789 62.2649 61.1444 60.1202 59.1954 58.3729 57.6557 57.0462 56.5454 56.1544 55.8741 55.7055 55.6495 78.127 78.1514 78.2247 78.3467 78.5172 78.7358 79.0023 79.3164 79.6775 80.0848 80.5375 81.0349 81.5763 82.1608 82.7873 83.4547 84.1614 84.9062 85.6878 86.5047 87.3554 88.238 89.1503 90.0902 91.0558 92.045 93.0556 94.0847 95.1294 96.1869 97.2539 98.3273 99.4038 100.48 101.551 102.614 103.664 104.696 105.707 106.69 107.64 108.553 109.422 110.241 111.005 111.707 112.341 112.901 113.38 113.773 114.073 114.276 114.376 114.368 114.249 114.015 113.664 113.193 112.601 111.888 111.054 110.102 109.034 107.853 106.565 105.175 103.689 102.115 100.46 98.7343 96.9457 95.1035 93.217 91.2956 89.35 87.3908 85.4282 83.4713 81.5285 79.6084 77.7202 75.873 74.0759 72.3361 70.6599 69.0536 67.5237 66.0766 64.7185 63.4544 62.2873 61.2205 60.2569 59.3998 58.6521 58.0165 57.4941 57.0861 56.7936 56.6177 56.5594 77.2595 77.2842 77.3583 77.4816 77.6539 77.875 78.1445 78.4623 78.8276 79.24 79.6985 80.2026 80.7515 81.3446 81.9807 82.6588 83.3775 84.1356 84.9319 85.7651 86.6338 87.5361 88.47 89.4336 90.425 91.4423 92.4835 93.5457 94.6265 95.7228 96.8317 97.9502 99.0751 100.203 101.329 102.451 103.564 104.663 105.743 106.8 107.829 108.823 109.778 110.687 111.543 112.341 113.073 113.734 114.316 114.813 115.218 115.526 115.73 115.825 115.806 115.669 115.411 115.029 114.519 113.883 113.118 112.227 111.211 110.075 108.822 107.458 105.989 104.423 102.768 101.034 99.2285 97.3621 95.444 93.4842 91.4942 89.4855 87.4694 85.4553 83.4521 81.4687 79.5152 77.6018 75.7382 73.9324 72.191 70.5204 68.9279 67.4205 66.0054 64.688 63.4716 62.3593 61.3546 60.4606 59.6807 59.0173 58.472 58.0459 57.7404 57.5567 57.496 76.3675 76.3924 76.4671 76.5916 76.7654 76.9885 77.2606 77.5814 77.9504 78.367 78.8305 79.3403 79.8958 80.4963 81.1408 81.8283 82.5576 83.3276 84.137 84.9849 85.8698 86.79 87.7437 88.7291 89.7444 90.7878 91.8575 92.9508 94.0654 95.1984 96.3471 97.5085 98.6796 99.8571 101.037 102.216 103.39 104.554 105.703 106.834 107.94 109.016 110.057 111.055 112.005 112.901 113.734 114.499 115.187 115.792 116.307 116.726 117.04 117.245 117.335 117.304 117.148 116.862 116.444 115.893 115.206 114.384 113.43 112.345 111.134 109.803 108.357 106.805 105.154 103.415 101.596 99.7073 97.7593 95.7626 93.729 91.6705 89.5988 87.5242 85.4567 83.4062 81.3839 79.4011 77.4687 75.5948 73.7858 72.0482 70.3896 68.8183 67.3426 65.9684 64.6992 63.5386 62.4899 61.5567 60.7422 60.0493 59.4795 59.0343 58.7149 58.5229 58.4595 75.4525 75.4775 75.5528 75.678 75.8531 76.0778 76.3519 76.6752 77.0472 77.4673 77.9349 78.4495 79.0105 79.6172 80.2689 80.9645 81.703 82.4833 83.3044 84.1652 85.0646 86.0009 86.9724 87.9775 89.0147 90.0821 91.1781 92.3003 93.4463 94.6137 95.7997 97.0016 98.2167 99.4416 100.673 101.907 103.14 104.367 105.584 106.787 107.969 109.127 110.253 111.341 112.386 113.38 114.316 115.187 115.985 116.703 117.333 117.868 118.3 118.622 118.828 118.911 118.866 118.687 118.37 117.913 117.314 116.571 115.686 114.662 113.501 112.209 110.794 109.261 107.621 105.88 104.051 102.142 100.167 98.135 96.0591 93.9507 91.8213 89.6829 87.547 85.4254 83.3307 81.2752 79.2712 77.3268 75.4477 73.64 71.912 70.2731 68.7329 67.2981 65.9725 64.76 63.6643 62.6889 61.8375 61.1131 60.5173 60.0516 59.7175 59.5166 59.4504 74.5158 74.541 74.6166 74.7425 74.9185 75.1444 75.42 75.7452 76.1194 76.5423 77.0132 77.5316 78.097 78.7088 79.3664 80.0688 80.815 81.6041 82.4352 83.3073 84.2193 85.1697 86.1571 87.1799 88.2367 89.3259 90.4459 91.5946 92.7697 93.9688 95.1895 96.4294 97.6859 98.9558 100.236 101.523 102.812 104.101 105.384 106.656 107.914 109.151 110.362 111.54 112.679 113.773 114.813 115.792 116.703 117.537 118.287 118.943 119.499 119.945 120.275 120.481 120.557 120.494 120.289 119.937 119.435 118.781 117.976 117.021 115.919 114.676 113.298 111.793 110.168 108.433 106.597 104.672 102.672 100.607 98.489 96.3304 94.1425 91.9386 89.7325 87.5376 85.3676 83.2358 81.1553 79.1345 77.1798 75.2975 73.4964 71.7867 70.1786 68.6794 67.2936 66.0254 64.8791 63.8584 62.9675 62.2093 61.5857 61.0983 60.7487 60.5384 60.4689 73.5591 73.5843 73.6602 73.7865 73.9631 74.1898 74.4664 74.7929 75.1687 75.5935 76.0667 76.5879 77.1567 77.7725 78.4347 79.1424 79.8949 80.6913 81.5306 82.4122 83.335 84.2976 85.2987 86.3371 87.4112 88.5198 89.6615 90.8341 92.0356 93.2639 94.5167 95.7919 97.087 98.3992 99.7253 101.062 102.406 103.753 105.099 106.44 107.771 109.086 110.38 111.647 112.88 114.073 115.218 116.307 117.333 118.287 119.16 119.943 120.628 121.206 121.668 122.006 122.211 122.276 122.192 121.957 121.563 121.009 120.294 119.419 118.387 117.202 115.871 114.4 112.799 111.075 109.239 107.303 105.28 103.183 101.023 98.8136 96.5676 94.2993 92.0236 89.7553 87.5081 85.2957 83.1311 81.0248 78.9855 77.0222 75.1442 73.3609 71.682 70.1147 68.6645 67.3366 66.1358 65.0664 64.1329 63.3387 62.6855 62.175 61.8088 61.5884 61.5154 72.5839 72.6091 72.6851 72.8116 72.9884 73.2155 73.4927 73.8198 74.1965 74.6224 75.0971 75.6202 76.1912 76.8098 77.4753 78.187 78.9443 79.7462 80.5922 81.4814 82.413 83.3858 84.3985 85.4501 86.5393 87.6649 88.8255 90.0195 91.2448 92.4995 93.7816 95.0891 96.42 97.7716 99.1409 100.525 101.92 103.323 104.729 106.136 107.537 108.928 110.304 111.658 112.984 114.276 115.526 116.726 117.868 118.943 119.943 120.858 121.678 122.395 122.997 123.476 123.82 124.022 124.072 123.964 123.69 123.247 122.635 121.852 120.901 119.785 118.511 117.084 115.514 113.809 111.981 110.04 107.999 105.869 103.666 101.406 99.1027 96.7719 94.4285 92.0873 89.7613 87.4633 85.2061 83.0033 80.869 78.8172 76.8578 74.9981 73.2452 71.606 70.0871 68.6951 67.4357 66.314 65.3348 64.5019 63.8171 63.282 62.8981 62.6669 62.5901 71.5919 71.6172 71.6931 71.8195 71.9963 72.2234 72.5006 72.8278 73.2047 73.631 74.1063 74.6302 75.2024 75.8226 76.4902 77.2045 77.965 78.771 79.6219 80.5169 81.4554 82.4363 83.4585 84.5211 85.6229 86.7629 87.94 89.1526 90.3989 91.6771 92.9856 94.3226 95.6862 97.0739 98.4831 99.9108 101.354 102.809 104.273 105.742 107.211 108.675 110.13 111.569 112.986 114.376 115.73 117.04 118.3 119.499 120.628 121.678 122.639 123.5 124.25 124.878 125.372 125.721 125.916 125.947 125.806 125.488 124.99 124.312 123.455 122.421 121.215 119.844 118.315 116.639 114.826 112.886 110.831 108.673 106.429 104.117 101.756 99.3607 96.9465 94.5281 92.1185 89.73 87.3756 85.0719 82.8379 80.6919 78.6449 76.7024 74.8699 73.1539 71.5621 70.1018 68.7799 67.6021 66.5739 65.6995 64.9809 64.4193 64.0165 63.7738 63.6927 70.5852 70.6104 70.6862 70.8123 70.9888 71.2154 71.4922 71.8189 72.1953 72.6212 73.0962 73.6201 74.1924 74.813 75.4814 76.197 76.9593 77.7678 78.6218 79.5209 80.4644 81.4513 82.4809 83.5521 84.6642 85.8162 87.0071 88.2355 89.4999 90.7988 92.1306 93.4937 94.8867 96.3072 97.7527 99.2207 100.708 102.212 103.73 105.258 106.791 108.325 109.855 111.377 112.883 114.368 115.825 117.245 118.622 119.945 121.206 122.395 123.5 124.511 125.415 126.2 126.853 127.361 127.712 127.895 127.9 127.72 127.351 126.792 126.042 125.104 123.981 122.678 121.204 119.567 117.778 115.846 113.783 111.601 109.32 106.959 104.536 102.069 99.5746 97.0686 94.5665 92.0826 89.6317 87.2314 84.9005 82.6574 80.5141 78.4783 76.5574 74.7588 73.0897 71.5576 70.1696 68.9319 67.8512 66.9323 66.1771 65.5871 65.1637 64.9085 64.823 69.5656 69.5907 69.6661 69.7918 69.9676 70.1935 70.4693 70.795 71.1703 71.5951 72.069 72.5918 73.1633 73.7832 74.4511 75.1666 75.9293 76.7387 77.5942 78.4956 79.4421 80.4331 81.4678 82.5455 83.6655 84.8269 86.0289 87.2704 88.55 89.8664 91.2182 92.6042 94.023 95.4726 96.9507 98.4551 99.9831 101.532 103.1 104.682 106.275 107.876 109.479 111.079 112.671 114.249 115.806 117.335 118.828 120.275 121.668 122.997 124.25 125.415 126.48 127.43 128.251 128.927 129.447 129.795 129.959 129.932 129.708 129.283 128.656 127.828 126.804 125.587 124.182 122.597 120.84 118.922 116.859 114.663 112.352 109.942 107.453 104.903 102.314 99.706 97.0998 94.5154 91.9722 89.4847 87.0642 84.7225 82.4731 80.3308 78.3103 76.4219 74.6711 73.0636 71.6056 70.3045 69.1677 68.2009 67.4062 66.7851 66.3394 66.0708 65.9808 68.535 68.56 68.635 68.7599 68.9348 69.1595 69.4339 69.758 70.1316 70.5545 71.0265 71.5474 72.117 72.7351 73.4014 74.1155 74.8771 75.6859 76.5413 77.4431 78.3908 79.3839 80.4216 81.5035 82.6289 83.7971 85.0076 86.2593 87.5511 88.8818 90.2504 91.6558 93.0968 94.5717 96.0784 97.6152 99.1796 100.77 102.383 104.016 105.665 107.328 108.999 110.674 112.348 114.015 115.669 117.304 118.911 120.481 122.006 123.476 124.878 126.2 127.43 128.551 129.548 130.404 131.102 131.629 131.968 132.109 132.047 131.773 131.286 130.588 129.681 128.567 127.249 125.73 124.017 122.125 120.069 117.865 115.527 113.072 110.514 107.878 105.19 102.475 99.7582 97.0674 94.4267 91.8469 89.3316 86.8849 84.5219 82.2651 80.137 78.1509 76.3114 74.6224 73.0896 71.7209 70.5244 69.506 68.6684 68.0135 67.5434 67.2601 67.1658 67.4953 67.5201 67.5945 67.7186 67.8923 68.1154 68.388 68.71 69.0812 69.5015 69.9708 70.4889 71.0556 71.6708 72.3343 73.0458 73.8049 74.6115 75.4652 76.3657 77.3127 78.3058 79.3444 80.4282 81.5566 82.7292 83.9454 85.2044 86.5053 87.8472 89.2292 90.6505 92.1099 93.6062 95.1377 96.7027 98.2994 99.9258 101.58 103.259 104.96 106.68 108.414 110.16 111.911 113.664 115.411 117.148 118.866 120.557 122.211 123.82 125.372 126.853 128.251 129.548 130.727 131.771 132.66 133.378 133.906 134.233 134.349 134.247 133.923 133.377 132.607 131.616 130.403 128.968 127.317 125.464 123.425 121.215 118.852 116.351 113.73 111.016 108.237 105.421 102.597 99.7935 97.0361 94.3377 91.7031 89.1379 86.658 84.2869 82.0479 79.9558 78.017 76.2373 74.6233 73.1824 71.9221 70.8483 69.9641 69.2722 68.7754 68.4762 68.3776 66.4484 66.473 66.5468 66.6698 66.8419 67.0632 67.3335 67.6529 68.0211 68.4382 68.904 69.4184 69.9813 70.5925 71.252 71.9595 72.7148 73.5177 74.3681 75.2656 76.2101 77.2012 78.2386 79.322 80.4509 81.6252 82.8444 84.1078 85.4148 86.7647 88.1567 89.5901 91.0643 92.5781 94.1302 95.7194 97.3441 99.0025 100.693 102.413 104.161 105.933 107.726 109.536 111.36 113.193 115.029 116.862 118.687 120.494 122.276 124.022 125.721 127.361 128.927 130.404 131.771 133.01 134.101 135.023 135.755 136.283 136.598 136.691 136.555 136.186 135.579 134.732 133.643 132.313 130.745 128.949 126.937 124.723 122.33 119.784 117.11 114.334 111.484 108.586 105.663 102.738 99.8345 96.9743 94.1812 91.4779 88.8809 86.4019 84.0526 81.8455 79.7942 77.9118 76.2085 74.69 73.3616 72.2282 71.2935 70.5612 70.035 69.7186 69.6159 65.3962 65.4206 65.4936 65.6154 65.7858 66.0048 66.2724 66.5886 66.9534 67.3665 67.8281 68.338 68.8961 69.5024 70.1568 70.8591 71.6092 72.4071 73.2525 74.1453 75.0855 76.0727 77.1068 78.1875 79.3147 80.4882 81.7076 82.9726 84.2826 85.6372 87.0357 88.4779 89.963 91.4904 93.0591 94.6681 96.3163 98.0021 99.7241 101.48 103.269 105.087 106.933 108.803 110.694 112.601 114.519 116.444 118.37 120.289 122.192 124.072 125.916 127.712 129.447 131.102 132.66 134.101 135.403 136.541 137.491 138.238 138.773 139.085 139.166 139.003 138.587 137.911 136.973 135.772 134.308 132.588 130.614 128.401 125.98 123.39 120.665 117.831 114.912 111.933 108.911 105.858 102.794 99.7531 96.7835 93.9297 91.2085 88.6166 86.1508 83.8201 81.6463 79.6513 77.8497 76.2457 74.8427 73.6445 72.6553 71.8794 71.3213 70.986 70.8789 64.3408 64.3649 64.4371 64.5574 64.7258 64.9423 65.2068 65.5194 65.8801 66.2887 66.7454 67.2499 67.8024 68.4028 69.051 69.747 70.4907 71.2821 72.1211 73.0077 73.9417 74.9232 75.952 77.028 78.1511 79.3213 80.5384 81.8021 83.1121 84.4682 85.8701 87.3174 88.8098 90.3468 91.9279 93.5524 95.2193 96.9276 98.6759 100.463 102.287 104.146 106.039 107.962 109.913 111.888 113.883 115.893 117.913 119.937 121.957 123.964 125.947 127.895 129.795 131.629 133.378 135.023 136.541 137.904 139.088 140.074 140.852 141.41 141.735 141.81 141.62 141.152 140.399 139.355 138.016 136.385 134.463 132.264 129.826 127.193 124.405 121.491 118.478 115.392 112.249 109.064 105.854 102.66 99.5358 96.5323 93.6681 90.9381 88.3373 85.8752 83.5755 81.4625 79.5526 77.8516 76.3642 75.0951 74.0477 73.2256 72.633 72.2769 72.1643 63.2841 63.3079 63.3791 63.4978 63.6639 63.8776 64.1387 64.4473 64.8034 65.2069 65.658 66.1565 66.7025 67.296 67.9371 68.6256 69.3617 70.1454 70.9765 71.8553 72.7816 73.7556 74.7771 75.8463 76.9632 78.1277 79.3399 80.5996 81.9069 83.2615 84.6633 86.1123 87.6082 89.151 90.7402 92.3755 94.0563 95.7818 97.5511 99.3633 101.217 103.112 105.045 107.015 109.019 111.054 113.118 115.206 117.314 119.435 121.563 123.69 125.806 127.9 129.959 131.968 133.906 135.755 137.491 139.088 140.519 141.765 142.812 143.643 144.242 144.59 144.666 144.452 143.928 143.072 141.875 140.344 138.49 136.327 133.89 131.216 128.341 125.305 122.145 118.899 115.6 112.279 108.965 105.685 102.463 99.3218 96.2851 93.3737 90.6087 88.0075 85.5838 83.3511 81.3223 79.5097 77.9255 76.5781 75.4688 74.5982 73.9689 73.5895 73.4695 62.2281 62.2515 62.3216 62.4386 62.6023 62.8128 63.0702 63.3743 63.7254 64.1233 64.5681 65.0599 65.5986 66.1845 66.8174 67.4975 68.2248 68.9994 69.8215 70.691 71.608 72.5727 73.5852 74.6457 75.7541 76.9107 78.1155 79.3687 80.6703 82.0203 83.4189 84.8662 86.3621 87.9066 89.4997 91.1413 92.8311 94.5686 96.3536 98.1853 100.063 101.986 103.953 105.963 108.013 110.102 112.227 114.384 116.571 118.781 121.009 123.247 125.488 127.72 129.932 132.109 134.233 136.283 138.238 140.074 141.765 143.291 144.631 145.765 146.67 147.327 147.712 147.797 147.543 146.911 145.881 144.469 142.698 140.589 138.166 135.455 132.486 129.309 125.979 122.55 119.077 115.615 112.213 108.873 105.572 102.292 99.06 95.9375 92.985 90.2318 87.6764 85.3157 83.1569 81.2206 79.5283 78.0941 76.9168 75.9937 75.3252 74.9208 74.7914 61.1747 61.1977 61.2667 61.3818 61.5429 61.75 62.0033 62.3026 62.6481 63.0399 63.4779 63.9623 64.4931 65.0704 65.6944 66.365 67.0825 67.847 68.6586 69.5174 70.4237 71.3775 72.3792 73.429 74.5269 75.6734 76.8685 78.1126 79.4058 80.7484 82.1406 83.5827 85.0749 86.6175 88.2104 89.8538 91.5477 93.2923 95.0875 96.9332 98.8289 100.774 102.769 104.811 106.9 109.034 111.211 113.43 115.686 117.976 120.294 122.635 124.99 127.351 129.708 132.047 134.349 136.598 138.773 140.852 142.812 144.631 146.286 147.751 149.003 150.01 150.744 151.165 151.217 150.845 150.02 148.759 147.09 145.038 142.628 139.889 136.852 133.575 130.12 126.55 122.929 119.321 115.783 112.308 108.861 105.405 101.975 98.6484 95.5032 92.5757 89.8602 87.3494 85.0492 82.9833 81.1767 79.6457 78.3899 77.4068 76.6967 76.2669 76.1262 60.1259 60.1485 60.2163 60.3294 60.4876 60.6912 60.94 61.2342 61.5738 61.9589 62.3896 62.866 63.3882 63.9563 64.5703 65.2306 65.9373 66.6905 67.4904 68.3373 69.2314 70.1729 71.1621 72.1993 73.2849 74.4191 75.6022 76.8346 78.1168 79.4491 80.8319 82.2656 83.7506 85.2872 86.8759 88.5168 90.2105 91.9573 93.7575 95.6114 97.5189 99.48 101.495 103.562 105.682 107.853 110.075 112.345 114.662 117.021 119.419 121.852 124.312 126.792 129.283 131.773 134.247 136.691 139.085 141.41 143.643 145.765 147.751 149.582 151.221 152.625 153.746 154.533 154.922 154.85 154.279 153.214 151.668 149.662 147.252 144.496 141.451 138.17 134.702 131.096 127.393 123.632 119.85 116.074 112.326 108.629 105.015 101.525 98.199 95.0657 92.1424 89.446 86.9926 84.797 82.8739 81.2351 79.8863 78.8326 78.078 77.6237 77.4701 59.0837 59.1058 59.1723 59.2832 59.4385 59.6382 59.8824 60.1711 60.5044 60.8824 61.3053 61.7732 62.2861 62.8442 63.4477 64.0967 64.7916 65.5326 66.3198 67.1535 68.034 68.9616 69.9368 70.9598 72.0311 73.1511 74.3201 75.5386 76.8072 78.1264 79.4968 80.9188 82.3931 83.9203 85.5007 87.1352 88.8242 90.5684 92.3684 94.2249 96.1382 98.1086 100.136 102.222 104.365 106.565 108.822 111.134 113.501 115.919 118.387 120.901 123.455 126.042 128.656 131.286 133.923 136.555 139.166 141.735 144.242 146.67 149.003 151.221 153.284 155.126 156.678 157.873 158.643 158.92 158.652 157.823 156.421 154.46 152.043 149.281 146.275 143.061 139.662 136.095 132.36 128.445 124.35 120.162 116.01 112.019 108.222 104.584 101.073 97.7028 94.5303 91.6156 88.9927 86.6601 84.6136 82.8557 81.4015 80.2675 79.4642 78.9842 78.8174 58.0496 58.0713 58.1365 58.2451 58.3972 58.5929 58.8322 59.1151 59.4418 59.8124 60.227 60.6858 61.1889 61.7365 62.3286 62.9657 63.648 64.3757 65.1492 65.9686 66.8344 67.7468 68.7065 69.7138 70.7691 71.8729 73.0257 74.2281 75.4808 76.7844 78.1396 79.547 81.0074 82.5215 84.0901 85.7139 87.3939 89.1309 90.9258 92.7794 94.6924 96.6658 98.7001 100.796 102.954 105.175 107.458 109.803 112.209 114.676 117.202 119.785 122.421 125.104 127.828 130.588 133.377 136.186 139.003 141.81 144.59 147.327 150.01 152.625 155.126 157.435 159.472 161.153 162.384 163.07 163.14 162.566 161.325 159.437 157.036 154.28 151.298 148.117 144.742 141.17 137.374 133.316 128.977 124.473 119.996 115.724 111.694 107.839 104.092 100.462 97.0313 93.8847 91.0676 88.5703 86.3792 84.492 82.9283 81.71 80.8506 80.339 80.1602 57.0256 57.0468 57.1106 57.2168 57.3657 57.5572 57.7913 58.0683 58.388 58.7508 59.1568 59.6061 60.0989 60.6353 61.2155 61.84 62.5089 63.2225 63.9813 64.7854 65.6353 66.5314 67.4742 68.4643 69.5021 70.5881 71.7229 72.9071 74.1417 75.4273 76.7647 78.1547 79.5981 81.0959 82.6489 84.2583 85.9251 87.6503 89.435 91.2804 93.1876 95.1576 97.1917 99.2909 101.456 103.689 105.989 108.357 110.794 113.298 115.871 118.511 121.215 123.981 126.804 129.681 132.607 135.579 138.587 141.62 144.666 147.712 150.744 153.746 156.678 159.472 162.061 164.338 166.144 167.314 167.74 167.418 166.355 164.595 162.268 159.525 156.492 153.207 149.685 145.94 141.978 137.803 133.424 128.912 124.369 119.892 115.532 111.304 107.22 103.318 99.6528 96.28 93.2352 90.525 88.1539 86.1285 84.4595 83.1583 82.2323 81.6781 81.4906 56.0133 56.0341 56.0964 56.2002 56.3457 56.5328 56.7617 57.0324 57.345 57.6997 58.0966 58.536 59.018 59.5428 60.1106 60.7218 61.3766 62.0755 62.8187 63.6066 64.4396 65.3183 66.2431 67.2146 68.2335 69.3001 70.4152 71.5795 72.7939 74.0593 75.3765 76.7465 78.1701 79.6484 81.1825 82.7737 84.4231 86.1321 87.902 89.734 91.6298 93.5906 95.618 97.7134 99.8785 102.115 104.423 106.805 109.261 111.793 114.4 117.084 119.844 122.678 125.587 128.567 131.616 134.732 137.911 141.152 144.452 147.797 151.165 154.533 157.873 161.153 164.338 167.299 169.774 171.495 172.302 172.243 171.393 169.832 167.659 164.975 161.874 158.414 154.642 150.614 146.416 142.147 137.891 133.607 129.192 124.551 119.759 115.007 110.488 106.289 102.397 98.7933 95.486 92.5174 89.9325 87.758 85.9849 84.6005 83.5986 82.9924 82.7982 55.0146 55.0349 55.0957 55.197 55.339 55.5217 55.7451 56.0093 56.3145 56.6609 57.0485 57.4777 57.9486 58.4613 59.0161 59.6135 60.2537 60.9371 61.6641 62.435 63.2503 64.1105 65.0162 65.968 66.9666 68.0124 69.1062 70.2489 71.4413 72.6845 73.9793 75.3269 76.728 78.1839 79.696 81.2655 82.8938 84.5825 86.333 88.1469 90.026 91.9718 93.9862 96.0711 98.2285 100.46 102.768 105.154 107.621 110.168 112.799 115.514 118.315 121.204 124.182 127.249 130.403 133.643 136.973 140.399 143.928 147.543 151.217 154.922 158.643 162.384 166.144 169.774 172.923 175.226 176.472 176.752 176.19 174.902 172.973 170.487 167.519 164.119 160.332 156.214 151.896 147.539 143.275 139.002 134.496 129.558 124.286 118.999 114.011 109.45 105.258 101.369 97.7721 94.534 91.7252 89.385 87.4902 86.0106 84.9305 84.2732 84.069 54.0312 54.051 54.1103 54.2091 54.3475 54.5256 54.7434 55.001 55.2987 55.6364 56.0145 56.4332 56.8926 57.3929 57.9344 58.5175 59.1426 59.81 60.5201 61.2733 62.07 62.9109 63.7966 64.7277 65.7048 66.7286 67.7998 68.9192 70.088 71.3071 72.5776 73.9004 75.2766 76.7076 78.1946 79.7392 81.3429 83.0075 84.7344 86.5257 88.383 90.3084 92.3038 94.3717 96.5144 98.7343 101.034 103.415 105.88 108.433 111.075 113.809 116.639 119.567 122.597 125.73 128.968 132.313 135.772 139.355 143.072 146.911 150.845 154.85 158.92 163.07 167.314 171.495 175.226 178.103 179.884 180.642 180.488 179.545 177.966 175.912 173.506 170.726 167.509 163.812 159.689 155.231 150.52 145.559 140.313 134.76 129.021 123.329 117.912 112.881 108.23 103.947 100.043 96.561 93.5436 91.0149 88.9606 87.3619 86.2083 85.5119 85.2889 53.0648 53.084 53.1417 53.238 53.3727 53.5462 53.7583 54.0093 54.2992 54.6282 54.9966 55.4045 55.8521 56.3397 56.8676 57.4361 58.0456 58.6965 59.3892 60.124 60.9016 61.7225 62.5873 63.4967 64.4514 65.4521 66.4993 67.5942 68.7379 69.9312 71.1755 72.4716 73.8207 75.2242 76.6836 78.2004 79.7763 81.4132 83.1128 84.877 86.7079 88.6077 90.5785 92.6233 94.7448 96.9457 99.2285 101.596 104.051 106.597 109.239 111.981 114.826 117.778 120.84 124.017 127.317 130.745 134.308 138.016 141.875 145.881 150.02 154.279 158.652 163.14 167.74 172.302 176.472 179.884 182.291 183.692 184.108 183.638 182.574 181.247 179.886 178.325 176.3 173.563 169.965 165.394 159.778 153.401 146.732 140.217 134.004 128.022 122.202 116.579 111.299 106.509 102.279 98.5796 95.3701 92.6306 90.379 88.6374 87.4162 86.6937 86.4427 52.1167 52.1355 52.1916 52.2852 52.4163 52.585 52.7914 53.0356 53.3176 53.6378 53.9962 54.3932 54.829 55.3036 55.8175 56.3711 56.9647 57.5987 58.2735 58.9897 59.7475 60.5477 61.391 62.278 63.2094 64.1859 65.2082 66.2774 67.3946 68.5608 69.7772 71.0448 72.3648 73.7387 75.168 76.6545 78.1997 79.8058 81.4744 83.2078 85.0081 86.8775 88.8186 90.8346 92.9286 95.1035 97.3621 99.7073 102.142 104.672 107.303 110.04 112.886 115.846 118.922 122.125 125.464 128.949 132.588 136.385 140.344 144.469 148.759 153.214 157.823 162.566 167.418 172.243 176.752 180.642 183.692 185.834 187.022 187.317 187.094 186.778 186.651 186.412 185.615 183.835 180.755 176.097 169.669 161.991 153.956 146.407 139.534 133.049 126.669 120.38 114.44 109.114 104.519 100.561 97.1311 94.1714 91.7235 89.84 88.546 87.7916 87.5135 51.1885 51.2067 51.2612 51.3521 51.4796 51.6435 51.8441 52.0814 52.3555 52.6667 53.0152 53.4012 53.8248 54.2864 54.7862 55.3246 55.902 56.5188 57.1755 57.8724 58.6101 59.3892 60.2103 61.0743 61.9817 62.9333 63.9298 64.9723 66.0618 67.1996 68.3868 69.6244 70.9136 72.256 73.6532 75.1069 76.619 78.1913 79.8259 81.5249 83.2907 85.1256 87.0324 89.0144 91.0748 93.217 95.444 97.7593 100.167 102.672 105.28 107.999 110.831 113.783 116.859 120.069 123.425 126.937 130.614 134.463 138.49 142.698 147.09 151.668 156.421 161.325 166.355 171.393 176.19 180.488 184.108 187.022 189.217 190.75 191.862 192.825 193.789 194.411 194.225 192.793 189.845 185.173 178.639 170.718 162.203 153.854 145.939 138.376 131.08 124.101 117.623 111.833 106.809 102.476 98.7467 95.5718 92.9715 90.9744 89.5903 88.7773 88.4845 50.2814 50.299 50.352 50.4403 50.564 50.7232 50.9179 51.1483 51.4145 51.7167 52.0551 52.43 52.8415 53.2898 53.7753 54.2984 54.8595 55.459 56.0972 56.7747 57.4919 58.2494 59.048 59.8885 60.7713 61.6974 62.6673 63.6823 64.7433 65.8517 67.0084 68.2148 69.4718 70.7811 72.1443 73.5633 75.0399 76.5761 78.1738 79.8354 81.5632 83.3599 85.2282 87.1714 89.1927 91.2956 93.4842 95.7626 98.135 100.607 103.183 105.869 108.673 111.601 114.663 117.865 121.215 124.723 128.401 132.264 136.327 140.589 145.038 149.662 154.46 159.437 164.595 169.832 174.902 179.545 183.638 187.317 190.75 194.025 197.016 199.562 201.474 202.458 202.194 200.413 197.141 192.513 186.66 179.686 171.677 162.745 153.297 143.953 135.321 127.644 120.799 114.648 109.128 104.284 100.167 96.7907 94.0992 92.0279 90.5328 89.6281 89.3377 49.3968 49.414 49.4653 49.551 49.671 49.8254 50.0143 50.2378 50.4961 50.7893 51.1176 51.4813 51.8806 52.3157 52.7869 53.2946 53.8393 54.4212 55.0409 55.6987 56.3952 57.131 57.9068 58.7234 59.5813 60.4813 61.4241 62.4109 63.4428 64.5208 65.6463 66.8202 68.0438 69.3187 70.6465 72.0291 73.4683 74.9661 76.5246 78.1459 79.8328 81.5878 83.4139 85.3141 87.2916 89.35 91.4942 93.729 96.0591 98.489 101.023 103.666 106.429 109.32 112.352 115.527 118.852 122.33 125.98 129.826 133.89 138.166 142.628 147.252 152.043 157.036 162.268 167.659 172.973 177.966 182.574 187.094 191.862 197.016 202.152 206.77 210.394 212.644 213.164 211.678 208.396 203.701 197.929 190.981 182.54 172.347 160.994 149.688 139.613 131.148 123.865 117.308 111.276 105.921 101.424 97.8551 95.0797 92.9381 91.3326 90.3368 90.0534 48.5363 48.5529 48.6026 48.6856 48.802 48.9516 49.1348 49.3514 49.6017 49.886 50.2043 50.5569 50.944 51.3659 51.8228 52.3151 52.8433 53.4077 54.0088 54.6469 55.3226 56.0366 56.7894 57.5818 58.4145 59.2882 60.2035 61.1617 62.1638 63.211 64.3044 65.4451 66.6344 67.8738 69.1651 70.5099 71.9101 73.3677 74.8847 76.4634 78.1066 79.817 81.5975 83.4512 85.381 87.3908 89.4855 91.6705 93.9507 96.3304 98.8136 101.406 104.117 106.959 109.942 113.072 116.351 119.784 123.39 127.193 131.216 135.455 139.889 144.496 149.281 154.28 159.525 164.975 170.487 175.912 181.247 186.778 192.825 199.562 206.77 214.159 221.325 227.397 231.387 232.427 230.363 225.294 217.361 207.032 194.948 181.763 168.295 155.482 144.235 134.79 126.707 119.523 113.019 107.317 102.564 98.8037 95.8854 93.6344 91.9446 90.8987 90.6114 47.701 47.7171 47.7653 47.8457 47.9583 48.1033 48.2807 48.4905 48.733 49.0083 49.3167 49.6583 50.0334 50.4421 50.8848 51.3618 51.8736 52.4205 53.003 53.6215 54.2764 54.9685 55.6983 56.4665 57.2739 58.121 59.0087 59.938 60.91 61.9259 62.9867 64.0937 65.2481 66.4512 67.7049 69.0108 70.3709 71.7868 73.2606 74.7946 76.3917 78.0549 79.787 81.5912 83.4704 85.4282 87.4694 89.5988 91.8213 94.1425 96.5676 99.1027 101.756 104.536 107.453 110.514 113.73 117.11 120.665 124.405 128.341 132.486 136.852 141.451 146.275 151.298 156.492 161.874 167.519 173.506 179.886 186.651 193.789 201.474 210.394 221.325 234.502 247.987 259.304 266.136 267.125 261.255 247.844 229.093 208.687 190.142 174.529 161.155 149.302 138.636 129.2 121.054 114.171 108.407 103.608 99.6547 96.4889 94.0601 92.3319 91.3065 90.9928 46.8921 46.9076 46.9543 47.0321 47.1411 47.2815 47.4532 47.6563 47.8911 48.1576 48.4561 48.7869 49.15 49.5457 49.9742 50.4361 50.9316 51.4612 52.0253 52.6242 53.2585 53.9287 54.6356 55.3797 56.1618 56.9824 57.8424 58.7426 59.6844 60.6687 61.6968 62.7696 63.8885 65.0549 66.2704 67.5367 68.8556 70.2287 71.658 73.1457 74.695 76.3088 77.9902 79.7423 81.5682 83.4713 85.4553 87.5242 89.6829 91.9386 94.2993 96.7719 99.3607 102.069 104.903 107.878 111.016 114.334 117.831 121.491 125.305 129.309 133.575 138.17 143.061 148.117 153.207 158.414 164.119 170.726 178.325 186.412 194.411 202.458 212.644 227.397 247.987 271.061 292.108 306.821 312.073 305.161 284.148 253.741 222.067 196.81 179.282 166.201 154.274 142.301 131.18 121.883 114.732 109.146 104.479 100.344 96.8633 94.2148 92.4905 91.5431 91.1846 46.1104 46.1255 46.1707 46.2459 46.3514 46.4872 46.6533 46.8499 47.077 47.3349 47.6237 47.9437 48.295 48.6779 49.0926 49.5395 50.019 50.5314 51.0772 51.6568 52.2706 52.9193 53.6034 54.3236 55.0804 55.8747 56.7069 57.5783 58.4897 59.4425 60.4376 61.4763 62.5595 63.6888 64.8657 66.0919 67.369 68.6986 70.0824 71.5229 73.023 74.586 76.2149 77.9128 79.683 81.5285 83.4521 85.4567 87.547 89.7325 92.0236 94.4285 96.9465 99.5746 102.314 105.19 108.237 111.484 114.912 118.478 122.145 125.979 130.12 134.702 139.662 144.742 149.685 154.642 160.332 167.509 176.3 185.615 194.225 202.194 213.164 231.387 259.304 292.108 323.182 346.136 355.926 347.993 319.01 276.38 233.027 201.133 182.202 170.036 158.446 145.289 132.471 122.045 114.749 109.496 105.072 100.787 96.9819 94.1119 92.4245 91.5888 91.1748 45.3571 45.3717 45.4154 45.4882 45.5902 45.7215 45.8821 46.0722 46.2919 46.5413 46.8206 47.1301 47.4699 47.8401 48.2412 48.6733 49.137 49.6326 50.1605 50.721 51.3147 51.942 52.6036 53.3001 54.0321 54.8001 55.605 56.4476 57.329 58.2503 59.2127 60.2171 61.2646 62.3567 63.4949 64.6808 65.9158 67.2015 68.5395 69.9321 71.3825 72.8937 74.4688 76.1109 77.8232 79.6084 81.4687 83.4062 85.4254 87.5376 89.7553 92.0873 94.5281 97.0686 99.706 102.475 105.421 108.586 111.933 115.392 118.899 122.55 126.55 131.096 136.095 141.17 145.94 150.614 156.214 163.812 173.563 183.835 192.793 200.413 211.678 232.427 266.136 306.821 346.136 375.975 389.644 380.964 345.389 292.619 239.685 202.617 183.024 172.118 161.134 147.117 132.917 121.595 114.28 109.424 105.285 100.901 96.8216 93.77 92.1412 91.4246 90.9541 44.6331 44.6472 44.6894 44.7598 44.8584 44.9854 45.1407 45.3245 45.5368 45.778 46.048 46.3472 46.6757 47.0336 47.4213 47.8391 48.2874 48.7664 49.2767 49.8186 50.3924 50.9988 51.6383 52.3115 53.0189 53.7612 54.539 55.3533 56.205 57.0953 58.0251 58.9955 60.0076 61.0627 62.1623 63.3078 64.5007 65.7425 67.0346 68.3793 69.7797 71.2386 72.7591 74.3443 75.9971 77.7202 79.5152 81.3839 83.3307 85.3676 87.5081 89.7613 92.1185 94.5665 97.0998 99.7582 102.597 105.663 108.911 112.249 115.6 119.077 122.929 127.393 132.36 137.374 141.978 146.416 151.896 159.689 169.965 180.755 189.845 197.141 208.396 230.363 267.125 312.073 355.926 389.644 405.591 396.638 357.526 299.255 241.197 201.571 182.006 172.172 161.776 147.394 132.473 120.706 113.47 108.929 105.018 100.606 96.381 93.2373 91.6653 91.0356 90.5272 43.9393 43.953 43.9938 44.0618 44.1572 44.2799 44.43 44.6077 44.8129 45.046 45.3071 45.5962 45.9137 46.2597 46.6344 47.0382 47.4714 47.9344 48.4275 48.9511 49.5056 50.0915 50.7094 51.3598 52.0432 52.7603 53.5116 54.298 55.1206 55.9803 56.8781 57.8151 58.7922 59.8107 60.872 61.9775 63.1286 64.3266 65.5731 66.8702 68.2206 69.6272 71.093 72.6207 74.2132 75.873 77.6018 79.4011 81.2752 83.2358 85.2957 87.4633 89.73 92.0826 94.5154 97.0674 99.7935 102.738 105.858 109.064 112.279 115.615 119.321 123.632 128.445 133.316 137.803 142.147 147.539 155.231 165.394 176.097 185.173 192.513 203.701 225.294 261.255 305.161 347.993 380.964 396.638 388.069 350.128 293.519 237.097 198.595 179.591 170.02 159.852 145.763 131.135 119.593 112.489 108.023 104.17 99.8258 95.6663 92.573 91.0279 90.4087 89.904 43.2768 43.29 43.3294 43.3952 43.4874 43.606 43.7511 43.9228 44.1213 44.3466 44.5989 44.8784 45.1852 45.5196 45.8817 46.272 46.6906 47.138 47.6144 48.1203 48.656 49.222 49.8189 50.4471 51.1072 51.7996 52.5251 53.2844 54.0786 54.9084 55.775 56.6791 57.6218 58.6043 59.6279 60.694 61.8038 62.9588 64.1603 65.4102 66.7113 68.0661 69.4773 70.9477 72.4797 74.0759 75.7382 77.4687 79.2712 81.1553 83.1311 85.2061 87.3756 89.6317 91.9722 94.4267 97.0361 99.8345 102.794 105.854 108.965 112.213 115.783 119.85 124.35 128.977 133.424 137.891 143.275 150.52 159.778 169.669 178.639 186.66 197.929 217.361 247.844 284.148 319.01 345.389 357.526 350.128 319.306 273.416 227.116 194.207 176.159 165.552 154.982 141.962 128.912 118.431 111.476 106.718 102.67 98.5043 94.6859 91.8257 90.2555 89.5358 89.0948 42.6462 42.659 42.6971 42.7607 42.8498 42.9645 43.1048 43.2708 43.4626 43.6804 43.9243 44.1945 44.4911 44.8143 45.1643 45.5415 45.9461 46.3784 46.8388 47.3275 47.8451 48.3918 48.9683 49.575 50.2124 50.8811 51.5815 52.3146 53.0811 53.882 54.718 55.5902 56.4994 57.4467 58.4334 59.4609 60.5303 61.643 62.8003 64.004 65.2565 66.5603 67.9177 69.3312 70.8032 72.3361 73.9324 75.5948 77.3268 79.1345 81.0248 83.0033 85.0719 87.2314 89.4847 91.8469 94.3377 96.9743 99.7531 102.66 105.685 108.873 112.308 116.074 120.162 124.473 128.912 133.607 139.002 145.559 153.401 161.991 170.718 179.686 190.981 207.032 229.093 253.741 276.38 292.619 299.255 293.519 273.416 243.727 212.722 188.215 171.517 159.246 148.009 136.585 125.919 117.035 110.277 105.047 100.677 96.7723 93.4668 90.9545 89.3365 88.4565 88.1143 42.0482 42.0605 42.0974 42.1589 42.2451 42.356 42.4917 42.6522 42.8377 43.0483 43.2842 43.5454 43.8322 44.1447 44.483 44.8476 45.2387 45.6566 46.1015 46.5738 47.0738 47.602 48.1589 48.7449 49.3605 50.0062 50.6825 51.3902 52.13 52.9028 53.7095 54.5507 55.4273 56.3404 57.2913 58.2811 59.3112 60.3827 61.4969 62.6555 63.8606 65.1144 66.419 67.7767 69.1895 70.6599 72.191 73.7858 75.4477 77.1798 78.9855 80.869 82.8379 84.9005 87.0642 89.3316 91.7031 94.1812 96.7835 99.5358 102.463 105.572 108.861 112.326 116.01 119.996 124.369 129.192 134.496 140.313 146.732 153.956 162.203 171.677 182.54 194.948 208.687 222.067 233.027 239.685 241.197 237.097 227.116 212.722 196.276 180.061 165.18 151.886 140.403 130.667 122.329 115.033 108.59 103.049 98.474 94.8563 92.0449 89.8723 88.2392 87.2345 86.9795 41.4833 41.4952 41.5309 41.5905 41.6739 41.7812 41.9125 42.0678 42.2472 42.451 42.6791 42.9318 43.2092 43.5114 43.8387 44.1913 44.5695 44.9735 45.4037 45.8603 46.3435 46.854 47.392 47.9582 48.5528 49.1765 49.8296 50.5129 51.2272 51.973 52.7513 53.5626 54.4079 55.288 56.2043 57.1578 58.1498 59.1814 60.2538 61.3686 62.5277 63.7329 64.9862 66.2894 67.6444 69.0536 70.5204 72.0482 73.64 75.2975 77.0222 78.8172 80.6919 82.6574 84.7225 86.8849 89.1379 91.4779 93.9297 96.5323 99.3218 102.292 105.405 108.629 112.019 115.724 119.892 124.551 129.558 134.76 140.217 146.407 153.854 162.745 172.347 181.763 190.142 196.81 201.133 202.617 201.571 198.595 194.207 188.215 180.061 169.28 156.732 144.231 133.554 125.186 118.317 112.091 106.14 100.767 96.3271 92.9706 90.457 88.5007 86.9363 85.9309 85.7083 40.9523 40.9638 40.9983 41.056 41.1367 41.2406 41.3678 41.5181 41.6918 41.8891 42.1099 42.3545 42.623 42.9155 43.2322 43.5734 43.9394 44.3303 44.7464 45.1879 45.6553 46.1488 46.669 47.2162 47.7909 48.3935 49.0246 49.6846 50.3744 51.0945 51.8456 52.6284 53.4436 54.2922 55.1752 56.0939 57.0493 58.0425 59.0748 60.1474 61.2621 62.4204 63.624 64.8746 66.1737 67.5237 68.9279 70.3896 71.912 73.4964 75.1442 76.8578 78.6449 80.5141 82.4731 84.5219 86.658 88.8809 91.2085 93.6681 96.2851 99.06 101.975 105.015 108.222 111.694 115.532 119.759 124.286 129.021 134.004 139.534 145.939 153.297 160.994 168.295 174.529 179.282 182.202 183.024 182.006 179.591 176.159 171.517 165.18 156.732 146.781 136.668 127.711 120.332 114.052 108.36 103.038 98.2721 94.2796 91.1528 88.7453 86.8831 85.4621 84.5707 84.3303 40.4556 40.4667 40.5002 40.5561 40.6343 40.735 40.8582 41.0039 41.1722 41.3633 41.5773 41.8142 42.0743 42.3576 42.6644 42.9949 43.3492 43.7277 44.1305 44.5579 45.0102 45.4878 45.991 46.5203 47.0761 47.6589 48.269 48.907 49.5735 50.2691 50.9945 51.7502 52.5369 53.3554 54.2069 55.0924 56.0129 56.9696 57.9635 58.9958 60.0679 61.1813 62.3374 63.5376 64.7833 66.0766 67.4205 68.8183 70.2731 71.7867 73.3609 74.9981 76.7024 78.4783 80.3308 82.2651 84.2869 86.4019 88.6166 90.9381 93.3737 95.9375 98.6484 101.525 104.584 107.839 111.304 115.007 118.999 123.329 128.022 133.049 138.376 143.953 149.688 155.482 161.155 166.201 170.036 172.118 172.172 170.02 165.552 159.246 151.886 144.231 136.668 129.32 122.302 115.727 109.705 104.342 99.6772 95.6554 92.2141 89.3132 86.9561 85.1509 83.8947 83.1524 82.8837 39.9939 40.0047 40.0372 40.0914 40.1673 40.265 40.3845 40.5258 40.6891 40.8744 41.0819 41.3117 41.5639 41.8387 42.1361 42.4565 42.8 43.1668 43.5572 43.9713 44.4095 44.8721 45.3594 45.8719 46.41 46.9741 47.5644 48.1817 48.8263 49.499 50.2001 50.9303 51.6901 52.4803 53.3021 54.1563 55.0439 55.966 56.9236 57.9176 58.9495 60.0203 61.1313 62.2838 63.4789 64.7185 66.0054 67.3426 68.7329 70.1786 71.682 73.2452 74.8699 76.5574 78.3103 80.137 82.0479 84.0526 86.1508 88.3373 90.6087 92.985 95.5032 98.199 101.073 104.092 107.22 110.488 114.011 117.912 122.202 126.669 131.08 135.321 139.613 144.235 149.302 154.274 158.446 161.134 161.776 159.852 154.982 148.009 140.403 133.554 127.711 122.302 116.755 110.995 105.443 100.534 96.4473 93.008 90.0149 87.3634 85.1353 83.4343 82.3117 81.6749 81.4066 39.5676 39.5781 39.6097 39.6623 39.7361 39.831 39.9471 40.0843 40.2429 40.4229 40.6244 40.8476 41.0925 41.3592 41.648 41.959 42.2924 42.6484 43.0272 43.429 43.854 44.3026 44.7752 45.2721 45.7937 46.3402 46.9122 47.5101 48.1343 48.7854 49.4639 50.1702 50.905 51.6689 52.4629 53.2879 54.1448 55.0345 55.9579 56.916 57.9099 58.9407 60.0094 61.1171 62.2649 63.4544 64.688 65.9684 67.2981 68.6794 70.1147 71.606 73.1539 74.7588 76.4219 78.1509 79.9558 81.8455 83.8201 85.8752 88.0075 90.2318 92.5757 95.0657 97.7028 100.462 103.318 106.289 109.45 112.881 116.579 120.38 124.101 127.644 131.148 134.79 138.636 142.301 145.289 147.117 147.394 145.763 141.962 136.585 130.667 125.186 120.332 115.727 110.995 106.106 101.373 97.1242 93.5028 90.4007 87.6921 85.3132 83.3223 81.7914 80.7577 80.1624 79.9301 39.1771 39.1874 39.2181 39.2693 39.341 39.4334 39.5463 39.6798 39.8341 40.0092 40.2052 40.4222 40.6603 40.9197 41.2005 41.5028 41.8269 42.1729 42.541 42.9314 43.3444 43.7801 44.2391 44.7215 45.2278 45.7583 46.3132 46.8931 47.4984 48.1296 48.7871 49.4714 50.1829 50.9225 51.6908 52.4887 53.3171 54.1767 55.0684 55.993 56.9516 57.9451 58.9744 60.0405 61.1444 62.2873 63.4716 64.6992 65.9725 67.2936 68.6645 70.0871 71.5621 73.0897 74.6711 76.3114 78.017 79.7942 81.6463 83.5755 85.5838 87.6764 89.8602 92.1424 94.5303 97.0313 99.6528 102.397 105.258 108.23 111.299 114.44 117.623 120.799 123.865 126.707 129.2 131.18 132.471 132.917 132.473 131.135 128.912 125.919 122.329 118.317 114.052 109.705 105.443 101.373 97.5421 93.9933 90.7644 87.8842 85.3807 83.2709 81.5492 80.208 79.2435 78.6637 78.4785 38.8227 38.8327 38.8627 38.9126 38.9825 39.0725 39.1825 39.3126 39.463 39.6336 39.8245 40.036 40.268 40.5206 40.7941 41.0885 41.4041 41.7409 42.0993 42.4793 42.8812 43.3052 43.7517 44.2209 44.7132 45.2289 45.7683 46.3317 46.9197 47.5326 48.1709 48.8349 49.5252 50.2424 50.9872 51.7603 52.5625 53.3945 54.257 55.1508 56.0768 57.0359 58.0289 59.0567 60.1202 61.2205 62.3593 63.5386 64.76 66.0254 67.3366 68.6951 70.1018 71.5576 73.0636 74.6224 76.2373 77.9118 79.6513 81.4625 83.3511 85.3157 87.3494 89.446 91.6156 93.8847 96.28 98.7933 101.369 103.947 106.509 109.114 111.833 114.648 117.308 119.523 121.054 121.883 122.045 121.595 120.706 119.593 118.431 117.035 115.033 112.091 108.36 104.342 100.534 97.1242 93.9933 91.01 88.1445 85.5077 83.2202 81.3475 79.848 78.6676 77.779 77.2287 77.0759 38.5048 38.5145 38.5437 38.5925 38.6608 38.7486 38.8561 38.9831 39.1299 39.2965 39.4829 39.6893 39.9157 40.1623 40.4292 40.7165 41.0243 41.353 41.7025 42.0731 42.465 42.8784 43.3136 43.771 44.2507 44.753 45.2782 45.8268 46.3991 46.9955 47.6163 48.2621 48.9332 49.6301 50.3536 51.1042 51.8826 52.6895 53.5255 54.3913 55.2877 56.2156 57.1756 58.1686 59.1954 60.2569 61.3546 62.4899 63.6643 64.8791 66.1358 67.4357 68.7799 70.1696 71.6056 73.0896 74.6233 76.2085 77.8497 79.5526 81.3223 83.1569 85.0492 86.9926 88.9927 91.0676 93.2352 95.486 97.7721 100.043 102.279 104.519 106.809 109.128 111.276 113.019 114.171 114.732 114.749 114.28 113.47 112.489 111.476 110.277 108.59 106.14 103.038 99.6772 96.4473 93.5028 90.7644 88.1445 85.6298 83.3104 81.2836 79.6049 78.2488 77.1804 76.3831 75.8911 75.747 38.2235 38.2331 38.2617 38.3094 38.3762 38.4621 38.5673 38.6916 38.8352 38.9982 39.1806 39.3825 39.604 39.8452 40.1062 40.3872 40.6882 41.0095 41.3512 41.7135 42.0965 42.5005 42.9257 43.3724 43.8408 44.3313 44.844 45.3793 45.9376 46.5192 47.1246 47.7541 48.408 49.0869 49.7913 50.5219 51.2792 52.0637 52.876 53.7167 54.5867 55.4866 56.4171 57.3789 58.3729 59.3998 60.4606 61.5567 62.6889 63.8584 65.0664 66.314 67.6021 68.9319 70.3045 71.7209 73.1824 74.69 76.2457 77.8516 79.5097 81.2206 82.9833 84.797 86.6601 88.5703 90.525 92.5174 94.534 96.561 98.5796 100.561 102.476 104.284 105.921 107.317 108.407 109.146 109.496 109.424 108.929 108.023 106.718 105.047 103.049 100.767 98.2721 95.6554 93.008 90.4007 87.8842 85.5077 83.3104 81.3174 79.5524 78.0355 76.7788 75.7935 75.0881 74.6631 74.5176 37.9793 37.9887 38.0167 38.0635 38.1291 38.2134 38.3165 38.4385 38.5794 38.7392 38.9181 39.1161 39.3333 39.5698 39.8257 40.1011 40.3962 40.7111 41.046 41.4009 41.7762 42.172 42.5885 43.0259 43.4846 43.9646 44.4664 44.9901 45.5362 46.105 46.6968 47.312 47.951 48.6141 49.3019 50.015 50.7537 51.5186 52.3102 53.1291 53.9759 54.8513 55.756 56.6906 57.6557 58.6521 59.6807 60.7422 61.8375 62.9675 64.1329 65.3348 66.5739 67.8512 69.1677 70.5244 71.9221 73.3616 74.8427 76.3642 77.9255 79.5283 81.1767 82.8739 84.6136 86.3792 88.1539 89.9325 91.7252 93.5436 95.3701 97.1311 98.7467 100.167 101.424 102.564 103.608 104.479 105.072 105.285 105.018 104.17 102.67 100.677 98.474 96.3271 94.2796 92.2141 90.0149 87.6921 85.3807 83.2202 81.2836 79.5524 78.0017 76.6272 75.4652 74.557 73.9271 73.5553 73.4137 37.7724 37.7816 37.8092 37.8552 37.9197 38.0026 38.104 38.224 38.3625 38.5197 38.6956 38.8903 39.1039 39.3364 39.5879 39.8586 40.1487 40.4581 40.7872 41.136 41.5047 41.8934 42.3025 42.7321 43.1824 43.6536 44.1461 44.66 45.1957 45.7536 46.3339 46.937 47.5631 48.2128 48.8865 49.5846 50.3075 51.0557 51.8297 52.63 53.4572 54.3118 55.1944 56.1057 57.0462 58.0165 59.0173 60.0493 61.1131 62.2093 63.3387 64.5019 65.6995 66.9323 68.2009 69.506 70.8483 72.2282 73.6445 75.0951 76.5781 78.0941 79.6457 81.2351 82.8557 84.492 86.1285 87.758 89.385 91.0149 92.6306 94.1714 95.5718 96.7907 97.8551 98.8037 99.6547 100.344 100.787 100.901 100.606 99.8258 98.5043 96.7723 94.8563 92.9706 91.1528 89.3132 87.3634 85.3132 83.2709 81.3475 79.6049 78.0355 76.6272 75.3819 74.3296 73.5034 72.9245 72.581 72.4556 37.6029 37.6119 37.6392 37.6846 37.7481 37.8299 37.93 38.0482 38.1849 38.3399 38.5133 38.7053 38.9158 39.1451 39.3931 39.6599 39.9458 40.2508 40.5751 40.9188 41.2821 41.6651 42.068 42.4911 42.9346 43.3986 43.8834 44.3893 44.9165 45.4654 46.0362 46.6293 47.245 47.8836 48.5456 49.2313 49.9412 50.6757 51.4353 52.2203 53.0312 53.8687 54.7332 55.6253 56.5454 57.4941 58.472 59.4795 60.5173 61.5857 62.6855 63.8171 64.9809 66.1771 67.4062 68.6684 69.9641 71.2935 72.6553 74.0477 75.4688 76.9168 78.3899 79.8863 81.4015 82.9283 84.4595 85.9849 87.4902 88.9606 90.379 91.7235 92.9715 94.0992 95.0797 95.8854 96.4889 96.8633 96.9819 96.8216 96.381 95.6663 94.6859 93.4668 92.0449 90.457 88.7453 86.9561 85.1353 83.3223 81.5492 79.848 78.2488 76.7788 75.4652 74.3296 73.3822 72.6322 72.0884 71.7593 71.653 37.4708 37.4798 37.5068 37.5517 37.6145 37.6954 37.7944 37.9114 38.0465 38.1998 38.3713 38.5612 38.7694 38.9961 39.2413 39.5051 39.7878 40.0893 40.4099 40.7496 41.1087 41.4872 41.8853 42.3034 42.7415 43.1998 43.6787 44.1782 44.6988 45.2407 45.8041 46.3894 46.9968 47.6268 48.2796 48.9557 49.6555 50.3792 51.1274 51.9005 52.6988 53.5229 54.3733 55.2503 56.1544 57.0861 58.0459 59.0343 60.0516 61.0983 62.175 63.282 64.4193 65.5871 66.7851 68.0135 69.2722 70.5612 71.8794 73.2256 74.5982 75.9937 77.4068 78.8326 80.2675 81.71 83.1583 84.6005 86.0106 87.3619 88.6374 89.84 90.9744 92.0279 92.9381 93.6344 94.0601 94.2148 94.1119 93.77 93.2373 92.573 91.8257 90.9545 89.8723 88.5007 86.8831 85.1509 83.4343 81.7914 80.208 78.6676 77.1804 75.7935 74.557 73.5034 72.6322 71.9388 71.425 71.1096 71.0144 37.3764 37.3854 37.4121 37.4566 37.519 37.5993 37.6974 37.8135 37.9475 38.0996 38.2698 38.4581 38.6646 38.8895 39.1327 39.3944 39.6747 39.9738 40.2917 40.6286 40.9846 41.3598 41.7546 42.169 42.6033 43.0576 43.5321 44.0272 44.543 45.0798 45.6379 46.2176 46.8192 47.4429 48.0892 48.7583 49.4508 50.1668 50.9069 51.6714 52.4607 53.2751 54.1153 54.9814 55.8741 56.7936 57.7404 58.7149 59.7175 60.7487 61.8088 62.8981 64.0165 65.1637 66.3394 67.5434 68.7754 70.035 71.3213 72.633 73.9689 75.3252 76.6967 78.078 79.4642 80.8506 82.2323 83.5986 84.9305 86.2083 87.4162 88.546 89.5903 90.5328 91.3326 91.9446 92.3319 92.4905 92.4245 92.1412 91.6653 91.0279 90.2555 89.3365 88.2392 86.9363 85.4621 83.8947 82.3117 80.7577 79.2435 77.779 76.3831 75.0881 73.9271 72.9245 72.0884 71.425 70.9412 70.6461 70.5488 37.3198 37.3286 37.3552 37.3995 37.4616 37.5415 37.6392 37.7547 37.8881 38.0394 38.2088 38.3962 38.6017 38.8255 39.0675 39.3279 39.6068 39.9044 40.2207 40.5559 40.91 41.2834 41.676 42.0883 42.5202 42.9721 43.4441 43.9364 44.4493 44.9831 45.5381 46.1144 46.7124 47.3323 47.9747 48.6397 49.3277 50.0391 50.7743 51.5336 52.3174 53.1261 53.9601 54.8197 55.7055 56.6177 57.5567 58.5229 59.5166 60.5384 61.5884 62.6669 63.7738 64.9085 66.0708 67.2601 68.4762 69.7186 70.986 72.2769 73.5895 74.9208 76.2669 77.6237 78.9842 80.339 81.6781 82.9924 84.2732 85.5119 86.6937 87.7916 88.7773 89.6281 90.3368 90.8987 91.3065 91.5431 91.5888 91.4246 91.0356 90.4087 89.5358 88.4565 87.2345 85.9309 84.5707 83.1524 81.6749 80.1624 78.6637 77.2287 75.8911 74.6631 73.5553 72.581 71.7593 71.1096 70.6461 70.3667 70.2671 37.3009 37.3097 37.3363 37.3805 37.4425 37.5223 37.6198 37.7351 37.8683 38.0194 38.1885 38.3756 38.5808 38.8042 39.0458 39.3058 39.5842 39.8813 40.1971 40.5316 40.8852 41.2579 41.6499 42.0614 42.4926 42.9437 43.4148 43.9062 44.4182 44.9509 45.5048 46.08 46.6768 47.2956 47.9366 48.6002 49.2868 49.9967 50.7303 51.4878 52.2697 53.0765 53.9084 54.766 55.6495 56.5594 57.496 58.4595 59.4504 60.4689 61.5154 62.5901 63.6927 64.823 65.9808 67.1658 68.3776 69.6159 70.8789 72.1643 73.4695 74.7914 76.1262 77.4701 78.8174 80.1602 81.4906 82.7982 84.069 85.2889 86.4427 87.5135 88.4845 89.3377 90.0534 90.6114 90.9928 91.1846 91.1748 90.9541 90.5272 89.904 89.0948 88.1143 86.9795 85.7083 84.3303 82.8837 81.4066 79.9301 78.4785 77.0759 75.747 74.5176 73.4137 72.4556 71.653 71.0144 70.5488 70.2671 70.1802 </DataArray> 
<DataArray type="Float32" Name="gradient" format="ascii" NumberOfComponents="3"> 
-0.095762 -0.095762 0 0.398069 -0.0958483 0 0.759193 -0.096068 0 0.987611 -0.0964173 0 1.08332 -0.0968922 0 1.04633 -0.097489 0 0.876629 -0.0982037 0 0.518107 -0.0990313 0 -0.166405 -0.0999558 0 -1.18314 -0.100956 0 -2.53211 -0.10201 0 -4.2133 -0.103097 0 -6.22671 -0.104195 0 -8.58627 -0.105282 0 -11.3755 -0.10634 0 -14.6082 -0.107349 0 -18.2845 -0.108291 0 -22.4043 -0.109149 0 -26.9677 -0.109903 0 -31.9737 -0.110535 0 -37.4032 -0.111025 0 -43.248 -0.111347 0 -49.5084 -0.111475 0 -56.1842 -0.111384 0 -63.2755 -0.111046 0 -70.7823 -0.110437 0 -78.6277 -0.109539 0 -86.735 -0.108371 0 -95.1041 -0.10696 0 -103.735 -0.105333 0 -112.628 -0.103518 0 -121.782 -0.101542 0 -131.133 -0.0994286 0 -140.516 -0.0971559 0 -149.924 -0.0946817 0 -159.359 -0.0919632 0 -168.818 -0.0889574 0 -178.304 -0.0856215 0 -187.783 -0.0819153 0 -197.068 -0.0778597 0 -206.126 -0.0735369 0 -214.957 -0.0690318 0 -223.561 -0.064429 0 -231.939 -0.0598135 0 -240.084 -0.0552698 0 -247.854 -0.0508593 0 -255.191 -0.0465978 0 -262.096 -0.0424961 0 -268.569 -0.038565 0 -274.609 -0.0348153 0 -280.217 -0.0312576 0 -285.333 -0.0278952 0 -289.898 -0.0247007 0 -293.912 -0.0216391 0 -297.375 -0.0186755 0 -300.288 -0.0157749 0 -302.649 -0.0129025 0 -304.454 -0.0100285 0 -305.688 -0.00716914 0 -306.35 -0.00436414 0 -306.441 -0.00165349 0 -305.96 0.000922835 0 -304.907 0.00332486 0 -303.291 0.005513 0 -301.154 0.00745642 0 -298.506 0.00913301 0 -295.346 0.0105211 0 -291.673 0.0115989 0 -287.489 0.0123448 0 -282.796 0.0127374 0 -277.668 0.0128071 0 -272.135 0.0126843 0 -266.197 0.012511 0 -259.855 0.012429 0 -253.108 0.0125803 0 -245.955 0.013107 0 -238.458 0.0140831 0 -230.677 0.0153126 0 -222.611 0.0165315 0 -214.261 0.0174757 0 -205.626 0.0178815 0 -196.706 0.0174849 0 -187.533 0.0160662 0 -178.179 0.0137917 0 -168.648 0.0110263 0 -158.941 0.00813641 0 -149.057 0.0054886 0 -138.996 0.00344936 0 -128.77 0.00237111 0 -118.441 0.00228241 0 -108.02 0.00288792 0 -97.5073 0.00387825 0 -86.9032 0.00494399 0 -76.2074 0.00577572 0 -65.4219 0.00606568 0 -54.5893 0.00570418 0 -43.7271 0.00496621 0 -32.8352 0.00417097 0 -21.9136 0.00363766 0 -10.9624 0.00368547 0 0.0183896 0.0046336 0 -0.0958483 0.398069 0 0.410654 0.410654 0 0.78434 0.44857 0 1.02521 0.511595 0 1.13327 0.599506 0 1.1085 0.712083 0 0.950927 0.849103 0 0.604359 1.01031 0 -0.068512 1.1952 0 -1.07393 1.4031 0 -2.41189 1.63336 0 -4.0824 1.88533 0 -6.08545 2.15835 0 -8.435 2.45176 0 -11.2147 2.76463 0 -14.4386 3.09581 0 -18.1066 3.44412 0 -22.2187 3.80839 0 -26.7749 4.18744 0 -31.7744 4.5801 0 -37.198 4.98506 0 -43.0379 5.4007 0 -49.294 5.82541 0 -55.9665 6.25756 0 -63.0552 6.6955 0 -70.5601 7.13762 0 -78.4046 7.58225 0 -86.5119 8.02757 0 -94.882 8.47172 0 -103.515 8.91284 0 -112.411 9.34909 0 -121.569 9.77861 0 -130.924 10.1995 0 -140.312 10.6102 0 -149.727 11.009 0 -159.169 11.3942 0 -168.636 11.7642 0 -178.13 12.1174 0 -187.619 12.4522 0 -196.914 12.7672 0 -205.982 13.0614 0 -214.824 13.3338 0 -223.441 13.5833 0 -231.831 13.8089 0 -239.988 14.0096 0 -247.771 14.1845 0 -255.122 14.3336 0 -262.04 14.4567 0 -268.526 14.5536 0 -274.579 14.6241 0 -280.2 14.6682 0 -285.329 14.6858 0 -289.907 14.6776 0 -293.934 14.6441 0 -297.409 14.5861 0 -300.333 14.5043 0 -302.706 14.3995 0 -304.522 14.2723 0 -305.766 14.1238 0 -306.438 13.9553 0 -306.538 13.768 0 -306.066 13.5633 0 -305.021 13.3423 0 -303.411 13.1062 0 -301.281 12.8566 0 -298.639 12.5947 0 -295.484 12.3221 0 -291.816 12.0402 0 -287.635 11.7505 0 -282.945 11.4544 0 -277.82 11.1533 0 -272.288 10.8486 0 -266.351 10.5417 0 -260.009 10.2339 0 -253.261 9.92666 0 -246.107 9.62122 0 -238.608 9.31893 0 -230.824 9.02082 0 -222.756 8.72783 0 -214.402 8.44093 0 -205.764 8.16109 0 -196.84 7.88924 0 -187.663 7.62635 0 -178.304 7.37322 0 -168.768 7.1306 0 -159.055 6.89924 0 -149.165 6.6799 0 -139.097 6.47331 0 -128.863 6.28021 0 -118.526 6.10113 0 -108.098 5.93633 0 -97.5782 5.7861 0 -86.9666 5.65071 0 -76.2634 5.53043 0 -65.4705 5.42553 0 -54.6303 5.33627 0 -43.7601 5.26287 0 -32.8601 5.20555 0 -21.9302 5.16453 0 -10.9703 5.14001 0 0.0194443 5.13223 0 -0.096068 0.759193 0 0.44857 0.78434 0 0.860062 0.860062 0 1.13841 0.985919 0 1.28361 1.16147 0 1.29566 1.38629 0 1.17456 1.65993 0 0.863966 1.9819 0 0.2261 2.35116 0 -0.745294 2.76641 0 -2.05022 3.22634 0 -3.68867 3.72965 0 -5.66065 4.27504 0 -7.9802 4.86116 0 -10.7316 5.48621 0 -13.9289 6.14787 0 -17.572 6.84381 0 -21.6611 7.57169 0 -26.196 8.32918 0 -31.176 9.11395 0 -36.5823 9.92338 0 -42.4074 10.7543 0 -48.6511 11.6033 0 -55.3136 12.4673 0 -62.3948 13.343 0 -69.8947 14.2272 0 -77.7368 15.1164 0 -85.8444 16.0071 0 -94.2176 16.8956 0 -102.856 17.7782 0 -111.761 18.6512 0 -120.93 19.511 0 -130.299 20.3538 0 -139.704 21.1763 0 -149.138 21.9751 0 -158.601 22.747 0 -168.093 23.4885 0 -177.614 24.1964 0 -187.132 24.8674 0 -196.456 25.4989 0 -205.557 26.0887 0 -214.433 26.6348 0 -223.084 27.1353 0 -231.51 27.588 0 -239.706 27.991 0 -247.528 28.3428 0 -254.917 28.6429 0 -261.874 28.891 0 -268.4 29.0869 0 -274.492 29.2302 0 -280.153 29.3206 0 -285.322 29.3581 0 -289.938 29.3438 0 -294.002 29.2789 0 -297.513 29.165 0 -300.473 29.0034 0 -302.88 28.7954 0 -304.729 28.5425 0 -306.004 28.2468 0 -306.705 27.9108 0 -306.832 27.5372 0 -306.385 27.1284 0 -305.364 26.687 0 -303.776 26.2155 0 -301.665 25.7167 0 -299.04 25.1934 0 -295.9 24.6486 0 -292.245 24.0853 0 -288.075 23.5063 0 -283.393 22.9146 0 -278.274 22.313 0 -272.747 21.7042 0 -266.813 21.0908 0 -260.47 20.4754 0 -253.721 19.8607 0 -246.563 19.2493 0 -239.059 18.6438 0 -231.268 18.0463 0 -223.191 17.459 0 -214.828 16.884 0 -206.178 16.3234 0 -197.242 15.7794 0 -188.049 15.254 0 -178.675 14.7488 0 -169.123 14.265 0 -159.393 13.8037 0 -149.484 13.3663 0 -139.397 12.954 0 -129.142 12.568 0 -118.785 12.2092 0 -108.335 11.8786 0 -97.7931 11.5768 0 -87.159 11.3047 0 -76.4328 11.063 0 -65.6162 10.8527 0 -54.7522 10.6741 0 -43.858 10.5276 0 -32.9337 10.4134 0 -21.9793 10.3316 0 -10.9948 10.2824 0 0.0197768 10.266 0 -0.0964173 0.987611 0 0.511595 1.02521 0 0.985919 1.13841 0 1.32656 1.32656 0 1.5335 1.58901 0 1.60677 1.92514 0 1.54634 2.33429 0 1.29556 2.81572 0 0.715935 3.36793 0 -0.198844 3.98897 0 -1.44877 4.67693 0 -3.03385 5.42986 0 -4.95408 6.24585 0 -7.22366 7.12293 0 -9.92782 8.05839 0 -13.0808 9.04883 0 -16.6825 10.0908 0 -20.733 11.1808 0 -25.2323 12.3153 0 -30.1796 13.491 0 -35.5569 14.7039 0 -41.357 15.9493 0 -47.58 17.2223 0 -54.2257 18.518 0 -61.2941 19.8316 0 -68.7854 21.1582 0 -76.6231 22.4929 0 -84.731 23.8302 0 -93.1091 25.1646 0 -101.757 26.4907 0 -110.676 27.8029 0 -119.864 29.0956 0 -129.256 30.3634 0 -138.689 31.6012 0 -148.154 32.8038 0 -157.653 33.9664 0 -167.184 35.0839 0 -176.749 36.1514 0 -186.314 37.1638 0 -195.69 38.1171 0 -204.844 39.0082 0 -213.775 39.834 0 -222.485 40.5915 0 -230.972 41.2775 0 -239.231 41.8891 0 -247.117 42.4238 0 -254.571 42.8812 0 -261.594 43.2605 0 -268.184 43.5614 0 -274.343 43.7834 0 -280.07 43.9259 0 -285.305 43.9889 0 -289.985 43.9739 0 -294.111 43.883 0 -297.683 43.7182 0 -300.702 43.4815 0 -303.166 43.1749 0 -305.07 42.8006 0 -306.398 42.3618 0 -307.148 41.8623 0 -307.32 41.3059 0 -306.916 40.6964 0 -305.934 40.0376 0 -304.382 39.3333 0 -302.304 38.5877 0 -299.707 37.8051 0 -296.592 36.99 0 -292.959 36.1467 0 -288.807 35.2797 0 -284.139 34.3933 0 -279.031 33.4919 0 -273.511 32.5794 0 -267.581 31.6597 0 -261.24 30.7369 0 -254.488 29.8148 0 -247.325 28.8975 0 -239.812 27.9887 0 -232.01 27.0917 0 -223.919 26.21 0 -215.538 25.3466 0 -206.869 24.5049 0 -197.911 23.688 0 -188.694 22.8992 0 -179.294 22.1406 0 -169.714 21.4142 0 -159.955 20.7216 0 -150.015 20.0648 0 -139.896 19.4455 0 -129.608 18.8656 0 -119.216 18.3265 0 -108.731 17.8296 0 -98.1524 17.3759 0 -87.4807 16.9669 0 -76.7158 16.6036 0 -65.8596 16.2875 0 -54.9555 16.0192 0 -44.021 15.7992 0 -33.0563 15.6277 0 -22.0613 15.5048 0 -11.036 15.4309 0 0.0196539 15.406 0 -0.0968922 1.08332 0 0.599506 1.13327 0 1.16147 1.28361 0 1.58901 1.5335 0 1.88212 1.88212 0 2.0408 2.32862 0 2.06505 2.87216 0 1.89779 3.51178 0 1.39949 4.2455 0 0.563816 5.07079 0 -0.609243 5.98512 0 -2.11968 6.98596 0 -3.9675 8.0708 0 -6.16713 9.23705 0 -8.80512 10.4812 0 -11.8959 11.7987 0 -15.4395 13.185 0 -19.4359 14.6356 0 -23.885 16.1459 0 -28.7862 17.7113 0 -34.1227 19.3267 0 -39.8876 20.9859 0 -46.0809 22.6822 0 -52.7027 24.4095 0 -59.7529 26.1611 0 -67.2315 27.9307 0 -75.0626 29.7117 0 -83.1703 31.4969 0 -91.5546 33.2789 0 -100.216 35.0504 0 -109.153 36.804 0 -118.367 38.5324 0 -127.791 40.2283 0 -137.261 41.8847 0 -146.77 43.495 0 -156.318 45.0525 0 -165.905 46.5505 0 -175.531 47.9823 0 -185.163 49.3412 0 -194.609 50.6218 0 -203.837 51.8199 0 -212.846 52.9314 0 -221.637 53.9519 0 -230.21 54.8774 0 -238.557 55.7037 0 -246.533 56.4277 0 -254.078 57.0484 0 -261.192 57.5652 0 -267.874 57.9772 0 -274.126 58.2838 0 -279.946 58.4841 0 -285.272 58.5782 0 -290.043 58.568 0 -294.256 58.4562 0 -297.914 58.2455 0 -301.015 57.9385 0 -303.56 57.5379 0 -305.542 57.0466 0 -306.942 56.4688 0 -307.761 55.8095 0 -307.998 55.074 0 -307.654 54.2671 0 -306.727 53.394 0 -305.226 52.4597 0 -303.194 51.4697 0 -300.639 50.43 0 -297.559 49.3463 0 -293.956 48.2245 0 -289.829 47.0707 0 -285.182 45.8906 0 -280.089 44.69 0 -274.58 43.4742 0 -268.656 42.2485 0 -262.317 41.0183 0 -255.561 39.7889 0 -248.391 38.5656 0 -240.866 37.3535 0 -233.048 36.1572 0 -224.938 34.9808 0 -216.534 33.8288 0 -207.838 32.7054 0 -198.849 31.615 0 -189.598 30.5617 0 -180.161 29.5486 0 -170.543 28.5781 0 -160.743 27.6529 0 -150.761 26.7753 0 -140.597 25.9479 0 -130.262 25.1731 0 -119.821 24.4531 0 -109.286 23.7893 0 -98.6563 23.1835 0 -87.9318 22.6373 0 -77.1127 22.1522 0 -66.2009 21.7299 0 -55.2406 21.3716 0 -44.2497 21.0777 0 -33.2283 20.8485 0 -22.1763 20.6843 0 -11.0938 20.5854 0 0.019342 20.5521 0 -0.097489 1.04633 0 0.712083 1.1085 0 1.38629 1.29566 0 1.92514 1.60677 0 2.32862 2.0408 0 2.59674 2.59674 0 2.7295 3.27356 0 2.66929 4.07009 0 2.27528 4.98388 0 1.54108 6.01186 0 0.466683 7.15091 0 -0.947907 8.39795 0 -2.70269 9.74988 0 -4.81238 11.2035 0 -7.36524 12.7546 0 -10.376 14.3975 0 -13.8446 16.1265 0 -17.7711 17.9362 0 -22.1555 19.8208 0 -26.997 21.7748 0 -32.2805 23.7918 0 -37.9996 25.8639 0 -44.1543 27.9833 0 -50.7447 30.1418 0 -57.7707 32.3316 0 -65.2323 34.5447 0 -73.0542 36.7729 0 -81.1609 39.0071 0 -89.5525 41.2383 0 -98.229 43.4572 0 -107.19 45.6547 0 -116.437 47.8215 0 -125.901 49.9485 0 -135.418 52.027 0 -144.983 54.0488 0 -154.593 56.0053 0 -164.251 57.8882 0 -173.954 59.6891 0 -183.672 61.3997 0 -193.208 63.0131 0 -202.531 64.5239 0 -211.64 65.9269 0 -220.535 67.2166 0 -229.217 68.3877 0 -237.678 69.435 0 -245.77 70.3544 0 -253.432 71.1448 0 -260.663 71.805 0 -267.464 72.3342 0 -273.834 72.7313 0 -279.774 72.9953 0 -285.22 73.126 0 -290.106 73.126 0 -294.433 72.9985 0 -298.2 72.7469 0 -301.409 72.3745 0 -304.058 71.8845 0 -306.14 71.2805 0 -307.635 70.5678 0 -308.543 69.7527 0 -308.863 68.8416 0 -308.596 67.8406 0 -307.742 66.7562 0 -306.307 65.5946 0 -304.335 64.3627 0 -301.832 63.0679 0 -298.799 61.7174 0 -295.236 60.3188 0 -291.142 58.8793 0 -286.521 57.4064 0 -281.449 55.9073 0 -275.954 54.3886 0 -270.038 52.8572 0 -263.701 51.3198 0 -256.942 49.783 0 -249.762 48.2538 0 -242.222 46.7384 0 -234.384 45.2426 0 -226.249 43.7715 0 -217.815 42.3306 0 -209.085 40.9251 0 -200.056 39.5604 0 -190.762 38.2416 0 -181.279 36.9727 0 -171.611 35.7569 0 -161.759 34.5975 0 -151.722 33.4979 0 -141.5 32.4611 0 -131.104 31.4906 0 -120.601 30.5888 0 -110.001 29.7579 0 -99.305 28.9996 0 -88.5126 28.3159 0 -77.6237 27.7087 0 -66.6405 27.1801 0 -55.608 26.7313 0 -44.5444 26.363 0 -33.45 26.0757 0 -22.3246 25.8699 0 -11.1682 25.746 0 0.0191079 25.7045 0 -0.0982037 0.876629 0 0.849103 0.950927 0 1.65993 1.17456 0 2.33429 1.54634 0 2.87216 2.06505 0 3.27356 2.7295 0 3.53848 3.53848 0 3.60869 4.49063 0 3.3418 5.58307 0 2.73134 6.81218 0 1.77732 8.17431 0 0.479734 9.66583 0 -1.16142 11.2831 0 -3.16119 13.0224 0 -5.60992 14.8786 0 -8.52266 16.8451 0 -11.8994 18.9153 0 -15.7402 21.0825 0 -20.045 23.3402 0 -24.8131 25.6815 0 -30.0312 28.099 0 -35.6936 30.5835 0 -41.8005 33.1253 0 -48.3517 35.715 0 -55.3472 38.3431 0 -62.7871 41.0002 0 -70.5967 43.6764 0 -78.7013 46.361 0 -87.1009 49.043 0 -95.7954 51.7113 0 -104.785 54.3549 0 -114.069 56.9627 0 -123.582 59.5239 0 -133.157 62.0281 0 -142.788 64.465 0 -152.474 66.8247 0 -162.217 69.0971 0 -172.015 71.2719 0 -181.835 73.3393 0 -191.481 75.291 0 -200.919 77.1202 0 -210.15 78.8206 0 -219.172 80.3855 0 -227.987 81.8084 0 -236.588 83.0828 0 -244.821 84.204 0 -252.625 85.1701 0 -260 85.98 0 -266.946 86.6323 0 -273.462 87.1259 0 -279.55 87.4594 0 -285.141 87.6324 0 -290.169 87.6479 0 -294.635 87.51 0 -298.538 87.2226 0 -301.877 86.7894 0 -304.654 86.2146 0 -306.859 85.5023 0 -308.471 84.6588 0 -309.488 83.6918 0 -309.911 82.6086 0 -309.74 81.4169 0 -308.974 80.1242 0 -307.621 78.7381 0 -305.723 77.2666 0 -303.286 75.7188 0 -300.31 74.1035 0 -296.796 72.4294 0 -292.744 70.7056 0 -288.156 68.9408 0 -283.109 67.1437 0 -277.633 65.3226 0 -271.727 63.4857 0 -265.393 61.6411 0 -258.63 59.7971 0 -251.437 57.9619 0 -243.879 56.1433 0 -236.017 54.3479 0 -227.851 52.5821 0 -219.382 50.852 0 -210.61 49.164 0 -201.534 47.5243 0 -192.187 45.939 0 -182.648 44.413 0 -172.92 42.9505 0 -163.004 41.5556 0 -152.899 40.2324 0 -142.606 38.9852 0 -132.135 37.8179 0 -121.555 36.7339 0 -110.876 35.7352 0 -100.099 34.8241 0 -89.2233 34.0027 0 -78.2492 33.2733 0 -67.1788 32.6379 0 -56.058 32.0982 0 -44.9056 31.6552 0 -33.7217 31.3094 0 -22.5063 31.0617 0 -11.2593 30.9126 0 0.0192182 30.863 0 -0.0990313 0.518107 0 1.01031 0.604359 0 1.9819 0.863966 0 2.81572 1.29556 0 3.51178 1.89779 0 4.07009 2.66929 0 4.49063 3.60869 0 4.71443 4.71443 0 4.59733 5.98327 0 4.13276 7.41105 0 3.32073 8.99363 0 2.16124 10.7269 0 0.654283 12.6066 0 -1.21559 14.6287 0 -3.54116 16.7872 0 -6.33789 19.0745 0 -9.60576 21.4831 0 -13.3448 24.0053 0 -17.555 26.6335 0 -22.2358 29.3601 0 -27.3759 32.1763 0 -32.9706 35.0715 0 -39.0199 38.0347 0 -45.5238 41.0548 0 -52.4823 44.121 0 -59.8954 47.2223 0 -67.6893 50.3473 0 -75.7901 53.4836 0 -84.1979 56.6183 0 -92.9125 59.7384 0 -101.934 62.8313 0 -111.263 65.8839 0 -120.83 68.8835 0 -130.472 71.818 0 -140.181 74.6756 0 -149.956 77.4444 0 -159.798 80.1126 0 -169.706 82.6684 0 -179.648 85.1 0 -189.423 87.3978 0 -198.996 89.5537 0 -208.37 91.56 0 -217.542 93.4089 0 -226.514 95.0927 0 -235.279 96.6035 0 -243.679 97.9355 0 -251.652 99.0868 0 -259.197 100.056 0 -266.314 100.84 0 -273.004 101.439 0 -279.266 101.851 0 -285.03 102.075 0 -290.227 102.115 0 -294.857 101.975 0 -298.92 101.659 0 -302.416 101.173 0 -305.344 100.52 0 -307.696 99.7065 0 -309.446 98.7386 0 -310.594 97.6254 0 -311.139 96.3757 0 -311.082 94.9983 0 -310.422 93.5019 0 -309.166 91.8952 0 -307.356 90.1879 0 -304.997 88.3903 0 -302.091 86.5127 0 -298.636 84.5656 0 -294.633 82.5592 0 -290.086 80.5041 0 -285.069 78.4102 0 -279.615 76.2875 0 -273.723 74.1455 0 -267.392 71.994 0 -260.624 69.8427 0 -253.418 67.7014 0 -245.838 65.5791 0 -237.947 63.4838 0 -229.747 61.4224 0 -221.236 59.4024 0 -212.415 57.4308 0 -203.283 55.515 0 -193.875 53.662 0 -184.269 51.8775 0 -174.471 50.1668 0 -164.479 48.5348 0 -154.294 46.9866 0 -143.916 45.5274 0 -133.356 44.1622 0 -122.684 42.8947 0 -111.912 41.7273 0 -101.038 40.6626 0 -90.0644 39.7027 0 -78.9895 38.8502 0 -67.8161 38.1074 0 -56.5911 37.4762 0 -45.3336 36.9578 0 -34.0438 36.5531 0 -22.7216 36.2631 0 -11.3671 36.0888 0 0.0199054 36.0311 0 -0.0999558 -0.166405 0 1.1952 -0.068512 0 2.35116 0.2261 0 3.36793 0.715935 0 4.2455 1.39949 0 4.98388 2.27528 0 5.58307 3.3418 0 5.98327 4.59733 0 6.03827 6.03827 0 5.74145 7.66006 0 5.09279 9.4581 0 4.09231 11.4278 0 2.73999 13.5646 0 1.01991 15.8639 0 -1.16346 18.319 0 -3.82607 20.9215 0 -6.9679 23.6631 0 -10.589 26.535 0 -14.6892 29.5289 0 -19.2683 32.6362 0 -24.3174 35.8471 0 -29.8327 39.1497 0 -35.8143 42.5314 0 -42.2622 45.9799 0 -49.1764 49.483 0 -56.5568 53.0281 0 -64.3308 56.6026 0 -72.4254 60.1921 0 -80.8407 63.7821 0 -89.5767 67.3578 0 -98.6334 70.9047 0 -108.011 74.408 0 -117.641 77.8532 0 -127.358 81.2263 0 -137.154 84.5137 0 -147.03 87.7019 0 -156.985 90.7773 0 -167.019 93.7261 0 -177.099 96.535 0 -187.02 99.1926 0 -196.75 101.69 0 -206.287 104.017 0 -215.632 106.166 0 -224.785 108.126 0 -233.738 109.89 0 -242.332 111.45 0 -250.499 112.803 0 -258.24 113.948 0 -265.556 114.882 0 -272.445 115.603 0 -278.909 116.11 0 -284.873 116.401 0 -290.266 116.481 0 -295.087 116.354 0 -299.336 116.025 0 -303.013 115.5 0 -306.118 114.783 0 -308.64 113.88 0 -310.551 112.799 0 -311.851 111.551 0 -312.538 110.144 0 -312.614 108.59 0 -312.078 106.898 0 -310.936 105.079 0 -309.229 103.142 0 -306.963 101.1 0 -304.137 98.9656 0 -300.752 96.7496 0 -296.808 94.4643 0 -292.308 92.1216 0 -287.328 89.7333 0 -281.9 87.3105 0 -276.024 84.8646 0 -269.699 82.4066 0 -262.926 79.9479 0 -255.704 77.4997 0 -248.099 75.0727 0 -240.177 72.6757 0 -231.936 70.3169 0 -223.377 68.0047 0 -214.501 65.7475 0 -205.306 63.5533 0 -195.827 61.4305 0 -186.145 59.3857 0 -176.265 57.4249 0 -166.186 55.554 0 -155.909 53.779 0 -145.432 52.1059 0 -134.769 50.5406 0 -123.991 49.0874 0 -113.11 47.7491 0 -102.125 46.5283 0 -91.0372 45.4278 0 -79.846 44.4503 0 -68.5536 43.5985 0 -57.2082 42.8746 0 -45.8293 42.2799 0 -34.4169 41.8155 0 -22.9711 41.4828 0 -11.4917 41.2828 0 0.0211055 41.2168 0 -0.100956 -1.18314 0 1.4031 -1.07393 0 2.76641 -0.745294 0 3.98897 -0.198844 0 5.07079 0.563816 0 6.01186 1.54108 0 6.81218 2.73134 0 7.41105 4.13276 0 7.66006 5.74145 0 7.55246 7.55246 0 7.08826 9.56085 0 6.26746 11.7617 0 5.09005 14.1499 0 3.5396 16.7206 0 1.51744 19.4666 0 -0.99285 22.3787 0 -3.99128 25.4476 0 -7.47786 28.6639 0 -11.4526 32.0184 0 -15.9152 35.5018 0 -20.8595 39.1034 0 -26.2832 42.8097 0 -32.1863 46.6072 0 -38.5686 50.4821 0 -45.4303 54.4207 0 -52.7713 58.4093 0 -60.52 62.4338 0 -68.605 66.4783 0 -77.0262 70.5262 0 -85.7836 74.5613 0 -94.8773 78.567 0 -104.307 82.527 0 -114.005 86.425 0 -123.804 90.2451 0 -133.697 93.9719 0 -143.684 97.59 0 -153.765 101.084 0 -163.94 104.438 0 -174.174 107.638 0 -184.26 110.669 0 -194.164 113.522 0 -203.886 116.186 0 -213.425 118.65 0 -222.782 120.904 0 -231.949 122.937 0 -240.76 124.741 0 -249.148 126.314 0 -257.112 127.652 0 -264.652 128.753 0 -271.769 129.614 0 -278.463 130.233 0 -284.655 130.608 0 -290.271 130.743 0 -295.31 130.645 0 -299.771 130.318 0 -303.655 129.768 0 -306.962 129 0 -309.679 128.021 0 -311.775 126.84 0 -313.248 125.467 0 -314.099 123.914 0 -314.328 122.193 0 -313.934 120.314 0 -312.924 118.289 0 -311.336 116.13 0 -309.176 113.85 0 -306.444 111.463 0 -303.14 108.982 0 -299.264 106.422 0 -294.82 103.795 0 -289.883 101.114 0 -284.487 98.393 0 -278.63 95.6441 0 -272.313 92.8802 0 -265.535 90.114 0 -258.297 87.3582 0 -250.665 84.6252 0 -242.707 81.9248 0 -234.421 79.2667 0 -225.809 76.6602 0 -216.87 74.1149 0 -207.604 71.6402 0 -198.045 69.2455 0 -188.277 66.9384 0 -178.305 64.7257 0 -168.127 62.6141 0 -157.745 60.6104 0 -147.157 58.7215 0 -136.377 56.9539 0 -125.478 55.3127 0 -114.473 53.801 0 -103.361 52.422 0 -92.1439 51.1787 0 -80.8204 50.0742 0 -69.3929 49.1117 0 -57.9105 48.2937 0 -46.3934 47.6217 0 -34.8415 47.097 0 -23.2549 46.721 0 -11.6335 46.4951 0 0.0226016 46.4205 0 -0.10201 -2.53211 0 1.63336 -2.41189 0 3.22634 -2.05022 0 4.67693 -1.44877 0 5.98512 -0.609243 0 7.15091 0.466683 0 8.17431 1.77732 0 8.99363 3.32073 0 9.4581 5.09279 0 9.56085 7.08826 0 9.30188 9.30188 0 8.68121 11.7284 0 7.69882 14.3626 0 6.3377 17.199 0 4.4958 20.2301 0 2.15609 23.446 0 -0.68141 26.8366 0 -4.01671 30.392 0 -7.84982 34.1022 0 -12.1806 37.9571 0 -17.0062 41.9451 0 -22.3254 46.0518 0 -28.1383 50.2621 0 -34.4447 54.5612 0 -41.2449 58.9341 0 -48.5386 63.3658 0 -56.256 67.841 0 -64.3268 72.342 0 -72.7511 76.8506 0 -81.529 81.3487 0 -90.6603 85.8183 0 -100.145 90.241 0 -109.915 94.5989 0 -119.803 98.8744 0 -129.801 103.05 0 -139.909 107.109 0 -150.127 111.033 0 -160.456 114.805 0 -170.86 118.408 0 -181.128 121.827 0 -191.224 125.051 0 -201.15 128.066 0 -210.905 130.862 0 -220.489 133.425 0 -229.894 135.745 0 -238.948 137.811 0 -247.582 139.62 0 -255.795 141.169 0 -263.587 142.454 0 -270.959 143.472 0 -277.91 144.219 0 -284.359 144.695 0 -290.226 144.903 0 -295.509 144.849 0 -300.21 144.539 0 -304.328 143.978 0 -307.863 143.174 0 -310.8 142.131 0 -313.105 140.861 0 -314.776 139.375 0 -315.813 137.686 0 -316.215 135.807 0 -315.983 133.749 0 -315.123 131.526 0 -313.671 129.151 0 -311.632 126.639 0 -309.007 124.005 0 -305.796 121.264 0 -301.999 118.432 0 -297.619 115.523 0 -292.733 112.553 0 -287.374 109.535 0 -281.541 106.484 0 -275.233 103.415 0 -268.452 100.341 0 -261.197 97.2769 0 -253.537 94.2366 0 -245.539 91.2312 0 -237.204 88.2717 0 -228.533 85.3687 0 -219.524 82.5331 0 -210.179 79.7757 0 -200.531 77.1071 0 -190.668 74.5357 0 -180.592 72.0692 0 -170.304 69.7151 0 -159.804 67.4809 0 -149.092 65.3741 0 -138.18 63.4022 0 -127.146 61.5707 0 -116.002 59.8833 0 -104.749 58.3436 0 -93.3867 56.9553 0 -81.9146 55.7219 0 -70.3352 54.647 0 -58.6991 53.7337 0 -47.0267 52.9834 0 -35.3183 52.3977 0 -23.5736 51.9779 0 -11.7928 51.7256 0 0.0241756 51.6422 0 -0.103097 -4.2133 0 1.88533 -4.0824 0 3.72965 -3.68867 0 5.42986 -3.03385 0 6.98596 -2.11968 0 8.39795 -0.947907 0 9.66583 0.479734 0 10.7269 2.16124 0 11.4278 4.09231 0 11.7617 6.26746 0 11.7284 8.68121 0 11.3281 11.3281 0 10.5606 14.2025 0 9.40848 17.299 0 7.76585 20.6095 0 5.6151 24.1234 0 2.95625 27.8303 0 -0.210722 31.7193 0 -3.8858 35.7801 0 -8.06902 40.0019 0 -12.7611 44.3724 0 -17.9623 48.8758 0 -23.6727 53.4962 0 -29.8923 58.2173 0 -36.621 63.0232 0 -43.8588 67.8977 0 -51.5375 72.8241 0 -59.5886 77.7833 0 -68.0123 82.7552 0 -76.8085 87.7202 0 -85.9771 92.6584 0 -95.5183 97.5499 0 -105.363 102.375 0 -115.344 107.114 0 -125.454 111.748 0 -135.692 116.258 0 -146.059 120.623 0 -156.555 124.826 0 -167.143 128.846 0 -177.608 132.667 0 -187.916 136.276 0 -198.065 139.659 0 -208.056 142.801 0 -217.889 145.691 0 -227.556 148.314 0 -236.878 150.659 0 -245.783 152.722 0 -254.271 154.498 0 -262.343 155.984 0 -269.997 157.176 0 -277.234 158.07 0 -283.968 158.662 0 -290.114 158.959 0 -295.67 158.965 0 -300.638 158.687 0 -305.017 158.131 0 -308.807 157.303 0 -311.992 156.209 0 -314.531 154.862 0 -316.423 153.274 0 -317.668 151.459 0 -318.266 149.431 0 -318.216 147.204 0 -317.525 144.79 0 -316.226 142.206 0 -314.325 139.467 0 -311.822 136.591 0 -308.717 133.595 0 -305.009 130.494 0 -300.703 127.307 0 -295.876 124.049 0 -290.56 120.736 0 -284.755 117.385 0 -278.461 114.01 0 -271.678 110.629 0 -264.406 107.256 0 -256.715 103.907 0 -248.676 100.595 0 -240.288 97.3319 0 -231.552 94.1302 0 -222.467 91.0021 0 -213.034 87.9597 0 -203.288 85.0151 0 -193.318 82.1776 0 -183.129 79.4555 0 -172.719 76.8571 0 -162.089 74.3904 0 -151.239 72.0638 0 -140.182 69.8854 0 -128.999 67.8612 0 -117.702 65.9958 0 -106.291 64.2931 0 -94.7676 62.7576 0 -83.1304 61.3932 0 -71.3822 60.2044 0 -59.575 59.1944 0 -47.7302 58.3649 0 -35.8477 57.7174 0 -23.9276 57.2534 0 -11.9698 56.9744 0 0.0256093 56.8819 0 -0.104195 -6.22671 0 2.15835 -6.08545 0 4.27504 -5.66065 0 6.24585 -4.95408 0 8.0708 -3.9675 0 9.74988 -2.70269 0 11.2831 -1.16142 0 12.6066 0.654283 0 13.5646 2.73999 0 14.1499 5.09005 0 14.3626 7.69882 0 14.2025 10.5606 0 13.6698 13.6698 0 12.7462 17.0207 0 11.3218 20.6047 0 9.3785 24.411 0 6.9162 28.4285 0 3.93491 32.6459 0 0.434649 37.0522 0 -3.58481 41.6363 0 -8.12814 46.385 0 -13.1973 51.2818 0 -18.7922 56.3093 0 -24.9129 61.4505 0 -31.5594 66.6881 0 -38.7317 72.005 0 -46.3635 77.3833 0 -54.3884 82.8021 0 -62.8065 88.2401 0 -71.6178 93.6757 0 -80.8222 99.0874 0 -90.4197 104.454 0 -100.342 109.753 0 -110.42 114.965 0 -120.648 120.066 0 -131.024 125.037 0 -141.549 129.856 0 -152.223 134.501 0 -163.009 138.951 0 -173.688 143.189 0 -184.223 147.197 0 -194.615 150.963 0 -204.862 154.469 0 -214.966 157.701 0 -224.918 160.643 0 -234.533 163.284 0 -243.735 165.618 0 -252.525 167.64 0 -260.902 169.345 0 -268.866 170.728 0 -276.419 171.784 0 -283.467 172.511 0 -289.92 172.912 0 -295.778 172.993 0 -301.041 172.762 0 -305.709 172.225 0 -309.782 171.387 0 -313.241 170.256 0 -316.041 168.843 0 -318.18 167.164 0 -319.657 165.234 0 -320.472 163.067 0 -320.626 160.677 0 -320.124 158.081 0 -318.997 155.294 0 -317.25 152.335 0 -314.884 149.222 0 -311.897 145.974 0 -308.291 142.609 0 -304.069 139.146 0 -299.309 135.603 0 -294.043 131.997 0 -288.272 128.346 0 -281.995 124.667 0 -275.212 120.977 0 -267.924 117.295 0 -260.202 113.636 0 -252.119 110.016 0 -243.674 106.447 0 -234.868 102.945 0 -225.7 99.5219 0 -216.17 96.1923 0 -206.317 92.9696 0 -196.231 89.864 0 -185.916 86.8845 0 -175.373 84.0399 0 -164.601 81.339 0 -153.6 78.7906 0 -142.385 76.4034 0 -131.038 74.1844 0 -119.573 72.1385 0 -107.99 70.2706 0 -96.2887 68.5856 0 -84.4697 67.0884 0 -72.5352 65.7839 0 -60.5395 64.6759 0 -48.5045 63.7662 0 -36.4304 63.0562 0 -24.3172 62.5475 0 -12.1648 62.2415 0 0.0266847 62.1397 0 -0.105282 -8.58627 0 2.45176 -8.435 0 4.86116 -7.9802 0 7.12293 -7.22366 0 9.23705 -6.16713 0 11.2035 -4.81238 0 13.0224 -3.16119 0 14.6287 -1.21559 0 15.8639 1.01991 0 16.7206 3.5396 0 17.199 6.3377 0 17.299 9.40848 0 17.0207 12.7462 0 16.3449 16.3449 0 15.1579 20.1961 0 13.4405 24.2883 0 11.1928 28.6099 0 8.41485 33.1495 0 5.10656 37.8955 0 1.26754 42.8365 0 -3.11125 47.9586 0 -8.03351 53.2444 0 -13.4992 58.6755 0 -19.5085 64.2338 0 -26.0611 69.9011 0 -33.1573 75.6594 0 -40.7329 81.4895 0 -48.724 87.3692 0 -57.1306 93.2754 0 -65.9526 99.185 0 -75.1901 105.075 0 -84.8431 110.922 0 -94.8428 116.703 0 -105.021 122.395 0 -115.371 127.974 0 -125.892 133.417 0 -136.584 138.7 0 -147.448 143.801 0 -158.445 148.695 0 -169.352 153.364 0 -180.132 157.788 0 -190.783 161.952 0 -201.307 165.839 0 -211.704 169.431 0 -221.964 172.711 0 -231.895 175.667 0 -241.42 178.29 0 -250.537 180.576 0 -259.247 182.519 0 -267.55 184.112 0 -275.446 185.349 0 -282.838 186.227 0 -289.628 186.751 0 -295.816 186.925 0 -301.404 186.758 0 -306.39 186.254 0 -310.774 185.422 0 -314.536 184.267 0 -317.623 182.803 0 -320.034 181.045 0 -321.768 179.01 0 -322.824 176.714 0 -323.204 174.173 0 -322.912 171.402 0 -321.976 168.42 0 -320.401 165.247 0 -318.187 161.903 0 -315.334 158.408 0 -311.842 154.783 0 -307.714 151.048 0 -303.03 147.222 0 -297.822 143.324 0 -292.09 139.374 0 -285.835 135.391 0 -279.056 131.394 0 -271.752 127.401 0 -263.999 123.432 0 -255.87 119.501 0 -247.364 115.625 0 -238.483 111.82 0 -229.225 108.099 0 -219.591 104.48 0 -209.62 100.977 0 -199.407 97.6008 0 -188.956 94.3615 0 -178.268 91.2683 0 -167.342 88.3307 0 -156.178 85.5581 0 -144.791 82.9598 0 -133.266 80.5433 0 -121.618 78.3143 0 -109.847 76.2787 0 -97.9521 74.4419 0 -85.9344 72.8098 0 -73.7959 71.3878 0 -61.5936 70.1805 0 -49.3507 69.1894 0 -37.0671 68.4162 0 -24.743 67.8621 0 -12.3782 67.5287 0 0.0271955 67.4173 0 -0.10634 -11.3755 0 2.76463 -11.2147 0 5.48621 -10.7316 0 8.05839 -9.92782 0 10.4812 -8.80512 0 12.7546 -7.36524 0 14.8786 -5.60992 0 16.7872 -3.54116 0 18.319 -1.16346 0 19.4666 1.51744 0 20.2301 4.4958 0 20.6095 7.76585 0 20.6047 11.3218 0 20.1961 15.1579 0 19.2652 19.2652 0 17.7923 23.6321 0 15.7775 28.2469 0 13.2206 33.0976 0 10.1218 38.1726 0 6.48034 43.46 0 2.28248 48.9456 0 -2.47746 54.6111 0 -7.79948 60.4374 0 -13.6836 66.4055 0 -20.1298 72.4963 0 -27.138 78.6909 0 -34.647 84.9693 0 -42.5953 91.3078 0 -50.983 97.6818 0 -59.81 104.067 0 -69.0764 110.437 0 -78.7821 116.77 0 -88.8586 123.039 0 -99.1385 129.22 0 -109.614 135.287 0 -120.285 141.214 0 -131.152 146.977 0 -142.214 152.549 0 -153.434 157.906 0 -164.583 163.025 0 -175.621 167.886 0 -186.55 172.472 0 -197.37 176.763 0 -208.08 180.74 0 -218.671 184.384 0 -228.943 187.681 0 -238.814 190.621 0 -248.285 193.199 0 -257.355 195.407 0 -266.025 197.237 0 -274.294 198.683 0 -282.058 199.74 0 -289.215 200.413 0 -295.764 200.706 0 -301.705 200.627 0 -307.039 200.183 0 -311.764 199.379 0 -315.858 198.222 0 -319.261 196.727 0 -321.971 194.911 0 -323.987 192.79 0 -325.31 190.382 0 -325.939 187.704 0 -325.879 184.773 0 -325.155 181.608 0 -323.77 178.232 0 -321.726 174.666 0 -319.021 170.933 0 -315.656 167.054 0 -311.635 163.052 0 -307.037 158.947 0 -301.896 154.761 0 -296.21 150.514 0 -289.981 146.228 0 -283.209 141.922 0 -275.892 137.618 0 -268.108 133.336 0 -259.931 129.094 0 -251.361 124.909 0 -242.4 120.797 0 -233.046 116.776 0 -223.299 112.863 0 -213.201 109.074 0 -202.851 105.422 0 -192.254 101.918 0 -181.409 98.5703 0 -170.316 95.3904 0 -158.976 92.3884 0 -147.403 89.5741 0 -135.686 86.956 0 -123.84 84.5405 0 -111.865 82.3339 0 -99.7604 80.3425 0 -87.5265 78.5728 0 -75.1661 77.0311 0 -62.7391 75.7221 0 -50.27 74.6478 0 -37.7588 73.8096 0 -25.2055 73.2089 0 -12.6102 72.8474 0 0.0272066 72.7265 0 -0.107349 -14.6082 0 3.09581 -14.4386 0 6.14787 -13.9289 0 9.04883 -13.0808 0 11.7987 -11.8959 0 14.3975 -10.376 0 16.8451 -8.52266 0 19.0745 -6.33789 0 20.9215 -3.82607 0 22.3787 -0.99285 0 23.446 2.15609 0 24.1234 5.6151 0 24.411 9.3785 0 24.2883 13.4405 0 23.6321 17.7923 0 22.4221 22.4221 0 20.6583 27.318 0 18.3406 32.4681 0 15.469 37.8604 0 12.0428 43.483 0 8.04279 49.3215 0 3.46139 55.3567 0 -1.70146 61.569 0 -7.44575 67.9387 0 -13.7715 74.446 0 -20.6787 81.0713 0 -28.1089 87.7938 0 -36.0039 94.5885 0 -44.3637 101.429 0 -53.1881 108.29 0 -62.4773 115.145 0 -72.2313 121.967 0 -82.3818 128.731 0 -92.762 135.409 0 -103.364 141.975 0 -114.189 148.399 0 -125.236 154.656 0 -136.505 160.716 0 -147.957 166.554 0 -159.358 172.143 0 -170.67 177.464 0 -181.892 182.496 0 -193.024 187.216 0 -204.067 191.604 0 -215.011 195.64 0 -225.646 199.305 0 -235.889 202.592 0 -245.74 205.49 0 -255.197 207.992 0 -264.261 210.089 0 -272.933 211.773 0 -281.101 213.038 0 -288.655 213.887 0 -295.595 214.327 0 -301.92 214.364 0 -307.632 214.003 0 -312.729 213.253 0 -317.185 212.118 0 -320.933 210.615 0 -323.97 208.76 0 -326.296 206.573 0 -327.911 204.071 0 -328.814 201.273 0 -329.01 198.196 0 -328.52 194.863 0 -327.347 191.295 0 -325.49 187.518 0 -322.951 183.555 0 -319.729 179.429 0 -315.827 175.165 0 -311.327 170.786 0 -306.261 166.314 0 -300.63 161.772 0 -294.434 157.183 0 -287.672 152.569 0 -280.345 147.953 0 -272.529 143.358 0 -264.304 138.802 0 -255.668 134.304 0 -246.622 129.883 0 -237.166 125.558 0 -227.3 121.347 0 -217.066 117.267 0 -206.569 113.334 0 -195.814 109.558 0 -184.801 105.95 0 -173.529 102.522 0 -161.999 99.285 0 -150.227 96.2498 0 -138.303 93.4257 0 -126.243 90.8197 0 -114.048 88.4388 0 -101.716 86.29 0 -89.2488 84.3801 0 -76.6482 82.716 0 -63.9781 81.3031 0 -51.2644 80.1434 0 -38.507 79.2385 0 -25.7059 78.59 0 -12.8613 78.1997 0 0.0270544 78.0691 0 -0.108291 -18.2845 0 3.44412 -18.1066 0 6.84381 -17.572 0 10.0908 -16.6825 0 13.185 -15.4395 0 16.1265 -13.8446 0 18.9153 -11.8994 0 21.4831 -9.60576 0 23.6631 -6.9679 0 25.4476 -3.99128 0 26.8366 -0.68141 0 27.8303 2.95625 0 28.4285 6.9162 0 28.6099 11.1928 0 28.2469 15.7775 0 27.318 20.6583 0 25.8234 25.8234 0 23.763 31.261 0 21.1369 36.959 0 17.9438 42.9056 0 14.1593 49.0862 0 9.77343 55.4812 0 4.78614 62.0703 0 -0.80256 68.8334 0 -6.99267 75.7503 0 -13.7842 82.8006 0 -21.1222 89.9631 0 -28.9517 97.2114 0 -37.2728 104.518 0 -46.0854 111.856 0 -55.3895 119.197 0 -65.1851 126.513 0 -75.4046 133.779 0 -85.8824 140.963 0 -96.611 148.037 0 -107.59 154.972 0 -118.821 161.736 0 -130.302 168.302 0 -141.993 174.638 0 -153.658 180.72 0 -165.254 186.522 0 -176.784 192.023 0 -188.245 197.198 0 -199.64 202.024 0 -210.956 206.478 0 -221.979 210.541 0 -232.617 214.201 0 -242.872 217.449 0 -252.743 220.275 0 -262.231 222.668 0 -271.335 224.619 0 -279.937 226.12 0 -287.919 227.174 0 -295.281 227.788 0 -302.022 227.966 0 -308.143 227.716 0 -313.644 227.044 0 -318.494 225.955 0 -322.618 224.465 0 -326.012 222.594 0 -328.676 220.36 0 -330.61 217.782 0 -331.815 214.88 0 -332.292 211.673 0 -332.06 208.184 0 -331.119 204.437 0 -329.471 200.458 0 -327.115 196.273 0 -324.052 191.908 0 -320.285 187.388 0 -315.895 182.738 0 -310.916 177.983 0 -305.349 173.147 0 -299.192 168.256 0 -292.445 163.334 0 -285.11 158.406 0 -277.266 153.496 0 -268.991 148.625 0 -260.287 143.813 0 -251.154 139.08 0 -241.59 134.446 0 -231.597 129.932 0 -221.219 125.557 0 -210.566 121.337 0 -199.643 117.283 0 -188.45 113.409 0 -176.987 109.726 0 -165.254 106.248 0 -153.267 102.987 0 -141.12 99.9524 0 -128.831 97.1521 0 -116.398 94.5937 0 -103.822 92.2843 0 -91.1036 90.2315 0 -78.2448 88.4427 0 -65.313 86.9235 0 -52.3358 85.6762 0 -39.3132 84.7028 0 -26.2452 84.0052 0 -13.1318 83.5854 0 0.027087 83.4451 0 -0.109149 -22.4043 0 3.80839 -22.2187 0 7.57169 -21.6611 0 11.1808 -20.733 0 14.6356 -19.4359 0 17.9362 -17.7711 0 21.0825 -15.7402 0 24.0053 -13.3448 0 26.535 -10.589 0 28.6639 -7.47786 0 30.392 -4.01671 0 31.7193 -0.210722 0 32.6459 3.93491 0 33.1495 8.41485 0 33.0976 13.2206 0 32.4681 18.3406 0 31.261 23.763 0 29.4762 29.4762 0 27.1138 35.4684 0 24.1724 41.7277 0 20.6217 48.2397 0 16.4491 54.9845 0 11.6546 61.9413 0 6.2384 69.0897 0 0.20034 76.4091 0 -6.45954 83.8788 0 -13.6902 91.4771 0 -21.4404 99.1764 0 -29.7103 106.948 0 -38.4999 114.763 0 -47.8092 122.593 0 -57.6381 130.409 0 -67.9196 138.182 0 -78.4901 145.881 0 -89.3421 153.475 0 -100.476 160.932 0 -111.891 168.219 0 -123.587 175.306 0 -135.524 182.161 0 -147.459 188.754 0 -159.352 195.061 0 -171.201 201.054 0 -183.007 206.709 0 -194.77 211.999 0 -206.48 216.899 0 -217.91 221.387 0 -228.968 225.45 0 -239.653 229.077 0 -249.965 232.256 0 -259.904 234.974 0 -269.471 237.221 0 -278.539 238.986 0 -286.98 240.274 0 -294.795 241.088 0 -301.985 241.436 0 -308.548 241.322 0 -314.486 240.752 0 -319.762 239.732 0 -324.294 238.278 0 -328.075 236.411 0 -331.108 234.149 0 -333.391 231.514 0 -334.924 228.525 0 -335.711 225.203 0 -335.761 221.571 0 -335.077 217.656 0 -333.659 213.486 0 -331.507 209.089 0 -328.621 204.491 0 -325.004 199.72 0 -320.739 194.803 0 -315.859 189.768 0 -310.364 184.641 0 -304.255 179.449 0 -297.53 174.219 0 -290.19 168.977 0 -282.318 163.751 0 -273.995 158.563 0 -265.221 153.434 0 -255.997 148.385 0 -246.322 143.44 0 -236.196 138.619 0 -225.667 133.943 0 -214.849 129.43 0 -203.748 125.092 0 -192.364 120.945 0 -180.696 117.002 0 -168.745 113.278 0 -156.527 109.785 0 -144.142 106.536 0 -131.606 103.538 0 -118.919 100.798 0 -106.082 98.3255 0 -93.0937 96.1272 0 -79.9581 94.211 0 -66.746 92.5832 0 -53.4863 91.2463 0 -40.1791 90.2027 0 -26.8244 89.4547 0 -13.4221 89.0045 0 0.0276525 88.8546 0 -0.109903 -26.9677 0 4.18744 -26.7749 0 8.32918 -26.196 0 12.3153 -25.2323 0 16.1459 -23.885 0 19.8208 -22.1555 0 23.3402 -20.045 0 26.6335 -17.555 0 29.5289 -14.6892 0 32.0184 -11.4526 0 34.1022 -7.84982 0 35.7801 -3.8858 0 37.0522 0.434649 0 37.8955 5.10656 0 38.1726 10.1218 0 37.8604 15.469 0 36.959 21.1369 0 35.4684 27.1138 0 33.3885 33.3885 0 30.7177 39.9494 0 27.4194 46.7821 0 23.4787 53.8666 0 18.8953 61.182 0 13.6695 68.7075 0 7.80121 76.4224 0 1.29038 84.3059 0 -5.81622 92.3358 0 -13.4718 100.483 0 -21.6765 108.719 0 -30.4301 117.013 0 -39.7328 125.334 0 -49.5845 133.654 0 -59.9193 141.941 0 -70.5756 150.164 0 -81.5462 158.287 0 -92.8311 166.279 0 -104.43 174.104 0 -116.344 181.729 0 -128.53 189.12 0 -140.742 196.246 0 -152.938 203.079 0 -165.119 209.589 0 -177.283 215.749 0 -189.432 221.529 0 -201.555 226.902 0 -213.414 231.843 0 -224.913 236.338 0 -236.053 240.373 0 -246.832 243.934 0 -257.252 247.007 0 -267.312 249.578 0 -276.877 251.637 0 -285.81 253.186 0 -294.111 254.229 0 -301.782 254.772 0 -308.821 254.819 0 -315.229 254.376 0 -320.967 253.45 0 -325.939 252.054 0 -330.141 250.212 0 -333.573 247.943 0 -336.235 245.268 0 -338.128 242.209 0 -339.251 238.786 0 -339.611 235.024 0 -339.209 230.953 0 -338.044 226.602 0 -336.117 222.001 0 -333.428 217.177 0 -329.98 212.161 0 -325.855 206.982 0 -321.087 201.67 0 -315.676 196.252 0 -309.623 190.76 0 -302.926 185.221 0 -295.586 179.666 0 -287.688 174.123 0 -279.317 168.615 0 -270.473 163.167 0 -261.156 157.8 0 -251.365 152.539 0 -241.102 147.407 0 -230.415 142.425 0 -219.424 137.613 0 -208.134 132.986 0 -196.547 128.56 0 -184.661 124.35 0 -172.477 120.374 0 -160.013 116.645 0 -147.372 113.176 0 -134.572 109.976 0 -121.614 107.053 0 -108.497 104.414 0 -95.2215 102.067 0 -81.7907 100.021 0 -68.2793 98.2823 0 -54.7177 96.8536 0 -41.1062 95.738 0 -27.4445 94.9383 0 -13.7327 94.4572 0 0.029099 94.2975 0 -0.110535 -31.9737 0 4.5801 -31.7744 0 9.11395 -31.176 0 13.491 -30.1796 0 17.7113 -28.7862 0 21.7748 -26.997 0 25.6815 -24.8131 0 29.3601 -22.2358 0 32.6362 -19.2683 0 35.5018 -15.9152 0 37.9571 -12.1806 0 40.0019 -8.06902 0 41.6363 -3.58481 0 42.8365 1.26754 0 43.46 6.48034 0 43.483 12.0428 0 42.9056 17.9438 0 41.7277 24.1724 0 39.9494 30.7177 0 37.5687 37.5687 0 34.5423 44.7111 0 30.8526 52.1249 0 26.4996 59.7893 0 21.4832 67.6835 0 15.8036 75.7867 0 9.4606 84.0779 0 2.4962 92.5348 0 -5.04775 101.128 0 -13.1713 109.826 0 -21.8743 118.599 0 -31.1569 127.414 0 -41.0191 136.242 0 -51.396 145.05 0 -62.1292 153.804 0 -73.2117 162.468 0 -84.6432 171.007 0 -96.4239 179.384 0 -108.554 187.564 0 -120.991 195.51 0 -133.484 203.189 0 -145.992 210.57 0 -158.513 217.621 0 -171.049 224.311 0 -183.599 230.608 0 -196.151 236.481 0 -208.46 241.904 0 -220.424 246.86 0 -232.043 251.331 0 -243.317 255.304 0 -254.246 258.761 0 -264.83 261.686 0 -274.923 264.068 0 -284.38 265.906 0 -293.202 267.206 0 -301.387 267.972 0 -308.937 268.207 0 -315.85 267.917 0 -322.084 267.107 0 -327.531 265.792 0 -332.187 263.996 0 -336.052 261.739 0 -339.126 259.044 0 -341.409 255.931 0 -342.9 252.422 0 -343.599 248.545 0 -343.505 244.33 0 -342.618 239.809 0 -340.939 235.011 0 -338.468 229.969 0 -335.207 224.714 0 -331.239 219.277 0 -326.598 213.69 0 -321.284 207.985 0 -315.295 202.192 0 -308.633 196.346 0 -301.298 190.476 0 -293.377 184.614 0 -284.96 178.785 0 -276.045 173.015 0 -266.633 167.327 0 -256.725 161.747 0 -246.319 156.298 0 -235.468 151.005 0 -224.296 145.889 0 -212.809 140.966 0 -201.006 136.254 0 -188.889 131.772 0 -176.457 127.538 0 -163.728 123.568 0 -150.814 119.875 0 -137.733 116.47 0 -124.486 113.358 0 -111.071 110.55 0 -97.4897 108.052 0 -83.745 105.874 0 -69.9151 104.021 0 -56.0321 102.499 0 -42.0959 101.31 0 -28.1065 100.457 0 -14.064 99.9439 0 0.0317722 99.7744 0 -0.111025 -37.4032 0 4.98506 -37.198 0 9.92338 -36.5823 0 14.7039 -35.5569 0 19.3267 -34.1227 0 23.7918 -32.2805 0 28.099 -30.0312 0 32.1763 -27.3759 0 35.8471 -24.3174 0 39.1034 -20.8595 0 41.9451 -17.0062 0 44.3724 -12.7611 0 46.385 -8.12814 0 47.9586 -3.11125 0 48.9456 2.28248 0 49.3215 8.04279 0 49.0862 14.1593 0 48.2397 20.6217 0 46.7821 27.4194 0 44.7111 34.5423 0 41.9765 41.9765 0 38.5578 49.7022 0 34.4551 57.6987 0 29.6683 65.9454 0 24.1975 74.4217 0 18.0425 83.1068 0 11.24 91.9783 0 3.82643 101.006 0 -4.19827 110.158 0 -12.8341 119.403 0 -22.081 128.707 0 -31.939 138.04 0 -42.3448 147.369 0 -53.1438 156.658 0 -64.3288 165.869 0 -75.9 174.964 0 -87.8573 183.904 0 -100.201 192.653 0 -112.888 201.171 0 -125.664 209.423 0 -138.488 217.375 0 -151.359 224.992 0 -164.276 232.239 0 -177.241 239.082 0 -190.241 245.488 0 -203.019 251.426 0 -215.468 256.878 0 -227.59 261.824 0 -239.385 266.246 0 -250.851 270.126 0 -261.99 273.445 0 -272.645 276.189 0 -282.659 278.356 0 -292.034 279.952 0 -300.77 280.978 0 -308.865 281.438 0 -316.32 281.337 0 -323.087 280.677 0 -329.045 279.476 0 -334.191 277.757 0 -338.523 275.541 0 -342.042 272.85 0 -344.748 269.708 0 -346.64 266.136 0 -347.707 262.163 0 -347.951 257.821 0 -347.369 253.143 0 -345.963 248.164 0 -343.732 242.914 0 -340.68 237.429 0 -336.888 231.741 0 -332.389 225.884 0 -327.184 219.893 0 -321.272 213.803 0 -314.653 207.648 0 -307.328 201.461 0 -299.388 195.277 0 -290.926 189.123 0 -281.941 183.025 0 -272.434 177.01 0 -262.405 171.103 0 -251.853 165.332 0 -240.832 159.721 0 -229.471 154.294 0 -217.777 149.069 0 -205.748 144.066 0 -193.386 139.305 0 -180.69 134.806 0 -167.68 130.588 0 -154.475 126.665 0 -141.095 123.046 0 -127.539 119.74 0 -113.808 116.756 0 -99.902 114.102 0 -85.8243 111.786 0 -71.6564 109.816 0 -57.4317 108.197 0 -43.1501 106.931 0 -28.8117 106.024 0 -14.4164 105.478 0 0.0357205 105.298 0 -0.111347 -43.248 0 5.4007 -43.0379 0 10.7543 -42.4074 0 15.9493 -41.357 0 20.9859 -39.8876 0 25.8639 -37.9996 0 30.5835 -35.6936 0 35.0715 -32.9706 0 39.1497 -29.8327 0 42.8097 -26.2832 0 46.0518 -22.3254 0 48.8758 -17.9623 0 51.2818 -13.1973 0 53.2444 -8.03351 0 54.6111 -2.47746 0 55.3567 3.46139 0 55.4812 9.77343 0 54.9845 16.4491 0 53.8666 23.4787 0 52.1249 30.8526 0 49.7022 38.5578 0 46.5749 46.5749 0 42.7431 54.8836 0 38.2068 63.4636 0 32.9659 72.2946 0 27.0205 81.3565 0 20.4012 90.6269 0 13.1384 100.075 0 5.23215 109.669 0 -3.31749 119.375 0 -12.5106 129.162 0 -22.347 138.996 0 -32.7656 148.844 0 -43.616 158.668 0 -54.8917 168.43 0 -66.5924 178.088 0 -78.7183 187.602 0 -91.2694 196.932 0 -104.203 206.039 0 -117.262 214.884 0 -130.404 223.429 0 -143.629 231.636 0 -156.937 239.469 0 -170.327 246.89 0 -183.789 253.861 0 -197.052 260.351 0 -210.007 266.337 0 -222.655 271.797 0 -234.995 276.711 0 -247.026 281.056 0 -258.75 284.812 0 -269.998 287.962 0 -280.604 290.503 0 -290.567 292.437 0 -299.888 293.767 0 -308.565 294.494 0 -316.601 294.621 0 -323.939 294.151 0 -330.447 293.1 0 -336.12 291.491 0 -340.956 289.347 0 -344.957 286.691 0 -348.122 283.546 0 -350.448 279.936 0 -351.918 275.888 0 -352.529 271.439 0 -352.281 266.623 0 -351.175 261.475 0 -349.21 256.031 0 -346.389 250.325 0 -342.793 244.393 0 -338.455 238.273 0 -333.375 232.001 0 -327.552 225.615 0 -320.987 219.15 0 -313.68 212.645 0 -305.726 206.135 0 -297.223 199.649 0 -288.169 193.217 0 -278.567 186.866 0 -268.414 180.625 0 -257.712 174.524 0 -246.515 168.588 0 -234.957 162.843 0 -223.045 157.31 0 -210.779 152.01 0 -198.158 146.964 0 -185.183 142.193 0 -171.875 137.72 0 -158.361 133.558 0 -144.664 129.719 0 -130.782 126.21 0 -116.715 123.042 0 -102.465 120.224 0 -88.0337 117.765 0 -73.5071 115.673 0 -58.9195 113.953 0 -44.271 112.609 0 -29.5615 111.645 0 -14.791 111.065 0 0.040415 110.874 0 -0.111475 -49.5084 0 5.82541 -49.294 0 11.6033 -48.6511 0 17.2223 -47.58 0 22.6822 -46.0809 0 27.9833 -44.1543 0 33.1253 -41.8005 0 38.0347 -39.0199 0 42.5314 -35.8143 0 46.6072 -32.1863 0 50.2621 -28.1383 0 53.4962 -23.6727 0 56.3093 -18.7922 0 58.6755 -13.4992 0 60.4374 -7.79948 0 61.569 -1.70146 0 62.0703 4.78614 0 61.9413 11.6546 0 61.182 18.8953 0 59.7893 26.4996 0 57.6987 34.4551 0 54.8836 42.7431 0 51.344 51.344 0 47.0798 60.238 0 42.0912 69.4056 0 36.3781 78.8271 0 29.9647 88.4807 0 22.8749 98.3355 0 15.1089 108.359 0 6.66664 118.517 0 -2.4519 128.778 0 -12.2467 139.107 0 -22.6587 149.473 0 -33.5435 159.834 0 -44.8945 170.15 0 -56.7117 180.378 0 -68.9952 190.477 0 -81.7449 200.403 0 -94.9178 210.114 0 -108.256 219.571 0 -121.715 228.731 0 -135.297 237.555 0 -149 246.002 0 -162.825 254.031 0 -176.76 261.601 0 -190.524 268.679 0 -204.002 275.237 0 -217.196 281.252 0 -230.104 286.698 0 -242.728 291.552 0 -255.066 295.789 0 -266.94 299.388 0 -278.17 302.346 0 -288.756 304.663 0 -298.699 306.339 0 -307.998 307.375 0 -316.653 307.77 0 -324.603 307.527 0 -331.701 306.662 0 -337.94 305.198 0 -343.32 303.158 0 -347.841 300.567 0 -351.503 297.447 0 -354.301 293.821 0 -356.209 289.722 0 -357.222 285.184 0 -357.339 280.246 0 -356.562 274.945 0 -354.89 269.318 0 -352.326 263.403 0 -348.949 257.236 0 -344.792 250.858 0 -339.854 244.309 0 -334.135 237.628 0 -327.636 230.854 0 -320.356 224.028 0 -312.395 217.187 0 -303.856 210.364 0 -294.737 203.59 0 -285.038 196.896 0 -274.76 190.314 0 -263.902 183.874 0 -252.522 177.607 0 -240.759 171.538 0 -228.62 165.69 0 -216.104 160.086 0 -203.212 154.748 0 -189.943 149.7 0 -176.321 144.963 0 -162.482 140.555 0 -148.449 136.487 0 -134.221 132.767 0 -119.8 129.408 0 -105.184 126.419 0 -90.3784 123.811 0 -75.4711 121.593 0 -60.4985 119.768 0 -45.4605 118.343 0 -30.3572 117.32 0 -15.1887 116.706 0 0.0452606 116.503 0 -0.111384 -56.1842 0 6.25756 -55.9665 0 12.4673 -55.3136 0 18.518 -54.2257 0 24.4095 -52.7027 0 30.1418 -50.7447 0 35.715 -48.3517 0 41.0548 -45.5238 0 45.9799 -42.2622 0 50.4821 -38.5686 0 54.5612 -34.4447 0 58.2173 -29.8923 0 61.4505 -24.9129 0 64.2338 -19.5085 0 66.4055 -13.6836 0 67.9387 -7.44575 0 68.8334 -0.80256 0 69.0897 6.2384 0 68.7075 13.6695 0 67.6835 21.4832 0 65.9454 29.6683 0 63.4636 38.2068 0 60.238 47.0798 0 56.2687 56.2687 0 51.5557 65.7545 0 46.0989 75.5186 0 39.9156 85.5396 0 33.0229 95.7869 0 25.4209 106.227 0 17.1095 116.828 0 8.08874 127.555 0 -1.64138 138.376 0 -12.0246 149.256 0 -22.9235 160.156 0 -34.3317 171.031 0 -46.2493 181.836 0 -58.6762 192.529 0 -71.6125 203.063 0 -85.015 213.397 0 -98.6247 223.484 0 -112.398 233.283 0 -126.336 242.748 0 -140.438 251.836 0 -154.703 260.505 0 -169.12 268.708 0 -183.396 276.409 0 -197.414 283.578 0 -211.172 290.187 0 -224.672 296.208 0 -237.913 301.613 0 -250.895 306.374 0 -263.426 310.467 0 -275.314 313.886 0 -286.56 316.629 0 -297.162 318.694 0 -307.121 320.08 0 -316.437 320.784 0 -325.042 320.807 0 -332.773 320.164 0 -339.62 318.879 0 -345.585 316.975 0 -350.667 314.477 0 -354.867 311.408 0 -358.177 307.793 0 -360.561 303.663 0 -362.011 299.057 0 -362.527 294.014 0 -362.111 288.575 0 -360.761 282.778 0 -358.481 276.662 0 -355.348 270.269 0 -351.394 263.639 0 -346.618 256.816 0 -341.02 249.842 0 -334.601 242.759 0 -327.36 235.609 0 -319.402 228.433 0 -310.832 221.267 0 -301.65 214.145 0 -291.856 207.1 0 -281.45 200.168 0 -270.431 193.382 0 -258.861 186.776 0 -246.883 180.376 0 -234.507 174.208 0 -221.73 168.294 0 -208.554 162.658 0 -194.977 157.326 0 -181.026 152.319 0 -166.845 147.656 0 -152.458 143.35 0 -137.866 139.412 0 -123.069 135.853 0 -108.067 132.687 0 -92.8638 129.924 0 -77.5527 127.574 0 -62.1717 125.642 0 -46.721 124.133 0 -31.2005 123.05 0 -15.6103 122.399 0 0.0496621 122.184 0 -0.111046 -63.2755 0 6.6955 -63.0552 0 13.343 -62.3948 0 19.8316 -61.2941 0 26.1611 -59.7529 0 32.3316 -57.7707 0 38.3431 -55.3472 0 44.121 -52.4823 0 49.483 -49.1764 0 54.4207 -45.4303 0 58.9341 -41.2449 0 63.0232 -36.621 0 66.6881 -31.5594 0 69.9011 -26.0611 0 72.4963 -20.1298 0 74.446 -13.7715 0 75.7503 -6.99267 0 76.4091 0.20034 0 76.4224 7.80121 0 75.7867 15.8036 0 74.4217 24.1975 0 72.2946 32.9659 0 69.4056 42.0912 0 65.7545 51.5557 0 61.3415 61.3415 0 56.1664 71.4309 0 50.239 81.8037 0 43.5692 92.4293 0 36.157 103.275 0 28.0023 114.307 0 19.1051 125.493 0 9.46546 136.801 0 -0.86378 148.195 0 -11.7534 159.633 0 -23.1976 171.071 0 -35.1963 182.461 0 -47.7495 193.758 0 -60.8573 204.915 0 -74.4765 215.886 0 -88.3481 226.624 0 -102.429 237.083 0 -116.719 247.215 0 -131.219 256.974 0 -145.928 266.312 0 -160.833 275.182 0 -175.632 283.543 0 -190.202 291.361 0 -204.543 298.604 0 -218.655 305.241 0 -232.539 311.239 0 -246.193 316.567 0 -259.413 321.198 0 -271.993 325.122 0 -283.933 328.335 0 -295.233 330.832 0 -305.893 332.61 0 -315.914 333.663 0 -325.219 333.99 0 -333.626 333.605 0 -341.126 332.533 0 -347.72 330.797 0 -353.407 328.422 0 -358.187 325.432 0 -362.052 321.851 0 -364.952 317.712 0 -366.877 313.057 0 -367.829 307.927 0 -367.808 302.364 0 -366.812 296.408 0 -364.846 290.103 0 -361.984 283.491 0 -358.257 276.616 0 -353.664 269.523 0 -348.207 262.257 0 -341.884 254.864 0 -334.695 247.388 0 -326.75 239.873 0 -318.158 232.358 0 -308.917 224.881 0 -299.028 217.478 0 -288.492 210.188 0 -277.307 203.049 0 -265.538 196.096 0 -253.337 189.36 0 -240.712 182.864 0 -227.663 176.634 0 -214.19 170.694 0 -200.293 165.07 0 -185.997 159.786 0 -171.458 154.861 0 -156.7 150.309 0 -141.725 146.144 0 -126.531 142.379 0 -111.12 139.027 0 -95.4951 136.103 0 -79.7557 133.617 0 -63.9422 131.574 0 -48.0546 129.978 0 -32.0928 128.834 0 -16.057 128.145 0 0.0530242 127.917 0 -0.110437 -70.7823 0 7.13762 -70.5601 0 14.2272 -69.8947 0 21.1582 -68.7854 0 27.9307 -67.2315 0 34.5447 -65.2323 0 41.0002 -62.7871 0 47.2223 -59.8954 0 53.0281 -56.5568 0 58.4093 -52.7713 0 63.3658 -48.5386 0 67.8977 -43.8588 0 72.005 -38.7317 0 75.6594 -33.1573 0 78.6909 -27.138 0 81.0713 -20.6787 0 82.8006 -13.7842 0 83.8788 -6.45954 0 84.3059 1.29038 0 84.0779 9.4606 0 83.1068 18.0425 0 81.3565 27.0205 0 78.8271 36.3781 0 75.5186 46.0989 0 71.4309 56.1664 0 66.5641 66.5641 0 60.9201 77.2729 0 54.5007 88.2629 0 47.3061 99.5014 0 39.3362 110.956 0 30.591 122.594 0 21.0704 134.382 0 10.8234 146.287 0 -0.0307475 158.266 0 -11.4866 170.271 0 -23.5442 182.253 0 -36.2034 194.164 0 -49.4644 205.956 0 -63.2842 217.581 0 -77.4049 228.99 0 -91.7837 240.132 0 -106.42 250.956 0 -121.315 261.413 0 -136.468 271.452 0 -151.865 281.023 0 -167.194 290.079 0 -182.329 298.584 0 -197.268 306.502 0 -212.012 313.796 0 -226.562 320.431 0 -240.916 326.37 0 -254.856 331.582 0 -268.162 336.054 0 -280.833 339.781 0 -292.871 342.753 0 -304.275 344.964 0 -315.044 346.406 0 -325.096 347.075 0 -334.226 346.985 0 -342.425 346.16 0 -349.694 344.624 0 -356.031 342.401 0 -361.438 339.517 0 -365.902 335.995 0 -369.361 331.869 0 -371.804 327.185 0 -373.229 321.984 0 -373.639 316.311 0 -373.031 310.211 0 -371.411 303.726 0 -368.849 296.903 0 -365.375 289.788 0 -360.99 282.429 0 -355.694 274.874 0 -349.485 267.171 0 -342.366 259.367 0 -334.446 251.508 0 -325.839 243.638 0 -316.545 235.798 0 -306.563 228.03 0 -295.894 220.375 0 -284.537 212.874 0 -272.56 205.568 0 -260.126 198.488 0 -247.243 191.659 0 -233.91 185.106 0 -220.128 178.856 0 -205.896 172.934 0 -191.242 167.365 0 -176.329 162.17 0 -161.183 157.364 0 -145.804 152.963 0 -130.193 148.984 0 -114.349 145.441 0 -98.2776 142.35 0 -82.0844 139.723 0 -65.813 137.565 0 -49.4634 135.88 0 -33.0356 134.672 0 -16.5295 133.945 0 0.0547519 133.702 0 -0.109539 -78.6277 0 7.58225 -78.4046 0 15.1164 -77.7368 0 22.4929 -76.6231 0 29.7117 -75.0626 0 36.7729 -73.0542 0 43.6764 -70.5967 0 50.3473 -67.6893 0 56.6026 -64.3308 0 62.4338 -60.52 0 67.841 -56.256 0 72.8241 -51.5375 0 77.3833 -46.3635 0 81.4895 -40.7329 0 84.9693 -34.647 0 87.7938 -28.1089 0 89.9631 -21.1222 0 91.4771 -13.6902 0 92.3358 -5.81622 0 92.5348 2.4962 0 91.9783 11.24 0 90.6269 20.4012 0 88.4807 29.9647 0 85.5396 39.9156 0 81.8037 50.239 0 77.2729 60.9201 0 71.9409 71.9409 0 65.8013 83.2724 0 58.854 94.8827 0 51.0992 106.74 0 42.5367 118.812 0 33.1666 131.066 0 23.033 143.471 0 12.2437 155.98 0 0.803556 168.546 0 -11.2873 181.117 0 -24.029 193.644 0 -37.4215 206.077 0 -51.4222 218.365 0 -65.7757 230.458 0 -80.4394 242.301 0 -95.4132 253.84 0 -110.697 265.021 0 -126.291 275.792 0 -142.18 286.098 0 -158.044 295.891 0 -173.752 305.128 0 -189.304 313.764 0 -204.7 321.759 0 -219.938 329.074 0 -235.019 335.67 0 -249.709 341.512 0 -263.774 346.585 0 -277.215 350.876 0 -290.03 354.375 0 -302.22 357.07 0 -313.785 358.951 0 -324.632 360.011 0 -334.534 360.263 0 -343.481 359.73 0 -351.472 358.437 0 -358.509 356.408 0 -364.59 353.667 0 -369.702 350.239 0 -373.766 346.159 0 -376.769 341.472 0 -378.71 336.225 0 -379.589 330.465 0 -379.406 324.237 0 -378.165 317.587 0 -375.935 310.564 0 -372.744 303.217 0 -368.592 295.598 0 -363.48 287.757 0 -357.407 279.744 0 -350.373 271.61 0 -342.494 263.405 0 -333.883 255.175 0 -324.541 246.967 0 -314.469 238.825 0 -303.665 230.795 0 -292.13 222.922 0 -279.936 215.251 0 -267.259 207.815 0 -254.107 200.639 0 -240.479 193.751 0 -226.375 187.178 0 -211.797 180.945 0 -196.771 175.079 0 -181.467 169.602 0 -165.915 164.533 0 -150.113 159.888 0 -134.062 155.686 0 -117.761 151.944 0 -101.217 148.68 0 -84.5432 145.906 0 -67.7877 143.629 0 -50.9501 141.851 0 -34.0306 140.576 0 -17.029 139.808 0 0.0545381 139.551 0 -0.108371 -86.735 0 8.02757 -86.5119 0 16.0071 -85.8444 0 23.8302 -84.731 0 31.4969 -83.1703 0 39.0071 -81.1609 0 46.361 -78.7013 0 53.4836 -75.7901 0 60.1921 -72.4254 0 66.4783 -68.605 0 72.342 -64.3268 0 77.7833 -59.5886 0 82.8021 -54.3884 0 87.3692 -48.724 0 91.3078 -42.5953 0 94.5885 -36.0039 0 97.2114 -28.9517 0 99.1764 -21.4404 0 100.483 -13.4718 0 101.128 -5.04775 0 101.006 3.82643 0 100.075 13.1384 0 98.3355 22.8749 0 95.7869 33.0229 0 92.4293 43.5692 0 88.2629 54.5007 0 83.2724 65.8013 0 77.4429 77.4429 0 70.7742 89.3945 0 63.2663 101.625 0 54.9194 114.104 0 45.7333 126.8 0 35.7469 139.68 0 25.0549 152.7 0 13.6616 165.81 0 1.56694 178.958 0 -11.229 192.092 0 -24.7262 205.163 0 -38.8828 218.118 0 -53.4475 230.904 0 -68.3784 243.462 0 -83.6752 255.734 0 -99.3365 267.665 0 -115.362 279.198 0 -131.736 290.279 0 -148.135 300.853 0 -164.425 310.869 0 -180.607 320.272 0 -196.674 329.014 0 -212.623 337.055 0 -228.452 344.356 0 -243.918 350.883 0 -258.774 356.614 0 -273.02 361.531 0 -286.654 365.616 0 -299.675 368.855 0 -312.082 371.234 0 -323.773 372.744 0 -334.496 373.396 0 -344.24 373.213 0 -353.006 372.219 0 -360.792 370.436 0 -367.599 367.888 0 -373.411 364.599 0 -378.131 360.605 0 -381.741 355.953 0 -384.242 350.692 0 -385.634 344.871 0 -385.917 338.539 0 -385.094 331.743 0 -383.231 324.534 0 -380.355 316.966 0 -376.466 309.093 0 -371.564 300.969 0 -365.649 292.648 0 -358.721 284.184 0 -350.897 275.631 0 -342.294 267.038 0 -332.913 258.455 0 -322.754 249.931 0 -311.816 241.516 0 -300.1 233.258 0 -287.682 225.206 0 -274.753 217.395 0 -261.322 209.853 0 -247.387 202.609 0 -232.95 195.691 0 -218.01 189.129 0 -202.596 182.95 0 -186.885 177.179 0 -170.906 171.834 0 -154.66 166.936 0 -138.146 162.503 0 -121.363 158.554 0 -104.319 155.11 0 -87.1383 152.183 0 -69.8715 149.78 0 -52.5189 147.904 0 -35.0806 146.559 0 -17.5566 145.748 0 0.0532294 145.476 0 -0.10696 -95.1041 0 8.47172 -94.882 0 16.8956 -94.2176 0 25.1646 -93.1091 0 33.2789 -91.5546 0 41.2383 -89.5525 0 49.043 -87.1009 0 56.6183 -84.1979 0 63.7821 -80.8407 0 70.5262 -77.0262 0 76.8506 -72.7511 0 82.7552 -68.0123 0 88.2401 -62.8065 0 93.2754 -57.1306 0 97.6818 -50.983 0 101.429 -44.3637 0 104.518 -37.2728 0 106.948 -29.7103 0 108.719 -21.6765 0 109.826 -13.1713 0 110.158 -4.19827 0 109.669 5.23215 0 108.359 15.1089 0 106.227 25.4209 0 103.275 36.157 0 99.5014 47.3061 0 94.8827 58.854 0 89.3945 70.7742 0 83.0367 83.0367 0 75.8095 95.612 0 67.7127 108.47 0 58.7465 121.582 0 48.9436 134.916 0 38.3845 148.427 0 27.0727 162.064 0 15.0083 175.775 0 2.19123 189.509 0 -11.3784 203.215 0 -25.6599 216.84 0 -40.4087 230.327 0 -55.5839 243.615 0 -71.185 256.64 0 -87.2065 269.343 0 -103.647 281.669 0 -120.492 293.563 0 -137.42 304.965 0 -154.299 315.809 0 -171.129 326.027 0 -187.89 335.561 0 -204.569 344.372 0 -221.165 352.427 0 -237.426 359.693 0 -253.1 366.141 0 -268.187 371.745 0 -282.682 376.476 0 -296.578 380.318 0 -309.874 383.255 0 -322.458 385.274 0 -334.054 386.385 0 -344.647 386.609 0 -354.239 385.968 0 -362.83 384.484 0 -370.419 382.179 0 -376.987 379.074 0 -382.416 375.207 0 -386.686 370.626 0 -389.797 365.384 0 -391.75 359.53 0 -392.544 353.116 0 -392.182 346.193 0 -390.725 338.813 0 -388.2 331.034 0 -384.606 322.915 0 -379.942 314.512 0 -374.21 305.885 0 -367.408 297.09 0 -359.657 288.186 0 -351.077 279.226 0 -341.667 270.263 0 -331.428 261.35 0 -320.359 252.538 0 -308.46 243.882 0 -295.815 235.433 0 -282.628 227.228 0 -268.909 219.3 0 -254.656 211.679 0 -239.871 204.398 0 -224.553 197.488 0 -208.733 190.98 0 -192.594 184.9 0 -176.168 179.269 0 -159.454 174.107 0 -142.452 169.435 0 -125.163 165.272 0 -107.592 161.64 0 -89.8763 158.554 0 -72.0704 156.018 0 -54.1746 154.039 0 -36.1889 152.619 0 -18.1134 151.763 0 0.0519605 151.476 0 -0.105333 -103.735 0 8.91284 -103.515 0 17.7782 -102.856 0 26.4907 -101.757 0 35.0504 -100.216 0 43.4572 -98.229 0 51.7113 -95.7954 0 59.7384 -92.9125 0 67.3578 -89.5767 0 74.5613 -85.7836 0 81.3487 -81.529 0 87.7202 -76.8085 0 93.6757 -71.6178 0 99.185 -65.9526 0 104.067 -59.81 0 108.29 -53.1881 0 111.856 -46.0854 0 114.763 -38.4999 0 117.013 -30.4301 0 118.599 -21.8743 0 119.403 -12.8341 0 119.375 -3.31749 0 118.517 6.66664 0 116.828 17.1095 0 114.307 28.0023 0 110.956 39.3362 0 106.74 51.0992 0 101.625 63.2663 0 95.612 75.8095 0 88.7005 88.7005 0 80.8905 101.911 0 72.182 115.413 0 62.6016 129.177 0 52.214 143.159 0 41.0222 157.307 0 29.0262 171.57 0 16.226 185.895 0 2.62167 200.233 0 -11.7478 214.53 0 -26.6479 228.728 0 -42.0396 242.758 0 -57.9216 256.554 0 -74.2809 270.051 0 -91.1142 283.196 0 -108.407 295.933 0 -125.853 308.199 0 -143.326 319.912 0 -160.824 330.992 0 -178.301 341.368 0 -195.727 351.004 0 -213.102 359.87 0 -230.174 367.936 0 -246.692 375.164 0 -262.656 381.516 0 -278.055 386.956 0 -292.871 391.461 0 -307.104 395.014 0 -320.631 397.601 0 -333.149 399.229 0 -344.645 399.917 0 -355.119 399.686 0 -364.571 398.553 0 -373.001 396.54 0 -380.386 393.665 0 -386.583 389.965 0 -391.569 385.492 0 -395.345 380.3 0 -397.91 374.442 0 -399.265 367.97 0 -399.411 360.937 0 -398.405 353.401 0 -396.27 345.421 0 -393.006 337.062 0 -388.612 328.385 0 -383.09 319.453 0 -376.438 310.328 0 -368.779 301.071 0 -360.237 291.74 0 -350.81 282.391 0 -340.499 273.08 0 -329.305 263.862 0 -317.226 254.795 0 -304.353 245.931 0 -290.904 237.315 0 -276.888 228.98 0 -262.306 220.962 0 -247.158 213.297 0 -231.444 206.021 0 -215.196 199.167 0 -198.607 192.766 0 -181.709 186.837 0 -164.504 181.402 0 -146.99 176.482 0 -129.167 172.098 0 -111.043 168.271 0 -92.7639 165.018 0 -74.3902 162.344 0 -55.9217 160.255 0 -37.3586 158.757 0 -18.7007 157.854 0 0.051866 157.552 0 -0.103518 -112.628 0 9.34909 -112.411 0 18.6512 -111.761 0 27.8029 -110.676 0 36.804 -109.153 0 45.6547 -107.19 0 54.3549 -104.785 0 62.8313 -101.934 0 70.9047 -98.6334 0 78.567 -94.8773 0 85.8183 -90.6603 0 92.6584 -85.9771 0 99.0874 -80.8222 0 105.075 -75.1901 0 110.437 -69.0764 0 115.145 -62.4773 0 119.197 -55.3895 0 122.593 -47.8092 0 125.334 -39.7328 0 127.414 -31.1569 0 128.707 -22.081 0 129.162 -12.5106 0 128.778 -2.4519 0 127.555 8.08874 0 125.493 19.1051 0 122.594 30.591 0 118.812 42.5367 0 114.104 54.9194 0 108.47 67.7127 0 101.911 80.8905 0 94.4263 94.4263 0 86.0157 108.294 0 76.6992 122.465 0 66.525 136.898 0 55.4954 151.54 0 43.6104 166.341 0 30.8699 181.25 0 17.2741 196.217 0 2.85936 211.19 0 -12.1546 226.106 0 -27.7312 240.891 0 -43.868 255.472 0 -60.5402 269.78 0 -77.7411 283.761 0 -95.4577 297.36 0 -113.405 310.511 0 -131.467 323.124 0 -149.641 335.107 0 -167.847 346.382 0 -186.032 356.911 0 -204.197 366.662 0 -222.096 375.599 0 -239.485 383.675 0 -256.363 390.842 0 -272.711 397.053 0 -288.494 402.282 0 -303.711 406.511 0 -318.231 409.725 0 -331.724 411.929 0 -344.178 413.139 0 -355.592 413.371 0 -365.965 412.643 0 -375.299 410.97 0 -383.564 408.371 0 -390.593 404.879 0 -396.357 400.551 0 -400.856 395.442 0 -404.09 389.606 0 -406.059 383.099 0 -406.766 375.976 0 -406.258 368.297 0 -404.557 360.128 0 -401.661 351.536 0 -397.571 342.588 0 -392.288 333.353 0 -385.81 323.897 0 -378.264 314.285 0 -369.777 304.58 0 -360.349 294.839 0 -349.978 285.122 0 -338.666 275.488 0 -326.413 265.995 0 -313.313 256.702 0 -299.598 247.655 0 -285.28 238.893 0 -270.357 230.458 0 -254.831 222.389 0 -238.7 214.728 0 -222 207.513 0 -204.936 200.775 0 -187.542 194.537 0 -169.819 188.819 0 -151.766 183.643 0 -133.383 179.031 0 -114.678 175.002 0 -95.8077 171.575 0 -76.8367 168.756 0 -57.7651 166.553 0 -38.5927 164.972 0 -19.3197 164.021 0 0.0540808 163.704 0 -0.101542 -121.782 0 9.77861 -121.569 0 19.511 -120.93 0 29.0956 -119.864 0 38.5324 -118.367 0 47.8215 -116.437 0 56.9627 -114.069 0 65.8839 -111.263 0 74.408 -108.011 0 82.527 -104.307 0 90.241 -100.145 0 97.5499 -95.5183 0 104.454 -90.4197 0 110.922 -84.8431 0 116.77 -78.7821 0 121.967 -72.2313 0 126.513 -65.1851 0 130.409 -57.6381 0 133.654 -49.5845 0 136.242 -41.0191 0 138.04 -31.939 0 138.996 -22.347 0 139.107 -12.2467 0 138.376 -1.64138 0 136.801 9.46546 0 134.382 21.0704 0 131.066 33.1666 0 126.8 45.7333 0 121.582 58.7465 0 115.413 72.182 0 108.294 86.0157 0 100.224 100.224 0 91.2149 114.78 0 81.2991 129.642 0 70.4776 144.762 0 58.7504 160.089 0 46.1174 175.574 0 32.5787 191.167 0 18.1674 206.819 0 3.0818 222.461 0 -12.6449 238.014 0 -29.0088 253.393 0 -45.9674 268.529 0 -63.5094 283.364 0 -81.6233 297.844 0 -100.051 311.901 0 -118.688 325.442 0 -137.531 338.371 0 -156.464 350.604 0 -175.413 362.095 0 -194.377 372.802 0 -213.121 382.682 0 -231.41 391.676 0 -249.244 399.723 0 -266.588 406.768 0 -283.386 412.782 0 -299.638 417.747 0 -315.199 421.646 0 -329.722 424.484 0 -343.189 426.273 0 -355.602 427.025 0 -366.961 426.754 0 -377.264 425.471 0 -386.48 423.192 0 -394.408 419.95 0 -401.014 415.803 0 -406.299 410.808 0 -410.263 405.023 0 -412.906 398.504 0 -414.229 391.31 0 -414.272 383.502 0 -413.051 375.154 0 -410.566 366.336 0 -406.817 357.122 0 -401.804 347.585 0 -395.526 337.797 0 -388.116 327.829 0 -379.704 317.745 0 -370.29 307.607 0 -359.874 297.476 0 -348.455 287.414 0 -336.035 277.484 0 -322.713 267.744 0 -308.732 258.248 0 -294.105 249.04 0 -278.83 240.167 0 -262.908 231.674 0 -246.339 223.609 0 -229.161 216.016 0 -211.594 208.929 0 -193.676 202.37 0 -175.408 196.36 0 -156.788 190.92 0 -137.818 186.071 0 -118.504 181.834 0 -99.0142 178.226 0 -79.4159 175.256 0 -59.7094 172.933 0 -39.8946 171.266 0 -19.9715 170.263 0 0.0597394 169.932 0 -0.0994286 -131.133 0 10.1995 -130.924 0 20.3538 -130.299 0 30.3634 -129.256 0 40.2283 -127.791 0 49.9485 -125.901 0 59.5239 -123.582 0 68.8835 -120.83 0 77.8532 -117.641 0 86.425 -114.005 0 94.5989 -109.915 0 102.375 -105.363 0 109.753 -100.342 0 116.703 -94.8428 0 123.039 -88.8586 0 128.731 -82.3818 0 133.779 -75.4046 0 138.182 -67.9196 0 141.941 -59.9193 0 145.05 -51.396 0 147.369 -42.3448 0 148.844 -32.7656 0 149.473 -22.6587 0 149.256 -12.0246 0 148.195 -0.86378 0 146.287 10.8234 0 143.471 23.033 0 139.68 35.7469 0 134.916 48.9436 0 129.177 62.6016 0 122.465 76.6992 0 114.78 91.2149 0 106.125 106.125 0 96.5159 121.391 0 85.952 136.964 0 74.4335 152.796 0 61.9605 168.839 0 48.533 185.046 0 34.1792 201.368 0 19.0691 217.734 0 3.23088 234.057 0 -13.3291 250.245 0 -30.5453 266.223 0 -48.4003 281.932 0 -66.8837 297.316 0 -85.7659 312.305 0 -104.953 326.806 0 -124.443 340.723 0 -144.089 353.968 0 -163.798 366.483 0 -183.57 378.214 0 -203.179 389.103 0 -222.4 399.081 0 -241.233 408.077 0 -259.624 416.023 0 -277.487 422.89 0 -294.82 428.66 0 -311.474 433.317 0 -327.08 436.861 0 -341.62 439.296 0 -355.096 440.63 0 -367.506 440.872 0 -378.849 440.032 0 -389.088 438.123 0 -397.986 435.18 0 -405.505 431.259 0 -411.644 426.418 0 -416.403 420.716 0 -419.783 414.214 0 -421.784 406.971 0 -422.433 399.054 0 -421.744 390.54 0 -419.714 381.507 0 -416.345 372.033 0 -411.637 362.197 0 -405.589 352.077 0 -398.338 341.749 0 -390.022 331.28 0 -380.641 320.735 0 -370.195 310.179 0 -358.684 299.677 0 -346.108 289.293 0 -332.57 279.091 0 -318.325 269.127 0 -303.383 259.454 0 -287.745 250.124 0 -271.41 241.189 0 -254.379 232.702 0 -236.693 224.714 0 -218.594 217.261 0 -200.123 210.366 0 -181.28 204.049 0 -162.066 198.332 0 -142.48 193.234 0 -122.53 188.778 0 -102.391 184.98 0 -82.1338 181.852 0 -61.7594 179.404 0 -41.2673 177.646 0 -20.6576 176.588 0 0.0697486 176.241 0 -0.0971559 -140.516 0 10.6102 -140.312 0 21.1763 -139.704 0 31.6012 -138.689 0 41.8847 -137.261 0 52.027 -135.418 0 62.0281 -133.157 0 71.818 -130.472 0 81.2263 -127.358 0 90.2451 -123.804 0 98.8744 -119.803 0 107.114 -115.344 0 114.965 -110.42 0 122.395 -105.021 0 129.22 -99.1385 0 135.409 -92.762 0 140.963 -85.8824 0 145.881 -78.4901 0 150.164 -70.5756 0 153.804 -62.1292 0 156.658 -53.1438 0 158.668 -43.616 0 159.834 -33.5435 0 160.156 -22.9235 0 159.633 -11.7534 0 158.266 -0.0307475 0 155.98 12.2437 0 152.7 25.0549 0 148.427 38.3845 0 143.159 52.214 0 136.898 66.525 0 129.642 81.2991 0 121.391 96.5159 0 112.138 112.138 0 101.884 128.12 0 90.6281 144.415 0 78.3707 160.977 0 65.1118 177.761 0 50.874 194.719 0 35.7931 211.781 0 19.8917 228.855 0 3.17853 245.848 0 -14.2562 262.679 0 -32.3884 279.285 0 -51.209 295.604 0 -70.515 311.562 0 -90.2233 327.065 0 -110.332 342.013 0 -130.671 356.316 0 -151.133 369.904 0 -171.718 382.709 0 -192.21 394.664 0 -212.39 405.688 0 -232.26 415.701 0 -251.742 424.627 0 -270.713 432.434 0 -289.173 439.105 0 -306.965 444.622 0 -323.711 448.974 0 -339.392 452.152 0 -354.007 454.147 0 -367.542 454.966 0 -379.998 454.628 0 -391.328 453.153 0 -401.269 450.574 0 -409.774 446.945 0 -416.844 442.315 0 -422.473 436.745 0 -426.659 430.298 0 -429.403 423.04 0 -430.72 415.044 0 -430.617 406.389 0 -429.094 397.16 0 -426.15 387.439 0 -421.786 377.309 0 -416 366.855 0 -408.938 356.159 0 -400.744 345.292 0 -391.418 334.323 0 -380.96 323.323 0 -369.37 312.36 0 -356.648 301.503 0 -342.901 290.821 0 -328.391 280.375 0 -313.13 270.222 0 -297.117 260.42 0 -280.353 251.027 0 -262.838 242.1 0 -244.616 233.695 0 -225.957 225.853 0 -206.904 218.597 0 -187.458 211.948 0 -167.618 205.928 0 -147.386 200.56 0 -126.768 195.866 0 -105.948 191.864 0 -84.9988 188.566 0 -63.9212 185.984 0 -42.7151 184.13 0 -21.3803 183.015 0 0.0830293 182.65 0 -0.0946817 -149.924 0 11.009 -149.727 0 21.9751 -149.138 0 32.8038 -148.154 0 43.495 -146.77 0 54.0488 -144.983 0 64.465 -142.788 0 74.6756 -140.181 0 84.5137 -137.154 0 93.9719 -133.697 0 103.05 -129.801 0 111.748 -125.454 0 120.066 -120.648 0 127.974 -115.371 0 135.287 -109.614 0 141.975 -103.364 0 148.037 -96.611 0 153.475 -89.3421 0 158.287 -81.5462 0 162.468 -73.2117 0 165.869 -64.3288 0 168.43 -54.8917 0 170.15 -44.8945 0 171.031 -34.3317 0 171.071 -23.1976 0 170.271 -11.4866 0 168.546 0.803556 0 165.81 13.6616 0 162.064 27.0727 0 157.307 41.0222 0 151.54 55.4954 0 144.762 70.4776 0 136.964 85.952 0 128.12 101.884 0 118.229 118.229 0 107.292 134.944 0 95.3088 151.985 0 82.2786 169.308 0 68.2185 186.867 0 53.2282 204.594 0 37.3245 222.4 0 20.5179 240.193 0 2.91823 257.889 0 -15.4453 275.415 0 -34.5644 292.702 0 -54.2591 309.666 0 -74.4557 326.211 0 -95.1518 342.234 0 -116.161 357.64 0 -137.366 372.348 0 -158.767 386.28 0 -180.154 399.356 0 -201.315 411.488 0 -222.25 422.587 0 -242.857 432.571 0 -262.972 441.407 0 -282.594 449.075 0 -301.566 455.556 0 -319.513 460.821 0 -336.416 464.837 0 -352.264 467.573 0 -367.01 469.035 0 -380.65 469.259 0 -393.136 468.279 0 -404.189 466.134 0 -413.76 462.862 0 -421.848 458.503 0 -428.429 453.111 0 -433.497 446.759 0 -437.053 439.521 0 -439.103 431.475 0 -439.647 422.706 0 -438.688 413.3 0 -436.222 403.343 0 -432.248 392.926 0 -426.766 382.137 0 -419.928 371.064 0 -411.886 359.785 0 -402.639 348.376 0 -392.188 336.912 0 -380.534 325.467 0 -367.675 314.119 0 -353.723 302.939 0 -338.948 291.994 0 -323.361 281.347 0 -306.964 271.059 0 -289.755 261.191 0 -271.736 251.806 0 -252.955 242.964 0 -233.708 234.709 0 -214.044 227.066 0 -193.965 220.059 0 -173.469 213.712 0 -152.557 208.051 0 -131.237 203.099 0 -109.699 198.878 0 -88.0203 195.4 0 -66.2015 192.676 0 -44.2423 190.72 0 -22.1426 189.543 0 0.0974799 189.158 0 -0.0919632 -159.359 0 11.3942 -159.169 0 22.747 -158.601 0 33.9664 -157.653 0 45.0525 -156.318 0 56.0053 -154.593 0 66.8247 -152.474 0 77.4444 -149.956 0 87.7019 -147.03 0 97.59 -143.684 0 107.109 -139.909 0 116.258 -135.692 0 125.037 -131.024 0 133.417 -125.892 0 141.214 -120.285 0 148.399 -114.189 0 154.972 -107.59 0 160.932 -100.476 0 166.279 -92.8311 0 171.007 -84.6432 0 174.964 -75.9 0 178.088 -66.5924 0 180.378 -56.7117 0 181.836 -46.2493 0 182.461 -35.1963 0 182.253 -23.5442 0 181.117 -11.2873 0 178.958 1.56694 0 175.775 15.0083 0 171.57 29.0262 0 166.341 43.6104 0 160.089 58.7504 0 152.796 74.4335 0 144.415 90.6281 0 134.944 107.292 0 124.385 124.385 0 112.735 141.863 0 99.9966 159.686 0 86.1793 177.811 0 71.3486 196.174 0 55.5156 214.69 0 38.6915 233.273 0 20.9945 251.837 0 2.45604 270.3 0 -16.9165 288.578 0 -36.9603 306.58 0 -57.6088 324.202 0 -78.8595 341.341 0 -100.514 357.895 0 -122.449 373.773 0 -144.664 388.885 0 -166.952 403.141 0 -189.107 416.446 0 -211.129 428.705 0 -232.886 439.832 0 -254.172 449.788 0 -274.983 458.549 0 -295.174 466.093 0 -314.386 472.37 0 -332.603 477.317 0 -349.794 480.879 0 -365.845 483.061 0 -380.743 483.919 0 -394.444 483.506 0 -406.677 481.863 0 -417.398 479.014 0 -426.6 474.985 0 -434.226 469.823 0 -440.261 463.61 0 -444.703 456.428 0 -447.554 448.364 0 -448.813 439.506 0 -448.481 429.941 0 -446.551 419.762 0 -443.021 409.062 0 -437.891 397.935 0 -431.32 386.475 0 -423.464 374.767 0 -414.324 362.896 0 -403.901 350.946 0 -392.195 338.999 0 -379.207 327.138 0 -365.052 315.444 0 -350.009 303.986 0 -334.091 292.829 0 -317.299 282.04 0 -299.633 271.682 0 -281.091 261.821 0 -261.73 252.52 0 -241.872 243.828 0 -221.571 235.772 0 -200.828 228.381 0 -179.642 221.683 0 -158.014 215.706 0 -135.952 210.478 0 -113.656 206.022 0 -91.2077 202.352 0 -68.6068 199.479 0 -45.8534 197.416 0 -22.9475 196.174 0 0.110991 195.766 0 -0.0889574 -168.818 0 11.7642 -168.636 0 23.4885 -168.093 0 35.0839 -167.184 0 46.5505 -165.905 0 57.8882 -164.251 0 69.0971 -162.217 0 80.1126 -159.798 0 90.7773 -156.985 0 101.084 -153.765 0 111.033 -150.127 0 120.623 -146.059 0 129.856 -141.549 0 138.7 -136.584 0 146.977 -131.152 0 154.656 -125.236 0 161.736 -118.821 0 168.219 -111.891 0 174.104 -104.43 0 179.384 -96.4239 0 183.904 -87.8573 0 187.602 -78.7183 0 190.477 -68.9952 0 192.529 -58.6762 0 193.758 -47.7495 0 194.164 -36.2034 0 193.644 -24.029 0 192.092 -11.229 0 189.509 2.19123 0 185.895 16.226 0 181.25 30.8699 0 175.574 46.1174 0 168.839 61.9605 0 160.977 78.3707 0 151.985 95.3088 0 141.863 112.735 0 130.611 130.611 0 118.229 148.897 0 104.723 167.552 0 90.1252 186.518 0 74.4421 205.714 0 57.6845 225.06 0 39.9666 244.471 0 21.3188 263.854 0 1.74785 283.118 0 -18.596 302.163 0 -39.6512 320.883 0 -61.4153 339.169 0 -83.6835 356.913 0 -106.327 374.013 0 -129.346 390.368 0 -152.535 405.876 0 -175.689 420.438 0 -198.807 433.95 0 -221.733 446.32 0 -244.214 457.499 0 -266.248 467.45 0 -287.701 476.139 0 -308.243 483.501 0 -327.861 489.463 0 -346.498 493.955 0 -363.946 496.978 0 -380.184 498.59 0 -395.171 498.845 0 -408.666 497.782 0 -420.627 495.42 0 -431.044 491.78 0 -439.811 486.909 0 -446.902 480.891 0 -452.314 473.815 0 -456.045 465.769 0 -458.092 456.847 0 -458.457 447.143 0 -457.131 436.752 0 -454.108 425.77 0 -449.389 414.295 0 -443.134 402.424 0 -435.504 390.257 0 -426.499 377.892 0 -416.121 365.429 0 -404.375 352.956 0 -391.263 340.563 0 -376.903 328.336 0 -361.589 316.349 0 -345.334 304.669 0 -328.138 293.363 0 -310.002 282.499 0 -290.924 272.144 0 -270.965 262.364 0 -250.474 253.211 0 -229.509 244.717 0 -208.072 236.916 0 -186.161 229.841 0 -163.778 223.525 0 -140.931 218.002 0 -117.833 213.297 0 -94.5706 209.424 0 -71.1439 206.394 0 -47.5531 204.217 0 -23.7979 202.907 0 0.121451 202.473 0 -0.0856215 -178.304 0 12.1174 -178.13 0 24.1964 -177.614 0 36.1514 -176.749 0 47.9823 -175.531 0 59.6891 -173.954 0 71.2719 -172.015 0 82.6684 -169.706 0 93.7261 -167.019 0 104.438 -163.94 0 114.805 -160.456 0 124.826 -156.555 0 134.501 -152.223 0 143.801 -147.448 0 152.549 -142.214 0 160.716 -136.505 0 168.302 -130.302 0 175.306 -123.587 0 181.729 -116.344 0 187.564 -108.554 0 192.653 -100.201 0 196.932 -91.2694 0 200.403 -81.7449 0 203.063 -71.6125 0 204.915 -60.8573 0 205.956 -49.4644 0 206.077 -37.4215 0 205.163 -24.7262 0 203.215 -11.3784 0 200.233 2.62167 0 196.217 17.2741 0 191.167 32.5787 0 185.046 48.533 0 177.761 65.1118 0 169.308 82.2786 0 159.686 99.9966 0 148.897 118.229 0 136.94 136.94 0 123.815 156.09 0 109.526 175.626 0 94.0747 195.471 0 77.4696 215.552 0 59.8122 235.783 0 41.1292 256.069 0 21.427 276.31 0 0.845246 296.404 0 -20.5591 316.239 0 -42.7834 335.701 0 -65.6207 354.676 0 -88.9407 373.052 0 -112.744 390.714 0 -136.822 407.55 0 -160.97 423.451 0 -185.187 438.311 0 -209.291 452.027 0 -232.997 464.533 0 -256.299 475.771 0 -279.073 485.683 0 -301.011 494.204 0 -322.099 501.262 0 -342.257 506.79 0 -361.185 510.781 0 -378.855 513.271 0 -395.23 514.297 0 -410.086 513.891 0 -423.386 512.08 0 -435.117 508.89 0 -445.123 504.371 0 -453.365 498.608 0 -459.842 491.686 0 -464.543 483.695 0 -467.463 474.737 0 -468.603 464.91 0 -467.955 454.317 0 -465.512 443.055 0 -461.276 431.221 0 -455.4 418.917 0 -448.04 406.259 0 -439.195 393.368 0 -428.875 380.361 0 -417.097 367.338 0 -403.861 354.393 0 -389.294 341.616 0 -373.703 329.084 0 -357.104 316.865 0 -339.496 305.029 0 -320.88 293.643 0 -301.254 282.776 0 -280.682 272.496 0 -259.539 262.857 0 -237.886 253.9 0 -215.723 245.663 0 -193.052 238.186 0 -169.871 231.509 0 -146.191 225.671 0 -122.242 220.702 0 -98.1182 216.615 0 -73.8195 213.419 0 -49.3457 211.124 0 -24.697 209.741 0 0.126752 209.279 0 -0.0819153 -187.783 0 12.4522 -187.619 0 24.8674 -187.132 0 37.1638 -186.314 0 49.3412 -185.163 0 61.3997 -183.672 0 73.3393 -181.835 0 85.1 -179.648 0 96.535 -177.099 0 107.638 -174.174 0 118.408 -170.86 0 128.846 -167.143 0 138.951 -163.009 0 148.695 -158.445 0 157.906 -153.434 0 166.554 -147.957 0 174.638 -141.993 0 182.161 -135.524 0 189.12 -128.53 0 195.51 -120.991 0 201.171 -112.888 0 206.039 -104.203 0 210.114 -94.9178 0 213.397 -85.015 0 215.886 -74.4765 0 217.581 -63.2842 0 218.365 -51.4222 0 218.118 -38.8828 0 216.84 -25.6599 0 214.53 -11.7478 0 211.19 2.85936 0 206.819 18.1674 0 201.368 34.1792 0 194.719 50.874 0 186.867 68.2185 0 177.811 86.1793 0 167.552 104.723 0 156.09 123.815 0 143.421 143.421 0 129.52 163.489 0 114.383 183.949 0 98.0187 204.733 0 80.508 225.756 0 61.8728 246.922 0 42.1188 268.13 0 21.374 289.274 0 -0.309288 310.238 0 -22.9284 330.903 0 -46.2789 351.149 0 -70.2323 370.851 0 -94.7886 389.882 0 -119.736 408.117 0 -144.862 425.442 0 -170.168 441.742 0 -195.457 456.906 0 -220.418 470.843 0 -245.047 483.466 0 -269.217 494.692 0 -292.614 504.454 0 -315.224 512.699 0 -336.951 519.373 0 -357.435 524.454 0 -376.641 527.945 0 -394.53 529.847 0 -410.868 530.182 0 -425.616 528.99 0 -438.757 526.316 0 -450.101 522.215 0 -459.597 516.766 0 -467.245 510.049 0 -473.017 502.153 0 -476.904 493.186 0 -478.904 483.258 0 -479.016 472.477 0 -477.237 460.94 0 -473.568 448.743 0 -468.145 435.99 0 -461.103 422.818 0 -452.443 409.374 0 -442.19 395.799 0 -430.382 382.202 0 -417.022 368.68 0 -402.241 355.33 0 -386.369 342.231 0 -369.418 329.452 0 -351.39 317.063 0 -332.284 305.132 0 -312.101 293.729 0 -290.905 282.924 0 -269.092 272.773 0 -246.726 263.325 0 -223.807 254.626 0 -200.336 246.723 0 -176.313 239.662 0 -151.749 233.491 0 -126.897 228.243 0 -101.86 223.929 0 -76.6402 220.558 0 -51.2359 218.139 0 -25.6475 216.679 0 0.124949 216.187 0 -0.0778597 -197.068 0 12.7672 -196.914 0 25.4989 -196.456 0 38.1171 -195.69 0 50.6218 -194.609 0 63.0131 -193.208 0 75.291 -191.481 0 87.3978 -189.423 0 99.1926 -187.02 0 110.669 -184.26 0 121.827 -181.128 0 132.667 -177.608 0 143.189 -173.688 0 153.364 -169.352 0 163.025 -164.583 0 172.143 -159.358 0 180.72 -153.658 0 188.754 -147.459 0 196.246 -140.742 0 203.189 -133.484 0 209.423 -125.664 0 214.884 -117.262 0 219.571 -108.256 0 223.484 -98.6247 0 226.624 -88.3481 0 228.99 -77.4049 0 230.458 -65.7757 0 230.904 -53.4475 0 230.327 -40.4087 0 228.728 -26.6479 0 226.106 -12.1546 0 222.461 3.0818 0 217.734 19.0691 0 211.781 35.7931 0 204.594 53.2282 0 196.174 71.3486 0 186.518 90.1252 0 175.626 109.526 0 163.489 129.52 0 150.057 150.057 0 135.323 171.075 0 119.292 192.509 0 102.02 214.279 0 83.5246 236.287 0 63.8096 258.434 0 42.989 280.612 0 21.1093 302.701 0 -1.82716 324.576 0 -25.6227 346.113 0 -50.1534 367.173 0 -75.4191 387.621 0 -101.201 407.32 0 -127.28 426.145 0 -153.657 443.972 0 -180.128 460.679 0 -206.371 476.151 0 -232.381 490.278 0 -258.018 502.952 0 -282.935 514.103 0 -307.117 523.678 0 -330.461 531.629 0 -352.577 537.917 0 -373.428 542.517 0 -392.969 545.405 0 -410.919 546.592 0 -427.231 546.128 0 -441.886 544.066 0 -454.673 540.467 0 -465.536 535.403 0 -474.471 528.951 0 -481.427 521.2 0 -486.381 512.268 0 -489.333 502.278 0 -490.293 491.344 0 -489.266 479.565 0 -486.254 467.039 0 -481.361 453.871 0 -474.695 440.215 0 -466.255 426.233 0 -456.086 412.083 0 -444.261 397.884 0 -430.78 383.744 0 -415.786 369.767 0 -399.628 356.038 0 -382.32 342.632 0 -363.864 329.62 0 -344.259 317.079 0 -323.504 305.08 0 -301.67 293.698 0 -279.165 282.995 0 -256.058 273.024 0 -232.349 263.837 0 -208.038 255.485 0 -183.125 248.021 0 -157.623 241.496 0 -131.813 235.949 0 -105.811 231.39 0 -79.6174 227.828 0 -53.2312 225.272 0 -26.6527 223.729 0 0.117913 223.208 0 -0.0735369 -206.126 0 13.0614 -205.982 0 26.0887 -205.557 0 39.0082 -204.844 0 51.8199 -203.837 0 64.5239 -202.531 0 77.1202 -200.919 0 89.5537 -198.996 0 101.69 -196.75 0 113.522 -194.164 0 125.051 -191.224 0 136.276 -187.916 0 147.197 -184.223 0 157.788 -180.132 0 167.886 -175.621 0 177.464 -170.67 0 186.522 -165.254 0 195.061 -159.352 0 203.079 -152.938 0 210.57 -145.992 0 217.375 -138.488 0 223.429 -130.404 0 228.731 -121.715 0 233.283 -112.398 0 237.083 -102.429 0 240.132 -91.7837 0 242.301 -80.4394 0 243.462 -68.3784 0 243.615 -55.5839 0 242.758 -42.0396 0 240.891 -27.7312 0 238.014 -12.6449 0 234.057 3.23088 0 228.855 19.8917 0 222.4 37.3245 0 214.69 55.5156 0 205.714 74.4421 0 195.471 94.0747 0 183.949 114.383 0 171.075 135.323 0 156.837 156.837 0 141.236 178.865 0 124.304 201.332 0 106.049 224.142 0 86.4751 247.198 0 65.6774 270.391 0 43.6952 293.596 0 20.531 316.686 0 -3.62831 339.529 0 -28.6654 361.98 0 -54.5803 383.89 0 -81.1477 405.116 0 -108.142 425.516 0 -135.564 444.956 0 -163.208 463.298 0 -190.744 480.41 0 -218.169 496.162 0 -245.324 510.43 0 -271.818 523.126 0 -297.633 534.186 0 -322.663 543.546 0 -346.502 551.155 0 -369.111 556.971 0 -390.432 560.955 0 -410.122 563.111 0 -428.122 563.49 0 -444.411 562.143 0 -458.762 559.131 0 -471.115 554.525 0 -481.466 548.4 0 -489.724 540.847 0 -495.852 531.996 0 -499.851 521.984 0 -501.748 510.935 0 -501.561 498.953 0 -499.291 486.138 0 -495.008 472.6 0 -488.785 458.496 0 -480.62 443.998 0 -470.58 429.269 0 -458.77 414.442 0 -445.19 399.637 0 -429.993 384.974 0 -413.553 370.546 0 -395.886 356.437 0 -376.993 342.728 0 -356.873 329.502 0 -335.526 316.841 0 -313.024 304.827 0 -289.796 293.528 0 -265.911 283.001 0 -241.372 273.298 0 -216.176 264.476 0 -190.325 256.589 0 -163.833 249.692 0 -137.012 243.825 0 -109.99 239.002 0 -82.7662 235.232 0 -55.3415 232.525 0 -27.7157 230.892 0 0.111329 230.343 0 -0.0690318 -214.957 0 13.3338 -214.824 0 26.6348 -214.433 0 39.834 -213.775 0 52.9314 -212.846 0 65.9269 -211.64 0 78.8206 -210.15 0 91.56 -208.37 0 104.017 -206.287 0 116.186 -203.886 0 128.066 -201.15 0 139.659 -198.065 0 150.963 -194.615 0 161.952 -190.783 0 172.472 -186.55 0 182.496 -181.892 0 192.023 -176.784 0 201.054 -171.201 0 209.589 -165.119 0 217.621 -158.513 0 224.992 -151.359 0 231.636 -143.629 0 237.555 -135.297 0 242.748 -126.336 0 247.215 -116.719 0 250.956 -106.42 0 253.84 -95.4132 0 255.734 -83.6752 0 256.64 -71.185 0 256.554 -57.9216 0 255.472 -43.868 0 253.393 -29.0088 0 250.245 -13.3291 0 245.848 3.17853 0 240.193 20.5179 0 233.273 38.6915 0 225.06 57.6845 0 215.552 77.4696 0 204.733 98.0187 0 192.509 119.292 0 178.865 141.236 0 163.8 163.8 0 147.315 186.912 0 129.411 210.481 0 110.09 234.411 0 89.425 258.596 0 67.4464 282.908 0 44.156 307.214 0 19.7274 331.377 0 -5.73063 355.246 0 -32.218 378.664 0 -59.5063 401.476 0 -87.3673 423.528 0 -115.801 444.665 0 -144.598 464.736 0 -173.425 483.593 0 -202.278 501.094 0 -230.982 517.099 0 -259.104 531.497 0 -286.627 544.196 0 -313.436 555.102 0 -339.101 564.15 0 -363.58 571.293 0 -386.805 576.489 0 -408.361 579.735 0 -428.18 581.073 0 -446.237 580.546 0 -462.289 578.21 0 -476.269 574.138 0 -488.171 568.404 0 -497.858 561.107 0 -505.274 552.388 0 -510.418 542.395 0 -513.344 531.267 0 -514.084 519.115 0 -512.638 506.046 0 -509.045 492.176 0 -503.342 477.662 0 -495.53 462.669 0 -485.688 447.357 0 -473.946 431.874 0 -460.304 416.36 0 -444.927 400.95 0 -428.216 385.754 0 -410.191 370.868 0 -390.851 356.385 0 -370.196 342.402 0 -348.227 329.012 0 -325.018 316.311 0 -301.022 304.374 0 -276.316 293.255 0 -250.899 283.011 0 -224.772 273.697 0 -197.933 265.368 0 -170.4 258.079 0 -142.514 251.873 0 -114.414 246.764 0 -86.1024 242.769 0 -57.5774 239.899 0 -28.8396 238.169 0 0.111048 237.593 0 -0.064429 -223.561 0 13.5833 -223.441 0 27.1353 -223.084 0 40.5915 -222.485 0 53.9519 -221.637 0 67.2166 -220.535 0 80.3855 -219.172 0 93.4089 -217.542 0 106.166 -215.632 0 118.65 -213.425 0 130.862 -210.905 0 142.801 -208.056 0 154.469 -204.862 0 165.839 -201.307 0 176.763 -197.37 0 187.216 -193.024 0 197.198 -188.245 0 206.709 -183.007 0 215.749 -177.283 0 224.311 -171.049 0 232.239 -164.276 0 239.469 -156.937 0 246.002 -149 0 251.836 -140.438 0 256.974 -131.219 0 261.413 -121.315 0 265.021 -110.697 0 267.665 -99.3365 0 269.343 -87.2065 0 270.051 -74.2809 0 269.78 -60.5402 0 268.529 -45.9674 0 266.223 -30.5453 0 262.679 -14.2562 0 257.889 2.91823 0 251.837 20.9945 0 244.471 39.9666 0 235.783 59.8122 0 225.756 80.508 0 214.279 102.02 0 201.332 124.304 0 186.912 147.315 0 170.989 170.989 0 153.554 195.239 0 134.609 219.975 0 114.199 245.094 0 92.3425 270.466 0 69.0418 295.958 0 44.4538 321.429 0 18.6773 346.721 0 -8.28761 371.671 0 -36.2145 396.115 0 -64.877 419.883 0 -94.2749 442.804 0 -124.194 464.706 0 -154.295 485.428 0 -184.573 504.811 0 -214.84 522.697 0 -244.638 538.95 0 -273.946 553.444 0 -302.639 566.055 0 -330.239 576.703 0 -356.702 585.337 0 -381.948 591.906 0 -405.5 596.402 0 -427.277 598.848 0 -447.255 599.275 0 -465.157 597.733 0 -480.909 594.303 0 -494.503 589.07 0 -505.755 582.135 0 -514.588 573.636 0 -521.005 563.711 0 -525.071 552.504 0 -526.829 540.157 0 -526.279 526.816 0 -523.442 512.622 0 -518.341 497.719 0 -510.975 482.247 0 -501.427 466.349 0 -489.826 450.183 0 -476.176 433.912 0 -460.652 417.696 0 -443.691 401.663 0 -425.312 385.924 0 -405.515 370.592 0 -384.3 355.778 0 -361.668 341.594 0 -337.699 328.151 0 -312.883 315.53 0 -287.302 303.788 0 -260.956 292.976 0 -233.844 283.148 0 -205.968 274.358 0 -177.343 266.658 0 -148.338 260.09 0 -119.104 254.678 0 -89.6413 250.439 0 -59.9491 247.393 0 -30.0276 245.56 0 0.122921 244.957 0 -0.0598135 -231.939 0 13.8089 -231.831 0 27.588 -231.51 0 41.2775 -230.972 0 54.8774 -230.21 0 68.3877 -229.217 0 81.8084 -227.987 0 95.0927 -226.514 0 108.126 -224.785 0 120.904 -222.782 0 133.425 -220.489 0 145.691 -217.889 0 157.701 -214.966 0 169.431 -211.704 0 180.74 -208.08 0 191.604 -204.067 0 202.024 -199.64 0 211.999 -194.77 0 221.529 -189.432 0 230.608 -183.599 0 239.082 -177.241 0 246.89 -170.327 0 254.031 -162.825 0 260.505 -154.703 0 266.312 -145.928 0 271.452 -136.468 0 275.792 -126.291 0 279.198 -115.362 0 281.669 -103.647 0 283.196 -91.1142 0 283.761 -77.7411 0 283.364 -63.5094 0 281.932 -48.4003 0 279.285 -32.3884 0 275.415 -15.4453 0 270.3 2.45604 0 263.854 21.3188 0 256.069 41.1292 0 246.922 61.8728 0 236.287 83.5246 0 224.142 106.049 0 210.481 129.411 0 195.239 153.554 0 178.399 178.399 0 159.962 203.863 0 139.94 229.848 0 118.338 256.226 0 95.1602 282.865 0 70.5416 309.624 0 44.5689 336.339 0 17.242 362.841 0 -11.2198 388.958 0 -40.5974 414.504 0 -70.8907 439.292 0 -101.882 463.133 0 -133.224 485.843 0 -164.912 507.244 0 -196.751 527.156 0 -228.264 545.413 0 -259.429 561.86 0 -290.103 576.344 0 -319.745 588.764 0 -348.303 599.063 0 -375.69 607.181 0 -401.374 613.095 0 -425.266 616.809 0 -447.334 618.331 0 -467.249 617.708 0 -484.921 615.038 0 -500.341 610.425 0 -513.302 603.974 0 -523.719 595.791 0 -531.592 585.985 0 -536.956 574.69 0 -539.835 562.109 0 -540.227 548.462 0 -538.185 533.943 0 -533.758 518.668 0 -526.947 502.733 0 -517.812 486.243 0 -506.449 469.367 0 -492.859 452.294 0 -477.235 435.212 0 -460.05 418.272 0 -441.325 401.607 0 -421.06 385.349 0 -399.255 369.631 0 -375.911 354.586 0 -351.117 340.345 0 -325.416 326.999 0 -298.898 314.598 0 -271.565 303.192 0 -243.414 292.828 0 -214.448 283.557 0 -184.683 275.427 0 -154.507 268.479 0 -124.079 262.742 0 -93.3986 258.243 0 -62.4668 255.008 0 -31.283 253.063 0 0.152799 252.436 0 -0.0552698 -240.084 0 14.0096 -239.988 0 27.991 -239.706 0 41.8891 -239.231 0 55.7037 -238.557 0 69.435 -237.678 0 83.0828 -236.588 0 96.6035 -235.279 0 109.89 -233.738 0 122.937 -231.949 0 135.745 -229.894 0 148.314 -227.556 0 160.643 -224.918 0 172.711 -221.964 0 184.384 -218.671 0 195.64 -215.011 0 206.478 -210.956 0 216.899 -206.48 0 226.902 -201.555 0 236.481 -196.151 0 245.488 -190.241 0 253.861 -183.789 0 261.601 -176.76 0 268.708 -169.12 0 275.182 -160.833 0 281.023 -151.865 0 286.098 -142.18 0 290.279 -131.736 0 293.563 -120.492 0 295.933 -108.407 0 297.36 -95.4577 0 297.844 -81.6233 0 297.316 -66.8837 0 295.604 -51.209 0 292.702 -34.5644 0 288.578 -16.9165 0 283.118 1.74785 0 276.31 21.427 0 268.13 42.1188 0 258.434 63.8096 0 247.198 86.4751 0 234.411 110.09 0 219.975 134.609 0 203.863 159.962 0 186.074 186.074 0 166.585 212.856 0 145.387 240.184 0 122.481 267.929 0 97.98 295.953 0 71.9532 324.088 0 44.4009 352.159 0 15.5295 379.989 0 -14.4552 407.376 0 -45.553 434.114 0 -77.5444 459.998 0 -110.08 484.821 0 -143.155 508.376 0 -176.569 530.457 0 -209.829 550.871 0 -242.914 569.431 0 -275.658 585.953 0 -307.442 600.32 0 -338.208 612.461 0 -367.859 622.304 0 -395.819 629.806 0 -421.994 634.946 0 -446.343 637.707 0 -468.444 638.131 0 -488.187 636.341 0 -505.562 632.469 0 -520.387 626.619 0 -532.587 618.85 0 -542.16 609.215 0 -549.028 597.831 0 -553.143 584.987 0 -554.504 571.004 0 -553.264 556.154 0 -549.576 540.517 0 -543.441 524.125 0 -534.863 507.031 0 -523.851 489.413 0 -510.407 471.494 0 -494.74 453.492 0 -477.365 435.583 0 -458.305 417.924 0 -437.56 400.669 0 -415.131 383.977 0 -391.017 368.005 0 -365.32 352.91 0 -338.659 338.793 0 -311.135 325.698 0 -282.75 313.667 0 -253.502 302.744 0 -223.392 292.97 0 -192.439 284.388 0 -161.039 277.039 0 -129.356 270.957 0 -97.3899 266.18 0 -65.1408 262.742 0 -32.6087 260.68 0 0.20647 260.029 0 -0.0508593 -247.854 0 14.1845 -247.771 0 28.3428 -247.528 0 42.4238 -247.117 0 56.4277 -246.533 0 70.3544 -245.77 0 84.204 -244.821 0 97.9355 -243.679 0 111.45 -242.332 0 124.741 -240.76 0 137.811 -238.948 0 150.659 -236.878 0 163.284 -234.533 0 175.667 -231.895 0 187.681 -228.943 0 199.305 -225.646 0 210.541 -221.979 0 221.387 -217.91 0 231.843 -213.414 0 241.904 -208.46 0 251.426 -203.019 0 260.351 -197.052 0 268.679 -190.524 0 276.409 -183.396 0 283.543 -175.632 0 290.079 -167.194 0 295.891 -158.044 0 300.853 -148.135 0 304.965 -137.42 0 308.199 -125.853 0 310.511 -113.405 0 311.901 -100.051 0 312.305 -85.7659 0 311.562 -70.515 0 309.666 -54.2591 0 306.58 -36.9603 0 302.163 -18.596 0 296.404 0.845246 0 289.274 21.374 0 280.612 42.989 0 270.391 65.6774 0 258.596 89.425 0 245.094 114.199 0 229.848 139.94 0 212.856 166.585 0 194.056 194.056 0 173.422 222.235 0 150.956 251.004 0 126.739 280.229 0 100.821 309.739 0 73.202 339.359 0 44.0698 368.904 0 13.6109 398.162 0 -18.1748 426.912 0 -51.071 454.931 0 -84.7338 481.984 0 -119.159 507.832 0 -154.139 532.238 0 -189.169 554.978 0 -224.224 575.834 0 -259.118 594.597 0 -293.143 611.119 0 -326.23 625.306 0 -358.278 637.062 0 -388.669 646.325 0 -417.3 653.063 0 -444.119 657.25 0 -468.591 658.918 0 -490.571 658.189 0 -510.054 655.189 0 -526.918 650.019 0 -541.112 642.735 0 -552.633 633.385 0 -561.223 622.085 0 -566.719 609.14 0 -569.122 594.89 0 -568.738 579.622 0 -565.877 563.434 0 -560.539 546.371 0 -552.647 528.506 0 -542.081 510.049 0 -528.841 491.261 0 -513.164 472.395 0 -495.627 453.621 0 -476.259 435.066 0 -455.053 416.862 0 -431.984 399.18 0 -407.051 382.224 0 -380.375 366.196 0 -352.675 351.219 0 -324.071 337.337 0 -294.564 324.591 0 -264.154 313.024 0 -232.842 302.673 0 -200.645 293.58 0 -167.963 285.784 0 -134.958 279.327 0 -101.631 274.251 0 -67.9823 270.597 0 -34.0112 268.406 0 0.282151 267.721 0 -0.0465978 -255.191 0 14.3336 -255.122 0 28.6429 -254.917 0 42.8812 -254.571 0 57.0484 -254.078 0 71.1448 -253.432 0 85.1701 -252.625 0 99.0868 -251.652 0 112.803 -250.499 0 126.314 -249.148 0 139.62 -247.582 0 152.722 -245.783 0 165.618 -243.735 0 178.29 -241.42 0 190.621 -238.814 0 202.592 -235.889 0 214.201 -232.617 0 225.45 -228.968 0 236.338 -224.913 0 246.86 -220.424 0 256.878 -215.468 0 266.337 -210.007 0 275.237 -204.002 0 283.578 -197.414 0 291.361 -190.202 0 298.584 -182.329 0 305.128 -173.752 0 310.869 -164.425 0 315.809 -154.299 0 319.912 -143.326 0 323.124 -131.467 0 325.442 -118.688 0 326.806 -104.953 0 327.065 -90.2233 0 326.211 -74.4557 0 324.202 -57.6088 0 320.883 -39.6512 0 316.239 -20.5591 0 310.238 -0.309288 0 302.701 21.1093 0 293.596 43.6952 0 282.908 67.4464 0 270.466 92.3425 0 256.226 118.338 0 240.184 145.387 0 222.235 173.422 0 202.339 202.339 0 180.496 232.031 0 156.749 262.374 0 131.125 293.198 0 103.624 324.329 0 74.4079 355.579 0 43.6378 386.727 0 11.3141 417.54 0 -22.359 447.779 0 -57.056 477.178 0 -92.7729 505.459 0 -129.295 532.349 0 -166.098 557.591 0 -203.159 580.941 0 -240.266 602.157 0 -276.627 621.058 0 -312.166 637.506 0 -346.769 651.368 0 -379.751 662.566 0 -410.998 671.081 0 -440.45 676.897 0 -467.473 680.036 0 -491.899 680.571 0 -513.723 678.58 0 -532.841 674.155 0 -549.209 667.416 0 -562.824 658.487 0 -573.297 647.515 0 -580.385 634.712 0 -584.087 620.301 0 -584.807 604.496 0 -582.945 587.486 0 -578.502 569.45 0 -571.332 550.582 0 -561.207 531.16 0 -548.123 511.492 0 -532.373 491.865 0 -514.676 472.397 0 -495.063 453.113 0 -473.499 434.052 0 -449.845 415.388 0 -424.09 397.395 0 -396.376 380.346 0 -367.57 364.402 0 -337.816 349.617 0 -307.114 336.041 0 -275.468 323.719 0 -242.878 312.697 0 -209.363 303.017 0 -175.32 294.722 0 -140.912 287.854 0 -106.14 282.456 0 -71.0038 278.57 0 -35.5025 276.239 0 0.36335 275.504 0 -0.0424961 -262.096 0 14.4567 -262.04 0 28.891 -261.874 0 43.2605 -261.594 0 57.5652 -261.192 0 71.805 -260.663 0 85.98 -260 0 100.056 -259.197 0 113.948 -258.24 0 127.652 -257.112 0 141.169 -255.795 0 154.498 -254.271 0 167.64 -252.525 0 180.576 -250.537 0 193.199 -248.285 0 205.49 -245.74 0 217.449 -242.872 0 229.077 -239.653 0 240.373 -236.053 0 251.331 -232.043 0 261.824 -227.59 0 271.797 -222.655 0 281.252 -217.196 0 290.187 -211.172 0 298.604 -204.543 0 306.502 -197.268 0 313.764 -189.304 0 320.272 -180.607 0 326.027 -171.129 0 330.992 -160.824 0 335.107 -149.641 0 338.371 -137.531 0 340.723 -124.443 0 342.013 -110.332 0 342.234 -95.1518 0 341.341 -78.8595 0 339.169 -61.4153 0 335.701 -42.7834 0 330.903 -22.9284 0 324.576 -1.82716 0 316.686 20.531 0 307.214 44.156 0 295.958 69.0418 0 282.865 95.1602 0 267.929 122.481 0 251.004 150.956 0 232.031 180.496 0 211.011 211.011 0 187.94 242.388 0 162.817 274.464 0 135.643 307.067 0 106.547 340.011 0 75.6602 373.067 0 42.9818 405.992 0 8.69323 438.536 0 -26.9176 470.396 0 -63.847 501.252 0 -101.869 530.784 0 -140.433 558.706 0 -179.513 584.743 0 -218.881 608.626 0 -257.673 630.129 0 -295.808 649.056 0 -333.15 665.218 0 -368.893 678.527 0 -402.901 688.998 0 -435.113 696.649 0 -464.868 701.484 0 -491.993 703.488 0 -516.478 702.645 0 -538.107 699.03 0 -556.793 692.899 0 -572.53 684.529 0 -584.984 674.126 0 -593.943 661.702 0 -599.406 647.234 0 -601.684 630.778 0 -601.085 612.684 0 -597.61 593.379 0 -591.099 573.285 0 -581.298 552.775 0 -568.204 532.213 0 -552.22 511.921 0 -534.329 491.919 0 -514.576 472.065 0 -492.852 452.236 0 -468.742 432.597 0 -442.206 413.516 0 -413.423 395.357 0 -383.457 378.34 0 -352.487 362.538 0 -320.514 348.015 0 -287.547 334.831 0 -253.588 323.042 0 -218.656 312.699 0 -183.154 303.851 0 -147.247 296.537 0 -110.935 290.796 0 -74.2178 286.664 0 -37.0955 284.179 0 0.431885 283.38 0 -0.038565 -268.569 0 14.5536 -268.526 0 29.0869 -268.4 0 43.5614 -268.184 0 57.9772 -267.874 0 72.3342 -267.464 0 86.6323 -266.946 0 100.84 -266.314 0 114.882 -265.556 0 128.753 -264.652 0 142.454 -263.587 0 155.984 -262.343 0 169.345 -260.902 0 182.519 -259.247 0 195.407 -257.355 0 207.992 -255.197 0 220.275 -252.743 0 232.256 -249.965 0 243.934 -246.832 0 255.304 -243.317 0 266.246 -239.385 0 276.711 -234.995 0 286.698 -230.104 0 296.208 -224.672 0 305.241 -218.655 0 313.796 -212.012 0 321.759 -204.7 0 329.014 -196.674 0 335.561 -187.89 0 341.368 -178.301 0 346.382 -167.847 0 350.604 -156.464 0 353.968 -144.089 0 356.316 -130.671 0 357.64 -116.161 0 357.895 -100.514 0 356.913 -83.6835 0 354.676 -65.6207 0 351.149 -46.2789 0 346.113 -25.6227 0 339.529 -3.62831 0 331.377 19.7274 0 321.429 44.4538 0 309.624 70.5416 0 295.953 97.98 0 280.229 126.739 0 262.374 156.749 0 242.388 187.94 0 220.216 220.216 0 195.824 253.426 0 169.212 287.406 0 140.47 321.978 0 109.691 356.906 0 76.8747 391.939 0 42.1648 426.814 0 5.79161 461.196 0 -32.242 494.724 0 -71.6965 527.041 0 -111.986 557.817 0 -153.084 586.737 0 -194.747 613.49 0 -236.058 637.808 0 -276.929 659.454 0 -317.196 678.198 0 -355.868 693.931 0 -392.78 706.667 0 -427.876 716.425 0 -460.554 723.188 0 -490.653 726.888 0 -518.151 727.454 0 -542.575 724.947 0 -563.73 719.681 0 -581.615 711.999 0 -596.152 702.132 0 -607.296 690.005 0 -615.044 675.488 0 -619.397 658.571 0 -620.352 639.712 0 -617.91 619.488 0 -611.973 598.448 0 -602.389 576.98 0 -589.155 555.413 0 -572.816 534.048 0 -554.705 512.927 0 -534.883 491.96 0 -513.139 471.072 0 -488.675 450.419 0 -461.416 430.323 0 -431.574 411.105 0 -400.43 392.985 0 -368.196 376.082 0 -334.874 360.507 0 -300.492 346.358 0 -265.057 333.707 0 -228.588 322.626 0 -191.508 313.172 0 -153.99 305.377 0 -116.033 299.27 0 -77.637 294.877 0 -38.803 292.227 0 0.469574 291.348 0 -0.0348153 -274.609 0 14.6241 -274.579 0 29.2302 -274.492 0 43.7834 -274.343 0 58.2838 -274.126 0 72.7313 -273.834 0 87.1259 -273.462 0 101.439 -273.004 0 115.603 -272.445 0 129.614 -271.769 0 143.472 -270.959 0 157.176 -269.997 0 170.728 -268.866 0 184.112 -267.55 0 197.237 -266.025 0 210.089 -264.261 0 222.668 -262.231 0 234.974 -259.904 0 247.007 -257.252 0 258.761 -254.246 0 270.126 -250.851 0 281.056 -247.026 0 291.552 -242.728 0 301.613 -237.913 0 311.239 -232.539 0 320.431 -226.562 0 329.074 -219.938 0 337.055 -212.623 0 344.372 -204.569 0 351.004 -195.727 0 356.911 -186.032 0 362.095 -175.413 0 366.483 -163.798 0 369.904 -151.133 0 372.348 -137.366 0 373.773 -122.449 0 374.013 -106.327 0 373.052 -88.9407 0 370.851 -70.2323 0 367.173 -50.1534 0 361.98 -28.6654 0 355.246 -5.73063 0 346.721 18.6773 0 336.339 44.5689 0 324.088 71.9532 0 309.739 100.821 0 293.198 131.125 0 274.464 162.817 0 253.426 195.824 0 230.013 230.013 0 204.225 265.239 0 176.103 301.338 0 145.687 338.069 0 112.978 375.171 0 78.0728 412.367 0 41.1292 449.298 0 2.14864 485.573 0 -38.6202 520.803 0 -80.5698 554.606 0 -123.673 586.604 0 -167.665 616.423 0 -211.555 643.766 0 -255.247 668.388 0 -298.549 690.051 0 -340.295 708.606 0 -380.291 723.998 0 -418.484 736.178 0 -454.308 745.101 0 -487.613 750.736 0 -518.366 753.053 0 -545.846 752.099 0 -569.761 748.077 0 -590.111 741.206 0 -607.034 731.67 0 -620.618 719.556 0 -630.862 704.933 0 -637.46 687.94 0 -640.107 669.002 0 -638.802 648.612 0 -633.562 627.226 0 -624.416 605.083 0 -611.364 582.343 0 -594.994 559.178 0 -576.747 535.886 0 -556.688 512.826 0 -534.586 490.345 0 -509.572 468.608 0 -481.564 447.651 0 -450.778 427.51 0 -418.528 408.304 0 -385.032 390.236 0 -350.297 373.513 0 -314.403 358.297 0 -277.372 344.692 0 -239.224 332.798 0 -200.426 322.685 0 -161.168 314.374 0 -121.451 307.878 0 -81.2742 303.209 0 -40.6378 300.381 0 0.458237 299.408 0 -0.0312576 -280.217 0 14.6682 -280.2 0 29.3206 -280.153 0 43.9259 -280.07 0 58.4841 -279.946 0 72.9953 -279.774 0 87.4594 -279.55 0 101.851 -279.266 0 116.11 -278.909 0 130.233 -278.463 0 144.219 -277.91 0 158.07 -277.234 0 171.784 -276.419 0 185.349 -275.446 0 198.683 -274.294 0 211.773 -272.933 0 224.619 -271.335 0 237.221 -269.471 0 249.578 -267.312 0 261.686 -264.83 0 273.445 -261.99 0 284.812 -258.75 0 295.789 -255.066 0 306.374 -250.895 0 316.567 -246.193 0 326.37 -240.916 0 335.67 -235.019 0 344.356 -228.452 0 352.427 -221.165 0 359.87 -213.102 0 366.662 -204.197 0 372.802 -194.377 0 378.214 -183.57 0 382.709 -171.718 0 386.28 -158.767 0 388.885 -144.664 0 390.368 -129.346 0 390.714 -112.744 0 389.882 -94.7886 0 387.621 -75.4191 0 383.89 -54.5803 0 378.664 -32.218 0 371.671 -8.28761 0 362.841 17.242 0 352.159 44.4009 0 339.359 73.202 0 324.329 103.624 0 307.067 135.643 0 287.406 169.212 0 265.239 204.225 0 240.566 240.566 0 213.36 278.093 0 183.593 316.558 0 151.265 355.689 0 116.424 395.195 0 79.1437 434.701 0 39.4264 473.798 0 -2.48516 512.071 0 -45.9964 549.075 0 -91.0804 584.345 0 -137.437 617.427 0 -183.936 648.004 0 -230.471 675.858 0 -276.831 700.775 0 -321.767 722.551 0 -365.07 740.991 0 -406.675 755.907 0 -445.911 767.224 0 -482.6 775.035 0 -516.706 779.442 0 -547.476 780.486 0 -574.602 778.087 0 -598.083 772.151 0 -617.924 762.741 0 -634.13 750.356 0 -646.701 735.569 0 -655.3 718.887 0 -659.592 700.554 0 -659.576 680.751 0 -655.4 659.619 0 -647.299 637.086 0 -635.275 613.002 0 -619.71 587.311 0 -601.538 560.794 0 -580.801 534.661 0 -557.457 510.054 0 -531.351 487.165 0 -502.467 465.502 0 -470.963 444.573 0 -437.783 424.297 0 -403.084 405.002 0 -366.885 387.033 0 -329.379 370.65 0 -290.618 355.998 0 -250.627 343.215 0 -209.951 332.39 0 -168.811 323.527 0 -127.208 316.62 0 -85.1419 311.661 0 -42.6127 308.643 0 0.379691 307.56 0 -0.0278952 -285.333 0 14.6858 -285.329 0 29.3581 -285.322 0 43.9889 -285.305 0 58.5782 -285.272 0 73.126 -285.22 0 87.6324 -285.141 0 102.075 -285.03 0 116.401 -284.873 0 130.608 -284.655 0 144.695 -284.359 0 158.662 -283.968 0 172.511 -283.467 0 186.227 -282.838 0 199.74 -282.058 0 213.038 -281.101 0 226.12 -279.937 0 238.986 -278.539 0 251.637 -276.877 0 264.068 -274.923 0 276.189 -272.645 0 287.962 -269.998 0 299.388 -266.94 0 310.467 -263.426 0 321.198 -259.413 0 331.582 -254.856 0 341.512 -249.709 0 350.883 -243.918 0 359.693 -237.426 0 367.936 -230.174 0 375.599 -222.096 0 382.682 -213.121 0 389.103 -203.179 0 394.664 -192.21 0 399.356 -180.154 0 403.141 -166.952 0 405.876 -152.535 0 407.55 -136.822 0 408.117 -119.736 0 407.32 -101.201 0 405.116 -81.1477 0 401.476 -59.5063 0 396.115 -36.2145 0 388.958 -11.2198 0 379.989 15.5295 0 368.904 44.0698 0 355.579 74.4079 0 340.011 106.547 0 321.978 140.47 0 301.338 176.103 0 278.093 213.36 0 252.127 252.127 0 223.324 292.16 0 191.684 333.188 0 157.201 374.919 0 119.862 416.961 0 79.6684 458.885 0 36.8375 500.254 0 -8.09706 540.562 0 -55.111 579.267 0 -103.845 615.839 0 -152.95 649.934 0 -202.297 681.336 0 -251.683 709.831 0 -299.898 735.162 0 -346.739 757.025 0 -392.113 775.12 0 -435.047 789.331 0 -475.282 799.796 0 -512.795 806.671 0 -547.099 809.964 0 -577.995 809.392 0 -605.474 804.637 0 -628.909 795.68 0 -647.908 783.311 0 -662.471 768.46 0 -672.643 751.897 0 -678.473 733.744 0 -679.959 713.965 0 -677.359 692.498 0 -671.082 669.136 0 -661.133 643.619 0 -647.391 615.823 0 -629.559 586.796 0 -607.625 558.194 0 -581.984 531.576 0 -554.119 507.18 0 -524.173 484.285 0 -492.169 462.175 0 -458.239 440.67 0 -422.406 420.127 0 -384.704 400.922 0 -345.493 383.357 0 -304.869 367.62 0 -262.861 353.891 0 -220.134 342.288 0 -176.958 332.807 0 -133.333 325.428 0 -89.2605 320.133 0 -44.7391 316.902 0 0.230785 315.718 0 -0.0247007 -289.898 0 14.6776 -289.907 0 29.3438 -289.938 0 43.9739 -289.985 0 58.568 -290.043 0 73.126 -290.106 0 87.6479 -290.169 0 102.115 -290.227 0 116.481 -290.266 0 130.743 -290.271 0 144.903 -290.226 0 158.959 -290.114 0 172.912 -289.92 0 186.751 -289.628 0 200.413 -289.215 0 213.887 -288.655 0 227.174 -287.919 0 240.274 -286.98 0 253.186 -285.81 0 265.906 -284.38 0 278.356 -282.659 0 290.503 -280.604 0 302.346 -278.17 0 313.886 -275.314 0 325.122 -271.993 0 336.054 -268.162 0 346.585 -263.774 0 356.614 -258.774 0 366.141 -253.1 0 375.164 -246.692 0 383.675 -239.485 0 391.676 -231.41 0 399.081 -222.4 0 405.688 -212.39 0 411.488 -201.315 0 416.446 -189.107 0 420.438 -175.689 0 423.451 -160.97 0 425.442 -144.862 0 426.145 -127.28 0 425.516 -108.142 0 423.528 -87.3673 0 419.883 -64.877 0 414.504 -40.5974 0 407.376 -14.4552 0 398.162 13.6109 0 386.727 43.6378 0 373.067 75.6602 0 356.906 109.691 0 338.069 145.687 0 316.558 183.593 0 292.16 223.324 0 264.664 264.664 0 234.068 307.365 0 200.296 351.158 0 163.226 395.631 0 122.856 440.323 0 79.3713 484.762 0 33.2217 528.406 0 -15.5721 570.675 0 -66.5886 610.999 0 -118.243 648.969 0 -170.383 684.292 0 -222.815 716.676 0 -274.374 745.833 0 -324.865 771.478 0 -374.168 793.329 0 -421.027 811.198 0 -465.108 825.034 0 -506.4 834.793 0 -544.657 840.392 0 -579.778 841.674 0 -611.745 838.473 0 -639.242 830.826 0 -661.442 819.328 0 -678.345 804.67 0 -690.412 787.456 0 -698.104 767.947 0 -701.42 746.315 0 -700.664 722.734 0 -696.317 697.378 0 -688.386 670.421 0 -676.339 642.086 0 -658.874 613.035 0 -635.931 584.153 0 -608.271 556.289 0 -578.751 529.741 0 -547.647 504.412 0 -514.881 480.2 0 -479.997 457.131 0 -442.92 435.358 0 -403.689 415.039 0 -362.728 396.361 0 -320.148 379.552 0 -275.987 364.841 0 -231.059 352.382 0 -185.699 342.182 0 -139.906 334.233 0 -93.6808 328.525 0 -47.0225 325.049 0 0.0684809 323.795 0 -0.0216391 -293.912 0 14.6441 -293.934 0 29.2789 -294.002 0 43.883 -294.111 0 58.4562 -294.256 0 72.9985 -294.433 0 87.51 -294.635 0 101.975 -294.857 0 116.354 -295.087 0 130.645 -295.31 0 144.849 -295.509 0 158.965 -295.67 0 172.993 -295.778 0 186.925 -295.816 0 200.706 -295.764 0 214.327 -295.595 0 227.788 -295.281 0 241.088 -294.795 0 254.229 -294.111 0 267.206 -293.202 0 279.952 -292.034 0 292.437 -290.567 0 304.663 -288.756 0 316.629 -286.56 0 328.335 -283.933 0 339.781 -280.833 0 350.876 -277.215 0 361.531 -273.02 0 371.745 -268.187 0 381.516 -262.656 0 390.842 -256.363 0 399.723 -249.244 0 408.077 -241.233 0 415.701 -232.26 0 422.587 -222.25 0 428.705 -211.129 0 433.95 -198.807 0 438.311 -185.187 0 441.742 -170.168 0 443.972 -153.657 0 444.956 -135.564 0 444.665 -115.801 0 442.804 -94.2749 0 439.292 -70.8907 0 434.114 -45.553 0 426.912 -18.1748 0 417.54 11.3141 0 405.992 42.9818 0 391.939 76.8747 0 375.171 112.978 0 355.689 151.265 0 333.188 191.684 0 307.365 234.068 0 278.22 278.22 0 245.577 323.913 0 209.154 370.712 0 168.947 418.11 0 125.113 465.594 0 78.0344 512.608 0 27.7273 558.57 0 -25.3439 602.906 0 -79.4339 645.11 0 -134.376 684.727 0 -189.957 721.31 0 -244.903 754.564 0 -299.001 784.35 0 -352.134 810.532 0 -403.066 832.826 0 -451.47 850.75 0 -497.326 863.806 0 -540.169 871.768 0 -579.812 874.933 0 -616.236 873.657 0 -647.966 868.178 0 -674.076 858.407 0 -694.567 844.199 0 -709.832 825.566 0 -720.265 803.163 0 -725.865 777.8 0 -726.874 750.327 0 -723.679 721.814 0 -716.283 693.409 0 -704.33 666.102 0 -686.942 639.51 0 -664.081 612.539 0 -636.393 584.192 0 -606.316 554.85 0 -574.083 525.882 0 -539.696 498.647 0 -503.172 473.679 0 -464.514 450.696 0 -423.741 429.382 0 -381.043 409.662 0 -336.469 391.795 0 -290.065 376.065 0 -242.82 362.671 0 -195.138 351.653 0 -147.018 343.035 0 -98.4611 336.838 0 -49.4668 333.083 0 -0.0352274 331.793 0 -0.0186755 -297.375 0 14.5861 -297.409 0 29.165 -297.513 0 43.7182 -297.683 0 58.2455 -297.914 0 72.7469 -298.2 0 87.2226 -298.538 0 101.659 -298.92 0 116.025 -299.336 0 130.318 -299.771 0 144.539 -300.21 0 158.687 -300.638 0 172.762 -301.041 0 186.758 -301.404 0 200.627 -301.705 0 214.364 -301.92 0 227.966 -302.022 0 241.436 -301.985 0 254.772 -301.782 0 267.972 -301.387 0 280.978 -300.77 0 293.767 -299.888 0 306.339 -298.699 0 318.694 -297.162 0 330.832 -295.233 0 342.753 -292.871 0 354.375 -290.03 0 365.616 -286.654 0 376.476 -282.682 0 386.956 -278.055 0 397.053 -272.711 0 406.768 -266.588 0 416.023 -259.624 0 424.627 -251.742 0 432.571 -242.857 0 439.832 -232.886 0 446.32 -221.733 0 452.027 -209.291 0 456.906 -195.457 0 460.679 -180.128 0 463.298 -163.208 0 464.736 -144.598 0 464.706 -124.194 0 463.133 -101.882 0 459.998 -77.5444 0 454.931 -51.071 0 447.779 -22.359 0 438.536 8.69323 0 426.814 42.1648 0 412.367 78.0728 0 395.195 116.424 0 374.919 157.201 0 351.158 200.296 0 323.913 245.577 0 292.868 292.868 0 257.522 341.736 0 217.869 391.653 0 174.049 442.087 0 126.407 492.47 0 74.96 542.213 0 20.1789 590.73 0 -36.164 637.426 0 -93.8987 681.706 0 -152.753 722.983 0 -211.09 760.939 0 -268.639 795.52 0 -325.329 826.677 0 -380.437 854.003 0 -433.77 876.599 0 -485.263 893.534 0 -533.493 904.424 0 -577.879 909.957 0 -618.411 910.939 0 -654.376 907.784 0 -685.328 899.808 0 -711.266 886.142 0 -731.694 866.296 0 -746.117 841.3 0 -754.534 812.566 0 -757.004 781.562 0 -753.622 750.107 0 -744.389 720.144 0 -730.011 693.29 0 -712.218 668.306 0 -691.089 642.485 0 -666.431 613.322 0 -637.522 581.247 0 -604.294 548.807 0 -567.088 518.525 0 -527.947 491.384 0 -487.215 466.825 0 -444.849 444.229 0 -400.431 423.33 0 -353.85 404.354 0 -305.157 387.562 0 -255.509 373.155 0 -205.376 361.221 0 -154.76 351.835 0 -103.66 345.071 0 -52.076 341.004 0 -0.00834747 339.71 0 -0.0157749 -300.288 0 14.5043 -300.333 0 29.0034 -300.473 0 43.4815 -300.702 0 57.9385 -301.015 0 72.3745 -301.409 0 86.7894 -301.877 0 101.173 -302.416 0 115.5 -303.013 0 129.768 -303.655 0 143.978 -304.328 0 158.131 -305.017 0 172.225 -305.709 0 186.254 -306.39 0 200.183 -307.039 0 214.003 -307.632 0 227.716 -308.143 0 241.322 -308.548 0 254.819 -308.821 0 268.207 -308.937 0 281.438 -308.865 0 294.494 -308.565 0 307.375 -307.998 0 320.08 -307.121 0 332.61 -305.893 0 344.964 -304.275 0 357.07 -302.22 0 368.855 -299.675 0 380.318 -296.578 0 391.461 -292.871 0 402.282 -288.494 0 412.782 -283.386 0 422.89 -277.487 0 432.434 -270.713 0 441.407 -262.972 0 449.788 -254.172 0 457.499 -244.214 0 464.533 -232.997 0 470.843 -220.418 0 476.151 -206.371 0 480.41 -190.744 0 483.593 -173.425 0 485.428 -154.295 0 485.843 -133.224 0 484.821 -110.08 0 481.984 -84.7338 0 477.178 -57.056 0 470.396 -26.9176 0 461.196 5.79161 0 449.298 41.1292 0 434.701 79.1437 0 416.961 119.862 0 395.631 163.226 0 370.712 209.154 0 341.736 257.522 0 307.961 307.961 0 269.375 360.007 0 226.087 413.184 0 178.355 466.883 0 126.193 520.428 0 70.078 573.147 0 11.8072 624.436 0 -48.4471 673.738 0 -110.357 720.502 0 -171.953 764.294 0 -232.908 804.794 0 -293.21 841.682 0 -352.736 874.396 0 -411.454 902.039 0 -469.248 923.694 0 -523.539 938.885 0 -573.274 947.997 0 -618.455 951.514 0 -659.239 949.718 0 -695.726 942.352 0 -727.915 929.061 0 -754.261 909.755 0 -773.218 885.396 0 -784.785 857.209 0 -788.866 826.44 0 -785.309 794.454 0 -774.111 762.664 0 -757.139 732.277 0 -738.957 702.744 0 -719.771 672.614 0 -698.485 640.551 0 -670.98 606.931 0 -636.86 573.361 0 -596.807 541.44 0 -554.905 511.946 0 -511.836 484.833 0 -467.517 460.023 0 -421.097 437.481 0 -372.348 417.239 0 -321.323 399.333 0 -269.217 383.834 0 -216.517 370.884 0 -163.223 360.631 0 -109.336 353.225 0 -54.8541 348.813 0 0.221113 347.546 0 -0.0129025 -302.649 0 14.3995 -302.706 0 28.7954 -302.88 0 43.1749 -303.166 0 57.5379 -303.56 0 71.8845 -304.058 0 86.2146 -304.654 0 100.52 -305.344 0 114.783 -306.118 0 129 -306.962 0 143.174 -307.863 0 157.303 -308.807 0 171.387 -309.782 0 185.422 -310.774 0 199.379 -311.764 0 213.253 -312.729 0 227.044 -313.644 0 240.752 -314.486 0 254.376 -315.229 0 267.917 -315.85 0 281.337 -316.32 0 294.621 -316.601 0 307.77 -316.653 0 320.784 -316.437 0 333.663 -315.914 0 346.406 -315.044 0 358.951 -313.785 0 371.234 -312.082 0 383.255 -309.874 0 395.014 -307.104 0 406.511 -303.711 0 417.747 -299.638 0 428.66 -294.82 0 439.105 -289.173 0 449.075 -282.594 0 458.549 -274.983 0 467.45 -266.248 0 475.771 -256.299 0 483.466 -245.047 0 490.278 -232.381 0 496.162 -218.169 0 501.094 -202.278 0 504.811 -184.573 0 507.244 -164.912 0 508.376 -143.155 0 507.832 -119.159 0 505.459 -92.7729 0 501.252 -63.847 0 494.724 -32.242 0 485.573 2.14864 0 473.798 39.4264 0 458.885 79.6684 0 440.323 122.856 0 418.11 168.947 0 391.653 217.869 0 360.007 269.375 0 323.158 323.158 0 281.111 378.87 0 233.876 435.833 0 181.455 493.2 0 124.383 550.143 0 64.6771 606.121 0 2.53136 660.804 0 -61.745 713.851 0 -126.294 764.62 0 -190.807 812.169 0 -255.28 855.545 0 -319.678 893.998 0 -383.99 927.06 0 -448.078 954.282 0 -508.873 975.158 0 -565.118 989.071 0 -616.814 995.395 0 -663.852 993.983 0 -706.165 986.025 0 -743.754 972.939 0 -774.883 955.947 0 -797.822 935.49 0 -812.57 911.815 0 -819.113 885.089 0 -817.432 855.014 0 -807.527 821.123 0 -791.32 783.173 0 -773.513 742.867 0 -754.319 702.909 0 -732.669 665.841 0 -704.541 631.876 0 -669.551 599.548 0 -628.341 567.414 0 -584.77 535.387 0 -539.48 504.735 0 -492.439 476.769 0 -443.32 452.115 0 -392.034 430.449 0 -338.624 411.377 0 -284.038 394.709 0 -228.663 380.643 0 -172.499 369.425 0 -115.547 361.299 0 -57.8051 356.51 0 0.725148 355.303 0 -0.0100285 -304.454 0 14.2723 -304.522 0 28.5425 -304.729 0 42.8006 -305.07 0 57.0466 -305.542 0 71.2805 -306.14 0 85.5023 -306.859 0 99.7065 -307.696 0 113.88 -308.64 0 128.021 -309.679 0 142.131 -310.8 0 156.209 -311.992 0 170.256 -313.241 0 184.267 -314.536 0 198.222 -315.858 0 212.118 -317.185 0 225.955 -318.494 0 239.732 -319.762 0 253.45 -320.967 0 267.107 -322.084 0 280.677 -323.087 0 294.151 -323.939 0 307.527 -324.603 0 320.807 -325.042 0 333.99 -325.219 0 347.075 -325.096 0 360.011 -324.632 0 372.744 -323.773 0 385.274 -322.458 0 397.601 -320.631 0 409.725 -318.231 0 421.646 -315.199 0 433.317 -311.474 0 444.622 -306.965 0 455.556 -301.566 0 466.093 -295.174 0 476.139 -287.701 0 485.683 -279.073 0 494.692 -269.217 0 502.952 -258.018 0 510.43 -245.324 0 517.099 -230.982 0 522.697 -214.84 0 527.156 -196.751 0 530.457 -176.569 0 532.238 -154.139 0 532.349 -129.295 0 530.784 -101.869 0 527.041 -71.6965 0 520.803 -38.6202 0 512.071 -2.48516 0 500.254 36.8375 0 484.762 79.3713 0 465.594 125.113 0 442.087 174.049 0 413.184 226.087 0 378.87 281.111 0 338.943 338.943 0 292.911 398.871 0 240.749 459.906 0 183.145 521.095 0 122.677 581.988 0 59.5911 642.498 0 -5.94982 702.51 0 -72.9762 761.143 0 -141.326 816.747 0 -210.911 867.65 0 -280.798 912.859 0 -350.739 952.313 0 -420.633 986.018 0 -488.236 1013.4 0 -552.631 1032.73 0 -613.787 1042.19 0 -669.215 1041.17 0 -717.353 1032.48 0 -758.201 1019.52 0 -791.508 1004.99 0 -817.023 988.767 0 -834.748 970.01 0 -845.152 947.707 0 -848.986 919.767 0 -846.259 883.705 0 -836.921 837.719 0 -820.846 785.91 0 -798.028 735.422 0 -769.123 692.935 0 -736.594 658.519 0 -700.678 627.476 0 -661.311 595.161 0 -618.118 560.534 0 -571.034 526.159 0 -520.226 494.728 0 -467.413 467.561 0 -413.053 444.071 0 -357.159 423.537 0 -300.063 405.551 0 -241.898 390.316 0 -182.665 378.106 0 -122.35 369.215 0 -60.9449 363.995 0 1.55032 362.805 0 -0.00716914 -305.688 0 14.1238 -305.766 0 28.2468 -306.004 0 42.3618 -306.398 0 56.4688 -306.942 0 70.5678 -307.635 0 84.6588 -308.471 0 98.7386 -309.446 0 112.799 -310.551 0 126.84 -311.775 0 140.861 -313.105 0 154.862 -314.531 0 168.843 -316.041 0 182.803 -317.623 0 196.727 -319.261 0 210.615 -320.933 0 224.465 -322.618 0 238.278 -324.294 0 252.054 -325.939 0 265.792 -327.531 0 279.476 -329.045 0 293.1 -330.447 0 306.662 -331.701 0 320.164 -332.773 0 333.605 -333.626 0 346.985 -334.226 0 360.263 -334.534 0 373.396 -334.496 0 386.385 -334.054 0 399.229 -333.149 0 411.929 -331.724 0 424.484 -329.722 0 436.861 -327.08 0 448.974 -323.711 0 460.821 -319.513 0 472.37 -314.386 0 483.501 -308.243 0 494.204 -301.011 0 504.454 -292.614 0 514.103 -282.935 0 523.126 -271.818 0 531.497 -259.104 0 538.95 -244.638 0 545.413 -228.264 0 550.871 -209.829 0 554.978 -189.169 0 557.591 -166.098 0 558.706 -140.433 0 557.817 -111.986 0 554.606 -80.5698 0 549.075 -45.9964 0 540.562 -8.09706 0 528.406 33.2217 0 512.608 78.0344 0 492.47 126.407 0 466.883 178.355 0 435.833 233.876 0 398.871 292.911 0 354.899 354.899 0 303.866 419.023 0 246.617 484.49 0 186.33 550.834 0 123.309 617.826 0 57.5042 685.211 0 -11.3753 751.971 0 -83.3784 816.332 0 -158.307 876.492 0 -234.086 931.093 0 -310.165 979.385 0 -386.49 1020.66 0 -461.885 1053.97 0 -535.871 1077.89 0 -608.375 1090.95 0 -673.725 1092.72 0 -728.359 1085.75 0 -772.277 1073.09 0 -807.297 1057.2 0 -835.236 1038.35 0 -856.096 1016.21 0 -870.968 990.33 0 -881.59 959.334 0 -887.985 921.53 0 -887.516 875.727 0 -873.74 825.123 0 -846.364 775.171 0 -808.258 730.987 0 -770.216 692.82 0 -733.27 657.412 0 -696.482 621.538 0 -654.212 584.514 0 -605.52 548.198 0 -550.788 514.54 0 -493.991 484.62 0 -436.187 458.318 0 -377.369 435.425 0 -317.377 415.804 0 -256.146 399.458 0 -193.674 386.408 0 -129.791 376.783 0 -64.3926 371.026 0 2.5219 369.629 0 -0.00436414 -306.35 0 13.9553 -306.438 0 27.9108 -306.705 0 41.8623 -307.148 0 55.8095 -307.761 0 69.7527 -308.543 0 83.6918 -309.488 0 97.6254 -310.594 0 111.551 -311.851 0 125.467 -313.248 0 139.375 -314.776 0 153.274 -316.423 0 167.164 -318.18 0 181.045 -320.034 0 194.911 -321.971 0 208.76 -323.97 0 222.594 -326.012 0 236.411 -328.075 0 250.212 -330.141 0 263.996 -332.187 0 277.757 -334.191 0 291.491 -336.12 0 305.198 -337.94 0 318.879 -339.62 0 332.533 -341.126 0 346.16 -342.425 0 359.73 -343.481 0 373.213 -344.24 0 386.609 -344.647 0 399.917 -344.645 0 413.139 -344.178 0 426.273 -343.189 0 439.296 -341.62 0 452.152 -339.392 0 464.837 -336.416 0 477.317 -332.603 0 489.463 -327.861 0 501.262 -322.099 0 512.699 -315.224 0 523.678 -307.117 0 534.186 -297.633 0 544.196 -286.627 0 553.444 -273.946 0 561.86 -259.429 0 569.431 -242.914 0 575.834 -224.224 0 580.941 -203.159 0 584.743 -179.513 0 586.737 -153.084 0 586.604 -123.673 0 584.345 -91.0804 0 579.267 -55.111 0 570.675 -15.5721 0 558.57 27.7273 0 542.213 74.96 0 520.428 126.193 0 493.2 181.455 0 459.906 240.749 0 419.023 303.866 0 370.482 370.482 0 315.154 440.258 0 256.312 512.603 0 194.271 586.744 0 128.839 661.895 0 58.867 737.018 0 -15.8364 810.825 0 -95.07 882.003 0 -176.733 948.705 0 -260.266 1008.35 0 -345.586 1058.29 0 -430.858 1096.91 0 -515.331 1124.5 0 -598.912 1141.62 0 -674.439 1148.7 0 -737.41 1146.03 0 -787.825 1133.82 0 -828.099 1112.58 0 -860.647 1083.92 0 -885.469 1049.71 0 -903.932 1011.87 0 -918.215 972.379 0 -928.347 933.283 0 -931.124 896.279 0 -918.715 860.198 0 -890.764 822.386 0 -850.622 780.414 0 -810.894 735.051 0 -772.785 689.369 0 -735.208 646.402 0 -691.641 607.198 0 -640.996 570.811 0 -583.672 536.232 0 -523.822 503.329 0 -462.55 473.2 0 -399.869 447.024 0 -336.063 425.443 0 -271.248 408.05 0 -205.415 394.317 0 -137.909 383.993 0 -68.3208 377.591 0 3.3512 375.756 0 -0.00165349 -306.441 0 13.768 -306.538 0 27.5372 -306.832 0 41.3059 -307.32 0 55.074 -307.998 0 68.8416 -308.863 0 82.6086 -309.911 0 96.3757 -311.139 0 110.144 -312.538 0 123.914 -314.099 0 137.686 -315.813 0 151.459 -317.668 0 165.234 -319.657 0 179.01 -321.768 0 192.79 -323.987 0 206.573 -326.296 0 220.36 -328.676 0 234.149 -331.108 0 247.943 -333.573 0 261.739 -336.052 0 275.541 -338.523 0 289.347 -340.956 0 303.158 -343.32 0 316.975 -345.585 0 330.797 -347.72 0 344.624 -349.694 0 358.437 -351.472 0 372.219 -353.006 0 385.968 -354.239 0 399.686 -355.119 0 413.371 -355.592 0 427.025 -355.602 0 440.63 -355.096 0 454.147 -354.007 0 467.573 -352.264 0 480.879 -349.794 0 493.955 -346.498 0 506.79 -342.257 0 519.373 -336.951 0 531.629 -330.461 0 543.546 -322.663 0 555.102 -313.436 0 566.055 -302.639 0 576.344 -290.103 0 585.953 -275.658 0 594.597 -259.118 0 602.157 -240.266 0 608.626 -218.881 0 613.49 -194.747 0 616.423 -167.665 0 617.427 -137.437 0 615.839 -103.845 0 610.999 -66.5886 0 602.906 -25.3439 0 590.73 20.1789 0 573.147 70.078 0 550.143 124.383 0 521.095 183.145 0 484.49 246.617 0 440.258 315.154 0 389.036 389.036 0 333.216 467.53 0 273.027 549.17 0 208.316 632.494 0 138.159 716.474 0 62.4039 800.521 0 -18.9679 884.024 0 -106.14 964.559 0 -199.161 1037.19 0 -297.76 1096.82 0 -395.976 1140.98 0 -491.37 1172.28 0 -583.882 1193.95 0 -668.726 1207.59 0 -742.898 1210.46 0 -806.396 1199.05 0 -858.966 1171.23 0 -900.351 1130.32 0 -930.552 1081.01 0 -950.446 1028.24 0 -961.431 978.371 0 -963.525 938.259 0 -957.272 913.359 0 -944.004 896.806 0 -923.782 875.391 0 -896.759 836.86 0 -863.508 782.642 0 -824.084 724.022 0 -778.77 672.165 0 -729.258 630.413 0 -675.831 594.289 0 -618.516 559.041 0 -557.591 522.957 0 -493.127 488.545 0 -425.233 458.612 0 -356.24 434.735 0 -287.104 416.1 0 -217.802 401.618 0 -146.731 390.615 0 -72.881 383.557 0 3.74681 381.109 0 0.000922835 -305.96 0 13.5633 -306.066 0 27.1284 -306.385 0 40.6964 -306.916 0 54.2671 -307.654 0 67.8406 -308.596 0 81.4169 -309.74 0 94.9983 -311.082 0 108.59 -312.614 0 122.193 -314.328 0 135.807 -316.215 0 149.431 -318.266 0 163.067 -320.472 0 176.714 -322.824 0 190.382 -325.31 0 204.071 -327.911 0 217.782 -330.61 0 231.514 -333.391 0 245.268 -336.235 0 259.044 -339.126 0 272.85 -342.042 0 286.691 -344.957 0 300.567 -347.841 0 314.477 -350.667 0 328.422 -353.407 0 342.401 -356.031 0 356.408 -358.509 0 370.436 -360.792 0 384.484 -362.83 0 398.553 -364.571 0 412.643 -365.965 0 426.754 -366.961 0 440.872 -367.506 0 454.966 -367.542 0 469.035 -367.01 0 483.061 -365.845 0 496.978 -363.946 0 510.781 -361.185 0 524.454 -357.435 0 537.917 -352.577 0 551.155 -346.502 0 564.15 -339.101 0 576.703 -330.239 0 588.764 -319.745 0 600.32 -307.442 0 611.119 -293.143 0 621.058 -276.627 0 630.129 -257.673 0 637.808 -236.058 0 643.766 -211.555 0 648.004 -183.936 0 649.934 -152.95 0 648.969 -118.243 0 645.11 -79.4339 0 637.426 -36.164 0 624.436 11.8072 0 606.121 64.6771 0 581.988 122.677 0 550.834 186.33 0 512.603 256.312 0 467.53 333.216 0 416.499 416.499 0 359.593 504.8 0 296.754 596.745 0 227.623 691.053 0 152.138 786.534 0 69.9474 881.966 0 -22.6448 974.378 0 -126.621 1058.38 0 -241.434 1128.42 0 -355.044 1181.61 0 -462.523 1220.18 0 -563.864 1246.98 0 -658.36 1263.62 0 -745.568 1268.31 0 -825.488 1258.69 0 -893.811 1233.49 0 -946.226 1195.75 0 -982.735 1149.59 0 -1003.37 1099.35 0 -1008.18 1050.51 0 -997.165 1009.01 0 -976.609 979.545 0 -961.864 956.271 0 -953.626 927.892 0 -947.118 883.951 0 -924.373 825.93 0 -883.673 763.916 0 -827.372 707.892 0 -769.603 661.036 0 -712.721 619.726 0 -656.224 580.097 0 -594.844 540.751 0 -527.181 503.708 0 -453.456 471.233 0 -378.541 444.681 0 -304.428 423.641 0 -231.086 407.498 0 -156.095 395.781 0 -77.9357 388.418 0 3.39287 385.405 0 0.00332486 -304.907 0 13.3423 -305.021 0 26.687 -305.364 0 40.0376 -305.934 0 53.394 -306.727 0 66.7562 -307.742 0 80.1242 -308.974 0 93.5019 -310.422 0 106.898 -312.078 0 120.314 -313.934 0 133.749 -315.983 0 147.204 -318.216 0 160.677 -320.626 0 174.173 -323.204 0 187.704 -325.939 0 201.273 -328.814 0 214.88 -331.815 0 228.525 -334.924 0 242.209 -338.128 0 255.931 -341.409 0 269.708 -344.748 0 283.546 -348.122 0 297.447 -351.503 0 311.408 -354.867 0 325.432 -358.187 0 339.517 -361.438 0 353.667 -364.59 0 367.888 -367.599 0 382.179 -370.419 0 396.54 -373.001 0 410.97 -375.299 0 425.471 -377.264 0 440.032 -378.849 0 454.628 -379.998 0 469.259 -380.65 0 483.919 -380.743 0 498.59 -380.184 0 513.271 -378.855 0 527.945 -376.641 0 542.517 -373.428 0 556.971 -369.111 0 571.293 -363.58 0 585.337 -356.702 0 599.063 -348.303 0 612.461 -338.208 0 625.306 -326.23 0 637.506 -312.166 0 649.056 -295.808 0 659.454 -276.929 0 668.388 -255.247 0 675.858 -230.471 0 681.336 -202.297 0 684.292 -170.383 0 684.727 -134.376 0 681.706 -93.8987 0 673.738 -48.4471 0 660.804 2.53136 0 642.498 59.5911 0 617.826 123.309 0 586.744 194.271 0 549.17 273.027 0 504.8 359.593 0 453.604 453.604 0 395.378 554.625 0 328.892 660.822 0 253.94 768.969 0 169.976 875.771 0 71.2981 977.753 0 -43.6119 1071.19 0 -174.016 1152.34 0 -303.693 1218.35 0 -426.004 1268.09 0 -540.948 1300.63 0 -648.284 1316.23 0 -747.86 1318.55 0 -839.677 1311.78 0 -918.521 1299.4 0 -979.182 1281.96 0 -1021.66 1259.23 0 -1045.79 1230.91 0 -1051.34 1195.81 0 -1038.3 1152.47 0 -1015.01 1099.87 0 -1001.86 1040.64 0 -999.781 979.287 0 -1002.08 920.118 0 -983.638 863.99 0 -942.036 809.295 0 -880.444 754.451 0 -817.869 699.723 0 -757.479 647.226 0 -698.608 599.127 0 -634.306 556.449 0 -562.725 518.629 0 -484.114 484.988 0 -403.964 455.378 0 -324.521 430.677 0 -245.759 411.878 0 -165.71 399.408 0 -83.1386 392.125 0 1.95594 388.617 0 0.005513 -303.291 0 13.1062 -303.411 0 26.2155 -303.776 0 39.3333 -304.382 0 52.4597 -305.226 0 65.5946 -306.307 0 78.7381 -307.621 0 91.8952 -309.166 0 105.079 -310.936 0 118.289 -312.924 0 131.526 -315.123 0 144.79 -317.525 0 158.081 -320.124 0 171.402 -322.912 0 184.773 -325.879 0 198.196 -329.01 0 211.673 -332.292 0 225.203 -335.711 0 238.786 -339.251 0 252.422 -342.9 0 266.136 -346.64 0 279.936 -350.448 0 293.821 -354.301 0 307.793 -358.177 0 321.851 -362.052 0 335.995 -365.902 0 350.239 -369.702 0 364.599 -373.411 0 379.074 -376.987 0 393.665 -380.386 0 408.371 -383.564 0 423.192 -386.48 0 438.123 -389.088 0 453.153 -391.328 0 468.279 -393.136 0 483.506 -394.444 0 498.845 -395.171 0 514.297 -395.23 0 529.847 -394.53 0 545.405 -392.969 0 560.955 -390.432 0 576.489 -386.805 0 591.906 -381.948 0 607.181 -375.69 0 622.304 -367.859 0 637.062 -358.278 0 651.368 -346.769 0 665.218 -333.15 0 678.198 -317.196 0 690.051 -298.549 0 700.775 -276.831 0 709.831 -251.683 0 716.676 -222.815 0 721.31 -189.957 0 722.983 -152.753 0 720.502 -110.357 0 713.851 -61.745 0 702.51 -5.94982 0 685.211 57.5042 0 661.895 128.839 0 632.494 208.316 0 596.745 296.754 0 554.625 395.378 0 505.265 505.265 0 443.462 623.944 0 368.35 745.399 0 279.577 863.506 0 173.475 974.29 0 49.0688 1076.76 0 -92.9657 1170.13 0 -237.738 1251.73 0 -379.158 1315.25 0 -517.117 1353.96 0 -643.186 1366.08 0 -752.073 1363.49 0 -843.777 1360.41 0 -919.647 1367.51 0 -981.034 1381.41 0 -1027.94 1395.16 0 -1061.63 1401.17 0 -1084.12 1388.04 0 -1095.44 1342.97 0 -1096.96 1256.09 0 -1092 1143.09 0 -1080.73 1032.82 0 -1062.06 952.226 0 -1032.02 901.166 0 -990.211 859.97 0 -937.5 809.191 0 -879.031 744.524 0 -815.664 676.802 0 -747.442 617.372 0 -674.819 570.986 0 -597.916 533.25 0 -516.821 499.12 0 -433.459 466.159 0 -348.616 437.009 0 -262.304 414.889 0 -175.319 401.519 0 -88.1651 394.468 0 -0.840411 390.596 0 0.00745642 -301.154 0 12.8566 -301.281 0 25.7167 -301.665 0 38.5877 -302.304 0 51.4697 -303.194 0 64.3627 -304.335 0 77.2666 -305.723 0 90.1879 -307.356 0 103.142 -309.229 0 116.13 -311.336 0 129.151 -313.671 0 142.206 -316.226 0 155.294 -318.997 0 168.42 -321.976 0 181.608 -325.155 0 194.863 -328.52 0 208.184 -332.06 0 221.571 -335.761 0 235.024 -339.611 0 248.545 -343.599 0 262.163 -347.707 0 275.888 -351.918 0 289.722 -356.209 0 303.663 -360.561 0 317.712 -364.952 0 331.869 -369.361 0 346.159 -373.766 0 360.605 -378.131 0 375.207 -382.416 0 389.965 -386.583 0 404.879 -390.593 0 419.95 -394.408 0 435.18 -397.986 0 450.574 -401.269 0 466.134 -404.189 0 481.863 -406.677 0 497.782 -408.666 0 513.891 -410.086 0 530.182 -410.868 0 546.592 -410.919 0 563.111 -410.122 0 579.735 -408.361 0 596.402 -405.5 0 613.095 -401.374 0 629.806 -395.819 0 646.325 -388.669 0 662.566 -379.751 0 678.527 -368.893 0 693.931 -355.868 0 708.606 -340.295 0 722.551 -321.767 0 735.162 -299.898 0 745.833 -274.374 0 754.564 -244.903 0 760.939 -211.09 0 764.294 -171.953 0 764.62 -126.294 0 761.143 -72.9762 0 751.971 -11.3753 0 737.018 58.867 0 716.474 138.159 0 691.053 227.623 0 660.822 328.892 0 623.944 443.462 0 569.385 569.385 0 495.305 701.263 0 401.683 833.569 0 288.29 961.629 0 155.064 1081.95 0 2.50628 1191.11 0 -158.345 1284.81 0 -322.976 1356.99 0 -491.099 1401.39 0 -640.289 1416.96 0 -756.457 1416.95 0 -839.604 1417.07 0 -903.023 1429.08 0 -960.007 1448.94 0 -1010.56 1468.64 0 -1058.26 1479.62 0 -1108.84 1469.92 0 -1162.35 1426.34 0 -1207.32 1338.7 0 -1215.64 1222.82 0 -1186.03 1107.96 0 -1127.87 1021.45 0 -1076.43 963.52 0 -1035.09 914.812 0 -1000.39 856.208 0 -951.666 783.726 0 -885.472 708.53 0 -803.121 642.291 0 -718.337 589.974 0 -634.771 547.24 0 -552.233 509.085 0 -466.571 473.02 0 -376.088 441.444 0 -280.845 417.313 0 -185.584 402.249 0 -93.2868 394.191 0 -3.95277 390.442 0 0.00913301 -298.506 0 12.5947 -298.639 0 25.1934 -299.04 0 37.8051 -299.707 0 50.43 -300.639 0 63.0679 -301.832 0 75.7188 -303.286 0 88.3903 -304.997 0 101.1 -306.963 0 113.85 -309.176 0 126.639 -311.632 0 139.467 -314.325 0 152.335 -317.25 0 165.247 -320.401 0 178.232 -323.77 0 191.295 -327.347 0 204.437 -331.119 0 217.656 -335.077 0 230.953 -339.209 0 244.33 -343.505 0 257.821 -347.951 0 271.439 -352.529 0 285.184 -357.222 0 299.057 -362.011 0 313.057 -366.877 0 327.185 -371.804 0 341.472 -376.769 0 355.953 -381.741 0 370.626 -386.686 0 385.492 -391.569 0 400.551 -396.357 0 415.803 -401.014 0 431.259 -405.505 0 446.945 -409.774 0 462.862 -413.76 0 479.014 -417.398 0 495.42 -420.627 0 512.08 -423.386 0 528.99 -425.616 0 546.128 -427.231 0 563.49 -428.122 0 581.073 -428.18 0 598.848 -427.277 0 616.809 -425.266 0 634.946 -421.994 0 653.063 -417.3 0 671.081 -410.998 0 688.998 -402.901 0 706.667 -392.78 0 723.998 -380.291 0 740.991 -365.07 0 757.025 -346.739 0 771.478 -324.865 0 784.35 -299.001 0 795.52 -268.639 0 804.794 -232.908 0 812.169 -190.807 0 816.747 -141.326 0 816.332 -83.3784 0 810.825 -15.8364 0 800.521 62.4039 0 786.534 152.138 0 768.969 253.94 0 745.399 368.35 0 701.263 495.305 0 634.132 634.132 0 543.7 784.027 0 426.759 939.377 0 282.455 1087.9 0 111.438 1216.85 0 -72.0255 1318.12 0 -262.098 1392.55 0 -458.374 1442.01 0 -629.344 1469.51 0 -755.209 1481.23 0 -835.971 1483.86 0 -893.766 1482.65 0 -950.731 1477.02 0 -1006.87 1464.92 0 -1066.6 1444.51 0 -1136.96 1415.22 0 -1218.05 1376.9 0 -1291.32 1329.44 0 -1311.44 1273.02 0 -1276.35 1207.94 0 -1200.76 1134.66 0 -1140.01 1055.39 0 -1099.4 973.634 0 -1073.3 892.85 0 -1027.95 815.379 0 -957.727 742.422 0 -864.66 675.127 0 -769.929 614.35 0 -679.166 560.542 0 -592.047 514.128 0 -501.448 475.295 0 -404.454 443.783 0 -301.148 419.278 0 -198.082 401.622 0 -99.3719 391.085 0 -5.01785 388.006 0 0.0105211 -295.346 0 12.3221 -295.484 0 24.6486 -295.9 0 36.99 -296.592 0 49.3463 -297.559 0 61.7174 -298.799 0 74.1035 -300.31 0 86.5127 -302.091 0 98.9656 -304.137 0 111.463 -306.444 0 124.005 -309.007 0 136.591 -311.822 0 149.222 -314.884 0 161.903 -318.187 0 174.666 -321.726 0 187.518 -325.49 0 200.458 -329.471 0 213.486 -333.659 0 226.602 -338.044 0 239.809 -342.618 0 253.143 -347.369 0 266.623 -352.281 0 280.246 -357.339 0 294.014 -362.527 0 307.927 -367.829 0 321.984 -373.229 0 336.225 -378.71 0 350.692 -384.242 0 365.384 -389.797 0 380.3 -395.345 0 395.442 -400.856 0 410.808 -406.299 0 426.418 -411.644 0 442.315 -416.844 0 458.503 -421.848 0 474.985 -426.6 0 491.78 -431.044 0 508.89 -435.117 0 526.316 -438.757 0 544.066 -441.886 0 562.143 -444.411 0 580.546 -446.237 0 599.275 -447.255 0 618.331 -447.334 0 637.707 -446.343 0 657.25 -444.119 0 676.897 -440.45 0 696.649 -435.113 0 716.425 -427.876 0 736.178 -418.484 0 755.907 -406.675 0 775.12 -392.113 0 793.329 -374.168 0 810.532 -352.134 0 826.677 -325.329 0 841.682 -293.21 0 855.545 -255.28 0 867.65 -210.911 0 876.492 -158.307 0 882.003 -95.07 0 884.024 -18.9679 0 881.966 69.9474 0 875.771 169.976 0 863.506 279.577 0 833.569 401.683 0 784.027 543.7 0 712.921 712.921 0 599.809 902.705 0 439.254 1087.08 0 232.81 1238.75 0 14.6897 1344.12 0 -201.112 1416.19 0 -414.276 1471.01 0 -599.888 1518.33 0 -742.297 1550.52 0 -841.502 1556.98 0 -916.873 1530.4 0 -987.778 1476.66 0 -1054.22 1404.89 0 -1117.56 1325.88 0 -1179.98 1259.66 0 -1241.51 1229.7 0 -1294.08 1254.15 0 -1317.98 1305.25 0 -1312.31 1331.63 0 -1282.06 1285.6 0 -1246.03 1172.78 0 -1206.02 1037.19 0 -1160.46 922.365 0 -1100.05 841.652 0 -1023.23 778.204 0 -931.072 714.109 0 -834.677 642.701 0 -736.998 572.925 0 -637.973 514.83 0 -536.233 473.417 0 -431.219 443.875 0 -322.968 420.268 0 -214.384 399.332 0 -107.291 385.173 0 -1.68926 383.159 0 0.0115989 -291.673 0 12.0402 -291.816 0 24.0853 -292.245 0 36.1467 -292.959 0 48.2245 -293.956 0 60.3188 -295.236 0 72.4294 -296.796 0 84.5656 -298.636 0 96.7496 -300.752 0 108.982 -303.14 0 121.264 -305.796 0 133.595 -308.717 0 145.974 -311.897 0 158.408 -315.334 0 170.933 -319.021 0 183.555 -322.951 0 196.273 -327.115 0 209.089 -331.507 0 222.001 -336.117 0 235.011 -340.939 0 248.164 -345.963 0 261.475 -351.175 0 274.945 -356.562 0 288.575 -362.111 0 302.364 -367.808 0 316.311 -373.639 0 330.465 -379.589 0 344.871 -385.634 0 359.53 -391.75 0 374.442 -397.91 0 389.606 -404.09 0 405.023 -410.263 0 420.716 -416.403 0 436.745 -422.473 0 453.111 -428.429 0 469.823 -434.226 0 486.909 -439.811 0 504.371 -445.123 0 522.215 -450.101 0 540.467 -454.673 0 559.131 -458.762 0 578.21 -462.289 0 597.733 -465.157 0 617.708 -467.249 0 638.131 -468.444 0 658.918 -468.591 0 680.036 -467.473 0 701.484 -464.868 0 723.188 -460.554 0 745.101 -454.308 0 767.224 -445.911 0 789.331 -435.047 0 811.198 -421.027 0 832.826 -403.066 0 854.003 -380.437 0 874.396 -352.736 0 893.998 -319.678 0 912.859 -280.798 0 931.093 -234.086 0 948.705 -176.733 0 964.559 -106.14 0 974.378 -22.6448 0 977.753 71.2981 0 974.29 173.475 0 961.629 288.29 0 939.377 426.759 0 902.705 599.809 0 801.187 801.187 0 621.412 1000.8 0 366.493 1166.94 0 104.918 1284.07 0 -135.294 1368.09 0 -354.079 1438.49 0 -546.434 1507.04 0 -709.216 1564.23 0 -842.423 1596.85 0 -953.776 1595.13 0 -1050.99 1562.83 0 -1134.08 1507.11 0 -1197.5 1437.39 0 -1232.46 1376.2 0 -1238.85 1350.8 0 -1233.28 1382.49 0 -1256.34 1440.46 0 -1309.88 1467.08 0 -1376.87 1408.99 0 -1393.31 1273.86 0 -1353.06 1113.38 0 -1263.89 978.656 0 -1172.31 885.214 0 -1086.07 813.006 0 -1003.87 740.728 0 -912.186 660.294 0 -807.414 581.959 0 -690.082 517.277 0 -571.767 471.923 0 -457.206 440.146 0 -346.332 414.884 0 -233.964 392.189 0 -116.849 376.706 0 5.01372 374.553 0 0.0123448 -287.489 0 11.7505 -287.635 0 23.5063 -288.075 0 35.2797 -288.807 0 47.0707 -289.829 0 58.8793 -291.142 0 70.7056 -292.744 0 82.5592 -294.633 0 94.4643 -296.808 0 106.422 -299.264 0 118.432 -301.999 0 130.494 -305.009 0 142.609 -308.291 0 154.783 -311.842 0 167.054 -315.656 0 179.429 -319.729 0 191.908 -324.052 0 204.491 -328.621 0 217.177 -333.428 0 229.969 -338.468 0 242.914 -343.732 0 256.031 -349.21 0 269.318 -354.89 0 282.778 -360.761 0 296.408 -366.812 0 310.211 -373.031 0 324.237 -379.406 0 338.539 -385.917 0 353.116 -392.544 0 367.97 -399.265 0 383.099 -406.059 0 398.504 -412.906 0 414.214 -419.783 0 430.298 -426.659 0 446.759 -433.497 0 463.61 -440.261 0 480.891 -446.902 0 498.608 -453.365 0 516.766 -459.597 0 535.403 -465.536 0 554.525 -471.115 0 574.138 -476.269 0 594.303 -480.909 0 615.038 -484.921 0 636.341 -488.187 0 658.189 -490.571 0 680.571 -491.899 0 703.488 -491.993 0 726.888 -490.653 0 750.736 -487.613 0 775.035 -482.6 0 799.796 -475.282 0 825.034 -465.108 0 850.75 -451.47 0 876.599 -433.77 0 902.039 -411.454 0 927.06 -383.99 0 952.313 -350.739 0 979.385 -310.165 0 1008.35 -260.266 0 1037.19 -199.161 0 1058.38 -126.621 0 1071.19 -43.6119 0 1076.76 49.0688 0 1081.95 155.064 0 1087.9 282.455 0 1087.08 439.254 0 1000.8 621.412 0 808.153 808.153 0 513.586 977.546 0 215.167 1117.04 0 -46.9863 1232.32 0 -272.972 1331.14 0 -470.394 1420.65 0 -644.031 1506.22 0 -793.884 1592.94 0 -925.465 1682.88 0 -1044.29 1766.11 0 -1150.36 1829.69 0 -1230.87 1862.49 0 -1265.45 1864.01 0 -1253.84 1837.55 0 -1227.28 1786.2 0 -1262.11 1710.81 0 -1361.8 1611.14 0 -1495.41 1487.46 0 -1546.63 1347.49 0 -1504.3 1204.3 0 -1382.54 1070.74 0 -1266 952.093 0 -1168.77 846.064 0 -1088.05 750.062 0 -994.463 663.21 0 -880.199 586.999 0 -746.178 523.088 0 -612.629 472.02 0 -487.826 432.176 0 -371.634 401.687 0 -253.383 379.344 0 -126.371 365.753 0 9.40178 361.831 0 0.0127374 -282.796 0 11.4544 -282.945 0 22.9146 -283.393 0 34.3933 -284.139 0 45.8906 -285.182 0 57.4064 -286.521 0 68.9408 -288.156 0 80.5041 -290.086 0 92.1216 -292.308 0 103.795 -294.82 0 115.523 -297.619 0 127.307 -300.703 0 139.146 -304.069 0 151.048 -307.714 0 163.052 -311.635 0 175.165 -315.827 0 187.388 -320.285 0 199.72 -325.004 0 212.161 -329.98 0 224.714 -335.207 0 237.429 -340.68 0 250.325 -346.389 0 263.403 -352.326 0 276.662 -358.481 0 290.103 -364.846 0 303.726 -371.411 0 317.587 -378.165 0 331.743 -385.094 0 346.193 -392.182 0 360.937 -399.411 0 375.976 -406.766 0 391.31 -414.229 0 406.971 -421.784 0 423.04 -429.403 0 439.521 -437.053 0 456.428 -444.703 0 473.815 -452.314 0 491.686 -459.842 0 510.049 -467.245 0 528.951 -474.471 0 548.4 -481.466 0 568.404 -488.171 0 589.07 -494.503 0 610.425 -500.341 0 632.469 -505.562 0 655.189 -510.054 0 678.58 -513.723 0 702.645 -516.478 0 727.454 -518.151 0 753.053 -518.366 0 779.442 -516.706 0 806.671 -512.795 0 834.793 -506.4 0 863.806 -497.326 0 893.534 -485.263 0 923.694 -469.248 0 954.282 -448.078 0 986.018 -420.633 0 1020.66 -386.49 0 1058.29 -345.586 0 1096.82 -297.76 0 1128.42 -241.434 0 1152.34 -174.016 0 1170.13 -92.9657 0 1191.11 2.50628 0 1216.85 111.438 0 1238.75 232.81 0 1166.94 366.493 0 977.546 513.586 0 675.233 675.233 0 362.813 846.588 0 82.346 1011.18 0 -166.056 1151.22 0 -373.53 1263.01 0 -534.51 1381.8 0 -648.995 1549.5 0 -749.046 1792.82 0 -866.722 2077.63 0 -1002.02 2354.58 0 -1138.18 2574.73 0 -1248.51 2691.43 0 -1332.67 2658.87 0 -1400.9 2442.55 0 -1478.21 2106.51 0 -1565.75 1765.49 0 -1648.3 1527.18 0 -1668.65 1397.52 0 -1621.31 1309.18 0 -1515.17 1195.37 0 -1403.45 1039.9 0 -1295.05 877.174 0 -1188.82 743.277 0 -1073.02 652.321 0 -944.533 587.901 0 -803.916 531.432 0 -663.634 473.064 0 -528.787 419.895 0 -399.295 380.969 0 -269.014 360.909 0 -134.087 352.133 0 5.48826 344.967 0 0.0128071 -277.668 0 11.1533 -277.82 0 22.313 -278.274 0 33.4919 -279.031 0 44.69 -280.089 0 55.9073 -281.449 0 67.1437 -283.109 0 78.4102 -285.069 0 89.7333 -287.328 0 101.114 -289.883 0 112.553 -292.733 0 124.049 -295.876 0 135.603 -299.309 0 147.222 -303.03 0 158.947 -307.037 0 170.786 -311.327 0 182.738 -315.895 0 194.803 -320.739 0 206.982 -325.855 0 219.277 -331.239 0 231.741 -336.888 0 244.393 -342.793 0 257.236 -348.949 0 270.269 -355.348 0 283.491 -361.984 0 296.903 -368.849 0 310.564 -375.935 0 324.534 -383.231 0 338.813 -390.725 0 353.401 -398.405 0 368.297 -406.258 0 383.502 -414.272 0 399.054 -422.433 0 415.044 -430.72 0 431.475 -439.103 0 448.364 -447.554 0 465.769 -456.045 0 483.695 -464.543 0 502.153 -473.017 0 521.2 -481.427 0 540.847 -489.724 0 561.107 -497.858 0 582.135 -505.755 0 603.974 -513.302 0 626.619 -520.387 0 650.019 -526.918 0 674.155 -532.841 0 699.03 -538.107 0 724.947 -542.575 0 752.099 -545.846 0 780.486 -547.476 0 809.964 -547.099 0 840.392 -544.657 0 871.768 -540.169 0 904.424 -533.493 0 938.885 -523.539 0 975.158 -508.873 0 1013.4 -488.236 0 1053.97 -461.885 0 1096.91 -430.858 0 1140.98 -395.976 0 1181.61 -355.044 0 1218.35 -303.693 0 1251.73 -237.738 0 1284.81 -158.345 0 1318.12 -72.0255 0 1344.12 14.6897 0 1284.07 104.918 0 1117.04 215.167 0 846.588 362.813 0 551.003 551.003 0 262.314 755.243 0 -18.7878 947.891 0 -238.373 1118.98 0 -362.564 1307.35 0 -391.361 1560.23 0 -410.851 1906.56 0 -507.121 2302.24 0 -680.171 2684.9 0 -913.112 2992.16 0 -1179.06 3161.53 0 -1477.67 3130.49 0 -1761.47 2851.88 0 -1914.38 2412.4 0 -1931.14 1967.62 0 -1842.58 1663.56 0 -1764.63 1508.41 0 -1708.38 1411.04 0 -1665.73 1281.1 0 -1588.05 1096.18 0 -1467.22 901.857 0 -1307.09 746.001 0 -1147.78 646.839 0 -999.95 581.466 0 -863.049 524.051 0 -724.77 460.871 0 -580.081 401.719 0 -429.092 359.083 0 -280.523 339.33 0 -139.849 331.915 0 -7.0702 323.396 0 0.0126843 -272.135 0 10.8486 -272.288 0 21.7042 -272.747 0 32.5794 -273.511 0 43.4742 -274.58 0 54.3886 -275.954 0 65.3226 -277.633 0 76.2875 -279.615 0 87.3105 -281.9 0 98.393 -284.487 0 109.535 -287.374 0 120.736 -290.56 0 131.997 -294.043 0 143.324 -297.822 0 154.761 -301.896 0 166.314 -306.261 0 177.983 -310.916 0 189.768 -315.859 0 201.67 -321.087 0 213.69 -326.598 0 225.884 -332.389 0 238.273 -338.455 0 250.858 -344.792 0 263.639 -351.394 0 276.616 -358.257 0 289.788 -365.375 0 303.217 -372.744 0 316.966 -380.355 0 331.034 -388.2 0 345.421 -396.27 0 360.128 -404.557 0 375.154 -413.051 0 390.54 -421.744 0 406.389 -430.617 0 422.706 -439.647 0 439.506 -448.813 0 456.847 -458.092 0 474.737 -467.463 0 493.186 -476.904 0 512.268 -486.381 0 531.996 -495.852 0 552.388 -505.274 0 573.636 -514.588 0 595.791 -523.719 0 618.85 -532.587 0 642.735 -541.112 0 667.416 -549.209 0 692.899 -556.793 0 719.681 -563.73 0 748.077 -569.761 0 778.087 -574.602 0 809.392 -577.995 0 841.674 -579.778 0 874.933 -579.812 0 909.957 -577.879 0 947.997 -573.274 0 989.071 -565.118 0 1032.73 -552.631 0 1077.89 -535.871 0 1124.5 -515.331 0 1172.28 -491.37 0 1220.18 -462.523 0 1268.09 -426.004 0 1315.25 -379.158 0 1356.99 -322.976 0 1392.55 -262.098 0 1416.19 -201.112 0 1368.09 -135.294 0 1232.32 -46.9863 0 1011.18 82.346 0 755.243 262.314 0 485.195 485.195 0 202.111 741.28 0 -10.1051 1023.26 0 -98.7431 1330.49 0 -63.8034 1663.45 0 -31.6529 2016.57 0 -128.658 2360.11 0 -354.82 2658.29 0 -691.402 2876.73 0 -1108.58 2989.22 0 -1605.97 2972.5 0 -2088.11 2809.78 0 -2321.63 2540.46 0 -2295.91 2232.86 0 -2078.38 1952.01 0 -1922.56 1714.7 0 -1852.72 1502.95 0 -1848.33 1298.69 0 -1786.29 1099.45 0 -1646.08 918.279 0 -1435.42 768.72 0 -1234.94 654.621 0 -1066.09 566.388 0 -927.408 493.475 0 -786.642 429.64 0 -630.606 377 0 -459.563 338.631 0 -293.965 315.609 0 -146.663 303.49 0 -17.6567 296.887 0 0.012511 -266.197 0 10.5417 -266.351 0 21.0908 -266.813 0 31.6597 -267.581 0 42.2485 -268.656 0 52.8572 -270.038 0 63.4857 -271.727 0 74.1455 -273.723 0 84.8646 -276.024 0 95.6441 -278.63 0 106.484 -281.541 0 117.385 -284.755 0 128.346 -288.272 0 139.374 -292.09 0 150.514 -296.21 0 161.772 -300.63 0 173.147 -305.349 0 184.641 -310.364 0 196.252 -315.676 0 207.985 -321.284 0 219.893 -327.184 0 232.001 -333.375 0 244.309 -339.854 0 256.816 -346.618 0 269.523 -353.664 0 282.429 -360.99 0 295.598 -368.592 0 309.093 -376.466 0 322.915 -384.606 0 337.062 -393.006 0 351.536 -401.661 0 366.336 -410.566 0 381.507 -419.714 0 397.16 -429.094 0 413.3 -438.688 0 429.941 -448.481 0 447.143 -458.457 0 464.91 -468.603 0 483.258 -478.904 0 502.278 -489.333 0 521.984 -499.851 0 542.395 -510.418 0 563.711 -521.005 0 585.985 -531.592 0 609.215 -542.16 0 633.385 -552.633 0 658.487 -562.824 0 684.529 -572.53 0 711.999 -581.615 0 741.206 -590.111 0 772.151 -598.083 0 804.637 -605.474 0 838.473 -611.745 0 873.657 -616.236 0 910.939 -618.411 0 951.514 -618.455 0 995.395 -616.814 0 1042.19 -613.787 0 1090.95 -608.375 0 1141.62 -598.912 0 1193.95 -583.882 0 1246.98 -563.864 0 1300.63 -540.948 0 1353.96 -517.117 0 1401.39 -491.099 0 1442.01 -458.374 0 1471.01 -414.276 0 1438.49 -354.079 0 1331.14 -272.972 0 1151.22 -166.056 0 947.891 -18.7878 0 741.28 202.111 0 532.027 532.027 0 370.321 975.13 0 287.688 1449.34 0 284.129 1857.79 0 252.509 2124.63 0 85.6948 2258.04 0 -216.314 2287.17 0 -624.946 2245.84 0 -1094.72 2194.82 0 -1625.05 2204.68 0 -2134.06 2330.91 0 -2421.59 2497.57 0 -2478.53 2561.07 0 -2355.08 2389.32 0 -2239.87 2013.99 0 -2150.97 1584.75 0 -2078.21 1249.33 0 -1960.51 1050.53 0 -1787.7 926.247 0 -1565.42 810.618 0 -1352.59 675.037 0 -1164.9 542.575 0 -1001.29 439.989 0 -838.788 379.608 0 -667.998 345.729 0 -489.099 319.441 0 -316.125 289.658 0 -157.894 266.911 0 -14.4055 265.432 0 0.012429 -259.855 0 10.2339 -260.009 0 20.4754 -260.47 0 30.7369 -261.24 0 41.0183 -262.317 0 51.3198 -263.701 0 61.6411 -265.393 0 71.994 -267.392 0 82.4066 -269.699 0 92.8802 -272.313 0 103.415 -275.233 0 114.01 -278.461 0 124.667 -281.995 0 135.391 -285.835 0 146.228 -289.981 0 157.183 -294.434 0 168.256 -299.192 0 179.449 -304.255 0 190.76 -309.623 0 202.192 -315.295 0 213.803 -321.272 0 225.615 -327.552 0 237.628 -334.135 0 249.842 -341.02 0 262.257 -348.207 0 274.874 -355.694 0 287.757 -363.48 0 300.969 -371.564 0 314.512 -379.942 0 328.385 -388.612 0 342.588 -397.571 0 357.122 -406.817 0 372.033 -416.345 0 387.439 -426.15 0 403.343 -436.222 0 419.762 -446.551 0 436.752 -457.131 0 454.317 -467.955 0 472.477 -479.016 0 491.344 -490.293 0 510.935 -501.748 0 531.267 -513.344 0 552.504 -525.071 0 574.69 -536.956 0 597.831 -549.028 0 622.085 -561.223 0 647.515 -573.297 0 674.126 -584.984 0 702.132 -596.152 0 731.67 -607.034 0 762.741 -617.924 0 795.68 -628.909 0 830.826 -639.242 0 868.178 -647.966 0 907.784 -654.376 0 949.718 -659.239 0 993.983 -663.852 0 1041.17 -669.215 0 1092.72 -673.725 0 1148.7 -674.439 0 1207.59 -668.726 0 1263.62 -658.36 0 1316.23 -648.284 0 1366.08 -643.186 0 1416.96 -640.289 0 1469.51 -629.344 0 1518.33 -599.888 0 1507.04 -546.434 0 1420.65 -470.394 0 1263.01 -373.53 0 1118.98 -238.373 0 1023.26 -10.1051 0 975.13 370.321 0 916.464 916.464 0 810.76 1516.21 0 658.02 2035.93 0 435.351 2370.21 0 119.86 2526.53 0 -288.452 2540.61 0 -739.141 2456.13 0 -1151.91 2363.4 0 -1525.72 2369.59 0 -1864.33 2559.36 0 -2176.86 2820.91 0 -2463.75 2941.32 0 -2694.59 2724.73 0 -2755.15 2218.45 0 -2634.47 1645 0 -2360.29 1223.78 0 -2098.88 1013.2 0 -1877.96 910.682 0 -1693.65 808.015 0 -1505.22 658.903 0 -1301.87 502.959 0 -1084.63 385.92 0 -876.677 329.209 0 -687.483 307.023 0 -516.849 288.15 0 -349.116 254.814 0 -174.449 226.356 0 7.15176 228.473 0 0.0125803 -253.108 0 9.92666 -253.261 0 19.8607 -253.721 0 29.8148 -254.488 0 39.7889 -255.561 0 49.783 -256.942 0 59.7971 -258.63 0 69.8427 -260.624 0 79.9479 -262.926 0 90.114 -265.535 0 100.341 -268.452 0 110.629 -271.678 0 120.977 -275.212 0 131.394 -279.056 0 141.922 -283.209 0 152.569 -287.672 0 163.334 -292.445 0 174.219 -297.53 0 185.221 -302.926 0 196.346 -308.633 0 207.648 -314.653 0 219.15 -320.987 0 230.854 -327.636 0 242.759 -334.601 0 254.864 -341.884 0 267.171 -349.485 0 279.744 -357.407 0 292.648 -365.649 0 305.885 -374.21 0 319.453 -383.09 0 333.353 -392.288 0 347.585 -401.804 0 362.197 -411.637 0 377.309 -421.786 0 392.926 -432.248 0 409.062 -443.021 0 425.77 -454.108 0 443.055 -465.512 0 460.94 -477.237 0 479.565 -489.266 0 498.953 -501.561 0 519.115 -514.084 0 540.157 -526.829 0 562.109 -539.835 0 584.987 -553.143 0 609.14 -566.719 0 634.712 -580.385 0 661.702 -593.943 0 690.005 -607.296 0 719.556 -620.618 0 750.356 -634.13 0 783.311 -647.908 0 819.328 -661.442 0 858.407 -674.076 0 899.808 -685.328 0 942.352 -695.726 0 986.025 -706.165 0 1032.48 -717.353 0 1085.75 -728.359 0 1146.03 -737.41 0 1210.46 -742.898 0 1268.31 -745.568 0 1318.55 -747.86 0 1363.49 -752.073 0 1416.95 -756.457 0 1481.23 -755.209 0 1550.52 -742.297 0 1564.23 -709.216 0 1506.22 -644.031 0 1381.8 -534.51 0 1307.35 -362.564 0 1330.49 -98.7431 0 1449.34 287.688 0 1516.21 810.76 0 1438.36 1438.36 0 1215.78 2130.47 0 869.074 2840.91 0 418.85 3498.86 0 -134.894 4027.36 0 -709.892 4359.87 0 -1175.19 4490.71 0 -1529.1 4436.3 0 -1829.13 4213.87 0 -2215.84 3847.94 0 -2695.61 3366.74 0 -3181.19 2800.72 0 -3344.49 2210.09 0 -3154.1 1676.51 0 -2671 1279.08 0 -2261.05 1027.51 0 -1985.21 862.108 0 -1830.39 720.907 0 -1659.82 575.322 0 -1437.11 443.099 0 -1165.34 345.29 0 -912.163 290.023 0 -705.264 260.328 0 -544.047 236.362 0 -382.152 206.889 0 -190.454 184.45 0 31.0449 185.659 0 0.013107 -245.955 0 9.62122 -246.107 0 19.2493 -246.563 0 28.8975 -247.325 0 38.5656 -248.391 0 48.2538 -249.762 0 57.9619 -251.437 0 67.7014 -253.418 0 77.4997 -255.704 0 87.3582 -258.297 0 97.2769 -261.197 0 107.256 -264.406 0 117.295 -267.924 0 127.401 -271.752 0 137.618 -275.892 0 147.953 -280.345 0 158.406 -285.11 0 168.977 -290.19 0 179.666 -295.586 0 190.476 -301.298 0 201.461 -307.328 0 212.645 -313.68 0 224.028 -320.356 0 235.609 -327.36 0 247.388 -334.695 0 259.367 -342.366 0 271.61 -350.373 0 284.184 -358.721 0 297.09 -367.408 0 310.328 -376.438 0 323.897 -385.81 0 337.797 -395.526 0 352.077 -405.589 0 366.855 -416 0 382.137 -426.766 0 397.935 -437.891 0 414.295 -449.389 0 431.221 -461.276 0 448.743 -473.568 0 467.039 -486.254 0 486.138 -499.291 0 506.046 -512.638 0 526.816 -526.279 0 548.462 -540.227 0 571.004 -554.504 0 594.89 -569.122 0 620.301 -584.087 0 647.234 -599.406 0 675.488 -615.044 0 704.933 -630.862 0 735.569 -646.701 0 768.46 -662.471 0 804.67 -678.345 0 844.199 -694.567 0 886.142 -711.266 0 929.061 -727.915 0 972.939 -743.754 0 1019.52 -758.201 0 1073.09 -772.277 0 1133.82 -787.825 0 1199.05 -806.396 0 1258.69 -825.488 0 1311.78 -839.677 0 1360.41 -843.777 0 1417.07 -839.604 0 1483.86 -835.971 0 1556.98 -841.502 0 1596.85 -842.423 0 1592.94 -793.884 0 1549.5 -648.995 0 1560.23 -391.361 0 1663.45 -63.8034 0 1857.79 284.129 0 2035.93 658.02 0 2130.47 1215.78 0 2141.4 2141.4 0 1967.27 3536.72 0 1506.63 5175.03 0 759.491 6747.44 0 -153.255 7957.05 0 -1039.15 8576.77 0 -1895.72 8404.79 0 -2678.88 7294.44 0 -3280.88 5578.66 0 -3696.82 3837.32 0 -3909.78 2617.27 0 -3856.15 1988.91 0 -3529.84 1679.27 0 -2981.92 1415.22 0 -2518.91 1093.46 0 -2191.88 780.528 0 -1988.28 549.294 0 -1776.94 424.292 0 -1522.96 362.995 0 -1229.25 318.1 0 -959.907 262.052 0 -741.136 205.646 0 -572.285 164.079 0 -402.234 145.883 0 -198.871 141.192 0 37.8041 136.989 0 0.0140831 -238.458 0 9.31893 -238.608 0 18.6438 -239.059 0 27.9887 -239.812 0 37.3535 -240.866 0 46.7384 -242.222 0 56.1433 -243.879 0 65.5791 -245.838 0 75.0727 -248.099 0 84.6252 -250.665 0 94.2366 -253.537 0 103.907 -256.715 0 113.636 -260.202 0 123.432 -263.999 0 133.336 -268.108 0 143.358 -272.529 0 153.496 -277.266 0 163.751 -282.318 0 174.123 -287.688 0 184.614 -293.377 0 195.277 -299.388 0 206.135 -305.726 0 217.187 -312.395 0 228.433 -319.402 0 239.873 -326.75 0 251.508 -334.446 0 263.405 -342.494 0 275.631 -350.897 0 288.186 -359.657 0 301.071 -368.779 0 314.285 -378.264 0 327.829 -388.116 0 341.749 -398.338 0 356.159 -408.938 0 371.064 -419.928 0 386.475 -431.32 0 402.424 -443.134 0 418.917 -455.4 0 435.99 -468.145 0 453.871 -481.361 0 472.6 -495.008 0 492.176 -509.045 0 512.622 -523.442 0 533.943 -538.185 0 556.154 -553.264 0 579.622 -568.738 0 604.496 -584.807 0 630.778 -601.684 0 658.571 -619.397 0 687.94 -637.46 0 718.887 -655.3 0 751.897 -672.643 0 787.456 -690.412 0 825.566 -709.832 0 866.296 -731.694 0 909.755 -754.261 0 955.947 -774.883 0 1004.99 -791.508 0 1057.2 -807.297 0 1112.58 -828.099 0 1171.23 -858.966 0 1233.49 -893.811 0 1299.4 -918.521 0 1367.51 -919.647 0 1429.08 -903.023 0 1482.65 -893.766 0 1530.4 -916.873 0 1595.13 -953.776 0 1682.88 -925.465 0 1792.82 -749.046 0 1906.56 -410.851 0 2016.57 -31.6529 0 2124.63 252.509 0 2370.21 435.351 0 2840.91 869.074 0 3536.72 1967.27 0 3985.74 3985.74 0 3716.06 6549.19 0 2727.68 9124.5 0 1183.15 11190.6 0 -658.735 12296.5 0 -2794.67 12016.5 0 -4840.38 10035.1 0 -5856.54 6994.93 0 -5800.47 4031.78 0 -4923.08 2212.43 0 -4167.8 1610.26 0 -3624.95 1582.68 0 -3265.78 1489.66 0 -2917.73 1113.15 0 -2552.06 657.03 0 -2173.11 340.53 0 -1826.46 246.23 0 -1524.24 267.114 0 -1265.52 282.654 0 -1029.82 227.438 0 -808.774 143.092 0 -602.237 83.5055 0 -399.71 78.9447 0 -194.597 94.3992 0 13.1046 83.6807 0 0.0153126 -230.677 0 9.02082 -230.824 0 18.0463 -231.268 0 27.0917 -232.01 0 36.1572 -233.048 0 45.2426 -234.384 0 54.3479 -236.017 0 63.4838 -237.947 0 72.6757 -240.177 0 81.9248 -242.707 0 91.2312 -245.539 0 100.595 -248.676 0 110.016 -252.119 0 119.501 -255.87 0 129.094 -259.931 0 138.802 -264.304 0 148.625 -268.991 0 158.563 -273.995 0 168.615 -279.317 0 178.785 -284.96 0 189.123 -290.926 0 199.649 -297.223 0 210.364 -303.856 0 221.267 -310.832 0 232.358 -318.158 0 243.638 -325.839 0 255.175 -333.883 0 267.038 -342.294 0 279.226 -351.077 0 291.74 -360.237 0 304.58 -369.777 0 317.745 -379.704 0 331.28 -390.022 0 345.292 -400.744 0 359.785 -411.886 0 374.767 -423.464 0 390.257 -435.504 0 406.259 -448.04 0 422.818 -461.103 0 440.215 -474.695 0 458.496 -488.785 0 477.662 -503.342 0 497.719 -518.341 0 518.668 -533.758 0 540.517 -549.576 0 563.434 -565.877 0 587.486 -582.945 0 612.684 -601.085 0 639.712 -620.352 0 669.002 -640.107 0 700.554 -659.592 0 733.744 -678.473 0 767.947 -698.104 0 803.163 -720.265 0 841.3 -746.117 0 885.396 -773.218 0 935.49 -797.822 0 988.767 -817.023 0 1038.35 -835.236 0 1083.92 -860.647 0 1130.32 -900.351 0 1195.75 -946.226 0 1281.96 -979.182 0 1381.41 -981.034 0 1448.94 -960.007 0 1477.02 -950.731 0 1476.66 -987.778 0 1562.83 -1050.99 0 1766.11 -1044.29 0 2077.63 -866.722 0 2302.24 -507.121 0 2360.11 -128.658 0 2258.04 85.6948 0 2526.53 119.86 0 3498.86 418.85 0 5175.03 1506.63 0 6549.19 3716.06 0 6615.51 6615.51 0 5373.99 9582.22 0 3025.48 12003.4 0 -110.284 13324.7 0 -4029.22 13012.8 0 -7845.9 10670 0 -9395.98 7078.65 0 -8581.1 3628.81 0 -6054.83 1624.23 0 -4274.66 1129.5 0 -3475.9 1316.11 0 -3500.07 1359.85 0 -3396.36 988.679 0 -3006.29 482.705 0 -2363.23 141.965 0 -1815.5 81.5484 0 -1455.75 159.92 0 -1276.48 217.256 0 -1112.84 168.329 0 -897.369 72.7791 0 -630.911 6.84894 0 -378.298 13.2245 0 -180.261 41.8891 0 -36.7974 26.9514 0 0.0165315 -222.611 0 8.72783 -222.756 0 17.459 -223.191 0 26.21 -223.919 0 34.9808 -224.938 0 43.7715 -226.249 0 52.5821 -227.851 0 61.4224 -229.747 0 70.3169 -231.936 0 79.2667 -234.421 0 88.2717 -237.204 0 97.3319 -240.288 0 106.447 -243.674 0 115.625 -247.364 0 124.909 -251.361 0 134.304 -255.668 0 143.813 -260.287 0 153.434 -265.221 0 163.167 -270.473 0 173.015 -276.045 0 183.025 -281.941 0 193.217 -288.169 0 203.59 -294.737 0 214.145 -301.65 0 224.881 -308.917 0 235.798 -316.545 0 246.967 -324.541 0 258.455 -332.913 0 270.263 -341.667 0 282.391 -350.81 0 294.839 -360.349 0 307.607 -370.29 0 320.735 -380.641 0 334.323 -391.418 0 348.376 -402.639 0 362.896 -414.324 0 377.892 -426.499 0 393.368 -439.195 0 409.374 -452.443 0 426.233 -466.255 0 443.998 -480.62 0 462.669 -495.53 0 482.247 -510.975 0 502.733 -526.947 0 524.125 -543.441 0 546.371 -560.539 0 569.45 -578.502 0 593.379 -597.61 0 619.488 -617.91 0 648.612 -638.802 0 680.751 -659.576 0 713.965 -679.959 0 746.315 -701.42 0 777.8 -725.865 0 812.566 -754.534 0 857.209 -784.785 0 911.815 -812.57 0 970.01 -834.748 0 1016.21 -856.096 0 1049.71 -885.469 0 1081.01 -930.552 0 1149.59 -982.735 0 1259.23 -1021.66 0 1395.16 -1027.94 0 1468.64 -1010.56 0 1464.92 -1006.87 0 1404.89 -1054.22 0 1507.11 -1134.08 0 1829.69 -1150.36 0 2354.58 -1002.02 0 2684.9 -680.171 0 2658.29 -354.82 0 2287.17 -216.314 0 2540.61 -288.452 0 4027.36 -134.894 0 6747.44 759.491 0 9124.5 2727.68 0 9582.22 5373.99 0 8120.59 8120.59 0 4968.33 10395.6 0 489.522 11661.6 0 -5311.18 11393.8 0 -11004.1 9199.07 0 -13094.5 5829.81 0 -11423.6 2628.41 0 -7086.54 852.674 0 -4201.4 546.641 0 -3162.45 879.573 0 -3663.47 1025.79 0 -3866.99 720.048 0 -3466.79 257.552 0 -2530.19 -46.4003 0 -1760.5 -69.7515 0 -1344.76 41.4137 0 -1267.78 121.906 0 -1195.12 84.7221 0 -989.994 -5.29114 0 -654.4 -65.891 0 -345.06 -51.2782 0 -160.427 -16.3384 0 -100.501 -33.199 0 0.0174757 -214.261 0 8.44093 -214.402 0 16.884 -214.828 0 25.3466 -215.538 0 33.8288 -216.534 0 42.3306 -217.815 0 50.852 -219.382 0 59.4024 -221.236 0 68.0047 -223.377 0 76.6602 -225.809 0 85.3687 -228.533 0 94.1302 -231.552 0 102.945 -234.868 0 111.82 -238.483 0 120.797 -242.4 0 129.883 -246.622 0 139.08 -251.154 0 148.385 -255.997 0 157.8 -261.156 0 167.327 -266.633 0 177.01 -272.434 0 186.866 -278.567 0 196.896 -285.038 0 207.1 -291.856 0 217.478 -299.028 0 228.03 -306.563 0 238.825 -314.469 0 249.931 -322.754 0 261.35 -331.428 0 273.08 -340.499 0 285.122 -349.978 0 297.476 -359.874 0 310.179 -370.195 0 323.323 -380.96 0 336.912 -392.188 0 350.946 -403.901 0 365.429 -416.121 0 380.361 -428.875 0 395.799 -442.19 0 412.083 -456.086 0 429.269 -470.58 0 447.357 -485.688 0 466.349 -501.427 0 486.243 -517.812 0 507.031 -534.863 0 528.506 -552.647 0 550.582 -571.332 0 573.285 -591.099 0 598.448 -611.973 0 627.226 -633.562 0 659.619 -655.4 0 692.498 -677.359 0 722.734 -700.664 0 750.327 -726.874 0 781.562 -757.004 0 826.44 -788.866 0 885.089 -819.113 0 947.707 -845.152 0 990.33 -870.968 0 1011.87 -903.932 0 1028.24 -950.446 0 1099.35 -1003.37 0 1230.91 -1045.79 0 1401.17 -1061.63 0 1479.62 -1058.26 0 1444.51 -1066.6 0 1325.88 -1117.56 0 1437.39 -1197.5 0 1862.49 -1230.87 0 2574.73 -1138.18 0 2992.16 -913.112 0 2876.73 -691.402 0 2245.84 -624.946 0 2456.13 -739.141 0 4359.87 -709.892 0 7957.05 -153.255 0 11190.6 1183.15 0 12003.4 3025.48 0 10395.6 4968.33 0 6607.53 6607.53 0 1022.19 7546.05 0 -6355.54 7389.47 0 -13627.4 5840.79 0 -16153.3 3450.94 0 -13722.3 1207.42 0 -7813.26 34.5834 0 -3986.65 -49.8793 0 -2774.85 318.335 0 -3738.52 508.003 0 -4241.53 322.651 0 -3844.52 0.547224 0 -2646.41 -204.552 0 -1680.26 -193.708 0 -1220.8 -82.798 0 -1245.64 -3.00138 0 -1262.19 -22.5543 0 -1068.92 -87.4456 0 -668.966 -129.66 0 -307.892 -111.581 0 -139.947 -79.5694 0 -165.131 -94.369 0 0.0178815 -205.626 0 8.16109 -205.764 0 16.3234 -206.178 0 24.5049 -206.869 0 32.7054 -207.838 0 40.9251 -209.085 0 49.164 -210.61 0 57.4308 -212.415 0 65.7475 -214.501 0 74.1149 -216.87 0 82.5331 -219.524 0 91.0021 -222.467 0 99.5219 -225.7 0 108.099 -229.225 0 116.776 -233.046 0 125.558 -237.166 0 134.446 -241.59 0 143.44 -246.322 0 152.539 -251.365 0 161.747 -256.725 0 171.103 -262.405 0 180.625 -268.414 0 190.314 -274.76 0 200.168 -281.45 0 210.188 -288.492 0 220.375 -295.894 0 230.795 -303.665 0 241.516 -311.816 0 252.538 -320.359 0 263.862 -329.305 0 275.488 -338.666 0 287.414 -348.455 0 299.677 -358.684 0 312.36 -369.37 0 325.467 -380.534 0 338.999 -392.195 0 352.956 -404.375 0 367.338 -417.097 0 382.202 -430.382 0 397.884 -444.261 0 414.442 -458.77 0 431.874 -473.946 0 450.183 -489.826 0 469.367 -506.449 0 489.413 -523.851 0 510.049 -542.081 0 531.16 -561.207 0 552.775 -581.298 0 576.98 -602.389 0 605.083 -624.416 0 637.086 -647.299 0 669.136 -671.082 0 697.378 -696.317 0 721.814 -723.679 0 750.107 -753.622 0 794.454 -785.309 0 855.014 -817.432 0 919.767 -848.986 0 959.334 -881.59 0 972.379 -918.215 0 978.371 -961.431 0 1050.51 -1008.18 0 1195.81 -1051.34 0 1388.04 -1084.12 0 1469.92 -1108.84 0 1415.22 -1136.96 0 1259.66 -1179.98 0 1376.2 -1232.46 0 1864.01 -1265.45 0 2691.43 -1248.51 0 3161.53 -1179.06 0 2989.22 -1108.58 0 2194.82 -1094.72 0 2363.4 -1151.91 0 4490.71 -1175.19 0 8576.77 -1039.15 0 12296.5 -658.735 0 13324.7 -110.284 0 11661.6 489.522 0 7546.05 1022.19 0 1358.63 1358.63 0 -6895.77 1365.95 0 -15050.1 942.922 0 -17807.4 264.403 0 -14926.6 -352.641 0 -8109.1 -612.227 0 -3750.97 -519.272 0 -2464.65 -295.546 0 -3730.43 -160.828 0 -4429.93 -179.01 0 -4043.43 -258.101 0 -2689.56 -300.634 0 -1607.39 -268.098 0 -1126.45 -203.791 0 -1219.85 -156.836 0 -1295.66 -152.185 0 -1111.7 -167.837 0 -671.878 -176.414 0 -279.565 -162.936 0 -125.344 -146.667 0 -209.213 -152.736 0 0.0174849 -196.706 0 7.88924 -196.84 0 15.7794 -197.242 0 23.688 -197.911 0 31.615 -198.849 0 39.5604 -200.056 0 47.5243 -201.534 0 55.515 -203.283 0 63.5533 -205.306 0 71.6402 -207.604 0 79.7757 -210.179 0 87.9597 -213.034 0 96.1923 -216.17 0 104.48 -219.591 0 112.863 -223.299 0 121.347 -227.3 0 129.932 -231.597 0 138.619 -236.196 0 147.407 -241.102 0 156.298 -246.319 0 165.332 -251.853 0 174.524 -257.712 0 183.874 -263.902 0 193.382 -270.431 0 203.049 -277.307 0 212.874 -284.537 0 222.922 -292.13 0 233.258 -300.1 0 243.882 -308.46 0 254.795 -317.226 0 265.995 -326.413 0 277.484 -336.035 0 289.293 -346.108 0 301.503 -356.648 0 314.119 -367.675 0 327.138 -379.207 0 340.563 -391.263 0 354.393 -403.861 0 368.68 -417.022 0 383.744 -430.78 0 399.637 -445.19 0 416.36 -460.304 0 433.912 -476.176 0 452.294 -492.859 0 471.494 -510.407 0 491.261 -528.841 0 511.492 -548.123 0 532.213 -568.204 0 555.413 -589.155 0 582.343 -611.364 0 613.002 -635.275 0 643.619 -661.133 0 670.421 -688.386 0 693.409 -716.283 0 720.144 -744.389 0 762.664 -774.111 0 821.123 -807.527 0 883.705 -846.259 0 921.53 -887.985 0 933.283 -928.347 0 938.259 -963.525 0 1009.01 -997.165 0 1152.47 -1038.3 0 1342.97 -1095.44 0 1426.34 -1162.35 0 1376.9 -1218.05 0 1229.7 -1241.51 0 1350.8 -1238.85 0 1837.55 -1253.84 0 2658.87 -1332.67 0 3130.49 -1477.67 0 2972.5 -1605.97 0 2204.68 -1625.05 0 2369.59 -1525.72 0 4436.3 -1529.1 0 8404.79 -1895.72 0 12016.5 -2794.67 0 13012.8 -4029.22 0 11393.8 -5311.18 0 7389.47 -6355.54 0 1365.95 -6895.77 0 -6672.05 -6672.05 0 -14614.6 -5490.07 0 -17304 -3725.65 0 -14505.9 -2048.17 0 -7876.74 -1084.96 0 -3644.52 -859.733 0 -2405.59 -961.146 0 -3652.6 -980.285 0 -4341.48 -784.62 0 -3964.9 -518.007 0 -2639.18 -334.237 0 -1579.52 -292.635 0 -1109.08 -321.45 0 -1201.46 -339.591 0 -1275.72 -304.153 0 -1094.21 -246.389 0 -660.764 -206.05 0 -274.615 -205.283 0 -123.747 -217.617 0 -208.161 -208.25 0 0.0160662 -187.533 0 7.62635 -187.663 0 15.254 -188.049 0 22.8992 -188.694 0 30.5617 -189.598 0 38.2416 -190.762 0 45.939 -192.187 0 53.662 -193.875 0 61.4305 -195.827 0 69.2455 -198.045 0 77.1071 -200.531 0 85.0151 -203.288 0 92.9696 -206.317 0 100.977 -209.62 0 109.074 -213.201 0 117.267 -217.066 0 125.557 -221.219 0 133.943 -225.667 0 142.425 -230.415 0 151.005 -235.468 0 159.721 -240.832 0 168.588 -246.515 0 177.607 -252.522 0 186.776 -258.861 0 196.096 -265.538 0 205.568 -272.56 0 215.251 -279.936 0 225.206 -287.682 0 235.433 -295.815 0 245.931 -304.353 0 256.702 -313.313 0 267.744 -322.713 0 279.091 -332.57 0 290.821 -342.901 0 302.939 -353.723 0 315.444 -365.052 0 328.336 -376.903 0 341.616 -389.294 0 355.33 -402.241 0 369.767 -415.786 0 384.974 -429.993 0 400.95 -444.927 0 417.696 -460.652 0 435.212 -477.235 0 453.492 -494.74 0 472.395 -513.164 0 491.865 -532.373 0 511.921 -552.22 0 534.048 -572.816 0 559.178 -594.994 0 587.311 -619.71 0 615.823 -647.391 0 642.086 -676.339 0 666.102 -704.33 0 693.29 -730.011 0 732.277 -757.139 0 783.173 -791.32 0 837.719 -836.921 0 875.727 -887.516 0 896.279 -931.124 0 913.359 -957.272 0 979.545 -976.609 0 1099.87 -1015.01 0 1256.09 -1096.96 0 1338.7 -1207.32 0 1329.44 -1291.32 0 1254.15 -1294.08 0 1382.49 -1233.28 0 1786.2 -1227.28 0 2442.55 -1400.9 0 2851.88 -1761.47 0 2809.78 -2088.11 0 2330.91 -2134.06 0 2559.36 -1864.33 0 4213.87 -1829.13 0 7294.44 -2678.88 0 10035.1 -4840.38 0 10670 -7845.9 0 9199.07 -11004.1 0 5840.79 -13627.4 0 942.922 -15050.1 0 -5490.07 -14614.6 0 -11826.6 -11826.6 0 -14078.5 -7616.54 0 -12064.5 -3647.86 0 -7049.07 -1478.38 0 -3786.98 -1147.4 0 -2733.48 -1599.84 0 -3516.94 -1787.68 0 -3907.68 -1380.34 0 -3534.07 -764.693 0 -2480.34 -353.252 0 -1626.14 -306.165 0 -1205.42 -433.423 0 -1199.09 -520.072 0 -1187.19 -453.635 0 -997.912 -320.665 0 -633.934 -230.514 0 -304.393 -243.744 0 -140.669 -286.121 0 -142.762 -260.328 0 0.0137917 -178.179 0 7.37322 -178.304 0 14.7488 -178.675 0 22.1406 -179.294 0 29.5486 -180.161 0 36.9727 -181.279 0 44.413 -182.648 0 51.8775 -184.269 0 59.3857 -186.145 0 66.9384 -188.277 0 74.5357 -190.668 0 82.1776 -193.318 0 89.864 -196.231 0 97.6008 -199.407 0 105.422 -202.851 0 113.334 -206.569 0 121.337 -210.566 0 129.43 -214.849 0 137.613 -219.424 0 145.889 -224.296 0 154.294 -229.471 0 162.843 -234.957 0 171.538 -240.759 0 180.376 -246.883 0 189.36 -253.337 0 198.488 -260.126 0 207.815 -267.259 0 217.395 -274.753 0 227.228 -282.628 0 237.315 -290.904 0 247.655 -299.598 0 258.248 -308.732 0 269.127 -318.325 0 280.375 -328.391 0 291.994 -338.948 0 303.986 -350.009 0 316.349 -361.589 0 329.084 -373.703 0 342.231 -386.369 0 356.038 -399.628 0 370.546 -413.553 0 385.754 -428.216 0 401.663 -443.691 0 418.272 -460.05 0 435.583 -477.365 0 453.621 -495.627 0 472.397 -514.676 0 491.919 -534.329 0 512.927 -554.705 0 535.886 -576.747 0 560.794 -601.538 0 586.796 -629.559 0 613.035 -658.874 0 639.51 -686.942 0 668.306 -712.218 0 702.744 -738.957 0 742.867 -773.513 0 785.91 -820.846 0 825.123 -873.74 0 860.198 -918.715 0 896.806 -944.004 0 956.271 -961.864 0 1040.64 -1001.86 0 1143.09 -1092 0 1222.82 -1215.64 0 1273.02 -1311.44 0 1305.25 -1317.98 0 1440.46 -1256.34 0 1710.81 -1262.11 0 2106.51 -1478.21 0 2412.4 -1914.38 0 2540.46 -2321.63 0 2497.57 -2421.59 0 2820.91 -2176.86 0 3847.94 -2215.84 0 5578.66 -3280.88 0 6994.93 -5856.54 0 7078.65 -9395.98 0 5829.81 -13094.5 0 3450.94 -16153.3 0 264.403 -17807.4 0 -3725.65 -17304 0 -7616.54 -14078.5 0 -9201.68 -9201.68 0 -8380.76 -4586.27 0 -5821.15 -2024.09 0 -4032.09 -1568.38 0 -3253.85 -2019.45 0 -3322.38 -2185.34 0 -3253.42 -1687.89 0 -2882.93 -962.77 0 -2245.77 -474.742 0 -1705.87 -403.643 0 -1360.02 -533.963 0 -1200.4 -622.03 0 -1054.86 -539.952 0 -852.96 -384.701 0 -595.601 -279.013 0 -352.521 -290.84 0 -167.533 -336.786 0 -40.6359 -307.539 0 0.0110263 -168.648 0 7.1306 -168.768 0 14.265 -169.123 0 21.4142 -169.714 0 28.5781 -170.543 0 35.7569 -171.611 0 42.9505 -172.92 0 50.1668 -174.471 0 57.4249 -176.265 0 64.7257 -178.305 0 72.0692 -180.592 0 79.4555 -183.129 0 86.8845 -185.916 0 94.3615 -188.956 0 101.918 -192.254 0 109.558 -195.814 0 117.283 -199.643 0 125.092 -203.748 0 132.986 -208.134 0 140.966 -212.809 0 149.069 -217.777 0 157.31 -223.045 0 165.69 -228.62 0 174.208 -234.507 0 182.864 -240.712 0 191.659 -247.243 0 200.639 -254.107 0 209.853 -261.322 0 219.3 -268.909 0 228.98 -276.888 0 238.893 -285.28 0 249.04 -294.105 0 259.454 -303.383 0 270.222 -313.13 0 281.347 -323.361 0 292.829 -334.091 0 304.669 -345.334 0 316.865 -357.104 0 329.452 -369.418 0 342.632 -382.32 0 356.437 -395.886 0 370.868 -410.191 0 385.924 -425.312 0 401.607 -441.325 0 417.924 -458.305 0 435.066 -476.259 0 453.113 -495.063 0 472.065 -514.576 0 491.96 -534.883 0 512.826 -556.688 0 534.661 -580.801 0 558.194 -607.625 0 584.153 -635.931 0 612.539 -664.081 0 642.485 -691.089 0 672.614 -719.771 0 702.909 -754.319 0 735.422 -798.028 0 775.171 -846.364 0 822.386 -890.764 0 875.391 -923.782 0 927.892 -953.626 0 979.287 -999.781 0 1032.82 -1080.73 0 1107.96 -1186.03 0 1207.94 -1276.35 0 1331.63 -1312.31 0 1467.08 -1309.88 0 1611.14 -1361.8 0 1765.49 -1565.75 0 1967.62 -1931.14 0 2232.86 -2295.91 0 2561.07 -2478.53 0 2941.32 -2463.75 0 3366.74 -2695.61 0 3837.32 -3696.82 0 4031.78 -5800.47 0 3628.81 -8581.1 0 2628.41 -11423.6 0 1207.42 -13722.3 0 -352.641 -14926.6 0 -2048.17 -14505.9 0 -3647.86 -12064.5 0 -4586.27 -8380.76 0 -4837.71 -4837.71 0 -4523.03 -2732.63 0 -4096.69 -2131.15 0 -3602.19 -2211.24 0 -3061.13 -2155.18 0 -2603.2 -1694.62 0 -2249.99 -1110.63 0 -1992.81 -704.03 0 -1740.84 -589.385 0 -1469.95 -622.809 0 -1182.23 -641.999 0 -924.114 -560.345 0 -714.595 -438.228 0 -553.019 -352.875 0 -388.345 -347.138 0 -188.509 -368.91 0 46.4876 -349.819 0 0.00813641 -158.941 0 6.89924 -159.055 0 13.8037 -159.393 0 20.7216 -159.955 0 27.6529 -160.743 0 34.5975 -161.759 0 41.5556 -163.004 0 48.5348 -164.479 0 55.554 -166.186 0 62.6141 -168.127 0 69.7151 -170.304 0 76.8571 -172.719 0 84.0399 -175.373 0 91.2683 -178.268 0 98.5703 -181.409 0 105.95 -184.801 0 113.409 -188.45 0 120.945 -192.364 0 128.56 -196.547 0 136.254 -201.006 0 144.066 -205.748 0 152.01 -210.779 0 160.086 -216.104 0 168.294 -221.73 0 176.634 -227.663 0 185.106 -233.91 0 193.751 -240.479 0 202.609 -247.387 0 211.679 -254.656 0 220.962 -262.306 0 230.458 -270.357 0 240.167 -278.83 0 250.124 -287.745 0 260.42 -297.117 0 271.059 -306.964 0 282.04 -317.299 0 293.363 -328.138 0 305.029 -339.496 0 317.063 -351.39 0 329.62 -363.864 0 342.728 -376.993 0 356.385 -390.851 0 370.592 -405.515 0 385.349 -421.06 0 400.669 -437.56 0 416.862 -455.053 0 434.052 -473.499 0 452.236 -492.852 0 471.072 -513.139 0 490.345 -534.586 0 510.054 -557.457 0 531.576 -581.984 0 556.289 -608.271 0 584.192 -636.393 0 613.322 -666.431 0 640.551 -698.485 0 665.841 -732.669 0 692.935 -769.123 0 730.987 -808.258 0 780.414 -850.622 0 836.86 -896.759 0 883.951 -947.118 0 920.118 -1002.08 0 952.226 -1062.06 0 1021.45 -1127.87 0 1134.66 -1200.76 0 1285.6 -1282.06 0 1408.99 -1376.87 0 1487.46 -1495.41 0 1527.18 -1648.3 0 1663.56 -1842.58 0 1952.01 -2078.38 0 2389.32 -2355.08 0 2724.73 -2694.59 0 2800.72 -3181.19 0 2617.27 -3909.78 0 2212.43 -4923.08 0 1624.23 -6054.83 0 852.674 -7086.54 0 34.5834 -7813.26 0 -612.227 -8109.1 0 -1084.96 -7876.74 0 -1478.38 -7049.07 0 -2024.09 -5821.15 0 -2732.63 -4523.03 0 -3468.29 -3468.29 0 -3720.81 -2731.1 0 -3441.34 -2213.12 0 -2727.78 -1814.28 0 -2167.51 -1481.44 0 -1858.43 -1208.46 0 -1775.64 -991.161 0 -1659.12 -823.551 0 -1439.71 -697.036 0 -1123.22 -602.845 0 -837.356 -532.934 0 -634.354 -480.672 0 -513.063 -439.595 0 -383.431 -406.357 0 -188.887 -386.23 0 70.5702 -385.958 0 0.0054886 -149.057 0 6.6799 -149.165 0 13.3663 -149.484 0 20.0648 -150.015 0 26.7753 -150.761 0 33.4979 -151.722 0 40.2324 -152.899 0 46.9866 -154.294 0 53.779 -155.909 0 60.6104 -157.745 0 67.4809 -159.804 0 74.3904 -162.089 0 81.339 -164.601 0 88.3307 -167.342 0 95.3904 -170.316 0 102.522 -173.529 0 109.726 -176.987 0 117.002 -180.696 0 124.35 -184.661 0 131.772 -188.889 0 139.305 -193.386 0 146.964 -198.158 0 154.748 -203.212 0 162.658 -208.554 0 170.694 -214.19 0 178.856 -220.128 0 187.178 -226.375 0 195.691 -232.95 0 204.398 -239.871 0 213.297 -247.158 0 222.389 -254.831 0 231.674 -262.908 0 241.189 -271.41 0 251.027 -280.353 0 261.191 -289.755 0 271.682 -299.633 0 282.499 -310.002 0 293.643 -320.88 0 305.132 -332.284 0 317.079 -344.259 0 329.502 -356.873 0 342.402 -370.196 0 355.778 -384.3 0 369.631 -399.255 0 383.977 -415.131 0 399.18 -431.984 0 415.388 -449.845 0 432.597 -468.742 0 450.419 -488.675 0 468.608 -509.572 0 487.165 -531.351 0 507.18 -554.119 0 529.741 -578.751 0 554.85 -606.316 0 581.247 -637.522 0 606.931 -670.98 0 631.876 -704.541 0 658.519 -736.594 0 692.82 -770.216 0 735.051 -810.894 0 782.642 -863.508 0 825.93 -924.373 0 863.99 -983.638 0 901.166 -1032.02 0 963.52 -1076.43 0 1055.39 -1140.01 0 1172.78 -1246.03 0 1273.86 -1393.31 0 1347.49 -1546.63 0 1397.52 -1668.65 0 1508.41 -1764.63 0 1714.7 -1922.56 0 2013.99 -2239.87 0 2218.45 -2755.15 0 2210.09 -3344.49 0 1988.91 -3856.15 0 1610.26 -4167.8 0 1129.5 -4274.66 0 546.641 -4201.4 0 -49.8793 -3986.65 0 -519.272 -3750.97 0 -859.733 -3644.52 0 -1147.4 -3786.98 0 -1568.38 -4032.09 0 -2131.15 -4096.69 0 -2731.1 -3720.81 0 -2974.94 -2974.94 0 -2825.02 -2167.7 0 -2349.32 -1602.9 0 -1955.63 -1352.56 0 -1711.93 -1256.93 0 -1603.25 -1148.31 0 -1473.21 -956.337 0 -1280.24 -745.656 0 -1027.88 -590.543 0 -794.071 -525.851 0 -610.718 -509.878 0 -477.147 -492.157 0 -341.163 -444.872 0 -169.977 -402.795 0 36.4107 -411.413 0 0.00344936 -138.996 0 6.47331 -139.097 0 12.954 -139.397 0 19.4455 -139.896 0 25.9479 -140.597 0 32.4611 -141.5 0 38.9852 -142.606 0 45.5274 -143.916 0 52.1059 -145.432 0 58.7215 -147.157 0 65.3741 -149.092 0 72.0638 -151.239 0 78.7906 -153.6 0 85.5581 -156.178 0 92.3884 -158.976 0 99.285 -161.999 0 106.248 -165.254 0 113.278 -168.745 0 120.374 -172.477 0 127.538 -176.457 0 134.806 -180.69 0 142.193 -185.183 0 149.7 -189.943 0 157.326 -194.977 0 165.07 -200.293 0 172.934 -205.896 0 180.945 -211.797 0 189.129 -218.01 0 197.488 -224.553 0 206.021 -231.444 0 214.728 -238.7 0 223.609 -246.339 0 232.702 -254.379 0 242.1 -262.838 0 251.806 -271.736 0 261.821 -281.091 0 272.144 -290.924 0 282.776 -301.254 0 293.729 -312.101 0 305.08 -323.504 0 316.841 -335.526 0 329.012 -348.227 0 341.594 -361.668 0 354.586 -375.911 0 368.005 -391.017 0 382.224 -407.051 0 397.395 -424.09 0 413.516 -442.206 0 430.323 -461.416 0 447.651 -481.564 0 465.502 -502.467 0 484.285 -524.173 0 504.412 -547.647 0 525.882 -574.083 0 548.807 -604.294 0 573.361 -636.86 0 599.548 -669.551 0 627.476 -700.678 0 657.412 -733.27 0 689.369 -772.785 0 724.022 -824.084 0 763.916 -883.673 0 809.295 -942.036 0 859.97 -990.211 0 914.812 -1035.09 0 973.634 -1099.4 0 1037.19 -1206.02 0 1113.38 -1353.06 0 1204.3 -1504.3 0 1309.18 -1621.31 0 1411.04 -1708.38 0 1502.95 -1852.72 0 1584.75 -2150.97 0 1645 -2634.47 0 1676.51 -3154.1 0 1679.27 -3529.84 0 1582.68 -3624.95 0 1316.11 -3475.9 0 879.573 -3162.45 0 318.335 -2774.85 0 -295.546 -2464.65 0 -961.146 -2405.59 0 -1599.84 -2733.48 0 -2019.45 -3253.85 0 -2211.24 -3602.19 0 -2213.12 -3441.34 0 -2167.7 -2825.02 0 -2088.62 -2088.62 0 -1976.14 -1563.18 0 -1831.84 -1337.1 0 -1655.96 -1256.12 0 -1452.02 -1157.5 0 -1256.51 -973.401 0 -1079.15 -767.616 0 -919.296 -613.323 0 -762.816 -545.619 0 -603.928 -525.642 0 -442.741 -506.06 0 -287.844 -460.421 0 -144.635 -419.95 0 -13.1133 -425.748 0 0.00237111 -128.77 0 6.28021 -128.863 0 12.568 -129.142 0 18.8656 -129.608 0 25.1731 -130.262 0 31.4906 -131.104 0 37.8179 -132.135 0 44.1622 -133.356 0 50.5406 -134.769 0 56.9539 -136.377 0 63.4022 -138.18 0 69.8854 -140.182 0 76.4034 -142.385 0 82.9598 -144.791 0 89.5741 -147.403 0 96.2498 -150.227 0 102.987 -153.267 0 109.785 -156.527 0 116.645 -160.013 0 123.568 -163.728 0 130.588 -167.68 0 137.72 -171.875 0 144.963 -176.321 0 152.319 -181.026 0 159.786 -185.997 0 167.365 -191.242 0 175.079 -196.771 0 182.95 -202.596 0 190.98 -208.733 0 199.167 -215.196 0 207.513 -222 0 216.016 -229.161 0 224.714 -236.693 0 233.695 -244.616 0 242.964 -252.955 0 252.52 -261.73 0 262.364 -270.965 0 272.496 -280.682 0 282.924 -290.905 0 293.698 -301.67 0 304.827 -313.024 0 316.311 -325.018 0 328.151 -337.699 0 340.345 -351.117 0 352.91 -365.32 0 366.196 -380.375 0 380.346 -396.376 0 395.357 -413.423 0 411.105 -431.574 0 427.51 -450.778 0 444.573 -470.963 0 462.175 -492.169 0 480.2 -514.881 0 498.647 -539.696 0 518.525 -567.088 0 541.44 -596.807 0 567.414 -628.341 0 595.161 -661.311 0 621.538 -696.482 0 646.402 -735.208 0 672.165 -778.77 0 707.892 -827.372 0 754.451 -880.444 0 809.191 -937.5 0 856.208 -1000.39 0 892.85 -1073.3 0 922.365 -1160.46 0 978.656 -1263.89 0 1070.74 -1382.54 0 1195.37 -1515.17 0 1281.1 -1665.73 0 1298.69 -1848.33 0 1249.33 -2078.21 0 1223.78 -2360.29 0 1279.08 -2671 0 1415.22 -2981.92 0 1489.66 -3265.78 0 1359.85 -3500.07 0 1025.79 -3663.47 0 508.003 -3738.52 0 -160.828 -3730.43 0 -980.285 -3652.6 0 -1787.68 -3516.94 0 -2185.34 -3322.38 0 -2155.18 -3061.13 0 -1814.28 -2727.78 0 -1602.9 -2349.32 0 -1563.18 -1976.14 0 -1657.67 -1657.67 0 -1661.58 -1408.93 0 -1537.47 -1210.59 0 -1298.44 -1042.05 0 -1081.49 -892.447 0 -923.052 -764.449 0 -820.364 -661.701 0 -712.549 -584.809 0 -574.703 -528.483 0 -407.328 -486.76 0 -249.446 -455.529 0 -125.576 -435.806 0 -35.7146 -429.483 0 0.00228241 -118.441 0 6.10113 -118.526 0 12.2092 -118.785 0 18.3265 -119.216 0 24.4531 -119.821 0 30.5888 -120.601 0 36.7339 -121.555 0 42.8947 -122.684 0 49.0874 -123.991 0 55.3127 -125.478 0 61.5707 -127.146 0 67.8612 -128.999 0 74.1844 -131.038 0 80.5433 -133.266 0 86.956 -135.686 0 93.4257 -138.303 0 99.9524 -141.12 0 106.536 -144.142 0 113.176 -147.372 0 119.875 -150.814 0 126.665 -154.475 0 133.558 -158.361 0 140.555 -162.482 0 147.656 -166.845 0 154.861 -171.458 0 162.17 -176.329 0 169.602 -181.467 0 177.179 -186.885 0 184.9 -192.594 0 192.766 -198.607 0 200.775 -204.936 0 208.929 -211.594 0 217.261 -218.594 0 225.853 -225.957 0 234.709 -233.708 0 243.828 -241.872 0 253.211 -250.474 0 262.857 -259.539 0 272.773 -269.092 0 282.995 -279.165 0 293.528 -289.796 0 304.374 -301.022 0 315.53 -312.883 0 326.999 -325.416 0 338.793 -338.659 0 351.219 -352.675 0 364.402 -367.57 0 378.34 -383.457 0 392.985 -400.43 0 408.304 -418.528 0 424.297 -437.783 0 440.67 -458.239 0 457.131 -479.997 0 473.679 -503.172 0 491.384 -527.947 0 511.946 -554.905 0 535.387 -584.77 0 560.534 -618.118 0 584.514 -654.212 0 607.198 -691.641 0 630.413 -729.258 0 661.036 -769.603 0 699.723 -817.869 0 744.524 -879.031 0 783.726 -951.666 0 815.379 -1027.95 0 841.652 -1100.05 0 885.214 -1172.31 0 952.093 -1266 0 1039.9 -1403.45 0 1096.18 -1588.05 0 1099.45 -1786.29 0 1050.53 -1960.51 0 1013.2 -2098.88 0 1027.51 -2261.05 0 1093.46 -2518.91 0 1113.15 -2917.73 0 988.679 -3396.36 0 720.048 -3866.99 0 322.651 -4241.53 0 -179.01 -4429.93 0 -784.62 -4341.48 0 -1380.34 -3907.68 0 -1687.89 -3253.42 0 -1694.62 -2603.2 0 -1481.44 -2167.51 0 -1352.56 -1955.63 0 -1337.1 -1831.84 0 -1408.93 -1661.58 0 -1411.17 -1411.17 0 -1317.69 -1147.76 0 -1137.8 -941.925 0 -968.784 -819.701 0 -836.5 -745.354 0 -739.15 -678.76 0 -637.103 -598.843 0 -514.145 -521.531 0 -370.611 -466.988 0 -232.559 -445.35 0 -116.361 -439.039 0 -22.0168 -425.735 0 0.00288792 -108.02 0 5.93633 -108.098 0 11.8786 -108.335 0 17.8296 -108.731 0 23.7893 -109.286 0 29.7579 -110.001 0 35.7352 -110.876 0 41.7273 -111.912 0 47.7491 -113.11 0 53.801 -114.473 0 59.8833 -116.002 0 65.9958 -117.702 0 72.1385 -119.573 0 78.3143 -121.618 0 84.5405 -123.84 0 90.8197 -126.243 0 97.1521 -128.831 0 103.538 -131.606 0 109.976 -134.572 0 116.47 -137.733 0 123.046 -141.095 0 129.719 -144.664 0 136.487 -148.449 0 143.35 -152.458 0 150.309 -156.7 0 157.364 -161.183 0 164.533 -165.915 0 171.834 -170.906 0 179.269 -176.168 0 186.837 -181.709 0 194.537 -187.542 0 202.37 -193.676 0 210.366 -200.123 0 218.597 -206.904 0 227.066 -214.044 0 235.772 -221.571 0 244.717 -229.509 0 253.9 -237.886 0 263.325 -246.726 0 273.024 -256.058 0 283.001 -265.911 0 293.255 -276.316 0 303.788 -287.302 0 314.598 -298.898 0 325.698 -311.135 0 337.337 -324.071 0 349.617 -337.816 0 362.538 -352.487 0 376.082 -368.196 0 390.236 -385.032 0 405.002 -403.084 0 420.127 -422.406 0 435.358 -442.92 0 450.696 -464.514 0 466.825 -487.215 0 484.833 -511.836 0 504.735 -539.48 0 526.159 -571.034 0 548.198 -605.52 0 570.811 -640.996 0 594.289 -675.831 0 619.726 -712.721 0 647.226 -757.479 0 676.802 -815.664 0 708.53 -885.472 0 742.422 -957.727 0 778.204 -1023.23 0 813.006 -1086.07 0 846.064 -1168.77 0 877.174 -1295.05 0 901.857 -1467.22 0 918.279 -1646.08 0 926.247 -1787.7 0 910.682 -1877.96 0 862.108 -1985.21 0 780.528 -2191.88 0 657.03 -2552.06 0 482.705 -3006.29 0 257.552 -3466.79 0 0.547224 -3844.52 0 -258.101 -4043.43 0 -518.007 -3964.9 0 -764.693 -3534.07 0 -962.77 -2882.93 0 -1110.63 -2249.99 0 -1208.46 -1858.43 0 -1256.93 -1711.93 0 -1256.12 -1655.96 0 -1210.59 -1537.47 0 -1147.76 -1317.69 0 -1072.2 -1072.2 0 -984.228 -880.449 0 -887.191 -772.866 0 -781.978 -711.864 0 -668.918 -655.015 0 -555.192 -580.294 0 -443.737 -505.308 0 -334.515 -452.202 0 -224.394 -432.407 0 -111.407 -427.76 0 4.44544 -415.025 0 0.00387825 -97.5073 0 5.7861 -97.5782 0 11.5768 -97.7931 0 17.3759 -98.1524 0 23.1835 -98.6563 0 28.9996 -99.305 0 34.8241 -100.099 0 40.6626 -101.038 0 46.5283 -102.125 0 52.422 -103.361 0 58.3436 -104.749 0 64.2931 -106.291 0 70.2706 -107.99 0 76.2787 -109.847 0 82.3339 -111.865 0 88.4388 -114.048 0 94.5937 -116.398 0 100.798 -118.919 0 107.053 -121.614 0 113.358 -124.486 0 119.74 -127.539 0 126.21 -130.782 0 132.767 -134.221 0 139.412 -137.866 0 146.144 -141.725 0 152.963 -145.804 0 159.888 -150.113 0 166.936 -154.66 0 174.107 -159.454 0 181.402 -164.504 0 188.819 -169.819 0 196.36 -175.408 0 204.049 -181.28 0 211.948 -187.458 0 220.059 -193.965 0 228.381 -200.828 0 236.916 -208.072 0 245.663 -215.723 0 254.626 -223.807 0 263.837 -232.349 0 273.298 -241.372 0 283.011 -250.899 0 292.976 -260.956 0 303.192 -271.565 0 313.667 -282.75 0 324.591 -294.564 0 336.041 -307.114 0 348.015 -320.514 0 360.507 -334.874 0 373.513 -350.297 0 387.033 -366.885 0 400.922 -384.704 0 415.039 -403.689 0 429.382 -423.741 0 444.229 -444.849 0 460.023 -467.517 0 476.769 -492.439 0 494.728 -520.226 0 514.54 -550.788 0 536.232 -583.672 0 559.041 -618.516 0 580.097 -656.224 0 599.127 -698.608 0 617.372 -747.442 0 642.291 -803.121 0 675.127 -864.66 0 714.109 -931.072 0 740.728 -1003.87 0 750.062 -1088.05 0 743.277 -1188.82 0 746.001 -1307.09 0 768.72 -1435.42 0 810.618 -1565.42 0 808.015 -1693.65 0 720.907 -1830.39 0 549.294 -1988.28 0 340.53 -2173.11 0 141.965 -2363.23 0 -46.4003 -2530.19 0 -204.552 -2646.41 0 -300.634 -2689.56 0 -334.237 -2639.18 0 -353.252 -2480.34 0 -474.742 -2245.77 0 -704.03 -1992.81 0 -991.161 -1775.64 0 -1148.31 -1603.25 0 -1157.5 -1452.02 0 -1042.05 -1298.44 0 -941.925 -1137.8 0 -880.449 -984.228 0 -852.435 -852.435 0 -803.695 -748.13 0 -719.817 -664.504 0 -602.39 -593.849 0 -486.348 -531.704 0 -385.984 -479.91 0 -301.041 -441.029 0 -211.507 -416.222 0 -104.809 -402.775 0 19.0509 -397.314 0 0.00494399 -86.9032 0 5.65071 -86.9666 0 11.3047 -87.159 0 16.9669 -87.4807 0 22.6373 -87.9318 0 28.3159 -88.5126 0 34.0027 -89.2233 0 39.7027 -90.0644 0 45.4278 -91.0372 0 51.1787 -92.1439 0 56.9553 -93.3867 0 62.7576 -94.7676 0 68.5856 -96.2887 0 74.4419 -97.9521 0 80.3425 -99.7604 0 86.29 -101.716 0 92.2843 -103.822 0 98.3255 -106.082 0 104.414 -108.497 0 110.55 -111.071 0 116.756 -113.808 0 123.042 -116.715 0 129.408 -119.8 0 135.853 -123.069 0 142.379 -126.531 0 148.984 -130.193 0 155.686 -134.062 0 162.503 -138.146 0 169.435 -142.452 0 176.482 -146.99 0 183.643 -151.766 0 190.92 -156.788 0 198.332 -162.066 0 205.928 -167.618 0 213.712 -173.469 0 221.683 -179.642 0 229.841 -186.161 0 238.186 -193.052 0 246.723 -200.336 0 255.485 -208.038 0 264.476 -216.176 0 273.697 -224.772 0 283.148 -233.844 0 292.828 -243.414 0 302.744 -253.502 0 313.024 -264.154 0 323.719 -275.468 0 334.831 -287.547 0 346.358 -300.492 0 358.297 -314.403 0 370.65 -329.379 0 383.357 -345.493 0 396.361 -362.728 0 409.662 -381.043 0 423.33 -400.431 0 437.481 -421.097 0 452.115 -443.32 0 467.561 -467.413 0 484.62 -493.991 0 503.329 -523.822 0 522.957 -557.591 0 540.751 -594.844 0 556.449 -634.306 0 570.986 -674.819 0 589.974 -718.337 0 614.35 -769.929 0 642.701 -834.677 0 660.294 -912.186 0 663.21 -994.463 0 652.321 -1073.02 0 646.839 -1147.78 0 654.621 -1234.94 0 675.037 -1352.59 0 658.903 -1505.22 0 575.322 -1659.82 0 424.292 -1776.94 0 246.23 -1826.46 0 81.5484 -1815.5 0 -69.7515 -1760.5 0 -193.708 -1680.26 0 -268.098 -1607.39 0 -292.635 -1579.52 0 -306.165 -1626.14 0 -403.643 -1705.87 0 -589.385 -1740.84 0 -823.551 -1659.12 0 -956.337 -1473.21 0 -973.401 -1256.51 0 -892.447 -1081.49 0 -819.701 -968.784 0 -772.866 -887.191 0 -748.13 -803.695 0 -705.665 -705.665 0 -634.876 -608.749 0 -536.967 -530.603 0 -438.362 -479.646 0 -349.873 -446.356 0 -271.325 -419.16 0 -189.006 -391.77 0 -94.3056 -372.508 0 12.777 -372.197 0 0.00577572 -76.2074 0 5.53043 -76.2634 0 11.063 -76.4328 0 16.6036 -76.7158 0 22.1522 -77.1127 0 27.7087 -77.6237 0 33.2733 -78.2492 0 38.8502 -78.9895 0 44.4503 -79.846 0 50.0742 -80.8204 0 55.7219 -81.9146 0 61.3932 -83.1304 0 67.0884 -84.4697 0 72.8098 -85.9344 0 78.5728 -87.5265 0 84.3801 -89.2488 0 90.2315 -91.1036 0 96.1272 -93.0937 0 102.067 -95.2215 0 108.052 -97.4897 0 114.102 -99.902 0 120.224 -102.465 0 126.419 -105.184 0 132.687 -108.067 0 139.027 -111.12 0 145.441 -114.349 0 151.944 -117.761 0 158.554 -121.363 0 165.272 -125.163 0 172.098 -129.167 0 179.031 -133.383 0 186.071 -137.818 0 193.234 -142.48 0 200.56 -147.386 0 208.051 -152.557 0 215.706 -158.014 0 223.525 -163.778 0 231.509 -169.871 0 239.662 -176.313 0 248.021 -183.125 0 256.589 -190.325 0 265.368 -197.933 0 274.358 -205.968 0 283.557 -214.448 0 292.97 -223.392 0 302.673 -232.842 0 312.697 -242.878 0 323.042 -253.588 0 333.707 -265.057 0 344.692 -277.372 0 355.998 -290.618 0 367.62 -304.869 0 379.552 -320.148 0 391.795 -336.469 0 404.354 -353.85 0 417.239 -372.348 0 430.449 -392.034 0 444.071 -413.053 0 458.318 -436.187 0 473.2 -462.55 0 488.545 -493.127 0 503.708 -527.181 0 518.629 -562.725 0 533.25 -597.916 0 547.24 -634.771 0 560.542 -679.166 0 572.925 -736.998 0 581.959 -807.414 0 586.999 -880.199 0 587.901 -944.533 0 581.466 -999.95 0 566.388 -1066.09 0 542.575 -1164.9 0 502.959 -1301.87 0 443.099 -1437.11 0 362.995 -1522.96 0 267.114 -1524.24 0 159.92 -1455.75 0 41.4137 -1344.76 0 -82.798 -1220.8 0 -203.791 -1126.45 0 -321.45 -1109.08 0 -433.423 -1205.42 0 -533.963 -1360.02 0 -622.809 -1469.95 0 -697.036 -1439.71 0 -745.656 -1280.24 0 -767.616 -1079.15 0 -764.449 -923.052 0 -745.354 -836.5 0 -711.864 -781.978 0 -664.504 -719.817 0 -608.749 -634.876 0 -546.057 -546.057 0 -476.543 -474.678 0 -402.725 -431.186 0 -325.633 -404.916 0 -245.296 -382.787 0 -163.863 -357.716 0 -82.682 -339.198 0 -1.75463 -339.566 0 0.00606568 -65.4219 0 5.42553 -65.4705 0 10.8527 -65.6162 0 16.2875 -65.8596 0 21.7299 -66.2009 0 27.1801 -66.6405 0 32.6379 -67.1788 0 38.1074 -67.8161 0 43.5985 -68.5536 0 49.1117 -69.3929 0 54.647 -70.3352 0 60.2044 -71.3822 0 65.7839 -72.5352 0 71.3878 -73.7959 0 77.0311 -75.1661 0 82.716 -76.6482 0 88.4427 -78.2448 0 94.211 -79.9581 0 100.021 -81.7907 0 105.874 -83.745 0 111.786 -85.8243 0 117.765 -88.0337 0 123.811 -90.3784 0 129.924 -92.8638 0 136.103 -95.4951 0 142.35 -98.2776 0 148.68 -101.217 0 155.11 -104.319 0 161.64 -107.592 0 168.271 -111.043 0 175.002 -114.678 0 181.834 -118.504 0 188.778 -122.53 0 195.866 -126.768 0 203.099 -131.237 0 210.478 -135.952 0 218.002 -140.931 0 225.671 -146.191 0 233.491 -151.749 0 241.496 -157.623 0 249.692 -163.833 0 258.079 -170.4 0 266.658 -177.343 0 275.427 -184.683 0 284.388 -192.439 0 293.58 -200.645 0 303.017 -209.363 0 312.699 -218.656 0 322.626 -228.588 0 332.798 -239.224 0 343.215 -250.627 0 353.891 -262.861 0 364.841 -275.987 0 376.065 -290.065 0 387.562 -305.157 0 399.333 -321.323 0 411.377 -338.624 0 423.537 -357.159 0 435.425 -377.369 0 447.024 -399.869 0 458.612 -425.233 0 471.233 -453.456 0 484.988 -484.114 0 499.12 -516.821 0 509.085 -552.233 0 514.128 -592.047 0 514.83 -637.973 0 517.277 -690.082 0 523.088 -746.178 0 531.432 -803.916 0 524.051 -863.049 0 493.475 -927.408 0 439.989 -1001.29 0 385.92 -1084.63 0 345.29 -1165.34 0 318.1 -1229.25 0 282.654 -1265.52 0 217.256 -1276.48 0 121.906 -1267.78 0 -3.00138 -1245.64 0 -156.836 -1219.85 0 -339.591 -1201.46 0 -520.072 -1199.09 0 -622.03 -1200.4 0 -641.999 -1182.23 0 -602.845 -1123.22 0 -590.543 -1027.88 0 -613.323 -919.296 0 -661.701 -820.364 0 -678.76 -739.15 0 -655.015 -668.918 0 -593.849 -602.39 0 -530.603 -536.967 0 -474.678 -476.543 0 -425.472 -425.472 0 -369.768 -385.911 0 -302.158 -355.754 0 -222.8 -332.404 0 -143.888 -314.304 0 -73.0849 -302.762 0 -10.3897 -299.578 0 0.00570418 -54.5893 0 5.33627 -54.6303 0 10.6741 -54.7522 0 16.0192 -54.9555 0 21.3716 -55.2406 0 26.7313 -55.608 0 32.0982 -56.058 0 37.4762 -56.5911 0 42.8746 -57.2082 0 48.2937 -57.9105 0 53.7337 -58.6991 0 59.1944 -59.575 0 64.6759 -60.5395 0 70.1805 -61.5936 0 75.7221 -62.7391 0 81.3031 -63.9781 0 86.9235 -65.313 0 92.5832 -66.746 0 98.2823 -68.2793 0 104.021 -69.9151 0 109.816 -71.6564 0 115.673 -73.5071 0 121.593 -75.4711 0 127.574 -77.5527 0 133.617 -79.7557 0 139.723 -82.0844 0 145.906 -84.5432 0 152.183 -87.1383 0 158.554 -89.8763 0 165.018 -92.7639 0 171.575 -95.8077 0 178.226 -99.0142 0 184.98 -102.391 0 191.864 -105.948 0 198.878 -109.699 0 206.022 -113.656 0 213.297 -117.833 0 220.702 -122.242 0 228.243 -126.897 0 235.949 -131.813 0 243.825 -137.012 0 251.873 -142.514 0 260.09 -148.338 0 268.479 -154.507 0 277.039 -161.039 0 285.784 -167.963 0 294.722 -175.32 0 303.851 -183.154 0 313.172 -191.508 0 322.685 -200.426 0 332.39 -209.951 0 342.288 -220.134 0 352.382 -231.059 0 362.671 -242.82 0 373.155 -255.509 0 383.834 -269.217 0 394.709 -284.038 0 405.551 -300.063 0 415.804 -317.377 0 425.443 -336.063 0 434.735 -356.24 0 444.681 -378.541 0 455.378 -403.964 0 466.159 -433.459 0 473.02 -466.571 0 475.295 -501.448 0 473.417 -536.233 0 471.923 -571.767 0 472.02 -612.629 0 473.064 -663.634 0 460.871 -724.77 0 429.64 -786.642 0 379.608 -838.788 0 329.209 -876.677 0 290.023 -912.163 0 262.052 -959.907 0 227.438 -1029.82 0 168.329 -1112.84 0 84.7221 -1195.12 0 -22.5543 -1262.19 0 -152.185 -1295.66 0 -304.153 -1275.72 0 -453.635 -1187.19 0 -539.952 -1054.86 0 -560.345 -924.114 0 -532.934 -837.356 0 -525.851 -794.071 0 -545.619 -762.816 0 -584.809 -712.549 0 -598.843 -637.103 0 -580.294 -555.192 0 -531.704 -486.348 0 -479.646 -438.362 0 -431.186 -402.725 0 -385.911 -369.768 0 -334.746 -334.746 0 -273.977 -302.478 0 -203.719 -278.877 0 -132.903 -266.906 0 -67.142 -261.378 0 -6.4345 -255.712 0 0.00496621 -43.7271 0 5.26287 -43.7601 0 10.5276 -43.858 0 15.7992 -44.021 0 21.0777 -44.2497 0 26.363 -44.5444 0 31.6552 -44.9056 0 36.9578 -45.3336 0 42.2799 -45.8293 0 47.6217 -46.3934 0 52.9834 -47.0267 0 58.3649 -47.7302 0 63.7662 -48.5045 0 69.1894 -49.3507 0 74.6478 -50.27 0 80.1434 -51.2644 0 85.6762 -52.3358 0 91.2463 -53.4863 0 96.8536 -54.7177 0 102.499 -56.0321 0 108.197 -57.4317 0 113.953 -58.9195 0 119.768 -60.4985 0 125.642 -62.1717 0 131.574 -63.9422 0 137.565 -65.813 0 143.629 -67.7877 0 149.78 -69.8715 0 156.018 -72.0704 0 162.344 -74.3902 0 168.756 -76.8367 0 175.256 -79.4159 0 181.852 -82.1338 0 188.566 -84.9988 0 195.4 -88.0203 0 202.352 -91.2077 0 209.424 -94.5706 0 216.615 -98.1182 0 223.929 -101.86 0 231.39 -105.811 0 239.002 -109.99 0 246.764 -114.414 0 254.678 -119.104 0 262.742 -124.079 0 270.957 -129.356 0 279.327 -134.958 0 287.854 -140.912 0 296.537 -147.247 0 305.377 -153.99 0 314.374 -161.168 0 323.527 -168.811 0 332.807 -176.958 0 342.182 -185.699 0 351.653 -195.138 0 361.221 -205.376 0 370.884 -216.517 0 380.643 -228.663 0 390.316 -241.898 0 399.458 -256.146 0 408.05 -271.248 0 416.1 -287.104 0 423.641 -304.428 0 430.677 -324.521 0 437.009 -348.616 0 441.444 -376.088 0 443.783 -404.454 0 443.875 -431.219 0 440.146 -457.206 0 432.176 -487.826 0 419.895 -528.787 0 401.719 -580.081 0 377 -630.606 0 345.729 -667.998 0 307.023 -687.483 0 260.328 -705.264 0 205.646 -741.136 0 143.092 -808.774 0 72.7791 -897.369 0 -5.29114 -989.994 0 -87.4456 -1068.92 0 -167.837 -1111.7 0 -246.389 -1094.21 0 -320.665 -997.912 0 -384.701 -852.96 0 -438.228 -714.595 0 -480.672 -634.354 0 -509.878 -610.718 0 -525.642 -603.928 0 -528.483 -574.703 0 -521.531 -514.145 0 -505.308 -443.737 0 -479.91 -385.984 0 -446.356 -349.873 0 -404.916 -325.633 0 -355.754 -302.158 0 -302.478 -273.977 0 -246.565 -246.565 0 -188.017 -226.651 0 -126.975 -217.72 0 -63.5312 -214.301 0 2.31571 -209.389 0 0.00417097 -32.8352 0 5.20555 -32.8601 0 10.4134 -32.9337 0 15.6277 -33.0563 0 20.8485 -33.2283 0 26.0757 -33.45 0 31.3094 -33.7217 0 36.5531 -34.0438 0 41.8155 -34.4169 0 47.097 -34.8415 0 52.3977 -35.3183 0 57.7174 -35.8477 0 63.0562 -36.4304 0 68.4162 -37.0671 0 73.8096 -37.7588 0 79.2385 -38.507 0 84.7028 -39.3132 0 90.2027 -40.1791 0 95.738 -41.1062 0 101.31 -42.0959 0 106.931 -43.1501 0 112.609 -44.271 0 118.343 -45.4605 0 124.133 -46.721 0 129.978 -48.0546 0 135.88 -49.4634 0 141.851 -50.9501 0 147.904 -52.5189 0 154.039 -54.1746 0 160.255 -55.9217 0 166.553 -57.7651 0 172.933 -59.7094 0 179.404 -61.7594 0 185.984 -63.9212 0 192.676 -66.2015 0 199.479 -68.6068 0 206.394 -71.1439 0 213.419 -73.8195 0 220.558 -76.6402 0 227.828 -79.6174 0 235.232 -82.7662 0 242.769 -86.1024 0 250.439 -89.6413 0 258.243 -93.3986 0 266.18 -97.3899 0 274.251 -101.631 0 282.456 -106.14 0 290.796 -110.935 0 299.27 -116.033 0 307.878 -121.451 0 316.62 -127.208 0 325.428 -133.333 0 334.233 -139.906 0 343.035 -147.018 0 351.835 -154.76 0 360.631 -163.223 0 369.425 -172.499 0 378.106 -182.665 0 386.408 -193.674 0 394.317 -205.415 0 401.618 -217.802 0 407.498 -231.086 0 411.878 -245.759 0 414.889 -262.304 0 417.313 -280.845 0 419.278 -301.148 0 420.268 -322.968 0 414.884 -346.332 0 401.687 -371.634 0 380.969 -399.295 0 359.083 -429.092 0 338.631 -459.563 0 319.441 -489.099 0 288.15 -516.849 0 236.362 -544.047 0 164.079 -572.285 0 83.5055 -602.237 0 6.84894 -630.911 0 -65.891 -654.4 0 -129.66 -668.966 0 -176.414 -671.878 0 -206.05 -660.764 0 -230.514 -633.934 0 -279.013 -595.601 0 -352.875 -553.019 0 -439.595 -513.063 0 -492.157 -477.147 0 -506.06 -442.741 0 -486.76 -407.328 0 -466.988 -370.611 0 -452.202 -334.515 0 -441.029 -301.041 0 -419.16 -271.325 0 -382.787 -245.296 0 -332.404 -222.8 0 -278.877 -203.719 0 -226.651 -188.017 0 -175.666 -175.666 0 -121.284 -166.739 0 -60.593 -161.585 0 6.40768 -160.602 0 0.00363766 -21.9136 0 5.16453 -21.9302 0 10.3316 -21.9793 0 15.5048 -22.0613 0 20.6843 -22.1763 0 25.8699 -22.3246 0 31.0617 -22.5063 0 36.2631 -22.7216 0 41.4828 -22.9711 0 46.721 -23.2549 0 51.9779 -23.5736 0 57.2534 -23.9276 0 62.5475 -24.3172 0 67.8621 -24.743 0 73.2089 -25.2055 0 78.59 -25.7059 0 84.0052 -26.2452 0 89.4547 -26.8244 0 94.9383 -27.4445 0 100.457 -28.1065 0 106.024 -28.8117 0 111.645 -29.5615 0 117.32 -30.3572 0 123.05 -31.2005 0 128.834 -32.0928 0 134.672 -33.0356 0 140.576 -34.0306 0 146.559 -35.0806 0 152.619 -36.1889 0 158.757 -37.3586 0 164.972 -38.5927 0 171.266 -39.8946 0 177.646 -41.2673 0 184.13 -42.7151 0 190.72 -44.2423 0 197.416 -45.8534 0 204.217 -47.5531 0 211.124 -49.3457 0 218.139 -51.2359 0 225.272 -53.2312 0 232.525 -55.3415 0 239.899 -57.5774 0 247.393 -59.9491 0 255.008 -62.4668 0 262.742 -65.1408 0 270.597 -67.9823 0 278.57 -71.0038 0 286.664 -74.2178 0 294.877 -77.637 0 303.209 -81.2742 0 311.661 -85.1419 0 320.133 -89.2605 0 328.525 -93.6808 0 336.838 -98.4611 0 345.071 -103.66 0 353.225 -109.336 0 361.299 -115.547 0 369.215 -122.35 0 376.783 -129.791 0 383.993 -137.909 0 390.615 -146.731 0 395.781 -156.095 0 399.408 -165.71 0 401.519 -175.319 0 402.249 -185.584 0 401.622 -198.082 0 399.332 -214.384 0 392.189 -233.964 0 379.344 -253.383 0 360.909 -269.014 0 339.33 -280.523 0 315.609 -293.965 0 289.658 -316.125 0 254.814 -349.116 0 206.889 -382.152 0 145.883 -402.234 0 78.9447 -399.71 0 13.2245 -378.298 0 -51.2782 -345.06 0 -111.581 -307.892 0 -162.936 -279.565 0 -205.283 -274.615 0 -243.744 -304.393 0 -290.84 -352.521 0 -347.138 -388.345 0 -406.357 -383.431 0 -444.872 -341.163 0 -460.421 -287.844 0 -455.529 -249.446 0 -445.35 -232.559 0 -432.407 -224.394 0 -416.222 -211.507 0 -391.77 -189.006 0 -357.716 -163.863 0 -314.304 -143.888 0 -266.906 -132.903 0 -217.72 -126.975 0 -166.739 -121.284 0 -113.401 -113.401 0 -57.3534 -107.502 0 1.40297 -108.896 0 0.00368547 -10.9624 0 5.14001 -10.9703 0 10.2824 -10.9948 0 15.4309 -11.036 0 20.5854 -11.0938 0 25.746 -11.1682 0 30.9126 -11.2593 0 36.0888 -11.3671 0 41.2828 -11.4917 0 46.4951 -11.6335 0 51.7256 -11.7928 0 56.9744 -11.9698 0 62.2415 -12.1648 0 67.5287 -12.3782 0 72.8474 -12.6102 0 78.1997 -12.8613 0 83.5854 -13.1318 0 89.0045 -13.4221 0 94.4572 -13.7327 0 99.9439 -14.064 0 105.478 -14.4164 0 111.065 -14.791 0 116.706 -15.1887 0 122.399 -15.6103 0 128.145 -16.057 0 133.945 -16.5295 0 139.808 -17.029 0 145.748 -17.5566 0 151.763 -18.1134 0 157.854 -18.7007 0 164.021 -19.3197 0 170.263 -19.9715 0 176.588 -20.6576 0 183.015 -21.3803 0 189.543 -22.1426 0 196.174 -22.9475 0 202.907 -23.7979 0 209.741 -24.697 0 216.679 -25.6475 0 223.729 -26.6527 0 230.892 -27.7157 0 238.169 -28.8396 0 245.56 -30.0276 0 253.063 -31.283 0 260.68 -32.6087 0 268.406 -34.0112 0 276.239 -35.5025 0 284.179 -37.0955 0 292.227 -38.803 0 300.381 -40.6378 0 308.643 -42.6127 0 316.902 -44.7391 0 325.049 -47.0225 0 333.083 -49.4668 0 341.004 -52.076 0 348.813 -54.8541 0 356.51 -57.8051 0 363.995 -60.9449 0 371.026 -64.3926 0 377.591 -68.3208 0 383.557 -72.881 0 388.418 -77.9357 0 392.125 -83.1386 0 394.468 -88.1651 0 394.191 -93.2868 0 391.085 -99.3719 0 385.173 -107.291 0 376.706 -116.849 0 365.753 -126.371 0 352.133 -134.087 0 331.915 -139.849 0 303.49 -146.663 0 266.911 -157.894 0 226.356 -174.449 0 184.45 -190.454 0 141.192 -198.871 0 94.3992 -194.597 0 41.8891 -180.261 0 -16.3384 -160.427 0 -79.5694 -139.947 0 -146.667 -125.344 0 -217.617 -123.747 0 -286.121 -140.669 0 -336.786 -167.533 0 -368.91 -188.509 0 -386.23 -188.887 0 -402.795 -169.977 0 -419.95 -144.635 0 -435.806 -125.576 0 -439.039 -116.361 0 -427.76 -111.407 0 -402.775 -104.809 0 -372.508 -94.3056 0 -339.198 -82.682 0 -302.762 -73.0849 0 -261.378 -67.142 0 -214.301 -63.5312 0 -161.585 -60.593 0 -107.502 -57.3534 0 -54.7342 -54.7342 0 -3.28229 -53.9815 0 0.0046336 0.0183896 0 5.13223 0.0194443 0 10.266 0.0197768 0 15.406 0.0196539 0 20.5521 0.019342 0 25.7045 0.0191079 0 30.863 0.0192182 0 36.0311 0.0199054 0 41.2168 0.0211055 0 46.4205 0.0226016 0 51.6422 0.0241756 0 56.8819 0.0256093 0 62.1397 0.0266847 0 67.4173 0.0271955 0 72.7265 0.0272066 0 78.0691 0.0270544 0 83.4451 0.027087 0 88.8546 0.0276525 0 94.2975 0.029099 0 99.7744 0.0317722 0 105.298 0.0357205 0 110.874 0.040415 0 116.503 0.0452606 0 122.184 0.0496621 0 127.917 0.0530242 0 133.702 0.0547519 0 139.551 0.0545381 0 145.476 0.0532294 0 151.476 0.0519605 0 157.552 0.051866 0 163.704 0.0540808 0 169.932 0.0597394 0 176.241 0.0697486 0 182.65 0.0830293 0 189.158 0.0974799 0 195.766 0.110991 0 202.473 0.121451 0 209.279 0.126752 0 216.187 0.124949 0 223.208 0.117913 0 230.343 0.111329 0 237.593 0.111048 0 244.957 0.122921 0 252.436 0.152799 0 260.029 0.20647 0 267.721 0.282151 0 275.504 0.36335 0 283.38 0.431885 0 291.348 0.469574 0 299.408 0.458237 0 307.56 0.379691 0 315.718 0.230785 0 323.795 0.0684809 0 331.793 -0.0352274 0 339.71 -0.00834747 0 347.546 0.221113 0 355.303 0.725148 0 362.805 1.55032 0 369.629 2.5219 0 375.756 3.3512 0 381.109 3.74681 0 385.405 3.39287 0 388.617 1.95594 0 390.596 -0.840411 0 390.442 -3.95277 0 388.006 -5.01785 0 383.159 -1.68926 0 374.553 5.01372 0 361.831 9.40178 0 344.967 5.48826 0 323.396 -7.0702 0 296.887 -17.6567 0 265.432 -14.4055 0 228.473 7.15176 0 185.659 31.0449 0 136.989 37.8041 0 83.6807 13.1046 0 26.9514 -36.7974 0 -33.199 -100.501 0 -94.369 -165.131 0 -152.736 -209.213 0 -208.25 -208.161 0 -260.328 -142.762 0 -307.539 -40.6359 0 -349.819 46.4876 0 -385.958 70.5702 0 -411.413 36.4107 0 -425.748 -13.1133 0 -429.483 -35.7146 0 -425.735 -22.0168 0 -415.025 4.44544 0 -397.314 19.0509 0 -372.197 12.777 0 -339.566 -1.75463 0 -299.578 -10.3897 0 -255.712 -6.4345 0 -209.389 2.31571 0 -160.602 6.40768 0 -108.896 1.40297 0 -53.9815 -3.28229 0 4.14053 4.14053 0 </DataArray> 
</PointData> 
<Points> 
<DataArray type="Float32" NumberOfComponents="3"> 
0 0 0 0.1 0 0 0.2 0 0 0.3 0 0 0.4 0 0 0.5 0 0 0.6 0 0 0.7 0 0 0.8 0 0 0.9 0 0 1 0 0 1.1 0 0 1.2 0 0 1.3 0 0 1.4 0 0 1.5 0 0 1.6 0 0 1.7 0 0 1.8 0 0 1.9 0 0 2 0 0 2.1 0 0 2.2 0 0 2.3 0 0 2.4 0 0 2.5 0 0 2.6 0 0 2.7 0 0 2.8 0 0 2.9 0 0 3 0 0 3.1 0 0 3.2 0 0 3.3 0 0 3.4 0 0 3.5 0 0 3.6 0 0 3.7 0 0 3.8 0 0 3.9 0 0 4 0 0 4.1 0 0 4.2 0 0 4.3 0 0 4.4 0 0 4.5 0 0 4.6 0 0 4.7 0 0 4.8 0 0 4.9 0 0 5 0 0 5.1 0 0 5.2 0 0 5.3 0 0 5.4 0 0 5.5 0 0 5.6 0 0 5.7 0 0 5.8 0 0 5.9 0 0 6 0 0 6.1 0 0 6.2 0 0 6.3 0 0 6.4 0 0 6.5 0 0 6.6 0 0 6.7 0 0 6.8 0 0 6.9 0 0 7 0 0 7.1 0 0 7.2 0 0 7.3 0 0 7.4 0 0 7.5 0 0 7.6 0 0 7.7 0 0 7.8 0 0 7.9 0 0 8 0 0 8.1 0 0 8.2 0 0 8.3 0 0 8.4 0 0 8.5 0 0 8.6 0 0 8.7 0 0 8.8 0 0 8.9 0 0 9 0 0 9.1 0 0 9.2 0 0 9.3 0 0 9.4 0 0 9.5 0 0 9.6 0 0 9.7 0 0 9.8 0 0 9.9 0 0 10 0 0 0 0.1 0 0.1 0.1 0 0.2 0.1 0 0.3 0.1 0 0.4 0.1 0 0.5 0.1 0 0.6 0.1 0 0.7 0.1 0 0.8 0.1 0 0.9 0.1 0 1 0.1 0 1.1 0.1 0 1.2 0.1 0 1.3 0.1 0 1.4 0.1 0 1.5 0.1 0 1.6 0.1 0 1.7 0.1 0 1.8 0.1 0 1.9 0.1 0 2 0.1 0 2.1 0.1 0 2.2 0.1 0 2.3 0.1 0 2.4 0.1 0 2.5 0.1 0 2.6 0.1 0 2.7 0.1 0 2.8 0.1 0 2.9 0.1 0 3 0.1 0 3.1 0.1 0 3.2 0.1 0 3.3 0.1 0 3.4 0.1 0 3.5 0.1 0 3.6 0.1 0 3.7 0.1 0 3.8 0.1 0 3.9 0.1 0 4 0.1 0 4.1 0.1 0 4.2 0.1 0 4.3 0.1 0 4.4 0.1 0 4.5 0.1 0 4.6 0.1 0 4.7 0.1 0 4.8 0.1 0 4.9 0.1 0 5 0.1 0 5.1 0.1 0 5.2 0.1 0 5.3 0.1 0 5.4 0.1 0 5.5 0.1 0 5.6 0.1 0 5.7 0.1 0 5.8 0.1 0 5.9 0.1 0 6 0.1 0 6.1 0.1 0 6.2 0.1 0 6.3 0.1 0 6.4 0.1 0 6.5 0.1 0 6.6 0.1 0 6.7 0.1 0 6.8 0.1 0 6.9 0.1 0 7 0.1 0 7.1 0.1 0 7.2 0.1 0 7.3 0.1 0 7.4 0.1 0 7.5 0.1 0 7.6 0.1 0 7.7 0.1 0 7.8 0.1 0 7.9 0.1 0 8 0.1 0 8.1 0.1 0 8.2 0.1 0 8.3 0.1 0 8.4 0.1 0 8.5 0.1 0 8.6 0.1 0 8.7 0.1 0 8.8 0.1 0 8.9 0.1 0 9 0.1 0 9.1 0.1 0 9.2 0.1 0 9.3 0.1 0 9.4 0.1 0 9.5 0.1 0 9.6 0.1 0 9.7 0.1 0 9.8 0.1 0 9.9 0.1 0 10 0.1 0 0 0.2 0 0.1 0.2 0 0.2 0.2 0 0.3 0.2 0 0.4 0.2 0 0.5 0.2 0 0.6 0.2 0 0.7 0.2 0 0.8 0.2 0 0.9 0.2 0 1 0.2 0 1.1 0.2 0 1.2 0.2 0 1.3 0.2 0 1.4 0.2 0 1.5 0.2 0 1.6 0.2 0 1.7 0.2 0 1.8 0.2 0 1.9 0.2 0 2 0.2 0 2.1 0.2 0 2.2 0.2 0 2.3 0.2 0 2.4 0.2 0 2.5 0.2 0 2.6 0.2 0 2.7 0.2 0 2.8 0.2 0 2.9 0.2 0 3 0.2 0 3.1 0.2 0 3.2 0.2 0 3.3 0.2 0 3.4 0.2 0 3.5 0.2 0 3.6 0.2 0 3.7 0.2 0 3.8 0.2 0 3.9 0.2 0 4 0.2 0 4.1 0.2 0 4.2 0.2 0 4.3 0.2 0 4.4 0.2 0 4.5 0.2 0 4.6 0.2 0 4.7 0.2 0 4.8 0.2 0 4.9 0.2 0 5 0.2 0 5.1 0.2 0 5.2 0.2 0 5.3 0.2 0 5.4 0.2 0 5.5 0.2 0 5.6 0.2 0 5.7 0.2 0 5.8 0.2 0 5.9 0.2 0 6 0.2 0 6.1 0.2 0 6.2 0.2 0 6.3 0.2 0 6.4 0.2 0 6.5 0.2 0 6.6 0.2 0 6.7 0.2 0 6.8 0.2 0 6.9 0.2 0 7 0.2 0 7.1 0.2 0 7.2 0.2 0 7.3 0.2 0 7.4 0.2 0 7.5 0.2 0 7.6 0.2 0 7.7 0.2 0 7.8 0.2 0 7.9 0.2 0 8 0.2 0 8.1 0.2 0 8.2 0.2 0 8.3 0.2 0 8.4 0.2 0 8.5 0.2 0 8.6 0.2 0 8.7 0.2 0 8.8 0.2 0 8.9 0.2 0 9 0.2 0 9.1 0.2 0 9.2 0.2 0 9.3 0.2 0 9.4 0.2 0 9.5 0.2 0 9.6 0.2 0 9.7 0.2 0 9.8 0.2 0 9.9 0.2 0 10 0.2 0 0 0.3 0 0.1 0.3 0 0.2 0.3 0 0.3 0.3 0 0.4 0.3 0 0.5 0.3 0 0.6 0.3 0 0.7 0.3 0 0.8 0.3 0 0.9 0.3 0 1 0.3 0 1.1 0.3 0 1.2 0.3 0 1.3 0.3 0 1.4 0.3 0 1.5 0.3 0 1.6 0.3 0 1.7 0.3 0 1.8 0.3 0 1.9 0.3 0 2 0.3 0 2.1 0.3 0 2.2 0.3 0 2.3 0.3 0 2.4 0.3 0 2.5 0.3 0 2.6 0.3 0 2.7 0.3 0 2.8 0.3 0 2.9 0.3 0 3 0.3 0 3.1 0.3 0 3.2 0.3 0 3.3 0.3 0 3.4 0.3 0 3.5 0.3 0 3.6 0.3 0 3.7 0.3 0 3.8 0.3 0 3.9 0.3 0 4 0.3 0 4.1 0.3 0 4.2 0.3 0 4.3 0.3 0 4.4 0.3 0 4.5 0.3 0 4.6 0.3 0 4.7 0.3 0 4.8 0.3 0 4.9 0.3 0 5 0.3 0 5.1 0.3 0 5.2 0.3 0 5.3 0.3 0 5.4 0.3 0 5.5 0.3 0 5.6 0.3 0 5.7 0.3 0 5.8 0.3 0 5.9 0.3 0 6 0.3 0 6.1 0.3 0 6.2 0.3 0 6.3 0.3 0 6.4 0.3 0 6.5 0.3 0 6.6 0.3 0 6.7 0.3 0 6.8 0.3 0 6.9 0.3 0 7 0.3 0 7.1 0.3 0 7.2 0.3 0 7.3 0.3 0 7.4 0.3 0 7.5 0.3 0 7.6 0.3 0 7.7 0.3 0 7.8 0.3 0 7.9 0.3 0 8 0.3 0 8.1 0.3 0 8.2 0.3 0 8.3 0.3 0 8.4 0.3 0 8.5 0.3 0 8.6 0.3 0 8.7 0.3 0 8.8 0.3 0 8.9 0.3 0 9 0.3 0 9.1 0.3 0 9.2 0.3 0 9.3 0.3 0 9.4 0.3 0 9.5 0.3 0 9.6 0.3 0 9.7 0.3 0 9.8 0.3 0 9.9 0.3 0 10 0.3 0 0 0.4 0 0.1 0.4 0 0.2 0.4 0 0.3 0.4 0 0.4 0.4 0 0.5 0.4 0 0.6 0.4 0 0.7 0.4 0 0.8 0.4 0 0.9 0.4 0 1 0.4 0 1.1 0.4 0 1.2 0.4 0 1.3 0.4 0 1.4 0.4 0 1.5 0.4 0 1.6 0.4 0 1.7 0.4 0 1.8 0.4 0 1.9 0.4 0 2 0.4 0 2.1 0.4 0 2.2 0.4 0 2.3 0.4 0 2.4 0.4 0 2.5 0.4 0 2.6 0.4 0 2.7 0.4 0 2.8 0.4 0 2.9 0.4 0 3 0.4 0 3.1 0.4 0 3.2 0.4 0 3.3 0.4 0 3.4 0.4 0 3.5 0.4 0 3.6 0.4 0 3.7 0.4 0 3.8 0.4 0 3.9 0.4 0 4 0.4 0 4.1 0.4 0 4.2 0.4 0 4.3 0.4 0 4.4 0.4 0 4.5 0.4 0 4.6 0.4 0 4.7 0.4 0 4.8 0.4 0 4.9 0.4 0 5 0.4 0 5.1 0.4 0 5.2 0.4 0 5.3 0.4 0 5.4 0.4 0 5.5 0.4 0 5.6 0.4 0 5.7 0.4 0 5.8 0.4 0 5.9 0.4 0 6 0.4 0 6.1 0.4 0 6.2 0.4 0 6.3 0.4 0 6.4 0.4 0 6.5 0.4 0 6.6 0.4 0 6.7 0.4 0 6.8 0.4 0 6.9 0.4 0 7 0.4 0 7.1 0.4 0 7.2 0.4 0 7.3 0.4 0 7.4 0.4 0 7.5 0.4 0 7.6 0.4 0 7.7 0.4 0 7.8 0.4 0 7.9 0.4 0 8 0.4 0 8.1 0.4 0 8.2 0.4 0 8.3 0.4 0 8.4 0.4 0 8.5 0.4 0 8.6 0.4 0 8.7 0.4 0 8.8 0.4 0 8.9 0.4 0 9 0.4 0 9.1 0.4 0 9.2 0.4 0 9.3 0.4 0 9.4 0.4 0 9.5 0.4 0 9.6 0.4 0 9.7 0.4 0 9.8 0.4 0 9.9 0.4 0 10 0.4 0 0 0.5 0 0.1 0.5 0 0.2 0.5 0 0.3 0.5 0 0.4 0.5 0 0.5 0.5 0 0.6 0.5 0 0.7 0.5 0 0.8 0.5 0 0.9 0.5 0 1 0.5 0 1.1 0.5 0 1.2 0.5 0 1.3 0.5 0 1.4 0.5 0 1.5 0.5 0 1.6 0.5 0 1.7 0.5 0 1.8 0.5 0 1.9 0.5 0 2 0.5 0 2.1 0.5 0 2.2 0.5 0 2.3 0.5 0 2.4 0.5 0 2.5 0.5 0 2.6 0.5 0 2.7 0.5 0 2.8 0.5 0 2.9 0.5 0 3 0.5 0 3.1 0.5 0 3.2 0.5 0 3.3 0.5 0 3.4 0.5 0 3.5 0.5 0 3.6 0.5 0 3.7 0.5 0 3.8 0.5 0 3.9 0.5 0 4 0.5 0 4.1 0.5 0 4.2 0.5 0 4.3 0.5 0 4.4 0.5 0 4.5 0.5 0 4.6 0.5 0 4.7 0.5 0 4.8 0.5 0 4.9 0.5 0 5 0.5 0 5.1 0.5 0 5.2 0.5 0 5.3 0.5 0 5.4 0.5 0 5.5 0.5 0 5.6 0.5 0 5.7 0.5 0 5.8 0.5 0 5.9 0.5 0 6 0.5 0 6.1 0.5 0 6.2 0.5 0 6.3 0.5 0 6.4 0.5 0 6.5 0.5 0 6.6 0.5 0 6.7 0.5 0 6.8 0.5 0 6.9 0.5 0 7 0.5 0 7.1 0.5 0 7.2 0.5 0 7.3 0.5 0 7.4 0.5 0 7.5 0.5 0 7.6 0.5 0 7.7 0.5 0 7.8 0.5 0 7.9 0.5 0 8 0.5 0 8.1 0.5 0 8.2 0.5 0 8.3 0.5 0 8.4 0.5 0 8.5 0.5 0 8.6 0.5 0 8.7 0.5 0 8.8 0.5 0 8.9 0.5 0 9 0.5 0 9.1 0.5 0 9.2 0.5 0 9.3 0.5 0 9.4 0.5 0 9.5 0.5 0 9.6 0.5 0 9.7 0.5 0 9.8 0.5 0 9.9 0.5 0 10 0.5 0 0 0.6 0 0.1 0.6 0 0.2 0.6 0 0.3 0.6 0 0.4 0.6 0 0.5 0.6 0 0.6 0.6 0 0.7 0.6 0 0.8 0.6 0 0.9 0.6 0 1 0.6 0 1.1 0.6 0 1.2 0.6 0 1.3 0.6 0 1.4 0.6 0 1.5 0.6 0 1.6 0.6 0 1.7 0.6 0 1.8 0.6 0 1.9 0.6 0 2 0.6 0 2.1 0.6 0 2.2 0.6 0 2.3 0.6 0 2.4 0.6 0 2.5 0.6 0 2.6 0.6 0 2.7 0.6 0 2.8 0.6 0 2.9 0.6 0 3 0.6 0 3.1 0.6 0 3.2 0.6 0 3.3 0.6 0 3.4 0.6 0 3.5 0.6 0 3.6 0.6 0 3.7 0.6 0 3.8 0.6 0 3.9 0.6 0 4 0.6 0 4.1 0.6 0 4.2 0.6 0 4.3 0.6 0 4.4 0.6 0 4.5 0.6 0 4.6 0.6 0 4.7 0.6 0 4.8 0.6 0 4.9 0.6 0 5 0.6 0 5.1 0.6 0 5.2 0.6 0 5.3 0.6 0 5.4 0.6 0 5.5 0.6 0 5.6 0.6 0 5.7 0.6 0 5.8 0.6 0 5.9 0.6 0 6 0.6 0 6.1 0.6 0 6.2 0.6 0 6.3 0.6 0 6.4 0.6 0 6.5 0.6 0 6.6 0.6 0 6.7 0.6 0 6.8 0.6 0 6.9 0.6 0 7 0.6 0 7.1 0.6 0 7.2 0.6 0 7.3 0.6 0 7.4 0.6 0 7.5 0.6 0 7.6 0.6 0 7.7 0.6 0 7.8 0.6 0 7.9 0.6 0 8 0.6 0 8.1 0.6 0 8.2 0.6 0 8.3 0.6 0 8.4 0.6 0 8.5 0.6 0 8.6 0.6 0 8.7 0.6 0 8.8 0.6 0 8.9 0.6 0 9 0.6 0 9.1 0.6 0 9.2 0.6 0 9.3 0.6 0 9.4 0.6 0 9.5 0.6 0 9.6 0.6 0 9.7 0.6 0 9.8 0.6 0 9.9 0.6 0 10 0.6 0 0 0.7 0 0.1 0.7 0 0.2 0.7 0 0.3 0.7 0 0.4 0.7 0 0.5 0.7 0 0.6 0.7 0 0.7 0.7 0 0.8 0.7 0 0.9 0.7 0 1 0.7 0 1.1 0.7 0 1.2 0.7 0 1.3 0.7 0 1.4 0.7 0 1.5 0.7 0 1.6 0.7 0 1.7 0.7 0 1.8 0.7 0 1.9 0.7 0 2 0.7 0 2.1 0.7 0 2.2 0.7 0 2.3 0.7 0 2.4 0.7 0 2.5 0.7 0 2.6 0.7 0 2.7 0.7 0 2.8 0.7 0 2.9 0.7 0 3 0.7 0 3.1 0.7 0 3.2 0.7 0 3.3 0.7 0 3.4 0.7 0 3.5 0.7 0 3.6 0.7 0 3.7 0.7 0 3.8 0.7 0 3.9 0.7 0 4 0.7 0 4.1 0.7 0 4.2 0.7 0 4.3 0.7 0 4.4 0.7 0 4.5 0.7 0 4.6 0.7 0 4.7 0.7 0 4.8 0.7 0 4.9 0.7 0 5 0.7 0 5.1 0.7 0 5.2 0.7 0 5.3 0.7 0 5.4 0.7 0 5.5 0.7 0 5.6 0.7 0 5.7 0.7 0 5.8 0.7 0 5.9 0.7 0 6 0.7 0 6.1 0.7 0 6.2 0.7 0 6.3 0.7 0 6.4 0.7 0 6.5 0.7 0 6.6 0.7 0 6.7 0.7 0 6.8 0.7 0 6.9 0.7 0 7 0.7 0 7.1 0.7 0 7.2 0.7 0 7.3 0.7 0 7.4 0.7 0 7.5 0.7 0 7.6 0.7 0 7.7 0.7 0 7.8 0.7 0 7.9 0.7 0 8 0.7 0 8.1 0.7 0 8.2 0.7 0 8.3 0.7 0 8.4 0.7 0 8.5 0.7 0 8.6 0.7 0 8.7 0.7 0 8.8 0.7 0 8.9 0.7 0 9 0.7 0 9.1 0.7 0 9.2 0.7 0 9.3 0.7 0 9.4 0.7 0 9.5 0.7 0 9.6 0.7 0 9.7 0.7 0 9.8 0.7 0 9.9 0.7 0 10 0.7 0 0 0.8 0 0.1 0.8 0 0.2 0.8 0 0.3 0.8 0 0.4 0.8 0 0.5 0.8 0 0.6 0.8 0 0.7 0.8 0 0.8 0.8 0 0.9 0.8 0 1 0.8 0 1.1 0.8 0 1.2 0.8 0 1.3 0.8 0 1.4 0.8 0 1.5 0.8 0 1.6 0.8 0 1.7 0.8 0 1.8 0.8 0 1.9 0.8 0 2 0.8 0 2.1 0.8 0 2.2 0.8 0 2.3 0.8 0 2.4 0.8 0 2.5 0.8 0 2.6 0.8 0 2.7 0.8 0 2.8 0.8 0 2.9 0.8 0 3 0.8 0 3.1 0.8 0 3.2 0.8 0 3.3 0.8 0 3.4 0.8 0 3.5 0.8 0 3.6 0.8 0 3.7 0.8 0 3.8 0.8 0 3.9 0.8 0 4 0.8 0 4.1 0.8 0 4.2 0.8 0 4.3 0.8 0 4.4 0.8 0 4.5 0.8 0 4.6 0.8 0 4.7 0.8 0 4.8 0.8 0 4.9 0.8 0 5 0.8 0 5.1 0.8 0 5.2 0.8 0 5.3 0.8 0 5.4 0.8 0 5.5 0.8 0 5.6 0.8 0 5.7 0.8 0 5.8 0.8 0 5.9 0.8 0 6 0.8 0 6.1 0.8 0 6.2 0.8 0 6.3 0.8 0 6.4 0.8 0 6.5 0.8 0 6.6 0.8 0 6.7 0.8 0 6.8 0.8 0 6.9 0.8 0 7 0.8 0 7.1 0.8 0 7.2 0.8 0 7.3 0.8 0 7.4 0.8 0 7.5 0.8 0 7.6 0.8 0 7.7 0.8 0 7.8 0.8 0 7.9 0.8 0 8 0.8 0 8.1 0.8 0 8.2 0.8 0 8.3 0.8 0 8.4 0.8 0 8.5 0.8 0 8.6 0.8 0 8.7 0.8 0 8.8 0.8 0 8.9 0.8 0 9 0.8 0 9.1 0.8 0 9.2 0.8 0 9.3 0.8 0 9.4 0.8 0 9.5 0.8 0 9.6 0.8 0 9.7 0.8 0 9.8 0.8 0 9.9 0.8 0 10 0.8 0 0 0.9 0 0.1 0.9 0 0.2 0.9 0 0.3 0.9 0 0.4 0.9 0 0.5 0.9 0 0.6 0.9 0 0.7 0.9 0 0.8 0.9 0 0.9 0.9 0 1 0.9 0 1.1 0.9 0 1.2 0.9 0 1.3 0.9 0 1.4 0.9 0 1.5 0.9 0 1.6 0.9 0 1.7 0.9 0 1.8 0.9 0 1.9 0.9 0 2 0.9 0 2.1 0.9 0 2.2 0.9 0 2.3 0.9 0 2.4 0.9 0 2.5 0.9 0 2.6 0.9 0 2.7 0.9 0 2.8 0.9 0 2.9 0.9 0 3 0.9 0 3.1 0.9 0 3.2 0.9 0 3.3 0.9 0 3.4 0.9 0 3.5 0.9 0 3.6 0.9 0 3.7 0.9 0 3.8 0.9 0 3.9 0.9 0 4 0.9 0 4.1 0.9 0 4.2 0.9 0 4.3 0.9 0 4.4 0.9 0 4.5 0.9 0 4.6 0.9 0 4.7 0.9 0 4.8 0.9 0 4.9 0.9 0 5 0.9 0 5.1 0.9 0 5.2 0.9 0 5.3 0.9 0 5.4 0.9 0 5.5 0.9 0 5.6 0.9 0 5.7 0.9 0 5.8 0.9 0 5.9 0.9 0 6 0.9 0 6.1 0.9 0 6.2 0.9 0 6.3 0.9 0 6.4 0.9 0 6.5 0.9 0 6.6 0.9 0 6.7 0.9 0 6.8 0.9 0 6.9 0.9 0 7 0.9 0 7.1 0.9 0 7.2 0.9 0 7.3 0.9 0 7.4 0.9 0 7.5 0.9 0 7.6 0.9 0 7.7 0.9 0 7.8 0.9 0 7.9 0.9 0 8 0.9 0 8.1 0.9 0 8.2 0.9 0 8.3 0.9 0 8.4 0.9 0 8.5 0.9 0 8.6 0.9 0 8.7 0.9 0 8.8 0.9 0 8.9 0.9 0 9 0.9 0 9.1 0.9 0 9.2 0.9 0 9.3 0.9 0 9.4 0.9 0 9.5 0.9 0 9.6 0.9 0 9.7 0.9 0 9.8 0.9 0 9.9 0.9 0 10 0.9 0 0 1 0 0.1 1 0 0.2 1 0 0.3 1 0 0.4 1 0 0.5 1 0 0.6 1 0 0.7 1 0 0.8 1 0 0.9 1 0 1 1 0 1.1 1 0 1.2 1 0 1.3 1 0 1.4 1 0 1.5 1 0 1.6 1 0 1.7 1 0 1.8 1 0 1.9 1 0 2 1 0 2.1 1 0 2.2 1 0 2.3 1 0 2.4 1 0 2.5 1 0 2.6 1 0 2.7 1 0 2.8 1 0 2.9 1 0 3 1 0 3.1 1 0 3.2 1 0 3.3 1 0 3.4 1 0 3.5 1 0 3.6 1 0 3.7 1 0 3.8 1 0 3.9 1 0 4 1 0 4.1 1 0 4.2 1 0 4.3 1 0 4.4 1 0 4.5 1 0 4.6 1 0 4.7 1 0 4.8 1 0 4.9 1 0 5 1 0 5.1 1 0 5.2 1 0 5.3 1 0 5.4 1 0 5.5 1 0 5.6 1 0 5.7 1 0 5.8 1 0 5.9 1 0 6 1 0 6.1 1 0 6.2 1 0 6.3 1 0 6.4 1 0 6.5 1 0 6.6 1 0 6.7 1 0 6.8 1 0 6.9 1 0 7 1 0 7.1 1 0 7.2 1 0 7.3 1 0 7.4 1 0 7.5 1 0 7.6 1 0 7.7 1 0 7.8 1 0 7.9 1 0 8 1 0 8.1 1 0 8.2 1 0 8.3 1 0 8.4 1 0 8.5 1 0 8.6 1 0 8.7 1 0 8.8 1 0 8.9 1 0 9 1 0 9.1 1 0 9.2 1 0 9.3 1 0 9.4 1 0 9.5 1 0 9.6 1 0 9.7 1 0 9.8 1 0 9.9 1 0 10 1 0 0 1.1 0 0.1 1.1 0 0.2 1.1 0 0.3 1.1 0 0.4 1.1 0 0.5 1.1 0 0.6 1.1 0 0.7 1.1 0 0.8 1.1 0 0.9 1.1 0 1 1.1 0 1.1 1.1 0 1.2 1.1 0 1.3 1.1 0 1.4 1.1 0 1.5 1.1 0 1.6 1.1 0 1.7 1.1 0 1.8 1.1 0 1.9 1.1 0 2 1.1 0 2.1 1.1 0 2.2 1.1 0 2.3 1.1 0 2.4 1.1 0 2.5 1.1 0 2.6 1.1 0 2.7 1.1 0 2.8 1.1 0 2.9 1.1 0 3 1.1 0 3.1 1.1 0 3.2 1.1 0 3.3 1.1 0 3.4 1.1 0 3.5 1.1 0 3.6 1.1 0 3.7 1.1 0 3.8 1.1 0 3.9 1.1 0 4 1.1 0 4.1 1.1 0 4.2 1.1 0 4.3 1.1 0 4.4 1.1 0 4.5 1.1 0 4.6 1.1 0 4.7 1.1 0 4.8 1.1 0 4.9 1.1 0 5 1.1 0 5.1 1.1 0 5.2 1.1 0 5.3 1.1 0 5.4 1.1 0 5.5 1.1 0 5.6 1.1 0 5.7 1.1 0 5.8 1.1 0 5.9 1.1 0 6 1.1 0 6.1 1.1 0 6.2 1.1 0 6.3 1.1 0 6.4 1.1 0 6.5 1.1 0 6.6 1.1 0 6.7 1.1 0 6.8 1.1 0 6.9 1.1 0 7 1.1 0 7.1 1.1 0 7.2 1.1 0 7.3 1.1 0 7.4 1.1 0 7.5 1.1 0 7.6 1.1 0 7.7 1.1 0 7.8 1.1 0 7.9 1.1 0 8 1.1 0 8.1 1.1 0 8.2 1.1 0 8.3 1.1 0 8.4 1.1 0 8.5 1.1 0 8.6 1.1 0 8.7 1.1 0 8.8 1.1 0 8.9 1.1 0 9 1.1 0 9.1 1.1 0 9.2 1.1 0 9.3 1.1 0 9.4 1.1 0 9.5 1.1 0 9.6 1.1 0 9.7 1.1 0 9.8 1.1 0 9.9 1.1 0 10 1.1 0 0 1.2 0 0.1 1.2 0 0.2 1.2 0 0.3 1.2 0 0.4 1.2 0 0.5 1.2 0 0.6 1.2 0 0.7 1.2 0 0.8 1.2 0 0.9 1.2 0 1 1.2 0 1.1 1.2 0 1.2 1.2 0 1.3 1.2 0 1.4 1.2 0 1.5 1.2 0 1.6 1.2 0 1.7 1.2 0 1.8 1.2 0 1.9 1.2 0 2 1.2 0 2.1 1.2 0 2.2 1.2 0 2.3 1.2 0 2.4 1.2 0 2.5 1.2 0 2.6 1.2 0 2.7 1.2 0 2.8 1.2 0 2.9 1.2 0 3 1.2 0 3.1 1.2 0 3.2 1.2 0 3.3 1.2 0 3.4 1.2 0 3.5 1.2 0 3.6 1.2 0 3.7 1.2 0 3.8 1.2 0 3.9 1.2 0 4 1.2 0 4.1 1.2 0 4.2 1.2 0 4.3 1.2 0 4.4 1.2 0 4.5 1.2 0 4.6 1.2 0 4.7 1.2 0 4.8 1.2 0 4.9 1.2 0 5 1.2 0 5.1 1.2 0 5.2 1.2 0 5.3 1.2 0 5.4 1.2 0 5.5 1.2 0 5.6 1.2 0 5.7 1.2 0 5.8 1.2 0 5.9 1.2 0 6 1.2 0 6.1 1.2 0 6.2 1.2 0 6.3 1.2 0 6.4 1.2 0 6.5 1.2 0 6.6 1.2 0 6.7 1.2 0 6.8 1.2 0 6.9 1.2 0 7 1.2 0 7.1 1.2 0 7.2 1.2 0 7.3 1.2 0 7.4 1.2 0 7.5 1.2 0 7.6 1.2 0 7.7 1.2 0 7.8 1.2 0 7.9 1.2 0 8 1.2 0 8.1 1.2 0 8.2 1.2 0 8.3 1.2 0 8.4 1.2 0 8.5 1.2 0 8.6 1.2 0 8.7 1.2 0 8.8 1.2 0 8.9 1.2 0 9 1.2 0 9.1 1.2 0 9.2 1.2 0 9.3 1.2 0 9.4 1.2 0 9.5 1.2 0 9.6 1.2 0 9.7 1.2 0 9.8 1.2 0 9.9 1.2 0 10 1.2 0 0 1.3 0 0.1 1.3 0 0.2 1.3 0 0.3 1.3 0 0.4 1.3 0 0.5 1.3 0 0.6 1.3 0 0.7 1.3 0 0.8 1.3 0 0.9 1.3 0 1 1.3 0 1.1 1.3 0 1.2 1.3 0 1.3 1.3 0 1.4 1.3 0 1.5 1.3 0 1.6 1.3 0 1.7 1.3 0 1.8 1.3 0 1.9 1.3 0 2 1.3 0 2.1 1.3 0 2.2 1.3 0 2.3 1.3 0 2.4 1.3 0 2.5 1.3 0 2.6 1.3 0 2.7 1.3 0 2.8 1.3 0 2.9 1.3 0 3 1.3 0 3.1 1.3 0 3.2 1.3 0 3.3 1.3 0 3.4 1.3 0 3.5 1.3 0 3.6 1.3 0 3.7 1.3 0 3.8 1.3 0 3.9 1.3 0 4 1.3 0 4.1 1.3 0 4.2 1.3 0 4.3 1.3 0 4.4 1.3 0 4.5 1.3 0 4.6 1.3 0 4.7 1.3 0 4.8 1.3 0 4.9 1.3 0 5 1.3 0 5.1 1.3 0 5.2 1.3 0 5.3 1.3 0 5.4 1.3 0 5.5 1.3 0 5.6 1.3 0 5.7 1.3 0 5.8 1.3 0 5.9 1.3 0 6 1.3 0 6.1 1.3 0 6.2 1.3 0 6.3 1.3 0 6.4 1.3 0 6.5 1.3 0 6.6 1.3 0 6.7 1.3 0 6.8 1.3 0 6.9 1.3 0 7 1.3 0 7.1 1.3 0 7.2 1.3 0 7.3 1.3 0 7.4 1.3 0 7.5 1.3 0 7.6 1.3 0 7.7 1.3 0 7.8 1.3 0 7.9 1.3 0 8 1.3 0 8.1 1.3 0 8.2 1.3 0 8.3 1.3 0 8.4 1.3 0 8.5 1.3 0 8.6 1.3 0 8.7 1.3 0 8.8 1.3 0 8.9 1.3 0 9 1.3 0 9.1 1.3 0 9.2 1.3 0 9.3 1.3 0 9.4 1.3 0 9.5 1.3 0 9.6 1.3 0 9.7 1.3 0 9.8 1.3 0 9.9 1.3 0 10 1.3 0 0 1.4 0 0.1 1.4 0 0.2 1.4 0 0.3 1.4 0 0.4 1.4 0 0.5 1.4 0 0.6 1.4 0 0.7 1.4 0 0.8 1.4 0 0.9 1.4 0 1 1.4 0 1.1 1.4 0 1.2 1.4 0 1.3 1.4 0 1.4 1.4 0 1.5 1.4 0 1.6 1.4 0 1.7 1.4 0 1.8 1.4 0 1.9 1.4 0 2 1.4 0 2.1 1.4 0 2.2 1.4 0 2.3 1.4 0 2.4 1.4 0 2.5 1.4 0 2.6 1.4 0 2.7 1.4 0 2.8 1.4 0 2.9 1.4 0 3 1.4 0 3.1 1.4 0 3.2 1.4 0 3.3 1.4 0 3.4 1.4 0 3.5 1.4 0 3.6 1.4 0 3.7 1.4 0 3.8 1.4 0 3.9 1.4 0 4 1.4 0 4.1 1.4 0 4.2 1.4 0 4.3 1.4 0 4.4 1.4 0 4.5 1.4 0 4.6 1.4 0 4.7 1.4 0 4.8 1.4 0 4.9 1.4 0 5 1.4 0 5.1 1.4 0 5.2 1.4 0 5.3 1.4 0 5.4 1.4 0 5.5 1.4 0 5.6 1.4 0 5.7 1.4 0 5.8 1.4 0 5.9 1.4 0 6 1.4 0 6.1 1.4 0 6.2 1.4 0 6.3 1.4 0 6.4 1.4 0 6.5 1.4 0 6.6 1.4 0 6.7 1.4 0 6.8 1.4 0 6.9 1.4 0 7 1.4 0 7.1 1.4 0 7.2 1.4 0 7.3 1.4 0 7.4 1.4 0 7.5 1.4 0 7.6 1.4 0 7.7 1.4 0 7.8 1.4 0 7.9 1.4 0 8 1.4 0 8.1 1.4 0 8.2 1.4 0 8.3 1.4 0 8.4 1.4 0 8.5 1.4 0 8.6 1.4 0 8.7 1.4 0 8.8 1.4 0 8.9 1.4 0 9 1.4 0 9.1 1.4 0 9.2 1.4 0 9.3 1.4 0 9.4 1.4 0 9.5 1.4 0 9.6 1.4 0 9.7 1.4 0 9.8 1.4 0 9.9 1.4 0 10 1.4 0 0 1.5 0 0.1 1.5 0 0.2 1.5 0 0.3 1.5 0 0.4 1.5 0 0.5 1.5 0 0.6 1.5 0 0.7 1.5 0 0.8 1.5 0 0.9 1.5 0 1 1.5 0 1.1 1.5 0 1.2 1.5 0 1.3 1.5 0 1.4 1.5 0 1.5 1.5 0 1.6 1.5 0 1.7 1.5 0 1.8 1.5 0 1.9 1.5 0 2 1.5 0 2.1 1.5 0 2.2 1.5 0 2.3 1.5 0 2.4 1.5 0 2.5 1.5 0 2.6 1.5 0 2.7 1.5 0 2.8 1.5 0 2.9 1.5 0 3 1.5 0 3.1 1.5 0 3.2 1.5 0 3.3 1.5 0 3.4 1.5 0 3.5 1.5 0 3.6 1.5 0 3.7 1.5 0 3.8 1.5 0 3.9 1.5 0 4 1.5 0 4.1 1.5 0 4.2 1.5 0 4.3 1.5 0 4.4 1.5 0 4.5 1.5 0 4.6 1.5 0 4.7 1.5 0 4.8 1.5 0 4.9 1.5 0 5 1.5 0 5.1 1.5 0 5.2 1.5 0 5.3 1.5 0 5.4 1.5 0 5.5 1.5 0 5.6 1.5 0 5.7 1.5 0 5.8 1.5 0 5.9 1.5 0 6 1.5 0 6.1 1.5 0 6.2 1.5 0 6.3 1.5 0 6.4 1.5 0 6.5 1.5 0 6.6 1.5 0 6.7 1.5 0 6.8 1.5 0 6.9 1.5 0 7 1.5 0 7.1 1.5 0 7.2 1.5 0 7.3 1.5 0 7.4 1.5 0 7.5 1.5 0 7.6 1.5 0 7.7 1.5 0 7.8 1.5 0 7.9 1.5 0 8 1.5 0 8.1 1.5 0 8.2 1.5 0 8.3 1.5 0 8.4 1.5 0 8.5 1.5 0 8.6 1.5 0 8.7 1.5 0 8.8 1.5 0 8.9 1.5 0 9 1.5 0 9.1 1.5 0 9.2 1.5 0 9.3 1.5 0 9.4 1.5 0 9.5 1.5 0 9.6 1.5 0 9.7 1.5 0 9.8 1.5 0 9.9 1.5 0 10 1.5 0 0 1.6 0 0.1 1.6 0 0.2 1.6 0 0.3 1.6 0 0.4 1.6 0 0.5 1.6 0 0.6 1.6 0 0.7 1.6 0 0.8 1.6 0 0.9 1.6 0 1 1.6 0 1.1 1.6 0 1.2 1.6 0 1.3 1.6 0 1.4 1.6 0 1.5 1.6 0 1.6 1.6 0 1.7 1.6 0 1.8 1.6 0 1.9 1.6 0 2 1.6 0 2.1 1.6 0 2.2 1.6 0 2.3 1.6 0 2.4 1.6 0 2.5 1.6 0 2.6 1.6 0 2.7 1.6 0 2.8 1.6 0 2.9 1.6 0 3 1.6 0 3.1 1.6 0 3.2 1.6 0 3.3 1.6 0 3.4 1.6 0 3.5 1.6 0 3.6 1.6 0 3.7 1.6 0 3.8 1.6 0 3.9 1.6 0 4 1.6 0 4.1 1.6 0 4.2 1.6 0 4.3 1.6 0 4.4 1.6 0 4.5 1.6 0 4.6 1.6 0 4.7 1.6 0 4.8 1.6 0 4.9 1.6 0 5 1.6 0 5.1 1.6 0 5.2 1.6 0 5.3 1.6 0 5.4 1.6 0 5.5 1.6 0 5.6 1.6 0 5.7 1.6 0 5.8 1.6 0 5.9 1.6 0 6 1.6 0 6.1 1.6 0 6.2 1.6 0 6.3 1.6 0 6.4 1.6 0 6.5 1.6 0 6.6 1.6 0 6.7 1.6 0 6.8 1.6 0 6.9 1.6 0 7 1.6 0 7.1 1.6 0 7.2 1.6 0 7.3 1.6 0 7.4 1.6 0 7.5 1.6 0 7.6 1.6 0 7.7 1.6 0 7.8 1.6 0 7.9 1.6 0 8 1.6 0 8.1 1.6 0 8.2 1.6 0 8.3 1.6 0 8.4 1.6 0 8.5 1.6 0 8.6 1.6 0 8.7 1.6 0 8.8 1.6 0 8.9 1.6 0 9 1.6 0 9.1 1.6 0 9.2 1.6 0 9.3 1.6 0 9.4 1.6 0 9.5 1.6 0 9.6 1.6 0 9.7 1.6 0 9.8 1.6 0 9.9 1.6 0 10 1.6 0 0 1.7 0 0.1 1.7 0 0.2 1.7 0 0.3 1.7 0 0.4 1.7 0 0.5 1.7 0 0.6 1.7 0 0.7 1.7 0 0.8 1.7 0 0.9 1.7 0 1 1.7 0 1.1 1.7 0 1.2 1.7 0 1.3 1.7 0 1.4 1.7 0 1.5 1.7 0 1.6 1.7 0 1.7 1.7 0 1.8 1.7 0 1.9 1.7 0 2 1.7 0 2.1 1.7 0 2.2 1.7 0 2.3 1.7 0 2.4 1.7 0 2.5 1.7 0 2.6 1.7 0 2.7 1.7 0 2.8 1.7 0 2.9 1.7 0 3 1.7 0 3.1 1.7 0 3.2 1.7 0 3.3 1.7 0 3.4 1.7 0 3.5 1.7 0 3.6 1.7 0 3.7 1.7 0 3.8 1.7 0 3.9 1.7 0 4 1.7 0 4.1 1.7 0 4.2 1.7 0 4.3 1.7 0 4.4 1.7 0 4.5 1.7 0 4.6 1.7 0 4.7 1.7 0 4.8 1.7 0 4.9 1.7 0 5 1.7 0 5.1 1.7 0 5.2 1.7 0 5.3 1.7 0 5.4 1.7 0 5.5 1.7 0 5.6 1.7 0 5.7 1.7 0 5.8 1.7 0 5.9 1.7 0 6 1.7 0 6.1 1.7 0 6.2 1.7 0 6.3 1.7 0 6.4 1.7 0 6.5 1.7 0 6.6 1.7 0 6.7 1.7 0 6.8 1.7 0 6.9 1.7 0 7 1.7 0 7.1 1.7 0 7.2 1.7 0 7.3 1.7 0 7.4 1.7 0 7.5 1.7 0 7.6 1.7 0 7.7 1.7 0 7.8 1.7 0 7.9 1.7 0 8 1.7 0 8.1 1.7 0 8.2 1.7 0 8.3 1.7 0 8.4 1.7 0 8.5 1.7 0 8.6 1.7 0 8.7 1.7 0 8.8 1.7 0 8.9 1.7 0 9 1.7 0 9.1 1.7 0 9.2 1.7 0 9.3 1.7 0 9.4 1.7 0 9.5 1.7 0 9.6 1.7 0 9.7 1.7 0 9.8 1.7 0 9.9 1.7 0 10 1.7 0 0 1.8 0 0.1 1.8 0 0.2 1.8 0 0.3 1.8 0 0.4 1.8 0 0.5 1.8 0 0.6 1.8 0 0.7 1.8 0 0.8 1.8 0 0.9 1.8 0 1 1.8 0 1.1 1.8 0 1.2 1.8 0 1.3 1.8 0 1.4 1.8 0 1.5 1.8 0 1.6 1.8 0 1.7 1.8 0 1.8 1.8 0 1.9 1.8 0 2 1.8 0 2.1 1.8 0 2.2 1.8 0 2.3 1.8 0 2.4 1.8 0 2.5 1.8 0 2.6 1.8 0 2.7 1.8 0 2.8 1.8 0 2.9 1.8 0 3 1.8 0 3.1 1.8 0 3.2 1.8 0 3.3 1.8 0 3.4 1.8 0 3.5 1.8 0 3.6 1.8 0 3.7 1.8 0 3.8 1.8 0 3.9 1.8 0 4 1.8 0 4.1 1.8 0 4.2 1.8 0 4.3 1.8 0 4.4 1.8 0 4.5 1.8 0 4.6 1.8 0 4.7 1.8 0 4.8 1.8 0 4.9 1.8 0 5 1.8 0 5.1 1.8 0 5.2 1.8 0 5.3 1.8 0 5.4 1.8 0 5.5 1.8 0 5.6 1.8 0 5.7 1.8 0 5.8 1.8 0 5.9 1.8 0 6 1.8 0 6.1 1.8 0 6.2 1.8 0 6.3 1.8 0 6.4 1.8 0 6.5 1.8 0 6.6 1.8 0 6.7 1.8 0 6.8 1.8 0 6.9 1.8 0 7 1.8 0 7.1 1.8 0 7.2 1.8 0 7.3 1.8 0 7.4 1.8 0 7.5 1.8 0 7.6 1.8 0 7.7 1.8 0 7.8 1.8 0 7.9 1.8 0 8 1.8 0 8.1 1.8 0 8.2 1.8 0 8.3 1.8 0 8.4 1.8 0 8.5 1.8 0 8.6 1.8 0 8.7 1.8 0 8.8 1.8 0 8.9 1.8 0 9 1.8 0 9.1 1.8 0 9.2 1.8 0 9.3 1.8 0 9.4 1.8 0 9.5 1.8 0 9.6 1.8 0 9.7 1.8 0 9.8 1.8 0 9.9 1.8 0 10 1.8 0 0 1.9 0 0.1 1.9 0 0.2 1.9 0 0.3 1.9 0 0.4 1.9 0 0.5 1.9 0 0.6 1.9 0 0.7 1.9 0 0.8 1.9 0 0.9 1.9 0 1 1.9 0 1.1 1.9 0 1.2 1.9 0 1.3 1.9 0 1.4 1.9 0 1.5 1.9 0 1.6 1.9 0 1.7 1.9 0 1.8 1.9 0 1.9 1.9 0 2 1.9 0 2.1 1.9 0 2.2 1.9 0 2.3 1.9 0 2.4 1.9 0 2.5 1.9 0 2.6 1.9 0 2.7 1.9 0 2.8 1.9 0 2.9 1.9 0 3 1.9 0 3.1 1.9 0 3.2 1.9 0 3.3 1.9 0 3.4 1.9 0 3.5 1.9 0 3.6 1.9 0 3.7 1.9 0 3.8 1.9 0 3.9 1.9 0 4 1.9 0 4.1 1.9 0 4.2 1.9 0 4.3 1.9 0 4.4 1.9 0 4.5 1.9 0 4.6 1.9 0 4.7 1.9 0 4.8 1.9 0 4.9 1.9 0 5 1.9 0 5.1 1.9 0 5.2 1.9 0 5.3 1.9 0 5.4 1.9 0 5.5 1.9 0 5.6 1.9 0 5.7 1.9 0 5.8 1.9 0 5.9 1.9 0 6 1.9 0 6.1 1.9 0 6.2 1.9 0 6.3 1.9 0 6.4 1.9 0 6.5 1.9 0 6.6 1.9 0 6.7 1.9 0 6.8 1.9 0 6.9 1.9 0 7 1.9 0 7.1 1.9 0 7.2 1.9 0 7.3 1.9 0 7.4 1.9 0 7.5 1.9 0 7.6 1.9 0 7.7 1.9 0 7.8 1.9 0 7.9 1.9 0 8 1.9 0 8.1 1.9 0 8.2 1.9 0 8.3 1.9 0 8.4 1.9 0 8.5 1.9 0 8.6 1.9 0 8.7 1.9 0 8.8 1.9 0 8.9 1.9 0 9 1.9 0 9.1 1.9 0 9.2 1.9 0 9.3 1.9 0 9.4 1.9 0 9.5 1.9 0 9.6 1.9 0 9.7 1.9 0 9.8 1.9 0 9.9 1.9 0 10 1.9 0 0 2 0 0.1 2 0 0.2 2 0 0.3 2 0 0.4 2 0 0.5 2 0 0.6 2 0 0.7 2 0 0.8 2 0 0.9 2 0 1 2 0 1.1 2 0 1.2 2 0 1.3 2 0 1.4 2 0 1.5 2 0 1.6 2 0 1.7 2 0 1.8 2 0 1.9 2 0 2 2 0 2.1 2 0 2.2 2 0 2.3 2 0 2.4 2 0 2.5 2 0 2.6 2 0 2.7 2 0 2.8 2 0 2.9 2 0 3 2 0 3.1 2 0 3.2 2 0 3.3 2 0 3.4 2 0 3.5 2 0 3.6 2 0 3.7 2 0 3.8 2 0 3.9 2 0 4 2 0 4.1 2 0 4.2 2 0 4.3 2 0 4.4 2 0 4.5 2 0 4.6 2 0 4.7 2 0 4.8 2 0 4.9 2 0 5 2 0 5.1 2 0 5.2 2 0 5.3 2 0 5.4 2 0 5.5 2 0 5.6 2 0 5.7 2 0 5.8 2 0 5.9 2 0 6 2 0 6.1 2 0 6.2 2 0 6.3 2 0 6.4 2 0 6.5 2 0 6.6 2 0 6.7 2 0 6.8 2 0 6.9 2 0 7 2 0 7.1 2 0 7.2 2 0 7.3 2 0 7.4 2 0 7.5 2 0 7.6 2 0 7.7 2 0 7.8 2 0 7.9 2 0 8 2 0 8.1 2 0 8.2 2 0 8.3 2 0 8.4 2 0 8.5 2 0 8.6 2 0 8.7 2 0 8.8 2 0 8.9 2 0 9 2 0 9.1 2 0 9.2 2 0 9.3 2 0 9.4 2 0 9.5 2 0 9.6 2 0 9.7 2 0 9.8 2 0 9.9 2 0 10 2 0 0 2.1 0 0.1 2.1 0 0.2 2.1 0 0.3 2.1 0 0.4 2.1 0 0.5 2.1 0 0.6 2.1 0 0.7 2.1 0 0.8 2.1 0 0.9 2.1 0 1 2.1 0 1.1 2.1 0 1.2 2.1 0 1.3 2.1 0 1.4 2.1 0 1.5 2.1 0 1.6 2.1 0 1.7 2.1 0 1.8 2.1 0 1.9 2.1 0 2 2.1 0 2.1 2.1 0 2.2 2.1 0 2.3 2.1 0 2.4 2.1 0 2.5 2.1 0 2.6 2.1 0 2.7 2.1 0 2.8 2.1 0 2.9 2.1 0 3 2.1 0 3.1 2.1 0 3.2 2.1 0 3.3 2.1 0 3.4 2.1 0 3.5 2.1 0 3.6 2.1 0 3.7 2.1 0 3.8 2.1 0 3.9 2.1 0 4 2.1 0 4.1 2.1 0 4.2 2.1 0 4.3 2.1 0 4.4 2.1 0 4.5 2.1 0 4.6 2.1 0 4.7 2.1 0 4.8 2.1 0 4.9 2.1 0 5 2.1 0 5.1 2.1 0 5.2 2.1 0 5.3 2.1 0 5.4 2.1 0 5.5 2.1 0 5.6 2.1 0 5.7 2.1 0 5.8 2.1 0 5.9 2.1 0 6 2.1 0 6.1 2.1 0 6.2 2.1 0 6.3 2.1 0 6.4 2.1 0 6.5 2.1 0 6.6 2.1 0 6.7 2.1 0 6.8 2.1 0 6.9 2.1 0 7 2.1 0 7.1 2.1 0 7.2 2.1 0 7.3 2.1 0 7.4 2.1 0 7.5 2.1 0 7.6 2.1 0 7.7 2.1 0 7.8 2.1 0 7.9 2.1 0 8 2.1 0 8.1 2.1 0 8.2 2.1 0 8.3 2.1 0 8.4 2.1 0 8.5 2.1 0 8.6 2.1 0 8.7 2.1 0 8.8 2.1 0 8.9 2.1 0 9 2.1 0 9.1 2.1 0 9.2 2.1 0 9.3 2.1 0 9.4 2.1 0 9.5 2.1 0 9.6 2.1 0 9.7 2.1 0 9.8 2.1 0 9.9 2.1 0 10 2.1 0 0 2.2 0 0.1 2.2 0 0.2 2.2 0 0.3 2.2 0 0.4 2.2 0 0.5 2.2 0 0.6 2.2 0 0.7 2.2 0 0.8 2.2 0 0.9 2.2 0 1 2.2 0 1.1 2.2 0 1.2 2.2 0 1.3 2.2 0 1.4 2.2 0 1.5 2.2 0 1.6 2.2 0 1.7 2.2 0 1.8 2.2 0 1.9 2.2 0 2 2.2 0 2.1 2.2 0 2.2 2.2 0 2.3 2.2 0 2.4 2.2 0 2.5 2.2 0 2.6 2.2 0 2.7 2.2 0 2.8 2.2 0 2.9 2.2 0 3 2.2 0 3.1 2.2 0 3.2 2.2 0 3.3 2.2 0 3.4 2.2 0 3.5 2.2 0 3.6 2.2 0 3.7 2.2 0 3.8 2.2 0 3.9 2.2 0 4 2.2 0 4.1 2.2 0 4.2 2.2 0 4.3 2.2 0 4.4 2.2 0 4.5 2.2 0 4.6 2.2 0 4.7 2.2 0 4.8 2.2 0 4.9 2.2 0 5 2.2 0 5.1 2.2 0 5.2 2.2 0 5.3 2.2 0 5.4 2.2 0 5.5 2.2 0 5.6 2.2 0 5.7 2.2 0 5.8 2.2 0 5.9 2.2 0 6 2.2 0 6.1 2.2 0 6.2 2.2 0 6.3 2.2 0 6.4 2.2 0 6.5 2.2 0 6.6 2.2 0 6.7 2.2 0 6.8 2.2 0 6.9 2.2 0 7 2.2 0 7.1 2.2 0 7.2 2.2 0 7.3 2.2 0 7.4 2.2 0 7.5 2.2 0 7.6 2.2 0 7.7 2.2 0 7.8 2.2 0 7.9 2.2 0 8 2.2 0 8.1 2.2 0 8.2 2.2 0 8.3 2.2 0 8.4 2.2 0 8.5 2.2 0 8.6 2.2 0 8.7 2.2 0 8.8 2.2 0 8.9 2.2 0 9 2.2 0 9.1 2.2 0 9.2 2.2 0 9.3 2.2 0 9.4 2.2 0 9.5 2.2 0 9.6 2.2 0 9.7 2.2 0 9.8 2.2 0 9.9 2.2 0 10 2.2 0 0 2.3 0 0.1 2.3 0 0.2 2.3 0 0.3 2.3 0 0.4 2.3 0 0.5 2.3 0 0.6 2.3 0 0.7 2.3 0 0.8 2.3 0 0.9 2.3 0 1 2.3 0 1.1 2.3 0 1.2 2.3 0 1.3 2.3 0 1.4 2.3 0 1.5 2.3 0 1.6 2.3 0 1.7 2.3 0 1.8 2.3 0 1.9 2.3 0 2 2.3 0 2.1 2.3 0 2.2 2.3 0 2.3 2.3 0 2.4 2.3 0 2.5 2.3 0 2.6 2.3 0 2.7 2.3 0 2.8 2.3 0 2.9 2.3 0 3 2.3 0 3.1 2.3 0 3.2 2.3 0 3.3 2.3 0 3.4 2.3 0 3.5 2.3 0 3.6 2.3 0 3.7 2.3 0 3.8 2.3 0 3.9 2.3 0 4 2.3 0 4.1 2.3 0 4.2 2.3 0 4.3 2.3 0 4.4 2.3 0 4.5 2.3 0 4.6 2.3 0 4.7 2.3 0 4.8 2.3 0 4.9 2.3 0 5 2.3 0 5.1 2.3 0 5.2 2.3 0 5.3 2.3 0 5.4 2.3 0 5.5 2.3 0 5.6 2.3 0 5.7 2.3 0 5.8 2.3 0 5.9 2.3 0 6 2.3 0 6.1 2.3 0 6.2 2.3 0 6.3 2.3 0 6.4 2.3 0 6.5 2.3 0 6.6 2.3 0 6.7 2.3 0 6.8 2.3 0 6.9 2.3 0 7 2.3 0 7.1 2.3 0 7.2 2.3 0 7.3 2.3 0 7.4 2.3 0 7.5 2.3 0 7.6 2.3 0 7.7 2.3 0 7.8 2.3 0 7.9 2.3 0 8 2.3 0 8.1 2.3 0 8.2 2.3 0 8.3 2.3 0 8.4 2.3 0 8.5 2.3 0 8.6 2.3 0 8.7 2.3 0 8.8 2.3 0 8.9 2.3 0 9 2.3 0 9.1 2.3 0 9.2 2.3 0 9.3 2.3 0 9.4 2.3 0 9.5 2.3 0 9.6 2.3 0 9.7 2.3 0 9.8 2.3 0 9.9 2.3 0 10 2.3 0 0 2.4 0 0.1 2.4 0 0.2 2.4 0 0.3 2.4 0 0.4 2.4 0 0.5 2.4 0 0.6 2.4 0 0.7 2.4 0 0.8 2.4 0 0.9 2.4 0 1 2.4 0 1.1 2.4 0 1.2 2.4 0 1.3 2.4 0 1.4 2.4 0 1.5 2.4 0 1.6 2.4 0 1.7 2.4 0 1.8 2.4 0 1.9 2.4 0 2 2.4 0 2.1 2.4 0 2.2 2.4 0 2.3 2.4 0 2.4 2.4 0 2.5 2.4 0 2.6 2.4 0 2.7 2.4 0 2.8 2.4 0 2.9 2.4 0 3 2.4 0 3.1 2.4 0 3.2 2.4 0 3.3 2.4 0 3.4 2.4 0 3.5 2.4 0 3.6 2.4 0 3.7 2.4 0 3.8 2.4 0 3.9 2.4 0 4 2.4 0 4.1 2.4 0 4.2 2.4 0 4.3 2.4 0 4.4 2.4 0 4.5 2.4 0 4.6 2.4 0 4.7 2.4 0 4.8 2.4 0 4.9 2.4 0 5 2.4 0 5.1 2.4 0 5.2 2.4 0 5.3 2.4 0 5.4 2.4 0 5.5 2.4 0 5.6 2.4 0 5.7 2.4 0 5.8 2.4 0 5.9 2.4 0 6 2.4 0 6.1 2.4 0 6.2 2.4 0 6.3 2.4 0 6.4 2.4 0 6.5 2.4 0 6.6 2.4 0 6.7 2.4 0 6.8 2.4 0 6.9 2.4 0 7 2.4 0 7.1 2.4 0 7.2 2.4 0 7.3 2.4 0 7.4 2.4 0 7.5 2.4 0 7.6 2.4 0 7.7 2.4 0 7.8 2.4 0 7.9 2.4 0 8 2.4 0 8.1 2.4 0 8.2 2.4 0 8.3 2.4 0 8.4 2.4 0 8.5 2.4 0 8.6 2.4 0 8.7 2.4 0 8.8 2.4 0 8.9 2.4 0 9 2.4 0 9.1 2.4 0 9.2 2.4 0 9.3 2.4 0 9.4 2.4 0 9.5 2.4 0 9.6 2.4 0 9.7 2.4 0 9.8 2.4 0 9.9 2.4 0 10 2.4 0 0 2.5 0 0.1 2.5 0 0.2 2.5 0 0.3 2.5 0 0.4 2.5 0 0.5 2.5 0 0.6 2.5 0 0.7 2.5 0 0.8 2.5 0 0.9 2.5 0 1 2.5 0 1.1 2.5 0 1.2 2.5 0 1.3 2.5 0 1.4 2.5 0 1.5 2.5 0 1.6 2.5 0 1.7 2.5 0 1.8 2.5 0 1.9 2.5 0 2 2.5 0 2.1 2.5 0 2.2 2.5 0 2.3 2.5 0 2.4 2.5 0 2.5 2.5 0 2.6 2.5 0 2.7 2.5 0 2.8 2.5 0 2.9 2.5 0 3 2.5 0 3.1 2.5 0 3.2 2.5 0 3.3 2.5 0 3.4 2.5 0 3.5 2.5 0 3.6 2.5 0 3.7 2.5 0 3.8 2.5 0 3.9 2.5 0 4 2.5 0 4.1 2.5 0 4.2 2.5 0 4.3 2.5 0 4.4 2.5 0 4.5 2.5 0 4.6 2.5 0 4.7 2.5 0 4.8 2.5 0 4.9 2.5 0 5 2.5 0 5.1 2.5 0 5.2 2.5 0 5.3 2.5 0 5.4 2.5 0 5.5 2.5 0 5.6 2.5 0 5.7 2.5 0 5.8 2.5 0 5.9 2.5 0 6 2.5 0 6.1 2.5 0 6.2 2.5 0 6.3 2.5 0 6.4 2.5 0 6.5 2.5 0 6.6 2.5 0 6.7 2.5 0 6.8 2.5 0 6.9 2.5 0 7 2.5 0 7.1 2.5 0 7.2 2.5 0 7.3 2.5 0 7.4 2.5 0 7.5 2.5 0 7.6 2.5 0 7.7 2.5 0 7.8 2.5 0 7.9 2.5 0 8 2.5 0 8.1 2.5 0 8.2 2.5 0 8.3 2.5 0 8.4 2.5 0 8.5 2.5 0 8.6 2.5 0 8.7 2.5 0 8.8 2.5 0 8.9 2.5 0 9 2.5 0 9.1 2.5 0 9.2 2.5 0 9.3 2.5 0 9.4 2.5 0 9.5 2.5 0 9.6 2.5 0 9.7 2.5 0 9.8 2.5 0 9.9 2.5 0 10 2.5 0 0 2.6 0 0.1 2.6 0 0.2 2.6 0 0.3 2.6 0 0.4 2.6 0 0.5 2.6 0 0.6 2.6 0 0.7 2.6 0 0.8 2.6 0 0.9 2.6 0 1 2.6 0 1.1 2.6 0 1.2 2.6 0 1.3 2.6 0 1.4 2.6 0 1.5 2.6 0 1.6 2.6 0 1.7 2.6 0 1.8 2.6 0 1.9 2.6 0 2 2.6 0 2.1 2.6 0 2.2 2.6 0 2.3 2.6 0 2.4 2.6 0 2.5 2.6 0 2.6 2.6 0 2.7 2.6 0 2.8 2.6 0 2.9 2.6 0 3 2.6 0 3.1 2.6 0 3.2 2.6 0 3.3 2.6 0 3.4 2.6 0 3.5 2.6 0 3.6 2.6 0 3.7 2.6 0 3.8 2.6 0 3.9 2.6 0 4 2.6 0 4.1 2.6 0 4.2 2.6 0 4.3 2.6 0 4.4 2.6 0 4.5 2.6 0 4.6 2.6 0 4.7 2.6 0 4.8 2.6 0 4.9 2.6 0 5 2.6 0 5.1 2.6 0 5.2 2.6 0 5.3 2.6 0 5.4 2.6 0 5.5 2.6 0 5.6 2.6 0 5.7 2.6 0 5.8 2.6 0 5.9 2.6 0 6 2.6 0 6.1 2.6 0 6.2 2.6 0 6.3 2.6 0 6.4 2.6 0 6.5 2.6 0 6.6 2.6 0 6.7 2.6 0 6.8 2.6 0 6.9 2.6 0 7 2.6 0 7.1 2.6 0 7.2 2.6 0 7.3 2.6 0 7.4 2.6 0 7.5 2.6 0 7.6 2.6 0 7.7 2.6 0 7.8 2.6 0 7.9 2.6 0 8 2.6 0 8.1 2.6 0 8.2 2.6 0 8.3 2.6 0 8.4 2.6 0 8.5 2.6 0 8.6 2.6 0 8.7 2.6 0 8.8 2.6 0 8.9 2.6 0 9 2.6 0 9.1 2.6 0 9.2 2.6 0 9.3 2.6 0 9.4 2.6 0 9.5 2.6 0 9.6 2.6 0 9.7 2.6 0 9.8 2.6 0 9.9 2.6 0 10 2.6 0 0 2.7 0 0.1 2.7 0 0.2 2.7 0 0.3 2.7 0 0.4 2.7 0 0.5 2.7 0 0.6 2.7 0 0.7 2.7 0 0.8 2.7 0 0.9 2.7 0 1 2.7 0 1.1 2.7 0 1.2 2.7 0 1.3 2.7 0 1.4 2.7 0 1.5 2.7 0 1.6 2.7 0 1.7 2.7 0 1.8 2.7 0 1.9 2.7 0 2 2.7 0 2.1 2.7 0 2.2 2.7 0 2.3 2.7 0 2.4 2.7 0 2.5 2.7 0 2.6 2.7 0 2.7 2.7 0 2.8 2.7 0 2.9 2.7 0 3 2.7 0 3.1 2.7 0 3.2 2.7 0 3.3 2.7 0 3.4 2.7 0 3.5 2.7 0 3.6 2.7 0 3.7 2.7 0 3.8 2.7 0 3.9 2.7 0 4 2.7 0 4.1 2.7 0 4.2 2.7 0 4.3 2.7 0 4.4 2.7 0 4.5 2.7 0 4.6 2.7 0 4.7 2.7 0 4.8 2.7 0 4.9 2.7 0 5 2.7 0 5.1 2.7 0 5.2 2.7 0 5.3 2.7 0 5.4 2.7 0 5.5 2.7 0 5.6 2.7 0 5.7 2.7 0 5.8 2.7 0 5.9 2.7 0 6 2.7 0 6.1 2.7 0 6.2 2.7 0 6.3 2.7 0 6.4 2.7 0 6.5 2.7 0 6.6 2.7 0 6.7 2.7 0 6.8 2.7 0 6.9 2.7 0 7 2.7 0 7.1 2.7 0 7.2 2.7 0 7.3 2.7 0 7.4 2.7 0 7.5 2.7 0 7.6 2.7 0 7.7 2.7 0 7.8 2.7 0 7.9 2.7 0 8 2.7 0 8.1 2.7 0 8.2 2.7 0 8.3 2.7 0 8.4 2.7 0 8.5 2.7 0 8.6 2.7 0 8.7 2.7 0 8.8 2.7 0 8.9 2.7 0 9 2.7 0 9.1 2.7 0 9.2 2.7 0 9.3 2.7 0 9.4 2.7 0 9.5 2.7 0 9.6 2.7 0 9.7 2.7 0 9.8 2.7 0 9.9 2.7 0 10 2.7 0 0 2.8 0 0.1 2.8 0 0.2 2.8 0 0.3 2.8 0 0.4 2.8 0 0.5 2.8 0 0.6 2.8 0 0.7 2.8 0 0.8 2.8 0 0.9 2.8 0 1 2.8 0 1.1 2.8 0 1.2 2.8 0 1.3 2.8 0 1.4 2.8 0 1.5 2.8 0 1.6 2.8 0 1.7 2.8 0 1.8 2.8 0 1.9 2.8 0 2 2.8 0 2.1 2.8 0 2.2 2.8 0 2.3 2.8 0 2.4 2.8 0 2.5 2.8 0 2.6 2.8 0 2.7 2.8 0 2.8 2.8 0 2.9 2.8 0 3 2.8 0 3.1 2.8 0 3.2 2.8 0 3.3 2.8 0 3.4 2.8 0 3.5 2.8 0 3.6 2.8 0 3.7 2.8 0 3.8 2.8 0 3.9 2.8 0 4 2.8 0 4.1 2.8 0 4.2 2.8 0 4.3 2.8 0 4.4 2.8 0 4.5 2.8 0 4.6 2.8 0 4.7 2.8 0 4.8 2.8 0 4.9 2.8 0 5 2.8 0 5.1 2.8 0 5.2 2.8 0 5.3 2.8 0 5.4 2.8 0 5.5 2.8 0 5.6 2.8 0 5.7 2.8 0 5.8 2.8 0 5.9 2.8 0 6 2.8 0 6.1 2.8 0 6.2 2.8 0 6.3 2.8 0 6.4 2.8 0 6.5 2.8 0 6.6 2.8 0 6.7 2.8 0 6.8 2.8 0 6.9 2.8 0 7 2.8 0 7.1 2.8 0 7.2 2.8 0 7.3 2.8 0 7.4 2.8 0 7.5 2.8 0 7.6 2.8 0 7.7 2.8 0 7.8 2.8 0 7.9 2.8 0 8 2.8 0 8.1 2.8 0 8.2 2.8 0 8.3 2.8 0 8.4 2.8 0 8.5 2.8 0 8.6 2.8 0 8.7 2.8 0 8.8 2.8 0 8.9 2.8 0 9 2.8 0 9.1 2.8 0 9.2 2.8 0 9.3 2.8 0 9.4 2.8 0 9.5 2.8 0 9.6 2.8 0 9.7 2.8 0 9.8 2.8 0 9.9 2.8 0 10 2.8 0 0 2.9 0 0.1 2.9 0 0.2 2.9 0 0.3 2.9 0 0.4 2.9 0 0.5 2.9 0 0.6 2.9 0 0.7 2.9 0 0.8 2.9 0 0.9 2.9 0 1 2.9 0 1.1 2.9 0 1.2 2.9 0 1.3 2.9 0 1.4 2.9 0 1.5 2.9 0 1.6 2.9 0 1.7 2.9 0 1.8 2.9 0 1.9 2.9 0 2 2.9 0 2.1 2.9 0 2.2 2.9 0 2.3 2.9 0 2.4 2.9 0 2.5 2.9 0 2.6 2.9 0 2.7 2.9 0 2.8 2.9 0 2.9 2.9 0 3 2.9 0 3.1 2.9 0 3.2 2.9 0 3.3 2.9 0 3.4 2.9 0 3.5 2.9 0 3.6 2.9 0 3.7 2.9 0 3.8 2.9 0 3.9 2.9 0 4 2.9 0 4.1 2.9 0 4.2 2.9 0 4.3 2.9 0 4.4 2.9 0 4.5 2.9 0 4.6 2.9 0 4.7 2.9 0 4.8 2.9 0 4.9 2.9 0 5 2.9 0 5.1 2.9 0 5.2 2.9 0 5.3 2.9 0 5.4 2.9 0 5.5 2.9 0 5.6 2.9 0 5.7 2.9 0 5.8 2.9 0 5.9 2.9 0 6 2.9 0 6.1 2.9 0 6.2 2.9 0 6.3 2.9 0 6.4 2.9 0 6.5 2.9 0 6.6 2.9 0 6.7 2.9 0 6.8 2.9 0 6.9 2.9 0 7 2.9 0 7.1 2.9 0 7.2 2.9 0 7.3 2.9 0 7.4 2.9 0 7.5 2.9 0 7.6 2.9 0 7.7 2.9 0 7.8 2.9 0 7.9 2.9 0 8 2.9 0 8.1 2.9 0 8.2 2.9 0 8.3 2.9 0 8.4 2.9 0 8.5 2.9 0 8.6 2.9 0 8.7 2.9 0 8.8 2.9 0 8.9 2.9 0 9 2.9 0 9.1 2.9 0 9.2 2.9 0 9.3 2.9 0 9.4 2.9 0 9.5 2.9 0 9.6 2.9 0 9.7 2.9 0 9.8 2.9 0 9.9 2.9 0 10 2.9 0 0 3 0 0.1 3 0 0.2 3 0 0.3 3 0 0.4 3 0 0.5 3 0 0.6 3 0 0.7 3 0 0.8 3 0 0.9 3 0 1 3 0 1.1 3 0 1.2 3 0 1.3 3 0 1.4 3 0 1.5 3 0 1.6 3 0 1.7 3 0 1.8 3 0 1.9 3 0 2 3 0 2.1 3 0 2.2 3 0 2.3 3 0 2.4 3 0 2.5 3 0 2.6 3 0 2.7 3 0 2.8 3 0 2.9 3 0 3 3 0 3.1 3 0 3.2 3 0 3.3 3 0 3.4 3 0 3.5 3 0 3.6 3 0 3.7 3 0 3.8 3 0 3.9 3 0 4 3 0 4.1 3 0 4.2 3 0 4.3 3 0 4.4 3 0 4.5 3 0 4.6 3 0 4.7 3 0 4.8 3 0 4.9 3 0 5 3 0 5.1 3 0 5.2 3 0 5.3 3 0 5.4 3 0 5.5 3 0 5.6 3 0 5.7 3 0 5.8 3 0 5.9 3 0 6 3 0 6.1 3 0 6.2 3 0 6.3 3 0 6.4 3 0 6.5 3 0 6.6 3 0 6.7 3 0 6.8 3 0 6.9 3 0 7 3 0 7.1 3 0 7.2 3 0 7.3 3 0 7.4 3 0 7.5 3 0 7.6 3 0 7.7 3 0 7.8 3 0 7.9 3 0 8 3 0 8.1 3 0 8.2 3 0 8.3 3 0 8.4 3 0 8.5 3 0 8.6 3 0 8.7 3 0 8.8 3 0 8.9 3 0 9 3 0 9.1 3 0 9.2 3 0 9.3 3 0 9.4 3 0 9.5 3 0 9.6 3 0 9.7 3 0 9.8 3 0 9.9 3 0 10 3 0 0 3.1 0 0.1 3.1 0 0.2 3.1 0 0.3 3.1 0 0.4 3.1 0 0.5 3.1 0 0.6 3.1 0 0.7 3.1 0 0.8 3.1 0 0.9 3.1 0 1 3.1 0 1.1 3.1 0 1.2 3.1 0 1.3 3.1 0 1.4 3.1 0 1.5 3.1 0 1.6 3.1 0 1.7 3.1 0 1.8 3.1 0 1.9 3.1 0 2 3.1 0 2.1 3.1 0 2.2 3.1 0 2.3 3.1 0 2.4 3.1 0 2.5 3.1 0 2.6 3.1 0 2.7 3.1 0 2.8 3.1 0 2.9 3.1 0 3 3.1 0 3.1 3.1 0 3.2 3.1 0 3.3 3.1 0 3.4 3.1 0 3.5 3.1 0 3.6 3.1 0 3.7 3.1 0 3.8 3.1 0 3.9 3.1 0 4 3.1 0 4.1 3.1 0 4.2 3.1 0 4.3 3.1 0 4.4 3.1 0 4.5 3.1 0 4.6 3.1 0 4.7 3.1 0 4.8 3.1 0 4.9 3.1 0 5 3.1 0 5.1 3.1 0 5.2 3.1 0 5.3 3.1 0 5.4 3.1 0 5.5 3.1 0 5.6 3.1 0 5.7 3.1 0 5.8 3.1 0 5.9 3.1 0 6 3.1 0 6.1 3.1 0 6.2 3.1 0 6.3 3.1 0 6.4 3.1 0 6.5 3.1 0 6.6 3.1 0 6.7 3.1 0 6.8 3.1 0 6.9 3.1 0 7 3.1 0 7.1 3.1 0 7.2 3.1 0 7.3 3.1 0 7.4 3.1 0 7.5 3.1 0 7.6 3.1 0 7.7 3.1 0 7.8 3.1 0 7.9 3.1 0 8 3.1 0 8.1 3.1 0 8.2 3.1 0 8.3 3.1 0 8.4 3.1 0 8.5 3.1 0 8.6 3.1 0 8.7 3.1 0 8.8 3.1 0 8.9 3.1 0 9 3.1 0 9.1 3.1 0 9.2 3.1 0 9.3 3.1 0 9.4 3.1 0 9.5 3.1 0 9.6 3.1 0 9.7 3.1 0 9.8 3.1 0 9.9 3.1 0 10 3.1 0 0 3.2 0 0.1 3.2 0 0.2 3.2 0 0.3 3.2 0 0.4 3.2 0 0.5 3.2 0 0.6 3.2 0 0.7 3.2 0 0.8 3.2 0 0.9 3.2 0 1 3.2 0 1.1 3.2 0 1.2 3.2 0 1.3 3.2 0 1.4 3.2 0 1.5 3.2 0 1.6 3.2 0 1.7 3.2 0 1.8 3.2 0 1.9 3.2 0 2 3.2 0 2.1 3.2 0 2.2 3.2 0 2.3 3.2 0 2.4 3.2 0 2.5 3.2 0 2.6 3.2 0 2.7 3.2 0 2.8 3.2 0 2.9 3.2 0 3 3.2 0 3.1 3.2 0 3.2 3.2 0 3.3 3.2 0 3.4 3.2 0 3.5 3.2 0 3.6 3.2 0 3.7 3.2 0 3.8 3.2 0 3.9 3.2 0 4 3.2 0 4.1 3.2 0 4.2 3.2 0 4.3 3.2 0 4.4 3.2 0 4.5 3.2 0 4.6 3.2 0 4.7 3.2 0 4.8 3.2 0 4.9 3.2 0 5 3.2 0 5.1 3.2 0 5.2 3.2 0 5.3 3.2 0 5.4 3.2 0 5.5 3.2 0 5.6 3.2 0 5.7 3.2 0 5.8 3.2 0 5.9 3.2 0 6 3.2 0 6.1 3.2 0 6.2 3.2 0 6.3 3.2 0 6.4 3.2 0 6.5 3.2 0 6.6 3.2 0 6.7 3.2 0 6.8 3.2 0 6.9 3.2 0 7 3.2 0 7.1 3.2 0 7.2 3.2 0 7.3 3.2 0 7.4 3.2 0 7.5 3.2 0 7.6 3.2 0 7.7 3.2 0 7.8 3.2 0 7.9 3.2 0 8 3.2 0 8.1 3.2 0 8.2 3.2 0 8.3 3.2 0 8.4 3.2 0 8.5 3.2 0 8.6 3.2 0 8.7 3.2 0 8.8 3.2 0 8.9 3.2 0 9 3.2 0 9.1 3.2 0 9.2 3.2 0 9.3 3.2 0 9.4 3.2 0 9.5 3.2 0 9.6 3.2 0 9.7 3.2 0 9.8 3.2 0 9.9 3.2 0 10 3.2 0 0 3.3 0 0.1 3.3 0 0.2 3.3 0 0.3 3.3 0 0.4 3.3 0 0.5 3.3 0 0.6 3.3 0 0.7 3.3 0 0.8 3.3 0 0.9 3.3 0 1 3.3 0 1.1 3.3 0 1.2 3.3 0 1.3 3.3 0 1.4 3.3 0 1.5 3.3 0 1.6 3.3 0 1.7 3.3 0 1.8 3.3 0 1.9 3.3 0 2 3.3 0 2.1 3.3 0 2.2 3.3 0 2.3 3.3 0 2.4 3.3 0 2.5 3.3 0 2.6 3.3 0 2.7 3.3 0 2.8 3.3 0 2.9 3.3 0 3 3.3 0 3.1 3.3 0 3.2 3.3 0 3.3 3.3 0 3.4 3.3 0 3.5 3.3 0 3.6 3.3 0 3.7 3.3 0 3.8 3.3 0 3.9 3.3 0 4 3.3 0 4.1 3.3 0 4.2 3.3 0 4.3 3.3 0 4.4 3.3 0 4.5 3.3 0 4.6 3.3 0 4.7 3.3 0 4.8 3.3 0 4.9 3.3 0 5 3.3 0 5.1 3.3 0 5.2 3.3 0 5.3 3.3 0 5.4 3.3 0 5.5 3.3 0 5.6 3.3 0 5.7 3.3 0 5.8 3.3 0 5.9 3.3 0 6 3.3 0 6.1 3.3 0 6.2 3.3 0 6.3 3.3 0 6.4 3.3 0 6.5 3.3 0 6.6 3.3 0 6.7 3.3 0 6.8 3.3 0 6.9 3.3 0 7 3.3 0 7.1 3.3 0 7.2 3.3 0 7.3 3.3 0 7.4 3.3 0 7.5 3.3 0 7.6 3.3 0 7.7 3.3 0 7.8 3.3 0 7.9 3.3 0 8 3.3 0 8.1 3.3 0 8.2 3.3 0 8.3 3.3 0 8.4 3.3 0 8.5 3.3 0 8.6 3.3 0 8.7 3.3 0 8.8 3.3 0 8.9 3.3 0 9 3.3 0 9.1 3.3 0 9.2 3.3 0 9.3 3.3 0 9.4 3.3 0 9.5 3.3 0 9.6 3.3 0 9.7 3.3 0 9.8 3.3 0 9.9 3.3 0 10 3.3 0 0 3.4 0 0.1 3.4 0 0.2 3.4 0 0.3 3.4 0 0.4 3.4 0 0.5 3.4 0 0.6 3.4 0 0.7 3.4 0 0.8 3.4 0 0.9 3.4 0 1 3.4 0 1.1 3.4 0 1.2 3.4 0 1.3 3.4 0 1.4 3.4 0 1.5 3.4 0 1.6 3.4 0 1.7 3.4 0 1.8 3.4 0 1.9 3.4 0 2 3.4 0 2.1 3.4 0 2.2 3.4 0 2.3 3.4 0 2.4 3.4 0 2.5 3.4 0 2.6 3.4 0 2.7 3.4 0 2.8 3.4 0 2.9 3.4 0 3 3.4 0 3.1 3.4 0 3.2 3.4 0 3.3 3.4 0 3.4 3.4 0 3.5 3.4 0 3.6 3.4 0 3.7 3.4 0 3.8 3.4 0 3.9 3.4 0 4 3.4 0 4.1 3.4 0 4.2 3.4 0 4.3 3.4 0 4.4 3.4 0 4.5 3.4 0 4.6 3.4 0 4.7 3.4 0 4.8 3.4 0 4.9 3.4 0 5 3.4 0 5.1 3.4 0 5.2 3.4 0 5.3 3.4 0 5.4 3.4 0 5.5 3.4 0 5.6 3.4 0 5.7 3.4 0 5.8 3.4 0 5.9 3.4 0 6 3.4 0 6.1 3.4 0 6.2 3.4 0 6.3 3.4 0 6.4 3.4 0 6.5 3.4 0 6.6 3.4 0 6.7 3.4 0 6.8 3.4 0 6.9 3.4 0 7 3.4 0 7.1 3.4 0 7.2 3.4 0 7.3 3.4 0 7.4 3.4 0 7.5 3.4 0 7.6 3.4 0 7.7 3.4 0 7.8 3.4 0 7.9 3.4 0 8 3.4 0 8.1 3.4 0 8.2 3.4 0 8.3 3.4 0 8.4 3.4 0 8.5 3.4 0 8.6 3.4 0 8.7 3.4 0 8.8 3.4 0 8.9 3.4 0 9 3.4 0 9.1 3.4 0 9.2 3.4 0 9.3 3.4 0 9.4 3.4 0 9.5 3.4 0 9.6 3.4 0 9.7 3.4 0 9.8 3.4 0 9.9 3.4 0 10 3.4 0 0 3.5 0 0.1 3.5 0 0.2 3.5 0 0.3 3.5 0 0.4 3.5 0 0.5 3.5 0 0.6 3.5 0 0.7 3.5 0 0.8 3.5 0 0.9 3.5 0 1 3.5 0 1.1 3.5 0 1.2 3.5 0 1.3 3.5 0 1.4 3.5 0 1.5 3.5 0 1.6 3.5 0 1.7 3.5 0 1.8 3.5 0 1.9 3.5 0 2 3.5 0 2.1 3.5 0 2.2 3.5 0 2.3 3.5 0 2.4 3.5 0 2.5 3.5 0 2.6 3.5 0 2.7 3.5 0 2.8 3.5 0 2.9 3.5 0 3 3.5 0 3.1 3.5 0 3.2 3.5 0 3.3 3.5 0 3.4 3.5 0 3.5 3.5 0 3.6 3.5 0 3.7 3.5 0 3.8 3.5 0 3.9 3.5 0 4 3.5 0 4.1 3.5 0 4.2 3.5 0 4.3 3.5 0 4.4 3.5 0 4.5 3.5 0 4.6 3.5 0 4.7 3.5 0 4.8 3.5 0 4.9 3.5 0 5 3.5 0 5.1 3.5 0 5.2 3.5 0 5.3 3.5 0 5.4 3.5 0 5.5 3.5 0 5.6 3.5 0 5.7 3.5 0 5.8 3.5 0 5.9 3.5 0 6 3.5 0 6.1 3.5 0 6.2 3.5 0 6.3 3.5 0 6.4 3.5 0 6.5 3.5 0 6.6 3.5 0 6.7 3.5 0 6.8 3.5 0 6.9 3.5 0 7 3.5 0 7.1 3.5 0 7.2 3.5 0 7.3 3.5 0 7.4 3.5 0 7.5 3.5 0 7.6 3.5 0 7.7 3.5 0 7.8 3.5 0 7.9 3.5 0 8 3.5 0 8.1 3.5 0 8.2 3.5 0 8.3 3.5 0 8.4 3.5 0 8.5 3.5 0 8.6 3.5 0 8.7 3.5 0 8.8 3.5 0 8.9 3.5 0 9 3.5 0 9.1 3.5 0 9.2 3.5 0 9.3 3.5 0 9.4 3.5 0 9.5 3.5 0 9.6 3.5 0 9.7 3.5 0 9.8 3.5 0 9.9 3.5 0 10 3.5 0 0 3.6 0 0.1 3.6 0 0.2 3.6 0 0.3 3.6 0 0.4 3.6 0 0.5 3.6 0 0.6 3.6 0 0.7 3.6 0 0.8 3.6 0 0.9 3.6 0 1 3.6 0 1.1 3.6 0 1.2 3.6 0 1.3 3.6 0 1.4 3.6 0 1.5 3.6 0 1.6 3.6 0 1.7 3.6 0 1.8 3.6 0 1.9 3.6 0 2 3.6 0 2.1 3.6 0 2.2 3.6 0 2.3 3.6 0 2.4 3.6 0 2.5 3.6 0 2.6 3.6 0 2.7 3.6 0 2.8 3.6 0 2.9 3.6 0 3 3.6 0 3.1 3.6 0 3.2 3.6 0 3.3 3.6 0 3.4 3.6 0 3.5 3.6 0 3.6 3.6 0 3.7 3.6 0 3.8 3.6 0 3.9 3.6 0 4 3.6 0 4.1 3.6 0 4.2 3.6 0 4.3 3.6 0 4.4 3.6 0 4.5 3.6 0 4.6 3.6 0 4.7 3.6 0 4.8 3.6 0 4.9 3.6 0 5 3.6 0 5.1 3.6 0 5.2 3.6 0 5.3 3.6 0 5.4 3.6 0 5.5 3.6 0 5.6 3.6 0 5.7 3.6 0 5.8 3.6 0 5.9 3.6 0 6 3.6 0 6.1 3.6 0 6.2 3.6 0 6.3 3.6 0 6.4 3.6 0 6.5 3.6 0 6.6 3.6 0 6.7 3.6 0 6.8 3.6 0 6.9 3.6 0 7 3.6 0 7.1 3.6 0 7.2 3.6 0 7.3 3.6 0 7.4 3.6 0 7.5 3.6 0 7.6 3.6 0 7.7 3.6 0 7.8 3.6 0 7.9 3.6 0 8 3.6 0 8.1 3.6 0 8.2 3.6 0 8.3 3.6 0 8.4 3.6 0 8.5 3.6 0 8.6 3.6 0 8.7 3.6 0 8.8 3.6 0 8.9 3.6 0 9 3.6 0 9.1 3.6 0 9.2 3.6 0 9.3 3.6 0 9.4 3.6 0 9.5 3.6 0 9.6 3.6 0 9.7 3.6 0 9.8 3.6 0 9.9 3.6 0 10 3.6 0 0 3.7 0 0.1 3.7 0 0.2 3.7 0 0.3 3.7 0 0.4 3.7 0 0.5 3.7 0 0.6 3.7 0 0.7 3.7 0 0.8 3.7 0 0.9 3.7 0 1 3.7 0 1.1 3.7 0 1.2 3.7 0 1.3 3.7 0 1.4 3.7 0 1.5 3.7 0 1.6 3.7 0 1.7 3.7 0 1.8 3.7 0 1.9 3.7 0 2 3.7 0 2.1 3.7 0 2.2 3.7 0 2.3 3.7 0 2.4 3.7 0 2.5 3.7 0 2.6 3.7 0 2.7 3.7 0 2.8 3.7 0 2.9 3.7 0 3 3.7 0 3.1 3.7 0 3.2 3.7 0 3.3 3.7 0 3.4 3.7 0 3.5 3.7 0 3.6 3.7 0 3.7 3.7 0 3.8 3.7 0 3.9 3.7 0 4 3.7 0 4.1 3.7 0 4.2 3.7 0 4.3 3.7 0 4.4 3.7 0 4.5 3.7 0 4.6 3.7 0 4.7 3.7 0 4.8 3.7 0 4.9 3.7 0 5 3.7 0 5.1 3.7 0 5.2 3.7 0 5.3 3.7 0 5.4 3.7 0 5.5 3.7 0 5.6 3.7 0 5.7 3.7 0 5.8 3.7 0 5.9 3.7 0 6 3.7 0 6.1 3.7 0 6.2 3.7 0 6.3 3.7 0 6.4 3.7 0 6.5 3.7 0 6.6 3.7 0 6.7 3.7 0 6.8 3.7 0 6.9 3.7 0 7 3.7 0 7.1 3.7 0 7.2 3.7 0 7.3 3.7 0 7.4 3.7 0 7.5 3.7 0 7.6 3.7 0 7.7 3.7 0 7.8 3.7 0 7.9 3.7 0 8 3.7 0 8.1 3.7 0 8.2 3.7 0 8.3 3.7 0 8.4 3.7 0 8.5 3.7 0 8.6 3.7 0 8.7 3.7 0 8.8 3.7 0 8.9 3.7 0 9 3.7 0 9.1 3.7 0 9.2 3.7 0 9.3 3.7 0 9.4 3.7 0 9.5 3.7 0 9.6 3.7 0 9.7 3.7 0 9.8 3.7 0 9.9 3.7 0 10 3.7 0 0 3.8 0 0.1 3.8 0 0.2 3.8 0 0.3 3.8 0 0.4 3.8 0 0.5 3.8 0 0.6 3.8 0 0.7 3.8 0 0.8 3.8 0 0.9 3.8 0 1 3.8 0 1.1 3.8 0 1.2 3.8 0 1.3 3.8 0 1.4 3.8 0 1.5 3.8 0 1.6 3.8 0 1.7 3.8 0 1.8 3.8 0 1.9 3.8 0 2 3.8 0 2.1 3.8 0 2.2 3.8 0 2.3 3.8 0 2.4 3.8 0 2.5 3.8 0 2.6 3.8 0 2.7 3.8 0 2.8 3.8 0 2.9 3.8 0 3 3.8 0 3.1 3.8 0 3.2 3.8 0 3.3 3.8 0 3.4 3.8 0 3.5 3.8 0 3.6 3.8 0 3.7 3.8 0 3.8 3.8 0 3.9 3.8 0 4 3.8 0 4.1 3.8 0 4.2 3.8 0 4.3 3.8 0 4.4 3.8 0 4.5 3.8 0 4.6 3.8 0 4.7 3.8 0 4.8 3.8 0 4.9 3.8 0 5 3.8 0 5.1 3.8 0 5.2 3.8 0 5.3 3.8 0 5.4 3.8 0 5.5 3.8 0 5.6 3.8 0 5.7 3.8 0 5.8 3.8 0 5.9 3.8 0 6 3.8 0 6.1 3.8 0 6.2 3.8 0 6.3 3.8 0 6.4 3.8 0 6.5 3.8 0 6.6 3.8 0 6.7 3.8 0 6.8 3.8 0 6.9 3.8 0 7 3.8 0 7.1 3.8 0 7.2 3.8 0 7.3 3.8 0 7.4 3.8 0 7.5 3.8 0 7.6 3.8 0 7.7 3.8 0 7.8 3.8 0 7.9 3.8 0 8 3.8 0 8.1 3.8 0 8.2 3.8 0 8.3 3.8 0 8.4 3.8 0 8.5 3.8 0 8.6 3.8 0 8.7 3.8 0 8.8 3.8 0 8.9 3.8 0 9 3.8 0 9.1 3.8 0 9.2 3.8 0 9.3 3.8 0 9.4 3.8 0 9.5 3.8 0 9.6 3.8 0 9.7 3.8 0 9.8 3.8 0 9.9 3.8 0 10 3.8 0 0 3.9 0 0.1 3.9 0 0.2 3.9 0 0.3 3.9 0 0.4 3.9 0 0.5 3.9 0 0.6 3.9 0 0.7 3.9 0 0.8 3.9 0 0.9 3.9 0 1 3.9 0 1.1 3.9 0 1.2 3.9 0 1.3 3.9 0 1.4 3.9 0 1.5 3.9 0 1.6 3.9 0 1.7 3.9 0 1.8 3.9 0 1.9 3.9 0 2 3.9 0 2.1 3.9 0 2.2 3.9 0 2.3 3.9 0 2.4 3.9 0 2.5 3.9 0 2.6 3.9 0 2.7 3.9 0 2.8 3.9 0 2.9 3.9 0 3 3.9 0 3.1 3.9 0 3.2 3.9 0 3.3 3.9 0 3.4 3.9 0 3.5 3.9 0 3.6 3.9 0 3.7 3.9 0 3.8 3.9 0 3.9 3.9 0 4 3.9 0 4.1 3.9 0 4.2 3.9 0 4.3 3.9 0 4.4 3.9 0 4.5 3.9 0 4.6 3.9 0 4.7 3.9 0 4.8 3.9 0 4.9 3.9 0 5 3.9 0 5.1 3.9 0 5.2 3.9 0 5.3 3.9 0 5.4 3.9 0 5.5 3.9 0 5.6 3.9 0 5.7 3.9 0 5.8 3.9 0 5.9 3.9 0 6 3.9 0 6.1 3.9 0 6.2 3.9 0 6.3 3.9 0 6.4 3.9 0 6.5 3.9 0 6.6 3.9 0 6.7 3.9 0 6.8 3.9 0 6.9 3.9 0 7 3.9 0 7.1 3.9 0 7.2 3.9 0 7.3 3.9 0 7.4 3.9 0 7.5 3.9 0 7.6 3.9 0 7.7 3.9 0 7.8 3.9 0 7.9 3.9 0 8 3.9 0 8.1 3.9 0 8.2 3.9 0 8.3 3.9 0 8.4 3.9 0 8.5 3.9 0 8.6 3.9 0 8.7 3.9 0 8.8 3.9 0 8.9 3.9 0 9 3.9 0 9.1 3.9 0 9.2 3.9 0 9.3 3.9 0 9.4 3.9 0 9.5 3.9 0 9.6 3.9 0 9.7 3.9 0 9.8 3.9 0 9.9 3.9 0 10 3.9 0 0 4 0 0.1 4 0 0.2 4 0 0.3 4 0 0.4 4 0 0.5 4 0 0.6 4 0 0.7 4 0 0.8 4 0 0.9 4 0 1 4 0 1.1 4 0 1.2 4 0 1.3 4 0 1.4 4 0 1.5 4 0 1.6 4 0 1.7 4 0 1.8 4 0 1.9 4 0 2 4 0 2.1 4 0 2.2 4 0 2.3 4 0 2.4 4 0 2.5 4 0 2.6 4 0 2.7 4 0 2.8 4 0 2.9 4 0 3 4 0 3.1 4 0 3.2 4 0 3.3 4 0 3.4 4 0 3.5 4 0 3.6 4 0 3.7 4 0 3.8 4 0 3.9 4 0 4 4 0 4.1 4 0 4.2 4 0 4.3 4 0 4.4 4 0 4.5 4 0 4.6 4 0 4.7 4 0 4.8 4 0 4.9 4 0 5 4 0 5.1 4 0 5.2 4 0 5.3 4 0 5.4 4 0 5.5 4 0 5.6 4 0 5.7 4 0 5.8 4 0 5.9 4 0 6 4 0 6.1 4 0 6.2 4 0 6.3 4 0 6.4 4 0 6.5 4 0 6.6 4 0 6.7 4 0 6.8 4 0 6.9 4 0 7 4 0 7.1 4 0 7.2 4 0 7.3 4 0 7.4 4 0 7.5 4 0 7.6 4 0 7.7 4 0 7.8 4 0 7.9 4 0 8 4 0 8.1 4 0 8.2 4 0 8.3 4 0 8.4 4 0 8.5 4 0 8.6 4 0 8.7 4 0 8.8 4 0 8.9 4 0 9 4 0 9.1 4 0 9.2 4 0 9.3 4 0 9.4 4 0 9.5 4 0 9.6 4 0 9.7 4 0 9.8 4 0 9.9 4 0 10 4 0 0 4.1 0 0.1 4.1 0 0.2 4.1 0 0.3 4.1 0 0.4 4.1 0 0.5 4.1 0 0.6 4.1 0 0.7 4.1 0 0.8 4.1 0 0.9 4.1 0 1 4.1 0 1.1 4.1 0 1.2 4.1 0 1.3 4.1 0 1.4 4.1 0 1.5 4.1 0 1.6 4.1 0 1.7 4.1 0 1.8 4.1 0 1.9 4.1 0 2 4.1 0 2.1 4.1 0 2.2 4.1 0 2.3 4.1 0 2.4 4.1 0 2.5 4.1 0 2.6 4.1 0 2.7 4.1 0 2.8 4.1 0 2.9 4.1 0 3 4.1 0 3.1 4.1 0 3.2 4.1 0 3.3 4.1 0 3.4 4.1 0 3.5 4.1 0 3.6 4.1 0 3.7 4.1 0 3.8 4.1 0 3.9 4.1 0 4 4.1 0 4.1 4.1 0 4.2 4.1 0 4.3 4.1 0 4.4 4.1 0 4.5 4.1 0 4.6 4.1 0 4.7 4.1 0 4.8 4.1 0 4.9 4.1 0 5 4.1 0 5.1 4.1 0 5.2 4.1 0 5.3 4.1 0 5.4 4.1 0 5.5 4.1 0 5.6 4.1 0 5.7 4.1 0 5.8 4.1 0 5.9 4.1 0 6 4.1 0 6.1 4.1 0 6.2 4.1 0 6.3 4.1 0 6.4 4.1 0 6.5 4.1 0 6.6 4.1 0 6.7 4.1 0 6.8 4.1 0 6.9 4.1 0 7 4.1 0 7.1 4.1 0 7.2 4.1 0 7.3 4.1 0 7.4 4.1 0 7.5 4.1 0 7.6 4.1 0 7.7 4.1 0 7.8 4.1 0 7.9 4.1 0 8 4.1 0 8.1 4.1 0 8.2 4.1 0 8.3 4.1 0 8.4 4.1 0 8.5 4.1 0 8.6 4.1 0 8.7 4.1 0 8.8 4.1 0 8.9 4.1 0 9 4.1 0 9.1 4.1 0 9.2 4.1 0 9.3 4.1 0 9.4 4.1 0 9.5 4.1 0 9.6 4.1 0 9.7 4.1 0 9.8 4.1 0 9.9 4.1 0 10 4.1 0 0 4.2 0 0.1 4.2 0 0.2 4.2 0 0.3 4.2 0 0.4 4.2 0 0.5 4.2 0 0.6 4.2 0 0.7 4.2 0 0.8 4.2 0 0.9 4.2 0 1 4.2 0 1.1 4.2 0 1.2 4.2 0 1.3 4.2 0 1.4 4.2 0 1.5 4.2 0 1.6 4.2 0 1.7 4.2 0 1.8 4.2 0 1.9 4.2 0 2 4.2 0 2.1 4.2 0 2.2 4.2 0 2.3 4.2 0 2.4 4.2 0 2.5 4.2 0 2.6 4.2 0 2.7 4.2 0 2.8 4.2 0 2.9 4.2 0 3 4.2 0 3.1 4.2 0 3.2 4.2 0 3.3 4.2 0 3.4 4.2 0 3.5 4.2 0 3.6 4.2 0 3.7 4.2 0 3.8 4.2 0 3.9 4.2 0 4 4.2 0 4.1 4.2 0 4.2 4.2 0 4.3 4.2 0 4.4 4.2 0 4.5 4.2 0 4.6 4.2 0 4.7 4.2 0 4.8 4.2 0 4.9 4.2 0 5 4.2 0 5.1 4.2 0 5.2 4.2 0 5.3 4.2 0 5.4 4.2 0 5.5 4.2 0 5.6 4.2 0 5.7 4.2 0 5.8 4.2 0 5.9 4.2 0 6 4.2 0 6.1 4.2 0 6.2 4.2 0 6.3 4.2 0 6.4 4.2 0 6.5 4.2 0 6.6 4.2 0 6.7 4.2 0 6.8 4.2 0 6.9 4.2 0 7 4.2 0 7.1 4.2 0 7.2 4.2 0 7.3 4.2 0 7.4 4.2 0 7.5 4.2 0 7.6 4.2 0 7.7 4.2 0 7.8 4.2 0 7.9 4.2 0 8 4.2 0 8.1 4.2 0 8.2 4.2 0 8.3 4.2 0 8.4 4.2 0 8.5 4.2 0 8.6 4.2 0 8.7 4.2 0 8.8 4.2 0 8.9 4.2 0 9 4.2 0 9.1 4.2 0 9.2 4.2 0 9.3 4.2 0 9.4 4.2 0 9.5 4.2 0 9.6 4.2 0 9.7 4.2 0 9.8 4.2 0 9.9 4.2 0 10 4.2 0 0 4.3 0 0.1 4.3 0 0.2 4.3 0 0.3 4.3 0 0.4 4.3 0 0.5 4.3 0 0.6 4.3 0 0.7 4.3 0 0.8 4.3 0 0.9 4.3 0 1 4.3 0 1.1 4.3 0 1.2 4.3 0 1.3 4.3 0 1.4 4.3 0 1.5 4.3 0 1.6 4.3 0 1.7 4.3 0 1.8 4.3 0 1.9 4.3 0 2 4.3 0 2.1 4.3 0 2.2 4.3 0 2.3 4.3 0 2.4 4.3 0 2.5 4.3 0 2.6 4.3 0 2.7 4.3 0 2.8 4.3 0 2.9 4.3 0 3 4.3 0 3.1 4.3 0 3.2 4.3 0 3.3 4.3 0 3.4 4.3 0 3.5 4.3 0 3.6 4.3 0 3.7 4.3 0 3.8 4.3 0 3.9 4.3 0 4 4.3 0 4.1 4.3 0 4.2 4.3 0 4.3 4.3 0 4.4 4.3 0 4.5 4.3 0 4.6 4.3 0 4.7 4.3 0 4.8 4.3 0 4.9 4.3 0 5 4.3 0 5.1 4.3 0 5.2 4.3 0 5.3 4.3 0 5.4 4.3 0 5.5 4.3 0 5.6 4.3 0 5.7 4.3 0 5.8 4.3 0 5.9 4.3 0 6 4.3 0 6.1 4.3 0 6.2 4.3 0 6.3 4.3 0 6.4 4.3 0 6.5 4.3 0 6.6 4.3 0 6.7 4.3 0 6.8 4.3 0 6.9 4.3 0 7 4.3 0 7.1 4.3 0 7.2 4.3 0 7.3 4.3 0 7.4 4.3 0 7.5 4.3 0 7.6 4.3 0 7.7 4.3 0 7.8 4.3 0 7.9 4.3 0 8 4.3 0 8.1 4.3 0 8.2 4.3 0 8.3 4.3 0 8.4 4.3 0 8.5 4.3 0 8.6 4.3 0 8.7 4.3 0 8.8 4.3 0 8.9 4.3 0 9 4.3 0 9.1 4.3 0 9.2 4.3 0 9.3 4.3 0 9.4 4.3 0 9.5 4.3 0 9.6 4.3 0 9.7 4.3 0 9.8 4.3 0 9.9 4.3 0 10 4.3 0 0 4.4 0 0.1 4.4 0 0.2 4.4 0 0.3 4.4 0 0.4 4.4 0 0.5 4.4 0 0.6 4.4 0 0.7 4.4 0 0.8 4.4 0 0.9 4.4 0 1 4.4 0 1.1 4.4 0 1.2 4.4 0 1.3 4.4 0 1.4 4.4 0 1.5 4.4 0 1.6 4.4 0 1.7 4.4 0 1.8 4.4 0 1.9 4.4 0 2 4.4 0 2.1 4.4 0 2.2 4.4 0 2.3 4.4 0 2.4 4.4 0 2.5 4.4 0 2.6 4.4 0 2.7 4.4 0 2.8 4.4 0 2.9 4.4 0 3 4.4 0 3.1 4.4 0 3.2 4.4 0 3.3 4.4 0 3.4 4.4 0 3.5 4.4 0 3.6 4.4 0 3.7 4.4 0 3.8 4.4 0 3.9 4.4 0 4 4.4 0 4.1 4.4 0 4.2 4.4 0 4.3 4.4 0 4.4 4.4 0 4.5 4.4 0 4.6 4.4 0 4.7 4.4 0 4.8 4.4 0 4.9 4.4 0 5 4.4 0 5.1 4.4 0 5.2 4.4 0 5.3 4.4 0 5.4 4.4 0 5.5 4.4 0 5.6 4.4 0 5.7 4.4 0 5.8 4.4 0 5.9 4.4 0 6 4.4 0 6.1 4.4 0 6.2 4.4 0 6.3 4.4 0 6.4 4.4 0 6.5 4.4 0 6.6 4.4 0 6.7 4.4 0 6.8 4.4 0 6.9 4.4 0 7 4.4 0 7.1 4.4 0 7.2 4.4 0 7.3 4.4 0 7.4 4.4 0 7.5 4.4 0 7.6 4.4 0 7.7 4.4 0 7.8 4.4 0 7.9 4.4 0 8 4.4 0 8.1 4.4 0 8.2 4.4 0 8.3 4.4 0 8.4 4.4 0 8.5 4.4 0 8.6 4.4 0 8.7 4.4 0 8.8 4.4 0 8.9 4.4 0 9 4.4 0 9.1 4.4 0 9.2 4.4 0 9.3 4.4 0 9.4 4.4 0 9.5 4.4 0 9.6 4.4 0 9.7 4.4 0 9.8 4.4 0 9.9 4.4 0 10 4.4 0 0 4.5 0 0.1 4.5 0 0.2 4.5 0 0.3 4.5 0 0.4 4.5 0 0.5 4.5 0 0.6 4.5 0 0.7 4.5 0 0.8 4.5 0 0.9 4.5 0 1 4.5 0 1.1 4.5 0 1.2 4.5 0 1.3 4.5 0 1.4 4.5 0 1.5 4.5 0 1.6 4.5 0 1.7 4.5 0 1.8 4.5 0 1.9 4.5 0 2 4.5 0 2.1 4.5 0 2.2 4.5 0 2.3 4.5 0 2.4 4.5 0 2.5 4.5 0 2.6 4.5 0 2.7 4.5 0 2.8 4.5 0 2.9 4.5 0 3 4.5 0 3.1 4.5 0 3.2 4.5 0 3.3 4.5 0 3.4 4.5 0 3.5 4.5 0 3.6 4.5 0 3.7 4.5 0 3.8 4.5 0 3.9 4.5 0 4 4.5 0 4.1 4.5 0 4.2 4.5 0 4.3 4.5 0 4.4 4.5 0 4.5 4.5 0 4.6 4.5 0 4.7 4.5 0 4.8 4.5 0 4.9 4.5 0 5 4.5 0 5.1 4.5 0 5.2 4.5 0 5.3 4.5 0 5.4 4.5 0 5.5 4.5 0 5.6 4.5 0 5.7 4.5 0 5.8 4.5 0 5.9 4.5 0 6 4.5 0 6.1 4.5 0 6.2 4.5 0 6.3 4.5 0 6.4 4.5 0 6.5 4.5 0 6.6 4.5 0 6.7 4.5 0 6.8 4.5 0 6.9 4.5 0 7 4.5 0 7.1 4.5 0 7.2 4.5 0 7.3 4.5 0 7.4 4.5 0 7.5 4.5 0 7.6 4.5 0 7.7 4.5 0 7.8 4.5 0 7.9 4.5 0 8 4.5 0 8.1 4.5 0 8.2 4.5 0 8.3 4.5 0 8.4 4.5 0 8.5 4.5 0 8.6 4.5 0 8.7 4.5 0 8.8 4.5 0 8.9 4.5 0 9 4.5 0 9.1 4.5 0 9.2 4.5 0 9.3 4.5 0 9.4 4.5 0 9.5 4.5 0 9.6 4.5 0 9.7 4.5 0 9.8 4.5 0 9.9 4.5 0 10 4.5 0 0 4.6 0 0.1 4.6 0 0.2 4.6 0 0.3 4.6 0 0.4 4.6 0 0.5 4.6 0 0.6 4.6 0 0.7 4.6 0 0.8 4.6 0 0.9 4.6 0 1 4.6 0 1.1 4.6 0 1.2 4.6 0 1.3 4.6 0 1.4 4.6 0 1.5 4.6 0 1.6 4.6 0 1.7 4.6 0 1.8 4.6 0 1.9 4.6 0 2 4.6 0 2.1 4.6 0 2.2 4.6 0 2.3 4.6 0 2.4 4.6 0 2.5 4.6 0 2.6 4.6 0 2.7 4.6 0 2.8 4.6 0 2.9 4.6 0 3 4.6 0 3.1 4.6 0 3.2 4.6 0 3.3 4.6 0 3.4 4.6 0 3.5 4.6 0 3.6 4.6 0 3.7 4.6 0 3.8 4.6 0 3.9 4.6 0 4 4.6 0 4.1 4.6 0 4.2 4.6 0 4.3 4.6 0 4.4 4.6 0 4.5 4.6 0 4.6 4.6 0 4.7 4.6 0 4.8 4.6 0 4.9 4.6 0 5 4.6 0 5.1 4.6 0 5.2 4.6 0 5.3 4.6 0 5.4 4.6 0 5.5 4.6 0 5.6 4.6 0 5.7 4.6 0 5.8 4.6 0 5.9 4.6 0 6 4.6 0 6.1 4.6 0 6.2 4.6 0 6.3 4.6 0 6.4 4.6 0 6.5 4.6 0 6.6 4.6 0 6.7 4.6 0 6.8 4.6 0 6.9 4.6 0 7 4.6 0 7.1 4.6 0 7.2 4.6 0 7.3 4.6 0 7.4 4.6 0 7.5 4.6 0 7.6 4.6 0 7.7 4.6 0 7.8 4.6 0 7.9 4.6 0 8 4.6 0 8.1 4.6 0 8.2 4.6 0 8.3 4.6 0 8.4 4.6 0 8.5 4.6 0 8.6 4.6 0 8.7 4.6 0 8.8 4.6 0 8.9 4.6 0 9 4.6 0 9.1 4.6 0 9.2 4.6 0 9.3 4.6 0 9.4 4.6 0 9.5 4.6 0 9.6 4.6 0 9.7 4.6 0 9.8 4.6 0 9.9 4.6 0 10 4.6 0 0 4.7 0 0.1 4.7 0 0.2 4.7 0 0.3 4.7 0 0.4 4.7 0 0.5 4.7 0 0.6 4.7 0 0.7 4.7 0 0.8 4.7 0 0.9 4.7 0 1 4.7 0 1.1 4.7 0 1.2 4.7 0 1.3 4.7 0 1.4 4.7 0 1.5 4.7 0 1.6 4.7 0 1.7 4.7 0 1.8 4.7 0 1.9 4.7 0 2 4.7 0 2.1 4.7 0 2.2 4.7 0 2.3 4.7 0 2.4 4.7 0 2.5 4.7 0 2.6 4.7 0 2.7 4.7 0 2.8 4.7 0 2.9 4.7 0 3 4.7 0 3.1 4.7 0 3.2 4.7 0 3.3 4.7 0 3.4 4.7 0 3.5 4.7 0 3.6 4.7 0 3.7 4.7 0 3.8 4.7 0 3.9 4.7 0 4 4.7 0 4.1 4.7 0 4.2 4.7 0 4.3 4.7 0 4.4 4.7 0 4.5 4.7 0 4.6 4.7 0 4.7 4.7 0 4.8 4.7 0 4.9 4.7 0 5 4.7 0 5.1 4.7 0 5.2 4.7 0 5.3 4.7 0 5.4 4.7 0 5.5 4.7 0 5.6 4.7 0 5.7 4.7 0 5.8 4.7 0 5.9 4.7 0 6 4.7 0 6.1 4.7 0 6.2 4.7 0 6.3 4.7 0 6.4 4.7 0 6.5 4.7 0 6.6 4.7 0 6.7 4.7 0 6.8 4.7 0 6.9 4.7 0 7 4.7 0 7.1 4.7 0 7.2 4.7 0 7.3 4.7 0 7.4 4.7 0 7.5 4.7 0 7.6 4.7 0 7.7 4.7 0 7.8 4.7 0 7.9 4.7 0 8 4.7 0 8.1 4.7 0 8.2 4.7 0 8.3 4.7 0 8.4 4.7 0 8.5 4.7 0 8.6 4.7 0 8.7 4.7 0 8.8 4.7 0 8.9 4.7 0 9 4.7 0 9.1 4.7 0 9.2 4.7 0 9.3 4.7 0 9.4 4.7 0 9.5 4.7 0 9.6 4.7 0 9.7 4.7 0 9.8 4.7 0 9.9 4.7 0 10 4.7 0 0 4.8 0 0.1 4.8 0 0.2 4.8 0 0.3 4.8 0 0.4 4.8 0 0.5 4.8 0 0.6 4.8 0 0.7 4.8 0 0.8 4.8 0 0.9 4.8 0 1 4.8 0 1.1 4.8 0 1.2 4.8 0 1.3 4.8 0 1.4 4.8 0 1.5 4.8 0 1.6 4.8 0 1.7 4.8 0 1.8 4.8 0 1.9 4.8 0 2 4.8 0 2.1 4.8 0 2.2 4.8 0 2.3 4.8 0 2.4 4.8 0 2.5 4.8 0 2.6 4.8 0 2.7 4.8 0 2.8 4.8 0 2.9 4.8 0 3 4.8 0 3.1 4.8 0 3.2 4.8 0 3.3 4.8 0 3.4 4.8 0 3.5 4.8 0 3.6 4.8 0 3.7 4.8 0 3.8 4.8 0 3.9 4.8 0 4 4.8 0 4.1 4.8 0 4.2 4.8 0 4.3 4.8 0 4.4 4.8 0 4.5 4.8 0 4.6 4.8 0 4.7 4.8 0 4.8 4.8 0 4.9 4.8 0 5 4.8 0 5.1 4.8 0 5.2 4.8 0 5.3 4.8 0 5.4 4.8 0 5.5 4.8 0 5.6 4.8 0 5.7 4.8 0 5.8 4.8 0 5.9 4.8 0 6 4.8 0 6.1 4.8 0 6.2 4.8 0 6.3 4.8 0 6.4 4.8 0 6.5 4.8 0 6.6 4.8 0 6.7 4.8 0 6.8 4.8 0 6.9 4.8 0 7 4.8 0 7.1 4.8 0 7.2 4.8 0 7.3 4.8 0 7.4 4.8 0 7.5 4.8 0 7.6 4.8 0 7.7 4.8 0 7.8 4.8 0 7.9 4.8 0 8 4.8 0 8.1 4.8 0 8.2 4.8 0 8.3 4.8 0 8.4 4.8 0 8.5 4.8 0 8.6 4.8 0 8.7 4.8 0 8.8 4.8 0 8.9 4.8 0 9 4.8 0 9.1 4.8 0 9.2 4.8 0 9.3 4.8 0 9.4 4.8 0 9.5 4.8 0 9.6 4.8 0 9.7 4.8 0 9.8 4.8 0 9.9 4.8 0 10 4.8 0 0 4.9 0 0.1 4.9 0 0.2 4.9 0 0.3 4.9 0 0.4 4.9 0 0.5 4.9 0 0.6 4.9 0 0.7 4.9 0 0.8 4.9 0 0.9 4.9 0 1 4.9 0 1.1 4.9 0 1.2 4.9 0 1.3 4.9 0 1.4 4.9 0 1.5 4.9 0 1.6 4.9 0 1.7 4.9 0 1.8 4.9 0 1.9 4.9 0 2 4.9 0 2.1 4.9 0 2.2 4.9 0 2.3 4.9 0 2.4 4.9 0 2.5 4.9 0 2.6 4.9 0 2.7 4.9 0 2.8 4.9 0 2.9 4.9 0 3 4.9 0 3.1 4.9 0 3.2 4.9 0 3.3 4.9 0 3.4 4.9 0 3.5 4.9 0 3.6 4.9 0 3.7 4.9 0 3.8 4.9 0 3.9 4.9 0 4 4.9 0 4.1 4.9 0 4.2 4.9 0 4.3 4.9 0 4.4 4.9 0 4.5 4.9 0 4.6 4.9 0 4.7 4.9 0 4.8 4.9 0 4.9 4.9 0 5 4.9 0 5.1 4.9 0 5.2 4.9 0 5.3 4.9 0 5.4 4.9 0 5.5 4.9 0 5.6 4.9 0 5.7 4.9 0 5.8 4.9 0 5.9 4.9 0 6 4.9 0 6.1 4.9 0 6.2 4.9 0 6.3 4.9 0 6.4 4.9 0 6.5 4.9 0 6.6 4.9 0 6.7 4.9 0 6.8 4.9 0 6.9 4.9 0 7 4.9 0 7.1 4.9 0 7.2 4.9 0 7.3 4.9 0 7.4 4.9 0 7.5 4.9 0 7.6 4.9 0 7.7 4.9 0 7.8 4.9 0 7.9 4.9 0 8 4.9 0 8.1 4.9 0 8.2 4.9 0 8.3 4.9 0 8.4 4.9 0 8.5 4.9 0 8.6 4.9 0 8.7 4.9 0 8.8 4.9 0 8.9 4.9 0 9 4.9 0 9.1 4.9 0 9.2 4.9 0 9.3 4.9 0 9.4 4.9 0 9.5 4.9 0 9.6 4.9 0 9.7 4.9 0 9.8 4.9 0 9.9 4.9 0 10 4.9 0 0 5 0 0.1 5 0 0.2 5 0 0.3 5 0 0.4 5 0 0.5 5 0 0.6 5 0 0.7 5 0 0.8 5 0 0.9 5 0 1 5 0 1.1 5 0 1.2 5 0 1.3 5 0 1.4 5 0 1.5 5 0 1.6 5 0 1.7 5 0 1.8 5 0 1.9 5 0 2 5 0 2.1 5 0 2.2 5 0 2.3 5 0 2.4 5 0 2.5 5 0 2.6 5 0 2.7 5 0 2.8 5 0 2.9 5 0 3 5 0 3.1 5 0 3.2 5 0 3.3 5 0 3.4 5 0 3.5 5 0 3.6 5 0 3.7 5 0 3.8 5 0 3.9 5 0 4 5 0 4.1 5 0 4.2 5 0 4.3 5 0 4.4 5 0 4.5 5 0 4.6 5 0 4.7 5 0 4.8 5 0 4.9 5 0 5 5 0 5.1 5 0 5.2 5 0 5.3 5 0 5.4 5 0 5.5 5 0 5.6 5 0 5.7 5 0 5.8 5 0 5.9 5 0 6 5 0 6.1 5 0 6.2 5 0 6.3 5 0 6.4 5 0 6.5 5 0 6.6 5 0 6.7 5 0 6.8 5 0 6.9 5 0 7 5 0 7.1 5 0 7.2 5 0 7.3 5 0 7.4 5 0 7.5 5 0 7.6 5 0 7.7 5 0 7.8 5 0 7.9 5 0 8 5 0 8.1 5 0 8.2 5 0 8.3 5 0 8.4 5 0 8.5 5 0 8.6 5 0 8.7 5 0 8.8 5 0 8.9 5 0 9 5 0 9.1 5 0 9.2 5 0 9.3 5 0 9.4 5 0 9.5 5 0 9.6 5 0 9.7 5 0 9.8 5 0 9.9 5 0 10 5 0 0 5.1 0 0.1 5.1 0 0.2 5.1 0 0.3 5.1 0 0.4 5.1 0 0.5 5.1 0 0.6 5.1 0 0.7 5.1 0 0.8 5.1 0 0.9 5.1 0 1 5.1 0 1.1 5.1 0 1.2 5.1 0 1.3 5.1 0 1.4 5.1 0 1.5 5.1 0 1.6 5.1 0 1.7 5.1 0 1.8 5.1 0 1.9 5.1 0 2 5.1 0 2.1 5.1 0 2.2 5.1 0 2.3 5.1 0 2.4 5.1 0 2.5 5.1 0 2.6 5.1 0 2.7 5.1 0 2.8 5.1 0 2.9 5.1 0 3 5.1 0 3.1 5.1 0 3.2 5.1 0 3.3 5.1 0 3.4 5.1 0 3.5 5.1 0 3.6 5.1 0 3.7 5.1 0 3.8 5.1 0 3.9 5.1 0 4 5.1 0 4.1 5.1 0 4.2 5.1 0 4.3 5.1 0 4.4 5.1 0 4.5 5.1 0 4.6 5.1 0 4.7 5.1 0 4.8 5.1 0 4.9 5.1 0 5 5.1 0 5.1 5.1 0 5.2 5.1 0 5.3 5.1 0 5.4 5.1 0 5.5 5.1 0 5.6 5.1 0 5.7 5.1 0 5.8 5.1 0 5.9 5.1 0 6 5.1 0 6.1 5.1 0 6.2 5.1 0 6.3 5.1 0 6.4 5.1 0 6.5 5.1 0 6.6 5.1 0 6.7 5.1 0 6.8 5.1 0 6.9 5.1 0 7 5.1 0 7.1 5.1 0 7.2 5.1 0 7.3 5.1 0 7.4 5.1 0 7.5 5.1 0 7.6 5.1 0 7.7 5.1 0 7.8 5.1 0 7.9 5.1 0 8 5.1 0 8.1 5.1 0 8.2 5.1 0 8.3 5.1 0 8.4 5.1 0 8.5 5.1 0 8.6 5.1 0 8.7 5.1 0 8.8 5.1 0 8.9 5.1 0 9 5.1 0 9.1 5.1 0 9.2 5.1 0 9.3 5.1 0 9.4 5.1 0 9.5 5.1 0 9.6 5.1 0 9.7 5.1 0 9.8 5.1 0 9.9 5.1 0 10 5.1 0 0 5.2 0 0.1 5.2 0 0.2 5.2 0 0.3 5.2 0 0.4 5.2 0 0.5 5.2 0 0.6 5.2 0 0.7 5.2 0 0.8 5.2 0 0.9 5.2 0 1 5.2 0 1.1 5.2 0 1.2 5.2 0 1.3 5.2 0 1.4 5.2 0 1.5 5.2 0 1.6 5.2 0 1.7 5.2 0 1.8 5.2 0 1.9 5.2 0 2 5.2 0 2.1 5.2 0 2.2 5.2 0 2.3 5.2 0 2.4 5.2 0 2.5 5.2 0 2.6 5.2 0 2.7 5.2 0 2.8 5.2 0 2.9 5.2 0 3 5.2 0 3.1 5.2 0 3.2 5.2 0 3.3 5.2 0 3.4 5.2 0 3.5 5.2 0 3.6 5.2 0 3.7 5.2 0 3.8 5.2 0 3.9 5.2 0 4 5.2 0 4.1 5.2 0 4.2 5.2 0 4.3 5.2 0 4.4 5.2 0 4.5 5.2 0 4.6 5.2 0 4.7 5.2 0 4.8 5.2 0 4.9 5.2 0 5 5.2 0 5.1 5.2 0 5.2 5.2 0 5.3 5.2 0 5.4 5.2 0 5.5 5.2 0 5.6 5.2 0 5.7 5.2 0 5.8 5.2 0 5.9 5.2 0 6 5.2 0 6.1 5.2 0 6.2 5.2 0 6.3 5.2 0 6.4 5.2 0 6.5 5.2 0 6.6 5.2 0 6.7 5.2 0 6.8 5.2 0 6.9 5.2 0 7 5.2 0 7.1 5.2 0 7.2 5.2 0 7.3 5.2 0 7.4 5.2 0 7.5 5.2 0 7.6 5.2 0 7.7 5.2 0 7.8 5.2 0 7.9 5.2 0 8 5.2 0 8.1 5.2 0 8.2 5.2 0 8.3 5.2 0 8.4 5.2 0 8.5 5.2 0 8.6 5.2 0 8.7 5.2 0 8.8 5.2 0 8.9 5.2 0 9 5.2 0 9.1 5.2 0 9.2 5.2 0 9.3 5.2 0 9.4 5.2 0 9.5 5.2 0 9.6 5.2 0 9.7 5.2 0 9.8 5.2 0 9.9 5.2 0 10 5.2 0 0 5.3 0 0.1 5.3 0 0.2 5.3 0 0.3 5.3 0 0.4 5.3 0 0.5 5.3 0 0.6 5.3 0 0.7 5.3 0 0.8 5.3 0 0.9 5.3 0 1 5.3 0 1.1 5.3 0 1.2 5.3 0 1.3 5.3 0 1.4 5.3 0 1.5 5.3 0 1.6 5.3 0 1.7 5.3 0 1.8 5.3 0 1.9 5.3 0 2 5.3 0 2.1 5.3 0 2.2 5.3 0 2.3 5.3 0 2.4 5.3 0 2.5 5.3 0 2.6 5.3 0 2.7 5.3 0 2.8 5.3 0 2.9 5.3 0 3 5.3 0 3.1 5.3 0 3.2 5.3 0 3.3 5.3 0 3.4 5.3 0 3.5 5.3 0 3.6 5.3 0 3.7 5.3 0 3.8 5.3 0 3.9 5.3 0 4 5.3 0 4.1 5.3 0 4.2 5.3 0 4.3 5.3 0 4.4 5.3 0 4.5 5.3 0 4.6 5.3 0 4.7 5.3 0 4.8 5.3 0 4.9 5.3 0 5 5.3 0 5.1 5.3 0 5.2 5.3 0 5.3 5.3 0 5.4 5.3 0 5.5 5.3 0 5.6 5.3 0 5.7 5.3 0 5.8 5.3 0 5.9 5.3 0 6 5.3 0 6.1 5.3 0 6.2 5.3 0 6.3 5.3 0 6.4 5.3 0 6.5 5.3 0 6.6 5.3 0 6.7 5.3 0 6.8 5.3 0 6.9 5.3 0 7 5.3 0 7.1 5.3 0 7.2 5.3 0 7.3 5.3 0 7.4 5.3 0 7.5 5.3 0 7.6 5.3 0 7.7 5.3 0 7.8 5.3 0 7.9 5.3 0 8 5.3 0 8.1 5.3 0 8.2 5.3 0 8.3 5.3 0 8.4 5.3 0 8.5 5.3 0 8.6 5.3 0 8.7 5.3 0 8.8 5.3 0 8.9 5.3 0 9 5.3 0 9.1 5.3 0 9.2 5.3 0 9.3 5.3 0 9.4 5.3 0 9.5 5.3 0 9.6 5.3 0 9.7 5.3 0 9.8 5.3 0 9.9 5.3 0 10 5.3 0 0 5.4 0 0.1 5.4 0 0.2 5.4 0 0.3 5.4 0 0.4 5.4 0 0.5 5.4 0 0.6 5.4 0 0.7 5.4 0 0.8 5.4 0 0.9 5.4 0 1 5.4 0 1.1 5.4 0 1.2 5.4 0 1.3 5.4 0 1.4 5.4 0 1.5 5.4 0 1.6 5.4 0 1.7 5.4 0 1.8 5.4 0 1.9 5.4 0 2 5.4 0 2.1 5.4 0 2.2 5.4 0 2.3 5.4 0 2.4 5.4 0 2.5 5.4 0 2.6 5.4 0 2.7 5.4 0 2.8 5.4 0 2.9 5.4 0 3 5.4 0 3.1 5.4 0 3.2 5.4 0 3.3 5.4 0 3.4 5.4 0 3.5 5.4 0 3.6 5.4 0 3.7 5.4 0 3.8 5.4 0 3.9 5.4 0 4 5.4 0 4.1 5.4 0 4.2 5.4 0 4.3 5.4 0 4.4 5.4 0 4.5 5.4 0 4.6 5.4 0 4.7 5.4 0 4.8 5.4 0 4.9 5.4 0 5 5.4 0 5.1 5.4 0 5.2 5.4 0 5.3 5.4 0 5.4 5.4 0 5.5 5.4 0 5.6 5.4 0 5.7 5.4 0 5.8 5.4 0 5.9 5.4 0 6 5.4 0 6.1 5.4 0 6.2 5.4 0 6.3 5.4 0 6.4 5.4 0 6.5 5.4 0 6.6 5.4 0 6.7 5.4 0 6.8 5.4 0 6.9 5.4 0 7 5.4 0 7.1 5.4 0 7.2 5.4 0 7.3 5.4 0 7.4 5.4 0 7.5 5.4 0 7.6 5.4 0 7.7 5.4 0 7.8 5.4 0 7.9 5.4 0 8 5.4 0 8.1 5.4 0 8.2 5.4 0 8.3 5.4 0 8.4 5.4 0 8.5 5.4 0 8.6 5.4 0 8.7 5.4 0 8.8 5.4 0 8.9 5.4 0 9 5.4 0 9.1 5.4 0 9.2 5.4 0 9.3 5.4 0 9.4 5.4 0 9.5 5.4 0 9.6 5.4 0 9.7 5.4 0 9.8 5.4 0 9.9 5.4 0 10 5.4 0 0 5.5 0 0.1 5.5 0 0.2 5.5 0 0.3 5.5 0 0.4 5.5 0 0.5 5.5 0 0.6 5.5 0 0.7 5.5 0 0.8 5.5 0 0.9 5.5 0 1 5.5 0 1.1 5.5 0 1.2 5.5 0 1.3 5.5 0 1.4 5.5 0 1.5 5.5 0 1.6 5.5 0 1.7 5.5 0 1.8 5.5 0 1.9 5.5 0 2 5.5 0 2.1 5.5 0 2.2 5.5 0 2.3 5.5 0 2.4 5.5 0 2.5 5.5 0 2.6 5.5 0 2.7 5.5 0 2.8 5.5 0 2.9 5.5 0 3 5.5 0 3.1 5.5 0 3.2 5.5 0 3.3 5.5 0 3.4 5.5 0 3.5 5.5 0 3.6 5.5 0 3.7 5.5 0 3.8 5.5 0 3.9 5.5 0 4 5.5 0 4.1 5.5 0 4.2 5.5 0 4.3 5.5 0 4.4 5.5 0 4.5 5.5 0 4.6 5.5 0 4.7 5.5 0 4.8 5.5 0 4.9 5.5 0 5 5.5 0 5.1 5.5 0 5.2 5.5 0 5.3 5.5 0 5.4 5.5 0 5.5 5.5 0 5.6 5.5 0 5.7 5.5 0 5.8 5.5 0 5.9 5.5 0 6 5.5 0 6.1 5.5 0 6.2 5.5 0 6.3 5.5 0 6.4 5.5 0 6.5 5.5 0 6.6 5.5 0 6.7 5.5 0 6.8 5.5 0 6.9 5.5 0 7 5.5 0 7.1 5.5 0 7.2 5.5 0 7.3 5.5 0 7.4 5.5 0 7.5 5.5 0 7.6 5.5 0 7.7 5.5 0 7.8 5.5 0 7.9 5.5 0 8 5.5 0 8.1 5.5 0 8.2 5.5 0 8.3 5.5 0 8.4 5.5 0 8.5 5.5 0 8.6 5.5 0 8.7 5.5 0 8.8 5.5 0 8.9 5.5 0 9 5.5 0 9.1 5.5 0 9.2 5.5 0 9.3 5.5 0 9.4 5.5 0 9.5 5.5 0 9.6 5.5 0 9.7 5.5 0 9.8 5.5 0 9.9 5.5 0 10 5.5 0 0 5.6 0 0.1 5.6 0 0.2 5.6 0 0.3 5.6 0 0.4 5.6 0 0.5 5.6 0 0.6 5.6 0 0.7 5.6 0 0.8 5.6 0 0.9 5.6 0 1 5.6 0 1.1 5.6 0 1.2 5.6 0 1.3 5.6 0 1.4 5.6 0 1.5 5.6 0 1.6 5.6 0 1.7 5.6 0 1.8 5.6 0 1.9 5.6 0 2 5.6 0 2.1 5.6 0 2.2 5.6 0 2.3 5.6 0 2.4 5.6 0 2.5 5.6 0 2.6 5.6 0 2.7 5.6 0 2.8 5.6 0 2.9 5.6 0 3 5.6 0 3.1 5.6 0 3.2 5.6 0 3.3 5.6 0 3.4 5.6 0 3.5 5.6 0 3.6 5.6 0 3.7 5.6 0 3.8 5.6 0 3.9 5.6 0 4 5.6 0 4.1 5.6 0 4.2 5.6 0 4.3 5.6 0 4.4 5.6 0 4.5 5.6 0 4.6 5.6 0 4.7 5.6 0 4.8 5.6 0 4.9 5.6 0 5 5.6 0 5.1 5.6 0 5.2 5.6 0 5.3 5.6 0 5.4 5.6 0 5.5 5.6 0 5.6 5.6 0 5.7 5.6 0 5.8 5.6 0 5.9 5.6 0 6 5.6 0 6.1 5.6 0 6.2 5.6 0 6.3 5.6 0 6.4 5.6 0 6.5 5.6 0 6.6 5.6 0 6.7 5.6 0 6.8 5.6 0 6.9 5.6 0 7 5.6 0 7.1 5.6 0 7.2 5.6 0 7.3 5.6 0 7.4 5.6 0 7.5 5.6 0 7.6 5.6 0 7.7 5.6 0 7.8 5.6 0 7.9 5.6 0 8 5.6 0 8.1 5.6 0 8.2 5.6 0 8.3 5.6 0 8.4 5.6 0 8.5 5.6 0 8.6 5.6 0 8.7 5.6 0 8.8 5.6 0 8.9 5.6 0 9 5.6 0 9.1 5.6 0 9.2 5.6 0 9.3 5.6 0 9.4 5.6 0 9.5 5.6 0 9.6 5.6 0 9.7 5.6 0 9.8 5.6 0 9.9 5.6 0 10 5.6 0 0 5.7 0 0.1 5.7 0 0.2 5.7 0 0.3 5.7 0 0.4 5.7 0 0.5 5.7 0 0.6 5.7 0 0.7 5.7 0 0.8 5.7 0 0.9 5.7 0 1 5.7 0 1.1 5.7 0 1.2 5.7 0 1.3 5.7 0 1.4 5.7 0 1.5 5.7 0 1.6 5.7 0 1.7 5.7 0 1.8 5.7 0 1.9 5.7 0 2 5.7 0 2.1 5.7 0 2.2 5.7 0 2.3 5.7 0 2.4 5.7 0 2.5 5.7 0 2.6 5.7 0 2.7 5.7 0 2.8 5.7 0 2.9 5.7 0 3 5.7 0 3.1 5.7 0 3.2 5.7 0 3.3 5.7 0 3.4 5.7 0 3.5 5.7 0 3.6 5.7 0 3.7 5.7 0 3.8 5.7 0 3.9 5.7 0 4 5.7 0 4.1 5.7 0 4.2 5.7 0 4.3 5.7 0 4.4 5.7 0 4.5 5.7 0 4.6 5.7 0 4.7 5.7 0 4.8 5.7 0 4.9 5.7 0 5 5.7 0 5.1 5.7 0 5.2 5.7 0 5.3 5.7 0 5.4 5.7 0 5.5 5.7 0 5.6 5.7 0 5.7 5.7 0 5.8 5.7 0 5.9 5.7 0 6 5.7 0 6.1 5.7 0 6.2 5.7 0 6.3 5.7 0 6.4 5.7 0 6.5 5.7 0 6.6 5.7 0 6.7 5.7 0 6.8 5.7 0 6.9 5.7 0 7 5.7 0 7.1 5.7 0 7.2 5.7 0 7.3 5.7 0 7.4 5.7 0 7.5 5.7 0 7.6 5.7 0 7.7 5.7 0 7.8 5.7 0 7.9 5.7 0 8 5.7 0 8.1 5.7 0 8.2 5.7 0 8.3 5.7 0 8.4 5.7 0 8.5 5.7 0 8.6 5.7 0 8.7 5.7 0 8.8 5.7 0 8.9 5.7 0 9 5.7 0 9.1 5.7 0 9.2 5.7 0 9.3 5.7 0 9.4 5.7 0 9.5 5.7 0 9.6 5.7 0 9.7 5.7 0 9.8 5.7 0 9.9 5.7 0 10 5.7 0 0 5.8 0 0.1 5.8 0 0.2 5.8 0 0.3 5.8 0 0.4 5.8 0 0.5 5.8 0 0.6 5.8 0 0.7 5.8 0 0.8 5.8 0 0.9 5.8 0 1 5.8 0 1.1 5.8 0 1.2 5.8 0 1.3 5.8 0 1.4 5.8 0 1.5 5.8 0 1.6 5.8 0 1.7 5.8 0 1.8 5.8 0 1.9 5.8 0 2 5.8 0 2.1 5.8 0 2.2 5.8 0 2.3 5.8 0 2.4 5.8 0 2.5 5.8 0 2.6 5.8 0 2.7 5.8 0 2.8 5.8 0 2.9 5.8 0 3 5.8 0 3.1 5.8 0 3.2 5.8 0 3.3 5.8 0 3.4 5.8 0 3.5 5.8 0 3.6 5.8 0 3.7 5.8 0 3.8 5.8 0 3.9 5.8 0 4 5.8 0 4.1 5.8 0 4.2 5.8 0 4.3 5.8 0 4.4 5.8 0 4.5 5.8 0 4.6 5.8 0 4.7 5.8 0 4.8 5.8 0 4.9 5.8 0 5 5.8 0 5.1 5.8 0 5.2 5.8 0 5.3 5.8 0 5.4 5.8 0 5.5 5.8 0 5.6 5.8 0 5.7 5.8 0 5.8 5.8 0 5.9 5.8 0 6 5.8 0 6.1 5.8 0 6.2 5.8 0 6.3 5.8 0 6.4 5.8 0 6.5 5.8 0 6.6 5.8 0 6.7 5.8 0 6.8 5.8 0 6.9 5.8 0 7 5.8 0 7.1 5.8 0 7.2 5.8 0 7.3 5.8 0 7.4 5.8 0 7.5 5.8 0 7.6 5.8 0 7.7 5.8 0 7.8 5.8 0 7.9 5.8 0 8 5.8 0 8.1 5.8 0 8.2 5.8 0 8.3 5.8 0 8.4 5.8 0 8.5 5.8 0 8.6 5.8 0 8.7 5.8 0 8.8 5.8 0 8.9 5.8 0 9 5.8 0 9.1 5.8 0 9.2 5.8 0 9.3 5.8 0 9.4 5.8 0 9.5 5.8 0 9.6 5.8 0 9.7 5.8 0 9.8 5.8 0 9.9 5.8 0 10 5.8 0 0 5.9 0 0.1 5.9 0 0.2 5.9 0 0.3 5.9 0 0.4 5.9 0 0.5 5.9 0 0.6 5.9 0 0.7 5.9 0 0.8 5.9 0 0.9 5.9 0 1 5.9 0 1.1 5.9 0 1.2 5.9 0 1.3 5.9 0 1.4 5.9 0 1.5 5.9 0 1.6 5.9 0 1.7 5.9 0 1.8 5.9 0 1.9 5.9 0 2 5.9 0 2.1 5.9 0 2.2 5.9 0 2.3 5.9 0 2.4 5.9 0 2.5 5.9 0 2.6 5.9 0 2.7 5.9 0 2.8 5.9 0 2.9 5.9 0 3 5.9 0 3.1 5.9 0 3.2 5.9 0 3.3 5.9 0 3.4 5.9 0 3.5 5.9 0 3.6 5.9 0 3.7 5.9 0 3.8 5.9 0 3.9 5.9 0 4 5.9 0 4.1 5.9 0 4.2 5.9 0 4.3 5.9 0 4.4 5.9 0 4.5 5.9 0 4.6 5.9 0 4.7 5.9 0 4.8 5.9 0 4.9 5.9 0 5 5.9 0 5.1 5.9 0 5.2 5.9 0 5.3 5.9 0 5.4 5.9 0 5.5 5.9 0 5.6 5.9 0 5.7 5.9 0 5.8 5.9 0 5.9 5.9 0 6 5.9 0 6.1 5.9 0 6.2 5.9 0 6.3 5.9 0 6.4 5.9 0 6.5 5.9 0 6.6 5.9 0 6.7 5.9 0 6.8 5.9 0 6.9 5.9 0 7 5.9 0 7.1 5.9 0 7.2 5.9 0 7.3 5.9 0 7.4 5.9 0 7.5 5.9 0 7.6 5.9 0 7.7 5.9 0 7.8 5.9 0 7.9 5.9 0 8 5.9 0 8.1 5.9 0 8.2 5.9 0 8.3 5.9 0 8.4 5.9 0 8.5 5.9 0 8.6 5.9 0 8.7 5.9 0 8.8 5.9 0 8.9 5.9 0 9 5.9 0 9.1 5.9 0 9.2 5.9 0 9.3 5.9 0 9.4 5.9 0 9.5 5.9 0 9.6 5.9 0 9.7 5.9 0 9.8 5.9 0 9.9 5.9 0 10 5.9 0 0 6 0 0.1 6 0 0.2 6 0 0.3 6 0 0.4 6 0 0.5 6 0 0.6 6 0 0.7 6 0 0.8 6 0 0.9 6 0 1 6 0 1.1 6 0 1.2 6 0 1.3 6 0 1.4 6 0 1.5 6 0 1.6 6 0 1.7 6 0 1.8 6 0 1.9 6 0 2 6 0 2.1 6 0 2.2 6 0 2.3 6 0 2.4 6 0 2.5 6 0 2.6 6 0 2.7 6 0 2.8 6 0 2.9 6 0 3 6 0 3.1 6 0 3.2 6 0 3.3 6 0 3.4 6 0 3.5 6 0 3.6 6 0 3.7 6 0 3.8 6 0 3.9 6 0 4 6 0 4.1 6 0 4.2 6 0 4.3 6 0 4.4 6 0 4.5 6 0 4.6 6 0 4.7 6 0 4.8 6 0 4.9 6 0 5 6 0 5.1 6 0 5.2 6 0 5.3 6 0 5.4 6 0 5.5 6 0 5.6 6 0 5.7 6 0 5.8 6 0 5.9 6 0 6 6 0 6.1 6 0 6.2 6 0 6.3 6 0 6.4 6 0 6.5 6 0 6.6 6 0 6.7 6 0 6.8 6 0 6.9 6 0 7 6 0 7.1 6 0 7.2 6 0 7.3 6 0 7.4 6 0 7.5 6 0 7.6 6 0 7.7 6 0 7.8 6 0 7.9 6 0 8 6 0 8.1 6 0 8.2 6 0 8.3 6 0 8.4 6 0 8.5 6 0 8.6 6 0 8.7 6 0 8.8 6 0 8.9 6 0 9 6 0 9.1 6 0 9.2 6 0 9.3 6 0 9.4 6 0 9.5 6 0 9.6 6 0 9.7 6 0 9.8 6 0 9.9 6 0 10 6 0 0 6.1 0 0.1 6.1 0 0.2 6.1 0 0.3 6.1 0 0.4 6.1 0 0.5 6.1 0 0.6 6.1 0 0.7 6.1 0 0.8 6.1 0 0.9 6.1 0 1 6.1 0 1.1 6.1 0 1.2 6.1 0 1.3 6.1 0 1.4 6.1 0 1.5 6.1 0 1.6 6.1 0 1.7 6.1 0 1.8 6.1 0 1.9 6.1 0 2 6.1 0 2.1 6.1 0 2.2 6.1 0 2.3 6.1 0 2.4 6.1 0 2.5 6.1 0 2.6 6.1 0 2.7 6.1 0 2.8 6.1 0 2.9 6.1 0 3 6.1 0 3.1 6.1 0 3.2 6.1 0 3.3 6.1 0 3.4 6.1 0 3.5 6.1 0 3.6 6.1 0 3.7 6.1 0 3.8 6.1 0 3.9 6.1 0 4 6.1 0 4.1 6.1 0 4.2 6.1 0 4.3 6.1 0 4.4 6.1 0 4.5 6.1 0 4.6 6.1 0 4.7 6.1 0 4.8 6.1 0 4.9 6.1 0 5 6.1 0 5.1 6.1 0 5.2 6.1 0 5.3 6.1 0 5.4 6.1 0 5.5 6.1 0 5.6 6.1 0 5.7 6.1 0 5.8 6.1 0 5.9 6.1 0 6 6.1 0 6.1 6.1 0 6.2 6.1 0 6.3 6.1 0 6.4 6.1 0 6.5 6.1 0 6.6 6.1 0 6.7 6.1 0 6.8 6.1 0 6.9 6.1 0 7 6.1 0 7.1 6.1 0 7.2 6.1 0 7.3 6.1 0 7.4 6.1 0 7.5 6.1 0 7.6 6.1 0 7.7 6.1 0 7.8 6.1 0 7.9 6.1 0 8 6.1 0 8.1 6.1 0 8.2 6.1 0 8.3 6.1 0 8.4 6.1 0 8.5 6.1 0 8.6 6.1 0 8.7 6.1 0 8.8 6.1 0 8.9 6.1 0 9 6.1 0 9.1 6.1 0 9.2 6.1 0 9.3 6.1 0 9.4 6.1 0 9.5 6.1 0 9.6 6.1 0 9.7 6.1 0 9.8 6.1 0 9.9 6.1 0 10 6.1 0 0 6.2 0 0.1 6.2 0 0.2 6.2 0 0.3 6.2 0 0.4 6.2 0 0.5 6.2 0 0.6 6.2 0 0.7 6.2 0 0.8 6.2 0 0.9 6.2 0 1 6.2 0 1.1 6.2 0 1.2 6.2 0 1.3 6.2 0 1.4 6.2 0 1.5 6.2 0 1.6 6.2 0 1.7 6.2 0 1.8 6.2 0 1.9 6.2 0 2 6.2 0 2.1 6.2 0 2.2 6.2 0 2.3 6.2 0 2.4 6.2 0 2.5 6.2 0 2.6 6.2 0 2.7 6.2 0 2.8 6.2 0 2.9 6.2 0 3 6.2 0 3.1 6.2 0 3.2 6.2 0 3.3 6.2 0 3.4 6.2 0 3.5 6.2 0 3.6 6.2 0 3.7 6.2 0 3.8 6.2 0 3.9 6.2 0 4 6.2 0 4.1 6.2 0 4.2 6.2 0 4.3 6.2 0 4.4 6.2 0 4.5 6.2 0 4.6 6.2 0 4.7 6.2 0 4.8 6.2 0 4.9 6.2 0 5 6.2 0 5.1 6.2 0 5.2 6.2 0 5.3 6.2 0 5.4 6.2 0 5.5 6.2 0 5.6 6.2 0 5.7 6.2 0 5.8 6.2 0 5.9 6.2 0 6 6.2 0 6.1 6.2 0 6.2 6.2 0 6.3 6.2 0 6.4 6.2 0 6.5 6.2 0 6.6 6.2 0 6.7 6.2 0 6.8 6.2 0 6.9 6.2 0 7 6.2 0 7.1 6.2 0 7.2 6.2 0 7.3 6.2 0 7.4 6.2 0 7.5 6.2 0 7.6 6.2 0 7.7 6.2 0 7.8 6.2 0 7.9 6.2 0 8 6.2 0 8.1 6.2 0 8.2 6.2 0 8.3 6.2 0 8.4 6.2 0 8.5 6.2 0 8.6 6.2 0 8.7 6.2 0 8.8 6.2 0 8.9 6.2 0 9 6.2 0 9.1 6.2 0 9.2 6.2 0 9.3 6.2 0 9.4 6.2 0 9.5 6.2 0 9.6 6.2 0 9.7 6.2 0 9.8 6.2 0 9.9 6.2 0 10 6.2 0 0 6.3 0 0.1 6.3 0 0.2 6.3 0 0.3 6.3 0 0.4 6.3 0 0.5 6.3 0 0.6 6.3 0 0.7 6.3 0 0.8 6.3 0 0.9 6.3 0 1 6.3 0 1.1 6.3 0 1.2 6.3 0 1.3 6.3 0 1.4 6.3 0 1.5 6.3 0 1.6 6.3 0 1.7 6.3 0 1.8 6.3 0 1.9 6.3 0 2 6.3 0 2.1 6.3 0 2.2 6.3 0 2.3 6.3 0 2.4 6.3 0 2.5 6.3 0 2.6 6.3 0 2.7 6.3 0 2.8 6.3 0 2.9 6.3 0 3 6.3 0 3.1 6.3 0 3.2 6.3 0 3.3 6.3 0 3.4 6.3 0 3.5 6.3 0 3.6 6.3 0 3.7 6.3 0 3.8 6.3 0 3.9 6.3 0 4 6.3 0 4.1 6.3 0 4.2 6.3 0 4.3 6.3 0 4.4 6.3 0 4.5 6.3 0 4.6 6.3 0 4.7 6.3 0 4.8 6.3 0 4.9 6.3 0 5 6.3 0 5.1 6.3 0 5.2 6.3 0 5.3 6.3 0 5.4 6.3 0 5.5 6.3 0 5.6 6.3 0 5.7 6.3 0 5.8 6.3 0 5.9 6.3 0 6 6.3 0 6.1 6.3 0 6.2 6.3 0 6.3 6.3 0 6.4 6.3 0 6.5 6.3 0 6.6 6.3 0 6.7 6.3 0 6.8 6.3 0 6.9 6.3 0 7 6.3 0 7.1 6.3 0 7.2 6.3 0 7.3 6.3 0 7.4 6.3 0 7.5 6.3 0 7.6 6.3 0 7.7 6.3 0 7.8 6.3 0 7.9 6.3 0 8 6.3 0 8.1 6.3 0 8.2 6.3 0 8.3 6.3 0 8.4 6.3 0 8.5 6.3 0 8.6 6.3 0 8.7 6.3 0 8.8 6.3 0 8.9 6.3 0 9 6.3 0 9.1 6.3 0 9.2 6.3 0 9.3 6.3 0 9.4 6.3 0 9.5 6.3 0 9.6 6.3 0 9.7 6.3 0 9.8 6.3 0 9.9 6.3 0 10 6.3 0 0 6.4 0 0.1 6.4 0 0.2 6.4 0 0.3 6.4 0 0.4 6.4 0 0.5 6.4 0 0.6 6.4 0 0.7 6.4 0 0.8 6.4 0 0.9 6.4 0 1 6.4 0 1.1 6.4 0 1.2 6.4 0 1.3 6.4 0 1.4 6.4 0 1.5 6.4 0 1.6 6.4 0 1.7 6.4 0 1.8 6.4 0 1.9 6.4 0 2 6.4 0 2.1 6.4 0 2.2 6.4 0 2.3 6.4 0 2.4 6.4 0 2.5 6.4 0 2.6 6.4 0 2.7 6.4 0 2.8 6.4 0 2.9 6.4 0 3 6.4 0 3.1 6.4 0 3.2 6.4 0 3.3 6.4 0 3.4 6.4 0 3.5 6.4 0 3.6 6.4 0 3.7 6.4 0 3.8 6.4 0 3.9 6.4 0 4 6.4 0 4.1 6.4 0 4.2 6.4 0 4.3 6.4 0 4.4 6.4 0 4.5 6.4 0 4.6 6.4 0 4.7 6.4 0 4.8 6.4 0 4.9 6.4 0 5 6.4 0 5.1 6.4 0 5.2 6.4 0 5.3 6.4 0 5.4 6.4 0 5.5 6.4 0 5.6 6.4 0 5.7 6.4 0 5.8 6.4 0 5.9 6.4 0 6 6.4 0 6.1 6.4 0 6.2 6.4 0 6.3 6.4 0 6.4 6.4 0 6.5 6.4 0 6.6 6.4 0 6.7 6.4 0 6.8 6.4 0 6.9 6.4 0 7 6.4 0 7.1 6.4 0 7.2 6.4 0 7.3 6.4 0 7.4 6.4 0 7.5 6.4 0 7.6 6.4 0 7.7 6.4 0 7.8 6.4 0 7.9 6.4 0 8 6.4 0 8.1 6.4 0 8.2 6.4 0 8.3 6.4 0 8.4 6.4 0 8.5 6.4 0 8.6 6.4 0 8.7 6.4 0 8.8 6.4 0 8.9 6.4 0 9 6.4 0 9.1 6.4 0 9.2 6.4 0 9.3 6.4 0 9.4 6.4 0 9.5 6.4 0 9.6 6.4 0 9.7 6.4 0 9.8 6.4 0 9.9 6.4 0 10 6.4 0 0 6.5 0 0.1 6.5 0 0.2 6.5 0 0.3 6.5 0 0.4 6.5 0 0.5 6.5 0 0.6 6.5 0 0.7 6.5 0 0.8 6.5 0 0.9 6.5 0 1 6.5 0 1.1 6.5 0 1.2 6.5 0 1.3 6.5 0 1.4 6.5 0 1.5 6.5 0 1.6 6.5 0 1.7 6.5 0 1.8 6.5 0 1.9 6.5 0 2 6.5 0 2.1 6.5 0 2.2 6.5 0 2.3 6.5 0 2.4 6.5 0 2.5 6.5 0 2.6 6.5 0 2.7 6.5 0 2.8 6.5 0 2.9 6.5 0 3 6.5 0 3.1 6.5 0 3.2 6.5 0 3.3 6.5 0 3.4 6.5 0 3.5 6.5 0 3.6 6.5 0 3.7 6.5 0 3.8 6.5 0 3.9 6.5 0 4 6.5 0 4.1 6.5 0 4.2 6.5 0 4.3 6.5 0 4.4 6.5 0 4.5 6.5 0 4.6 6.5 0 4.7 6.5 0 4.8 6.5 0 4.9 6.5 0 5 6.5 0 5.1 6.5 0 5.2 6.5 0 5.3 6.5 0 5.4 6.5 0 5.5 6.5 0 5.6 6.5 0 5.7 6.5 0 5.8 6.5 0 5.9 6.5 0 6 6.5 0 6.1 6.5 0 6.2 6.5 0 6.3 6.5 0 6.4 6.5 0 6.5 6.5 0 6.6 6.5 0 6.7 6.5 0 6.8 6.5 0 6.9 6.5 0 7 6.5 0 7.1 6.5 0 7.2 6.5 0 7.3 6.5 0 7.4 6.5 0 7.5 6.5 0 7.6 6.5 0 7.7 6.5 0 7.8 6.5 0 7.9 6.5 0 8 6.5 0 8.1 6.5 0 8.2 6.5 0 8.3 6.5 0 8.4 6.5 0 8.5 6.5 0 8.6 6.5 0 8.7 6.5 0 8.8 6.5 0 8.9 6.5 0 9 6.5 0 9.1 6.5 0 9.2 6.5 0 9.3 6.5 0 9.4 6.5 0 9.5 6.5 0 9.6 6.5 0 9.7 6.5 0 9.8 6.5 0 9.9 6.5 0 10 6.5 0 0 6.6 0 0.1 6.6 0 0.2 6.6 0 0.3 6.6 0 0.4 6.6 0 0.5 6.6 0 0.6 6.6 0 0.7 6.6 0 0.8 6.6 0 0.9 6.6 0 1 6.6 0 1.1 6.6 0 1.2 6.6 0 1.3 6.6 0 1.4 6.6 0 1.5 6.6 0 1.6 6.6 0 1.7 6.6 0 1.8 6.6 0 1.9 6.6 0 2 6.6 0 2.1 6.6 0 2.2 6.6 0 2.3 6.6 0 2.4 6.6 0 2.5 6.6 0 2.6 6.6 0 2.7 6.6 0 2.8 6.6 0 2.9 6.6 0 3 6.6 0 3.1 6.6 0 3.2 6.6 0 3.3 6.6 0 3.4 6.6 0 3.5 6.6 0 3.6 6.6 0 3.7 6.6 0 3.8 6.6 0 3.9 6.6 0 4 6.6 0 4.1 6.6 0 4.2 6.6 0 4.3 6.6 0 4.4 6.6 0 4.5 6.6 0 4.6 6.6 0 4.7 6.6 0 4.8 6.6 0 4.9 6.6 0 5 6.6 0 5.1 6.6 0 5.2 6.6 0 5.3 6.6 0 5.4 6.6 0 5.5 6.6 0 5.6 6.6 0 5.7 6.6 0 5.8 6.6 0 5.9 6.6 0 6 6.6 0 6.1 6.6 0 6.2 6.6 0 6.3 6.6 0 6.4 6.6 0 6.5 6.6 0 6.6 6.6 0 6.7 6.6 0 6.8 6.6 0 6.9 6.6 0 7 6.6 0 7.1 6.6 0 7.2 6.6 0 7.3 6.6 0 7.4 6.6 0 7.5 6.6 0 7.6 6.6 0 7.7 6.6 0 7.8 6.6 0 7.9 6.6 0 8 6.6 0 8.1 6.6 0 8.2 6.6 0 8.3 6.6 0 8.4 6.6 0 8.5 6.6 0 8.6 6.6 0 8.7 6.6 0 8.8 6.6 0 8.9 6.6 0 9 6.6 0 9.1 6.6 0 9.2 6.6 0 9.3 6.6 0 9.4 6.6 0 9.5 6.6 0 9.6 6.6 0 9.7 6.6 0 9.8 6.6 0 9.9 6.6 0 10 6.6 0 0 6.7 0 0.1 6.7 0 0.2 6.7 0 0.3 6.7 0 0.4 6.7 0 0.5 6.7 0 0.6 6.7 0 0.7 6.7 0 0.8 6.7 0 0.9 6.7 0 1 6.7 0 1.1 6.7 0 1.2 6.7 0 1.3 6.7 0 1.4 6.7 0 1.5 6.7 0 1.6 6.7 0 1.7 6.7 0 1.8 6.7 0 1.9 6.7 0 2 6.7 0 2.1 6.7 0 2.2 6.7 0 2.3 6.7 0 2.4 6.7 0 2.5 6.7 0 2.6 6.7 0 2.7 6.7 0 2.8 6.7 0 2.9 6.7 0 3 6.7 0 3.1 6.7 0 3.2 6.7 0 3.3 6.7 0 3.4 6.7 0 3.5 6.7 0 3.6 6.7 0 3.7 6.7 0 3.8 6.7 0 3.9 6.7 0 4 6.7 0 4.1 6.7 0 4.2 6.7 0 4.3 6.7 0 4.4 6.7 0 4.5 6.7 0 4.6 6.7 0 4.7 6.7 0 4.8 6.7 0 4.9 6.7 0 5 6.7 0 5.1 6.7 0 5.2 6.7 0 5.3 6.7 0 5.4 6.7 0 5.5 6.7 0 5.6 6.7 0 5.7 6.7 0 5.8 6.7 0 5.9 6.7 0 6 6.7 0 6.1 6.7 0 6.2 6.7 0 6.3 6.7 0 6.4 6.7 0 6.5 6.7 0 6.6 6.7 0 6.7 6.7 0 6.8 6.7 0 6.9 6.7 0 7 6.7 0 7.1 6.7 0 7.2 6.7 0 7.3 6.7 0 7.4 6.7 0 7.5 6.7 0 7.6 6.7 0 7.7 6.7 0 7.8 6.7 0 7.9 6.7 0 8 6.7 0 8.1 6.7 0 8.2 6.7 0 8.3 6.7 0 8.4 6.7 0 8.5 6.7 0 8.6 6.7 0 8.7 6.7 0 8.8 6.7 0 8.9 6.7 0 9 6.7 0 9.1 6.7 0 9.2 6.7 0 9.3 6.7 0 9.4 6.7 0 9.5 6.7 0 9.6 6.7 0 9.7 6.7 0 9.8 6.7 0 9.9 6.7 0 10 6.7 0 0 6.8 0 0.1 6.8 0 0.2 6.8 0 0.3 6.8 0 0.4 6.8 0 0.5 6.8 0 0.6 6.8 0 0.7 6.8 0 0.8 6.8 0 0.9 6.8 0 1 6.8 0 1.1 6.8 0 1.2 6.8 0 1.3 6.8 0 1.4 6.8 0 1.5 6.8 0 1.6 6.8 0 1.7 6.8 0 1.8 6.8 0 1.9 6.8 0 2 6.8 0 2.1 6.8 0 2.2 6.8 0 2.3 6.8 0 2.4 6.8 0 2.5 6.8 0 2.6 6.8 0 2.7 6.8 0 2.8 6.8 0 2.9 6.8 0 3 6.8 0 3.1 6.8 0 3.2 6.8 0 3.3 6.8 0 3.4 6.8 0 3.5 6.8 0 3.6 6.8 0 3.7 6.8 0 3.8 6.8 0 3.9 6.8 0 4 6.8 0 4.1 6.8 0 4.2 6.8 0 4.3 6.8 0 4.4 6.8 0 4.5 6.8 0 4.6 6.8 0 4.7 6.8 0 4.8 6.8 0 4.9 6.8 0 5 6.8 0 5.1 6.8 0 5.2 6.8 0 5.3 6.8 0 5.4 6.8 0 5.5 6.8 0 5.6 6.8 0 5.7 6.8 0 5.8 6.8 0 5.9 6.8 0 6 6.8 0 6.1 6.8 0 6.2 6.8 0 6.3 6.8 0 6.4 6.8 0 6.5 6.8 0 6.6 6.8 0 6.7 6.8 0 6.8 6.8 0 6.9 6.8 0 7 6.8 0 7.1 6.8 0 7.2 6.8 0 7.3 6.8 0 7.4 6.8 0 7.5 6.8 0 7.6 6.8 0 7.7 6.8 0 7.8 6.8 0 7.9 6.8 0 8 6.8 0 8.1 6.8 0 8.2 6.8 0 8.3 6.8 0 8.4 6.8 0 8.5 6.8 0 8.6 6.8 0 8.7 6.8 0 8.8 6.8 0 8.9 6.8 0 9 6.8 0 9.1 6.8 0 9.2 6.8 0 9.3 6.8 0 9.4 6.8 0 9.5 6.8 0 9.6 6.8 0 9.7 6.8 0 9.8 6.8 0 9.9 6.8 0 10 6.8 0 0 6.9 0 0.1 6.9 0 0.2 6.9 0 0.3 6.9 0 0.4 6.9 0 0.5 6.9 0 0.6 6.9 0 0.7 6.9 0 0.8 6.9 0 0.9 6.9 0 1 6.9 0 1.1 6.9 0 1.2 6.9 0 1.3 6.9 0 1.4 6.9 0 1.5 6.9 0 1.6 6.9 0 1.7 6.9 0 1.8 6.9 0 1.9 6.9 0 2 6.9 0 2.1 6.9 0 2.2 6.9 0 2.3 6.9 0 2.4 6.9 0 2.5 6.9 0 2.6 6.9 0 2.7 6.9 0 2.8 6.9 0 2.9 6.9 0 3 6.9 0 3.1 6.9 0 3.2 6.9 0 3.3 6.9 0 3.4 6.9 0 3.5 6.9 0 3.6 6.9 0 3.7 6.9 0 3.8 6.9 0 3.9 6.9 0 4 6.9 0 4.1 6.9 0 4.2 6.9 0 4.3 6.9 0 4.4 6.9 0 4.5 6.9 0 4.6 6.9 0 4.7 6.9 0 4.8 6.9 0 4.9 6.9 0 5 6.9 0 5.1 6.9 0 5.2 6.9 0 5.3 6.9 0 5.4 6.9 0 5.5 6.9 0 5.6 6.9 0 5.7 6.9 0 5.8 6.9 0 5.9 6.9 0 6 6.9 0 6.1 6.9 0 6.2 6.9 0 6.3 6.9 0 6.4 6.9 0 6.5 6.9 0 6.6 6.9 0 6.7 6.9 0 6.8 6.9 0 6.9 6.9 0 7 6.9 0 7.1 6.9 0 7.2 6.9 0 7.3 6.9 0 7.4 6.9 0 7.5 6.9 0 7.6 6.9 0 7.7 6.9 0 7.8 6.9 0 7.9 6.9 0 8 6.9 0 8.1 6.9 0 8.2 6.9 0 8.3 6.9 0 8.4 6.9 0 8.5 6.9 0 8.6 6.9 0 8.7 6.9 0 8.8 6.9 0 8.9 6.9 0 9 6.9 0 9.1 6.9 0 9.2 6.9 0 9.3 6.9 0 9.4 6.9 0 9.5 6.9 0 9.6 6.9 0 9.7 6.9 0 9.8 6.9 0 9.9 6.9 0 10 6.9 0 0 7 0 0.1 7 0 0.2 7 0 0.3 7 0 0.4 7 0 0.5 7 0 0.6 7 0 0.7 7 0 0.8 7 0 0.9 7 0 1 7 0 1.1 7 0 1.2 7 0 1.3 7 0 1.4 7 0 1.5 7 0 1.6 7 0 1.7 7 0 1.8 7 0 1.9 7 0 2 7 0 2.1 7 0 2.2 7 0 2.3 7 0 2.4 7 0 2.5 7 0 2.6 7 0 2.7 7 0 2.8 7 0 2.9 7 0 3 7 0 3.1 7 0 3.2 7 0 3.3 7 0 3.4 7 0 3.5 7 0 3.6 7 0 3.7 7 0 3.8 7 0 3.9 7 0 4 7 0 4.1 7 0 4.2 7 0 4.3 7 0 4.4 7 0 4.5 7 0 4.6 7 0 4.7 7 0 4.8 7 0 4.9 7 0 5 7 0 5.1 7 0 5.2 7 0 5.3 7 0 5.4 7 0 5.5 7 0 5.6 7 0 5.7 7 0 5.8 7 0 5.9 7 0 6 7 0 6.1 7 0 6.2 7 0 6.3 7 0 6.4 7 0 6.5 7 0 6.6 7 0 6.7 7 0 6.8 7 0 6.9 7 0 7 7 0 7.1 7 0 7.2 7 0 7.3 7 0 7.4 7 0 7.5 7 0 7.6 7 0 7.7 7 0 7.8 7 0 7.9 7 0 8 7 0 8.1 7 0 8.2 7 0 8.3 7 0 8.4 7 0 8.5 7 0 8.6 7 0 8.7 7 0 8.8 7 0 8.9 7 0 9 7 0 9.1 7 0 9.2 7 0 9.3 7 0 9.4 7 0 9.5 7 0 9.6 7 0 9.7 7 0 9.8 7 0 9.9 7 0 10 7 0 0 7.1 0 0.1 7.1 0 0.2 7.1 0 0.3 7.1 0 0.4 7.1 0 0.5 7.1 0 0.6 7.1 0 0.7 7.1 0 0.8 7.1 0 0.9 7.1 0 1 7.1 0 1.1 7.1 0 1.2 7.1 0 1.3 7.1 0 1.4 7.1 0 1.5 7.1 0 1.6 7.1 0 1.7 7.1 0 1.8 7.1 0 1.9 7.1 0 2 7.1 0 2.1 7.1 0 2.2 7.1 0 2.3 7.1 0 2.4 7.1 0 2.5 7.1 0 2.6 7.1 0 2.7 7.1 0 2.8 7.1 0 2.9 7.1 0 3 7.1 0 3.1 7.1 0 3.2 7.1 0 3.3 7.1 0 3.4 7.1 0 3.5 7.1 0 3.6 7.1 0 3.7 7.1 0 3.8 7.1 0 3.9 7.1 0 4 7.1 0 4.1 7.1 0 4.2 7.1 0 4.3 7.1 0 4.4 7.1 0 4.5 7.1 0 4.6 7.1 0 4.7 7.1 0 4.8 7.1 0 4.9 7.1 0 5 7.1 0 5.1 7.1 0 5.2 7.1 0 5.3 7.1 0 5.4 7.1 0 5.5 7.1 0 5.6 7.1 0 5.7 7.1 0 5.8 7.1 0 5.9 7.1 0 6 7.1 0 6.1 7.1 0 6.2 7.1 0 6.3 7.1 0 6.4 7.1 0 6.5 7.1 0 6.6 7.1 0 6.7 7.1 0 6.8 7.1 0 6.9 7.1 0 7 7.1 0 7.1 7.1 0 7.2 7.1 0 7.3 7.1 0 7.4 7.1 0 7.5 7.1 0 7.6 7.1 0 7.7 7.1 0 7.8 7.1 0 7.9 7.1 0 8 7.1 0 8.1 7.1 0 8.2 7.1 0 8.3 7.1 0 8.4 7.1 0 8.5 7.1 0 8.6 7.1 0 8.7 7.1 0 8.8 7.1 0 8.9 7.1 0 9 7.1 0 9.1 7.1 0 9.2 7.1 0 9.3 7.1 0 9.4 7.1 0 9.5 7.1 0 9.6 7.1 0 9.7 7.1 0 9.8 7.1 0 9.9 7.1 0 10 7.1 0 0 7.2 0 0.1 7.2 0 0.2 7.2 0 0.3 7.2 0 0.4 7.2 0 0.5 7.2 0 0.6 7.2 0 0.7 7.2 0 0.8 7.2 0 0.9 7.2 0 1 7.2 0 1.1 7.2 0 1.2 7.2 0 1.3 7.2 0 1.4 7.2 0 1.5 7.2 0 1.6 7.2 0 1.7 7.2 0 1.8 7.2 0 1.9 7.2 0 2 7.2 0 2.1 7.2 0 2.2 7.2 0 2.3 7.2 0 2.4 7.2 0 2.5 7.2 0 2.6 7.2 0 2.7 7.2 0 2.8 7.2 0 2.9 7.2 0 3 7.2 0 3.1 7.2 0 3.2 7.2 0 3.3 7.2 0 3.4 7.2 0 3.5 7.2 0 3.6 7.2 0 3.7 7.2 0 3.8 7.2 0 3.9 7.2 0 4 7.2 0 4.1 7.2 0 4.2 7.2 0 4.3 7.2 0 4.4 7.2 0 4.5 7.2 0 4.6 7.2 0 4.7 7.2 0 4.8 7.2 0 4.9 7.2 0 5 7.2 0 5.1 7.2 0 5.2 7.2 0 5.3 7.2 0 5.4 7.2 0 5.5 7.2 0 5.6 7.2 0 5.7 7.2 0 5.8 7.2 0 5.9 7.2 0 6 7.2 0 6.1 7.2 0 6.2 7.2 0 6.3 7.2 0 6.4 7.2 0 6.5 7.2 0 6.6 7.2 0 6.7 7.2 0 6.8 7.2 0 6.9 7.2 0 7 7.2 0 7.1 7.2 0 7.2 7.2 0 7.3 7.2 0 7.4 7.2 0 7.5 7.2 0 7.6 7.2 0 7.7 7.2 0 7.8 7.2 0 7.9 7.2 0 8 7.2 0 8.1 7.2 0 8.2 7.2 0 8.3 7.2 0 8.4 7.2 0 8.5 7.2 0 8.6 7.2 0 8.7 7.2 0 8.8 7.2 0 8.9 7.2 0 9 7.2 0 9.1 7.2 0 9.2 7.2 0 9.3 7.2 0 9.4 7.2 0 9.5 7.2 0 9.6 7.2 0 9.7 7.2 0 9.8 7.2 0 9.9 7.2 0 10 7.2 0 0 7.3 0 0.1 7.3 0 0.2 7.3 0 0.3 7.3 0 0.4 7.3 0 0.5 7.3 0 0.6 7.3 0 0.7 7.3 0 0.8 7.3 0 0.9 7.3 0 1 7.3 0 1.1 7.3 0 1.2 7.3 0 1.3 7.3 0 1.4 7.3 0 1.5 7.3 0 1.6 7.3 0 1.7 7.3 0 1.8 7.3 0 1.9 7.3 0 2 7.3 0 2.1 7.3 0 2.2 7.3 0 2.3 7.3 0 2.4 7.3 0 2.5 7.3 0 2.6 7.3 0 2.7 7.3 0 2.8 7.3 0 2.9 7.3 0 3 7.3 0 3.1 7.3 0 3.2 7.3 0 3.3 7.3 0 3.4 7.3 0 3.5 7.3 0 3.6 7.3 0 3.7 7.3 0 3.8 7.3 0 3.9 7.3 0 4 7.3 0 4.1 7.3 0 4.2 7.3 0 4.3 7.3 0 4.4 7.3 0 4.5 7.3 0 4.6 7.3 0 4.7 7.3 0 4.8 7.3 0 4.9 7.3 0 5 7.3 0 5.1 7.3 0 5.2 7.3 0 5.3 7.3 0 5.4 7.3 0 5.5 7.3 0 5.6 7.3 0 5.7 7.3 0 5.8 7.3 0 5.9 7.3 0 6 7.3 0 6.1 7.3 0 6.2 7.3 0 6.3 7.3 0 6.4 7.3 0 6.5 7.3 0 6.6 7.3 0 6.7 7.3 0 6.8 7.3 0 6.9 7.3 0 7 7.3 0 7.1 7.3 0 7.2 7.3 0 7.3 7.3 0 7.4 7.3 0 7.5 7.3 0 7.6 7.3 0 7.7 7.3 0 7.8 7.3 0 7.9 7.3 0 8 7.3 0 8.1 7.3 0 8.2 7.3 0 8.3 7.3 0 8.4 7.3 0 8.5 7.3 0 8.6 7.3 0 8.7 7.3 0 8.8 7.3 0 8.9 7.3 0 9 7.3 0 9.1 7.3 0 9.2 7.3 0 9.3 7.3 0 9.4 7.3 0 9.5 7.3 0 9.6 7.3 0 9.7 7.3 0 9.8 7.3 0 9.9 7.3 0 10 7.3 0 0 7.4 0 0.1 7.4 0 0.2 7.4 0 0.3 7.4 0 0.4 7.4 0 0.5 7.4 0 0.6 7.4 0 0.7 7.4 0 0.8 7.4 0 0.9 7.4 0 1 7.4 0 1.1 7.4 0 1.2 7.4 0 1.3 7.4 0 1.4 7.4 0 1.5 7.4 0 1.6 7.4 0 1.7 7.4 0 1.8 7.4 0 1.9 7.4 0 2 7.4 0 2.1 7.4 0 2.2 7.4 0 2.3 7.4 0 2.4 7.4 0 2.5 7.4 0 2.6 7.4 0 2.7 7.4 0 2.8 7.4 0 2.9 7.4 0 3 7.4 0 3.1 7.4 0 3.2 7.4 0 3.3 7.4 0 3.4 7.4 0 3.5 7.4 0 3.6 7.4 0 3.7 7.4 0 3.8 7.4 0 3.9 7.4 0 4 7.4 0 4.1 7.4 0 4.2 7.4 0 4.3 7.4 0 4.4 7.4 0 4.5 7.4 0 4.6 7.4 0 4.7 7.4 0 4.8 7.4 0 4.9 7.4 0 5 7.4 0 5.1 7.4 0 5.2 7.4 0 5.3 7.4 0 5.4 7.4 0 5.5 7.4 0 5.6 7.4 0 5.7 7.4 0 5.8 7.4 0 5.9 7.4 0 6 7.4 0 6.1 7.4 0 6.2 7.4 0 6.3 7.4 0 6.4 7.4 0 6.5 7.4 0 6.6 7.4 0 6.7 7.4 0 6.8 7.4 0 6.9 7.4 0 7 7.4 0 7.1 7.4 0 7.2 7.4 0 7.3 7.4 0 7.4 7.4 0 7.5 7.4 0 7.6 7.4 0 7.7 7.4 0 7.8 7.4 0 7.9 7.4 0 8 7.4 0 8.1 7.4 0 8.2 7.4 0 8.3 7.4 0 8.4 7.4 0 8.5 7.4 0 8.6 7.4 0 8.7 7.4 0 8.8 7.4 0 8.9 7.4 0 9 7.4 0 9.1 7.4 0 9.2 7.4 0 9.3 7.4 0 9.4 7.4 0 9.5 7.4 0 9.6 7.4 0 9.7 7.4 0 9.8 7.4 0 9.9 7.4 0 10 7.4 0 0 7.5 0 0.1 7.5 0 0.2 7.5 0 0.3 7.5 0 0.4 7.5 0 0.5 7.5 0 0.6 7.5 0 0.7 7.5 0 0.8 7.5 0 0.9 7.5 0 1 7.5 0 1.1 7.5 0 1.2 7.5 0 1.3 7.5 0 1.4 7.5 0 1.5 7.5 0 1.6 7.5 0 1.7 7.5 0 1.8 7.5 0 1.9 7.5 0 2 7.5 0 2.1 7.5 0 2.2 7.5 0 2.3 7.5 0 2.4 7.5 0 2.5 7.5 0 2.6 7.5 0 2.7 7.5 0 2.8 7.5 0 2.9 7.5 0 3 7.5 0 3.1 7.5 0 3.2 7.5 0 3.3 7.5 0 3.4 7.5 0 3.5 7.5 0 3.6 7.5 0 3.7 7.5 0 3.8 7.5 0 3.9 7.5 0 4 7.5 0 4.1 7.5 0 4.2 7.5 0 4.3 7.5 0 4.4 7.5 0 4.5 7.5 0 4.6 7.5 0 4.7 7.5 0 4.8 7.5 0 4.9 7.5 0 5 7.5 0 5.1 7.5 0 5.2 7.5 0 5.3 7.5 0 5.4 7.5 0 5.5 7.5 0 5.6 7.5 0 5.7 7.5 0 5.8 7.5 0 5.9 7.5 0 6 7.5 0 6.1 7.5 0 6.2 7.5 0 6.3 7.5 0 6.4 7.5 0 6.5 7.5 0 6.6 7.5 0 6.7 7.5 0 6.8 7.5 0 6.9 7.5 0 7 7.5 0 7.1 7.5 0 7.2 7.5 0 7.3 7.5 0 7.4 7.5 0 7.5 7.5 0 7.6 7.5 0 7.7 7.5 0 7.8 7.5 0 7.9 7.5 0 8 7.5 0 8.1 7.5 0 8.2 7.5 0 8.3 7.5 0 8.4 7.5 0 8.5 7.5 0 8.6 7.5 0 8.7 7.5 0 8.8 7.5 0 8.9 7.5 0 9 7.5 0 9.1 7.5 0 9.2 7.5 0 9.3 7.5 0 9.4 7.5 0 9.5 7.5 0 9.6 7.5 0 9.7 7.5 0 9.8 7.5 0 9.9 7.5 0 10 7.5 0 0 7.6 0 0.1 7.6 0 0.2 7.6 0 0.3 7.6 0 0.4 7.6 0 0.5 7.6 0 0.6 7.6 0 0.7 7.6 0 0.8 7.6 0 0.9 7.6 0 1 7.6 0 1.1 7.6 0 1.2 7.6 0 1.3 7.6 0 1.4 7.6 0 1.5 7.6 0 1.6 7.6 0 1.7 7.6 0 1.8 7.6 0 1.9 7.6 0 2 7.6 0 2.1 7.6 0 2.2 7.6 0 2.3 7.6 0 2.4 7.6 0 2.5 7.6 0 2.6 7.6 0 2.7 7.6 0 2.8 7.6 0 2.9 7.6 0 3 7.6 0 3.1 7.6 0 3.2 7.6 0 3.3 7.6 0 3.4 7.6 0 3.5 7.6 0 3.6 7.6 0 3.7 7.6 0 3.8 7.6 0 3.9 7.6 0 4 7.6 0 4.1 7.6 0 4.2 7.6 0 4.3 7.6 0 4.4 7.6 0 4.5 7.6 0 4.6 7.6 0 4.7 7.6 0 4.8 7.6 0 4.9 7.6 0 5 7.6 0 5.1 7.6 0 5.2 7.6 0 5.3 7.6 0 5.4 7.6 0 5.5 7.6 0 5.6 7.6 0 5.7 7.6 0 5.8 7.6 0 5.9 7.6 0 6 7.6 0 6.1 7.6 0 6.2 7.6 0 6.3 7.6 0 6.4 7.6 0 6.5 7.6 0 6.6 7.6 0 6.7 7.6 0 6.8 7.6 0 6.9 7.6 0 7 7.6 0 7.1 7.6 0 7.2 7.6 0 7.3 7.6 0 7.4 7.6 0 7.5 7.6 0 7.6 7.6 0 7.7 7.6 0 7.8 7.6 0 7.9 7.6 0 8 7.6 0 8.1 7.6 0 8.2 7.6 0 8.3 7.6 0 8.4 7.6 0 8.5 7.6 0 8.6 7.6 0 8.7 7.6 0 8.8 7.6 0 8.9 7.6 0 9 7.6 0 9.1 7.6 0 9.2 7.6 0 9.3 7.6 0 9.4 7.6 0 9.5 7.6 0 9.6 7.6 0 9.7 7.6 0 9.8 7.6 0 9.9 7.6 0 10 7.6 0 0 7.7 0 0.1 7.7 0 0.2 7.7 0 0.3 7.7 0 0.4 7.7 0 0.5 7.7 0 0.6 7.7 0 0.7 7.7 0 0.8 7.7 0 0.9 7.7 0 1 7.7 0 1.1 7.7 0 1.2 7.7 0 1.3 7.7 0 1.4 7.7 0 1.5 7.7 0 1.6 7.7 0 1.7 7.7 0 1.8 7.7 0 1.9 7.7 0 2 7.7 0 2.1 7.7 0 2.2 7.7 0 2.3 7.7 0 2.4 7.7 0 2.5 7.7 0 2.6 7.7 0 2.7 7.7 0 2.8 7.7 0 2.9 7.7 0 3 7.7 0 3.1 7.7 0 3.2 7.7 0 3.3 7.7 0 3.4 7.7 0 3.5 7.7 0 3.6 7.7 0 3.7 7.7 0 3.8 7.7 0 3.9 7.7 0 4 7.7 0 4.1 7.7 0 4.2 7.7 0 4.3 7.7 0 4.4 7.7 0 4.5 7.7 0 4.6 7.7 0 4.7 7.7 0 4.8 7.7 0 4.9 7.7 0 5 7.7 0 5.1 7.7 0 5.2 7.7 0 5.3 7.7 0 5.4 7.7 0 5.5 7.7 0 5.6 7.7 0 5.7 7.7 0 5.8 7.7 0 5.9 7.7 0 6 7.7 0 6.1 7.7 0 6.2 7.7 0 6.3 7.7 0 6.4 7.7 0 6.5 7.7 0 6.6 7.7 0 6.7 7.7 0 6.8 7.7 0 6.9 7.7 0 7 7.7 0 7.1 7.7 0 7.2 7.7 0 7.3 7.7 0 7.4 7.7 0 7.5 7.7 0 7.6 7.7 0 7.7 7.7 0 7.8 7.7 0 7.9 7.7 0 8 7.7 0 8.1 7.7 0 8.2 7.7 0 8.3 7.7 0 8.4 7.7 0 8.5 7.7 0 8.6 7.7 0 8.7 7.7 0 8.8 7.7 0 8.9 7.7 0 9 7.7 0 9.1 7.7 0 9.2 7.7 0 9.3 7.7 0 9.4 7.7 0 9.5 7.7 0 9.6 7.7 0 9.7 7.7 0 9.8 7.7 0 9.9 7.7 0 10 7.7 0 0 7.8 0 0.1 7.8 0 0.2 7.8 0 0.3 7.8 0 0.4 7.8 0 0.5 7.8 0 0.6 7.8 0 0.7 7.8 0 0.8 7.8 0 0.9 7.8 0 1 7.8 0 1.1 7.8 0 1.2 7.8 0 1.3 7.8 0 1.4 7.8 0 1.5 7.8 0 1.6 7.8 0 1.7 7.8 0 1.8 7.8 0 1.9 7.8 0 2 7.8 0 2.1 7.8 0 2.2 7.8 0 2.3 7.8 0 2.4 7.8 0 2.5 7.8 0 2.6 7.8 0 2.7 7.8 0 2.8 7.8 0 2.9 7.8 0 3 7.8 0 3.1 7.8 0 3.2 7.8 0 3.3 7.8 0 3.4 7.8 0 3.5 7.8 0 3.6 7.8 0 3.7 7.8 0 3.8 7.8 0 3.9 7.8 0 4 7.8 0 4.1 7.8 0 4.2 7.8 0 4.3 7.8 0 4.4 7.8 0 4.5 7.8 0 4.6 7.8 0 4.7 7.8 0 4.8 7.8 0 4.9 7.8 0 5 7.8 0 5.1 7.8 0 5.2 7.8 0 5.3 7.8 0 5.4 7.8 0 5.5 7.8 0 5.6 7.8 0 5.7 7.8 0 5.8 7.8 0 5.9 7.8 0 6 7.8 0 6.1 7.8 0 6.2 7.8 0 6.3 7.8 0 6.4 7.8 0 6.5 7.8 0 6.6 7.8 0 6.7 7.8 0 6.8 7.8 0 6.9 7.8 0 7 7.8 0 7.1 7.8 0 7.2 7.8 0 7.3 7.8 0 7.4 7.8 0 7.5 7.8 0 7.6 7.8 0 7.7 7.8 0 7.8 7.8 0 7.9 7.8 0 8 7.8 0 8.1 7.8 0 8.2 7.8 0 8.3 7.8 0 8.4 7.8 0 8.5 7.8 0 8.6 7.8 0 8.7 7.8 0 8.8 7.8 0 8.9 7.8 0 9 7.8 0 9.1 7.8 0 9.2 7.8 0 9.3 7.8 0 9.4 7.8 0 9.5 7.8 0 9.6 7.8 0 9.7 7.8 0 9.8 7.8 0 9.9 7.8 0 10 7.8 0 0 7.9 0 0.1 7.9 0 0.2 7.9 0 0.3 7.9 0 0.4 7.9 0 0.5 7.9 0 0.6 7.9 0 0.7 7.9 0 0.8 7.9 0 0.9 7.9 0 1 7.9 0 1.1 7.9 0 1.2 7.9 0 1.3 7.9 0 1.4 7.9 0 1.5 7.9 0 1.6 7.9 0 1.7 7.9 0 1.8 7.9 0 1.9 7.9 0 2 7.9 0 2.1 7.9 0 2.2 7.9 0 2.3 7.9 0 2.4 7.9 0 2.5 7.9 0 2.6 7.9 0 2.7 7.9 0 2.8 7.9 0 2.9 7.9 0 3 7.9 0 3.1 7.9 0 3.2 7.9 0 3.3 7.9 0 3.4 7.9 0 3.5 7.9 0 3.6 7.9 0 3.7 7.9 0 3.8 7.9 0 3.9 7.9 0 4 7.9 0 4.1 7.9 0 4.2 7.9 0 4.3 7.9 0 4.4 7.9 0 4.5 7.9 0 4.6 7.9 0 4.7 7.9 0 4.8 7.9 0 4.9 7.9 0 5 7.9 0 5.1 7.9 0 5.2 7.9 0 5.3 7.9 0 5.4 7.9 0 5.5 7.9 0 5.6 7.9 0 5.7 7.9 0 5.8 7.9 0 5.9 7.9 0 6 7.9 0 6.1 7.9 0 6.2 7.9 0 6.3 7.9 0 6.4 7.9 0 6.5 7.9 0 6.6 7.9 0 6.7 7.9 0 6.8 7.9 0 6.9 7.9 0 7 7.9 0 7.1 7.9 0 7.2 7.9 0 7.3 7.9 0 7.4 7.9 0 7.5 7.9 0 7.6 7.9 0 7.7 7.9 0 7.8 7.9 0 7.9 7.9 0 8 7.9 0 8.1 7.9 0 8.2 7.9 0 8.3 7.9 0 8.4 7.9 0 8.5 7.9 0 8.6 7.9 0 8.7 7.9 0 8.8 7.9 0 8.9 7.9 0 9 7.9 0 9.1 7.9 0 9.2 7.9 0 9.3 7.9 0 9.4 7.9 0 9.5 7.9 0 9.6 7.9 0 9.7 7.9 0 9.8 7.9 0 9.9 7.9 0 10 7.9 0 0 8 0 0.1 8 0 0.2 8 0 0.3 8 0 0.4 8 0 0.5 8 0 0.6 8 0 0.7 8 0 0.8 8 0 0.9 8 0 1 8 0 1.1 8 0 1.2 8 0 1.3 8 0 1.4 8 0 1.5 8 0 1.6 8 0 1.7 8 0 1.8 8 0 1.9 8 0 2 8 0 2.1 8 0 2.2 8 0 2.3 8 0 2.4 8 0 2.5 8 0 2.6 8 0 2.7 8 0 2.8 8 0 2.9 8 0 3 8 0 3.1 8 0 3.2 8 0 3.3 8 0 3.4 8 0 3.5 8 0 3.6 8 0 3.7 8 0 3.8 8 0 3.9 8 0 4 8 0 4.1 8 0 4.2 8 0 4.3 8 0 4.4 8 0 4.5 8 0 4.6 8 0 4.7 8 0 4.8 8 0 4.9 8 0 5 8 0 5.1 8 0 5.2 8 0 5.3 8 0 5.4 8 0 5.5 8 0 5.6 8 0 5.7 8 0 5.8 8 0 5.9 8 0 6 8 0 6.1 8 0 6.2 8 0 6.3 8 0 6.4 8 0 6.5 8 0 6.6 8 0 6.7 8 0 6.8 8 0 6.9 8 0 7 8 0 7.1 8 0 7.2 8 0 7.3 8 0 7.4 8 0 7.5 8 0 7.6 8 0 7.7 8 0 7.8 8 0 7.9 8 0 8 8 0 8.1 8 0 8.2 8 0 8.3 8 0 8.4 8 0 8.5 8 0 8.6 8 0 8.7 8 0 8.8 8 0 8.9 8 0 9 8 0 9.1 8 0 9.2 8 0 9.3 8 0 9.4 8 0 9.5 8 0 9.6 8 0 9.7 8 0 9.8 8 0 9.9 8 0 10 8 0 0 8.1 0 0.1 8.1 0 0.2 8.1 0 0.3 8.1 0 0.4 8.1 0 0.5 8.1 0 0.6 8.1 0 0.7 8.1 0 0.8 8.1 0 0.9 8.1 0 1 8.1 0 1.1 8.1 0 1.2 8.1 0 1.3 8.1 0 1.4 8.1 0 1.5 8.1 0 1.6 8.1 0 1.7 8.1 0 1.8 8.1 0 1.9 8.1 0 2 8.1 0 2.1 8.1 0 2.2 8.1 0 2.3 8.1 0 2.4 8.1 0 2.5 8.1 0 2.6 8.1 0 2.7 8.1 0 2.8 8.1 0 2.9 8.1 0 3 8.1 0 3.1 8.1 0 3.2 8.1 0 3.3 8.1 0 3.4 8.1 0 3.5 8.1 0 3.6 8.1 0 3.7 8.1 0 3.8 8.1 0 3.9 8.1 0 4 8.1 0 4.1 8.1 0 4.2 8.1 0 4.3 8.1 0 4.4 8.1 0 4.5 8.1 0 4.6 8.1 0 4.7 8.1 0 4.8 8.1 0 4.9 8.1 0 5 8.1 0 5.1 8.1 0 5.2 8.1 0 5.3 8.1 0 5.4 8.1 0 5.5 8.1 0 5.6 8.1 0 5.7 8.1 0 5.8 8.1 0 5.9 8.1 0 6 8.1 0 6.1 8.1 0 6.2 8.1 0 6.3 8.1 0 6.4 8.1 0 6.5 8.1 0 6.6 8.1 0 6.7 8.1 0 6.8 8.1 0 6.9 8.1 0 7 8.1 0 7.1 8.1 0 7.2 8.1 0 7.3 8.1 0 7.4 8.1 0 7.5 8.1 0 7.6 8.1 0 7.7 8.1 0 7.8 8.1 0 7.9 8.1 0 8 8.1 0 8.1 8.1 0 8.2 8.1 0 8.3 8.1 0 8.4 8.1 0 8.5 8.1 0 8.6 8.1 0 8.7 8.1 0 8.8 8.1 0 8.9 8.1 0 9 8.1 0 9.1 8.1 0 9.2 8.1 0 9.3 8.1 0 9.4 8.1 0 9.5 8.1 0 9.6 8.1 0 9.7 8.1 0 9.8 8.1 0 9.9 8.1 0 10 8.1 0 0 8.2 0 0.1 8.2 0 0.2 8.2 0 0.3 8.2 0 0.4 8.2 0 0.5 8.2 0 0.6 8.2 0 0.7 8.2 0 0.8 8.2 0 0.9 8.2 0 1 8.2 0 1.1 8.2 0 1.2 8.2 0 1.3 8.2 0 1.4 8.2 0 1.5 8.2 0 1.6 8.2 0 1.7 8.2 0 1.8 8.2 0 1.9 8.2 0 2 8.2 0 2.1 8.2 0 2.2 8.2 0 2.3 8.2 0 2.4 8.2 0 2.5 8.2 0 2.6 8.2 0 2.7 8.2 0 2.8 8.2 0 2.9 8.2 0 3 8.2 0 3.1 8.2 0 3.2 8.2 0 3.3 8.2 0 3.4 8.2 0 3.5 8.2 0 3.6 8.2 0 3.7 8.2 0 3.8 8.2 0 3.9 8.2 0 4 8.2 0 4.1 8.2 0 4.2 8.2 0 4.3 8.2 0 4.4 8.2 0 4.5 8.2 0 4.6 8.2 0 4.7 8.2 0 4.8 8.2 0 4.9 8.2 0 5 8.2 0 5.1 8.2 0 5.2 8.2 0 5.3 8.2 0 5.4 8.2 0 5.5 8.2 0 5.6 8.2 0 5.7 8.2 0 5.8 8.2 0 5.9 8.2 0 6 8.2 0 6.1 8.2 0 6.2 8.2 0 6.3 8.2 0 6.4 8.2 0 6.5 8.2 0 6.6 8.2 0 6.7 8.2 0 6.8 8.2 0 6.9 8.2 0 7 8.2 0 7.1 8.2 0 7.2 8.2 0 7.3 8.2 0 7.4 8.2 0 7.5 8.2 0 7.6 8.2 0 7.7 8.2 0 7.8 8.2 0 7.9 8.2 0 8 8.2 0 8.1 8.2 0 8.2 8.2 0 8.3 8.2 0 8.4 8.2 0 8.5 8.2 0 8.6 8.2 0 8.7 8.2 0 8.8 8.2 0 8.9 8.2 0 9 8.2 0 9.1 8.2 0 9.2 8.2 0 9.3 8.2 0 9.4 8.2 0 9.5 8.2 0 9.6 8.2 0 9.7 8.2 0 9.8 8.2 0 9.9 8.2 0 10 8.2 0 0 8.3 0 0.1 8.3 0 0.2 8.3 0 0.3 8.3 0 0.4 8.3 0 0.5 8.3 0 0.6 8.3 0 0.7 8.3 0 0.8 8.3 0 0.9 8.3 0 1 8.3 0 1.1 8.3 0 1.2 8.3 0 1.3 8.3 0 1.4 8.3 0 1.5 8.3 0 1.6 8.3 0 1.7 8.3 0 1.8 8.3 0 1.9 8.3 0 2 8.3 0 2.1 8.3 0 2.2 8.3 0 2.3 8.3 0 2.4 8.3 0 2.5 8.3 0 2.6 8.3 0 2.7 8.3 0 2.8 8.3 0 2.9 8.3 0 3 8.3 0 3.1 8.3 0 3.2 8.3 0 3.3 8.3 0 3.4 8.3 0 3.5 8.3 0 3.6 8.3 0 3.7 8.3 0 3.8 8.3 0 3.9 8.3 0 4 8.3 0 4.1 8.3 0 4.2 8.3 0 4.3 8.3 0 4.4 8.3 0 4.5 8.3 0 4.6 8.3 0 4.7 8.3 0 4.8 8.3 0 4.9 8.3 0 5 8.3 0 5.1 8.3 0 5.2 8.3 0 5.3 8.3 0 5.4 8.3 0 5.5 8.3 0 5.6 8.3 0 5.7 8.3 0 5.8 8.3 0 5.9 8.3 0 6 8.3 0 6.1 8.3 0 6.2 8.3 0 6.3 8.3 0 6.4 8.3 0 6.5 8.3 0 6.6 8.3 0 6.7 8.3 0 6.8 8.3 0 6.9 8.3 0 7 8.3 0 7.1 8.3 0 7.2 8.3 0 7.3 8.3 0 7.4 8.3 0 7.5 8.3 0 7.6 8.3 0 7.7 8.3 0 7.8 8.3 0 7.9 8.3 0 8 8.3 0 8.1 8.3 0 8.2 8.3 0 8.3 8.3 0 8.4 8.3 0 8.5 8.3 0 8.6 8.3 0 8.7 8.3 0 8.8 8.3 0 8.9 8.3 0 9 8.3 0 9.1 8.3 0 9.2 8.3 0 9.3 8.3 0 9.4 8.3 0 9.5 8.3 0 9.6 8.3 0 9.7 8.3 0 9.8 8.3 0 9.9 8.3 0 10 8.3 0 0 8.4 0 0.1 8.4 0 0.2 8.4 0 0.3 8.4 0 0.4 8.4 0 0.5 8.4 0 0.6 8.4 0 0.7 8.4 0 0.8 8.4 0 0.9 8.4 0 1 8.4 0 1.1 8.4 0 1.2 8.4 0 1.3 8.4 0 1.4 8.4 0 1.5 8.4 0 1.6 8.4 0 1.7 8.4 0 1.8 8.4 0 1.9 8.4 0 2 8.4 0 2.1 8.4 0 2.2 8.4 0 2.3 8.4 0 2.4 8.4 0 2.5 8.4 0 2.6 8.4 0 2.7 8.4 0 2.8 8.4 0 2.9 8.4 0 3 8.4 0 3.1 8.4 0 3.2 8.4 0 3.3 8.4 0 3.4 8.4 0 3.5 8.4 0 3.6 8.4 0 3.7 8.4 0 3.8 8.4 0 3.9 8.4 0 4 8.4 0 4.1 8.4 0 4.2 8.4 0 4.3 8.4 0 4.4 8.4 0 4.5 8.4 0 4.6 8.4 0 4.7 8.4 0 4.8 8.4 0 4.9 8.4 0 5 8.4 0 5.1 8.4 0 5.2 8.4 0 5.3 8.4 0 5.4 8.4 0 5.5 8.4 0 5.6 8.4 0 5.7 8.4 0 5.8 8.4 0 5.9 8.4 0 6 8.4 0 6.1 8.4 0 6.2 8.4 0 6.3 8.4 0 6.4 8.4 0 6.5 8.4 0 6.6 8.4 0 6.7 8.4 0 6.8 8.4 0 6.9 8.4 0 7 8.4 0 7.1 8.4 0 7.2 8.4 0 7.3 8.4 0 7.4 8.4 0 7.5 8.4 0 7.6 8.4 0 7.7 8.4 0 7.8 8.4 0 7.9 8.4 0 8 8.4 0 8.1 8.4 0 8.2 8.4 0 8.3 8.4 0 8.4 8.4 0 8.5 8.4 0 8.6 8.4 0 8.7 8.4 0 8.8 8.4 0 8.9 8.4 0 9 8.4 0 9.1 8.4 0 9.2 8.4 0 9.3 8.4 0 9.4 8.4 0 9.5 8.4 0 9.6 8.4 0 9.7 8.4 0 9.8 8.4 0 9.9 8.4 0 10 8.4 0 0 8.5 0 0.1 8.5 0 0.2 8.5 0 0.3 8.5 0 0.4 8.5 0 0.5 8.5 0 0.6 8.5 0 0.7 8.5 0 0.8 8.5 0 0.9 8.5 0 1 8.5 0 1.1 8.5 0 1.2 8.5 0 1.3 8.5 0 1.4 8.5 0 1.5 8.5 0 1.6 8.5 0 1.7 8.5 0 1.8 8.5 0 1.9 8.5 0 2 8.5 0 2.1 8.5 0 2.2 8.5 0 2.3 8.5 0 2.4 8.5 0 2.5 8.5 0 2.6 8.5 0 2.7 8.5 0 2.8 8.5 0 2.9 8.5 0 3 8.5 0 3.1 8.5 0 3.2 8.5 0 3.3 8.5 0 3.4 8.5 0 3.5 8.5 0 3.6 8.5 0 3.7 8.5 0 3.8 8.5 0 3.9 8.5 0 4 8.5 0 4.1 8.5 0 4.2 8.5 0 4.3 8.5 0 4.4 8.5 0 4.5 8.5 0 4.6 8.5 0 4.7 8.5 0 4.8 8.5 0 4.9 8.5 0 5 8.5 0 5.1 8.5 0 5.2 8.5 0 5.3 8.5 0 5.4 8.5 0 5.5 8.5 0 5.6 8.5 0 5.7 8.5 0 5.8 8.5 0 5.9 8.5 0 6 8.5 0 6.1 8.5 0 6.2 8.5 0 6.3 8.5 0 6.4 8.5 0 6.5 8.5 0 6.6 8.5 0 6.7 8.5 0 6.8 8.5 0 6.9 8.5 0 7 8.5 0 7.1 8.5 0 7.2 8.5 0 7.3 8.5 0 7.4 8.5 0 7.5 8.5 0 7.6 8.5 0 7.7 8.5 0 7.8 8.5 0 7.9 8.5 0 8 8.5 0 8.1 8.5 0 8.2 8.5 0 8.3 8.5 0 8.4 8.5 0 8.5 8.5 0 8.6 8.5 0 8.7 8.5 0 8.8 8.5 0 8.9 8.5 0 9 8.5 0 9.1 8.5 0 9.2 8.5 0 9.3 8.5 0 9.4 8.5 0 9.5 8.5 0 9.6 8.5 0 9.7 8.5 0 9.8 8.5 0 9.9 8.5 0 10 8.5 0 0 8.6 0 0.1 8.6 0 0.2 8.6 0 0.3 8.6 0 0.4 8.6 0 0.5 8.6 0 0.6 8.6 0 0.7 8.6 0 0.8 8.6 0 0.9 8.6 0 1 8.6 0 1.1 8.6 0 1.2 8.6 0 1.3 8.6 0 1.4 8.6 0 1.5 8.6 0 1.6 8.6 0 1.7 8.6 0 1.8 8.6 0 1.9 8.6 0 2 8.6 0 2.1 8.6 0 2.2 8.6 0 2.3 8.6 0 2.4 8.6 0 2.5 8.6 0 2.6 8.6 0 2.7 8.6 0 2.8 8.6 0 2.9 8.6 0 3 8.6 0 3.1 8.6 0 3.2 8.6 0 3.3 8.6 0 3.4 8.6 0 3.5 8.6 0 3.6 8.6 0 3.7 8.6 0 3.8 8.6 0 3.9 8.6 0 4 8.6 0 4.1 8.6 0 4.2 8.6 0 4.3 8.6 0 4.4 8.6 0 4.5 8.6 0 4.6 8.6 0 4.7 8.6 0 4.8 8.6 0 4.9 8.6 0 5 8.6 0 5.1 8.6 0 5.2 8.6 0 5.3 8.6 0 5.4 8.6 0 5.5 8.6 0 5.6 8.6 0 5.7 8.6 0 5.8 8.6 0 5.9 8.6 0 6 8.6 0 6.1 8.6 0 6.2 8.6 0 6.3 8.6 0 6.4 8.6 0 6.5 8.6 0 6.6 8.6 0 6.7 8.6 0 6.8 8.6 0 6.9 8.6 0 7 8.6 0 7.1 8.6 0 7.2 8.6 0 7.3 8.6 0 7.4 8.6 0 7.5 8.6 0 7.6 8.6 0 7.7 8.6 0 7.8 8.6 0 7.9 8.6 0 8 8.6 0 8.1 8.6 0 8.2 8.6 0 8.3 8.6 0 8.4 8.6 0 8.5 8.6 0 8.6 8.6 0 8.7 8.6 0 8.8 8.6 0 8.9 8.6 0 9 8.6 0 9.1 8.6 0 9.2 8.6 0 9.3 8.6 0 9.4 8.6 0 9.5 8.6 0 9.6 8.6 0 9.7 8.6 0 9.8 8.6 0 9.9 8.6 0 10 8.6 0 0 8.7 0 0.1 8.7 0 0.2 8.7 0 0.3 8.7 0 0.4 8.7 0 0.5 8.7 0 0.6 8.7 0 0.7 8.7 0 0.8 8.7 0 0.9 8.7 0 1 8.7 0 1.1 8.7 0 1.2 8.7 0 1.3 8.7 0 1.4 8.7 0 1.5 8.7 0 1.6 8.7 0 1.7 8.7 0 1.8 8.7 0 1.9 8.7 0 2 8.7 0 2.1 8.7 0 2.2 8.7 0 2.3 8.7 0 2.4 8.7 0 2.5 8.7 0 2.6 8.7 0 2.7 8.7 0 2.8 8.7 0 2.9 8.7 0 3 8.7 0 3.1 8.7 0 3.2 8.7 0 3.3 8.7 0 3.4 8.7 0 3.5 8.7 0 3.6 8.7 0 3.7 8.7 0 3.8 8.7 0 3.9 8.7 0 4 8.7 0 4.1 8.7 0 4.2 8.7 0 4.3 8.7 0 4.4 8.7 0 4.5 8.7 0 4.6 8.7 0 4.7 8.7 0 4.8 8.7 0 4.9 8.7 0 5 8.7 0 5.1 8.7 0 5.2 8.7 0 5.3 8.7 0 5.4 8.7 0 5.5 8.7 0 5.6 8.7 0 5.7 8.7 0 5.8 8.7 0 5.9 8.7 0 6 8.7 0 6.1 8.7 0 6.2 8.7 0 6.3 8.7 0 6.4 8.7 0 6.5 8.7 0 6.6 8.7 0 6.7 8.7 0 6.8 8.7 0 6.9 8.7 0 7 8.7 0 7.1 8.7 0 7.2 8.7 0 7.3 8.7 0 7.4 8.7 0 7.5 8.7 0 7.6 8.7 0 7.7 8.7 0 7.8 8.7 0 7.9 8.7 0 8 8.7 0 8.1 8.7 0 8.2 8.7 0 8.3 8.7 0 8.4 8.7 0 8.5 8.7 0 8.6 8.7 0 8.7 8.7 0 8.8 8.7 0 8.9 8.7 0 9 8.7 0 9.1 8.7 0 9.2 8.7 0 9.3 8.7 0 9.4 8.7 0 9.5 8.7 0 9.6 8.7 0 9.7 8.7 0 9.8 8.7 0 9.9 8.7 0 10 8.7 0 0 8.8 0 0.1 8.8 0 0.2 8.8 0 0.3 8.8 0 0.4 8.8 0 0.5 8.8 0 0.6 8.8 0 0.7 8.8 0 0.8 8.8 0 0.9 8.8 0 1 8.8 0 1.1 8.8 0 1.2 8.8 0 1.3 8.8 0 1.4 8.8 0 1.5 8.8 0 1.6 8.8 0 1.7 8.8 0 1.8 8.8 0 1.9 8.8 0 2 8.8 0 2.1 8.8 0 2.2 8.8 0 2.3 8.8 0 2.4 8.8 0 2.5 8.8 0 2.6 8.8 0 2.7 8.8 0 2.8 8.8 0 2.9 8.8 0 3 8.8 0 3.1 8.8 0 3.2 8.8 0 3.3 8.8 0 3.4 8.8 0 3.5 8.8 0 3.6 8.8 0 3.7 8.8 0 3.8 8.8 0 3.9 8.8 0 4 8.8 0 4.1 8.8 0 4.2 8.8 0 4.3 8.8 0 4.4 8.8 0 4.5 8.8 0 4.6 8.8 0 4.7 8.8 0 4.8 8.8 0 4.9 8.8 0 5 8.8 0 5.1 8.8 0 5.2 8.8 0 5.3 8.8 0 5.4 8.8 0 5.5 8.8 0 5.6 8.8 0 5.7 8.8 0 5.8 8.8 0 5.9 8.8 0 6 8.8 0 6.1 8.8 0 6.2 8.8 0 6.3 8.8 0 6.4 8.8 0 6.5 8.8 0 6.6 8.8 0 6.7 8.8 0 6.8 8.8 0 6.9 8.8 0 7 8.8 0 7.1 8.8 0 7.2 8.8 0 7.3 8.8 0 7.4 8.8 0 7.5 8.8 0 7.6 8.8 0 7.7 8.8 0 7.8 8.8 0 7.9 8.8 0 8 8.8 0 8.1 8.8 0 8.2 8.8 0 8.3 8.8 0 8.4 8.8 0 8.5 8.8 0 8.6 8.8 0 8.7 8.8 0 8.8 8.8 0 8.9 8.8 0 9 8.8 0 9.1 8.8 0 9.2 8.8 0 9.3 8.8 0 9.4 8.8 0 9.5 8.8 0 9.6 8.8 0 9.7 8.8 0 9.8 8.8 0 9.9 8.8 0 10 8.8 0 0 8.9 0 0.1 8.9 0 0.2 8.9 0 0.3 8.9 0 0.4 8.9 0 0.5 8.9 0 0.6 8.9 0 0.7 8.9 0 0.8 8.9 0 0.9 8.9 0 1 8.9 0 1.1 8.9 0 1.2 8.9 0 1.3 8.9 0 1.4 8.9 0 1.5 8.9 0 1.6 8.9 0 1.7 8.9 0 1.8 8.9 0 1.9 8.9 0 2 8.9 0 2.1 8.9 0 2.2 8.9 0 2.3 8.9 0 2.4 8.9 0 2.5 8.9 0 2.6 8.9 0 2.7 8.9 0 2.8 8.9 0 2.9 8.9 0 3 8.9 0 3.1 8.9 0 3.2 8.9 0 3.3 8.9 0 3.4 8.9 0 3.5 8.9 0 3.6 8.9 0 3.7 8.9 0 3.8 8.9 0 3.9 8.9 0 4 8.9 0 4.1 8.9 0 4.2 8.9 0 4.3 8.9 0 4.4 8.9 0 4.5 8.9 0 4.6 8.9 0 4.7 8.9 0 4.8 8.9 0 4.9 8.9 0 5 8.9 0 5.1 8.9 0 5.2 8.9 0 5.3 8.9 0 5.4 8.9 0 5.5 8.9 0 5.6 8.9 0 5.7 8.9 0 5.8 8.9 0 5.9 8.9 0 6 8.9 0 6.1 8.9 0 6.2 8.9 0 6.3 8.9 0 6.4 8.9 0 6.5 8.9 0 6.6 8.9 0 6.7 8.9 0 6.8 8.9 0 6.9 8.9 0 7 8.9 0 7.1 8.9 0 7.2 8.9 0 7.3 8.9 0 7.4 8.9 0 7.5 8.9 0 7.6 8.9 0 7.7 8.9 0 7.8 8.9 0 7.9 8.9 0 8 8.9 0 8.1 8.9 0 8.2 8.9 0 8.3 8.9 0 8.4 8.9 0 8.5 8.9 0 8.6 8.9 0 8.7 8.9 0 8.8 8.9 0 8.9 8.9 0 9 8.9 0 9.1 8.9 0 9.2 8.9 0 9.3 8.9 0 9.4 8.9 0 9.5 8.9 0 9.6 8.9 0 9.7 8.9 0 9.8 8.9 0 9.9 8.9 0 10 8.9 0 0 9 0 0.1 9 0 0.2 9 0 0.3 9 0 0.4 9 0 0.5 9 0 0.6 9 0 0.7 9 0 0.8 9 0 0.9 9 0 1 9 0 1.1 9 0 1.2 9 0 1.3 9 0 1.4 9 0 1.5 9 0 1.6 9 0 1.7 9 0 1.8 9 0 1.9 9 0 2 9 0 2.1 9 0 2.2 9 0 2.3 9 0 2.4 9 0 2.5 9 0 2.6 9 0 2.7 9 0 2.8 9 0 2.9 9 0 3 9 0 3.1 9 0 3.2 9 0 3.3 9 0 3.4 9 0 3.5 9 0 3.6 9 0 3.7 9 0 3.8 9 0 3.9 9 0 4 9 0 4.1 9 0 4.2 9 0 4.3 9 0 4.4 9 0 4.5 9 0 4.6 9 0 4.7 9 0 4.8 9 0 4.9 9 0 5 9 0 5.1 9 0 5.2 9 0 5.3 9 0 5.4 9 0 5.5 9 0 5.6 9 0 5.7 9 0 5.8 9 0 5.9 9 0 6 9 0 6.1 9 0 6.2 9 0 6.3 9 0 6.4 9 0 6.5 9 0 6.6 9 0 6.7 9 0 6.8 9 0 6.9 9 0 7 9 0 7.1 9 0 7.2 9 0 7.3 9 0 7.4 9 0 7.5 9 0 7.6 9 0 7.7 9 0 7.8 9 0 7.9 9 0 8 9 0 8.1 9 0 8.2 9 0 8.3 9 0 8.4 9 0 8.5 9 0 8.6 9 0 8.7 9 0 8.8 9 0 8.9 9 0 9 9 0 9.1 9 0 9.2 9 0 9.3 9 0 9.4 9 0 9.5 9 0 9.6 9 0 9.7 9 0 9.8 9 0 9.9 9 0 10 9 0 0 9.1 0 0.1 9.1 0 0.2 9.1 0 0.3 9.1 0 0.4 9.1 0 0.5 9.1 0 0.6 9.1 0 0.7 9.1 0 0.8 9.1 0 0.9 9.1 0 1 9.1 0 1.1 9.1 0 1.2 9.1 0 1.3 9.1 0 1.4 9.1 0 1.5 9.1 0 1.6 9.1 0 1.7 9.1 0 1.8 9.1 0 1.9 9.1 0 2 9.1 0 2.1 9.1 0 2.2 9.1 0 2.3 9.1 0 2.4 9.1 0 2.5 9.1 0 2.6 9.1 0 2.7 9.1 0 2.8 9.1 0 2.9 9.1 0 3 9.1 0 3.1 9.1 0 3.2 9.1 0 3.3 9.1 0 3.4 9.1 0 3.5 9.1 0 3.6 9.1 0 3.7 9.1 0 3.8 9.1 0 3.9 9.1 0 4 9.1 0 4.1 9.1 0 4.2 9.1 0 4.3 9.1 0 4.4 9.1 0 4.5 9.1 0 4.6 9.1 0 4.7 9.1 0 4.8 9.1 0 4.9 9.1 0 5 9.1 0 5.1 9.1 0 5.2 9.1 0 5.3 9.1 0 5.4 9.1 0 5.5 9.1 0 5.6 9.1 0 5.7 9.1 0 5.8 9.1 0 5.9 9.1 0 6 9.1 0 6.1 9.1 0 6.2 9.1 0 6.3 9.1 0 6.4 9.1 0 6.5 9.1 0 6.6 9.1 0 6.7 9.1 0 6.8 9.1 0 6.9 9.1 0 7 9.1 0 7.1 9.1 0 7.2 9.1 0 7.3 9.1 0 7.4 9.1 0 7.5 9.1 0 7.6 9.1 0 7.7 9.1 0 7.8 9.1 0 7.9 9.1 0 8 9.1 0 8.1 9.1 0 8.2 9.1 0 8.3 9.1 0 8.4 9.1 0 8.5 9.1 0 8.6 9.1 0 8.7 9.1 0 8.8 9.1 0 8.9 9.1 0 9 9.1 0 9.1 9.1 0 9.2 9.1 0 9.3 9.1 0 9.4 9.1 0 9.5 9.1 0 9.6 9.1 0 9.7 9.1 0 9.8 9.1 0 9.9 9.1 0 10 9.1 0 0 9.2 0 0.1 9.2 0 0.2 9.2 0 0.3 9.2 0 0.4 9.2 0 0.5 9.2 0 0.6 9.2 0 0.7 9.2 0 0.8 9.2 0 0.9 9.2 0 1 9.2 0 1.1 9.2 0 1.2 9.2 0 1.3 9.2 0 1.4 9.2 0 1.5 9.2 0 1.6 9.2 0 1.7 9.2 0 1.8 9.2 0 1.9 9.2 0 2 9.2 0 2.1 9.2 0 2.2 9.2 0 2.3 9.2 0 2.4 9.2 0 2.5 9.2 0 2.6 9.2 0 2.7 9.2 0 2.8 9.2 0 2.9 9.2 0 3 9.2 0 3.1 9.2 0 3.2 9.2 0 3.3 9.2 0 3.4 9.2 0 3.5 9.2 0 3.6 9.2 0 3.7 9.2 0 3.8 9.2 0 3.9 9.2 0 4 9.2 0 4.1 9.2 0 4.2 9.2 0 4.3 9.2 0 4.4 9.2 0 4.5 9.2 0 4.6 9.2 0 4.7 9.2 0 4.8 9.2 0 4.9 9.2 0 5 9.2 0 5.1 9.2 0 5.2 9.2 0 5.3 9.2 0 5.4 9.2 0 5.5 9.2 0 5.6 9.2 0 5.7 9.2 0 5.8 9.2 0 5.9 9.2 0 6 9.2 0 6.1 9.2 0 6.2 9.2 0 6.3 9.2 0 6.4 9.2 0 6.5 9.2 0 6.6 9.2 0 6.7 9.2 0 6.8 9.2 0 6.9 9.2 0 7 9.2 0 7.1 9.2 0 7.2 9.2 0 7.3 9.2 0 7.4 9.2 0 7.5 9.2 0 7.6 9.2 0 7.7 9.2 0 7.8 9.2 0 7.9 9.2 0 8 9.2 0 8.1 9.2 0 8.2 9.2 0 8.3 9.2 0 8.4 9.2 0 8.5 9.2 0 8.6 9.2 0 8.7 9.2 0 8.8 9.2 0 8.9 9.2 0 9 9.2 0 9.1 9.2 0 9.2 9.2 0 9.3 9.2 0 9.4 9.2 0 9.5 9.2 0 9.6 9.2 0 9.7 9.2 0 9.8 9.2 0 9.9 9.2 0 10 9.2 0 0 9.3 0 0.1 9.3 0 0.2 9.3 0 0.3 9.3 0 0.4 9.3 0 0.5 9.3 0 0.6 9.3 0 0.7 9.3 0 0.8 9.3 0 0.9 9.3 0 1 9.3 0 1.1 9.3 0 1.2 9.3 0 1.3 9.3 0 1.4 9.3 0 1.5 9.3 0 1.6 9.3 0 1.7 9.3 0 1.8 9.3 0 1.9 9.3 0 2 9.3 0 2.1 9.3 0 2.2 9.3 0 2.3 9.3 0 2.4 9.3 0 2.5 9.3 0 2.6 9.3 0 2.7 9.3 0 2.8 9.3 0 2.9 9.3 0 3 9.3 0 3.1 9.3 0 3.2 9.3 0 3.3 9.3 0 3.4 9.3 0 3.5 9.3 0 3.6 9.3 0 3.7 9.3 0 3.8 9.3 0 3.9 9.3 0 4 9.3 0 4.1 9.3 0 4.2 9.3 0 4.3 9.3 0 4.4 9.3 0 4.5 9.3 0 4.6 9.3 0 4.7 9.3 0 4.8 9.3 0 4.9 9.3 0 5 9.3 0 5.1 9.3 0 5.2 9.3 0 5.3 9.3 0 5.4 9.3 0 5.5 9.3 0 5.6 9.3 0 5.7 9.3 0 5.8 9.3 0 5.9 9.3 0 6 9.3 0 6.1 9.3 0 6.2 9.3 0 6.3 9.3 0 6.4 9.3 0 6.5 9.3 0 6.6 9.3 0 6.7 9.3 0 6.8 9.3 0 6.9 9.3 0 7 9.3 0 7.1 9.3 0 7.2 9.3 0 7.3 9.3 0 7.4 9.3 0 7.5 9.3 0 7.6 9.3 0 7.7 9.3 0 7.8 9.3 0 7.9 9.3 0 8 9.3 0 8.1 9.3 0 8.2 9.3 0 8.3 9.3 0 8.4 9.3 0 8.5 9.3 0 8.6 9.3 0 8.7 9.3 0 8.8 9.3 0 8.9 9.3 0 9 9.3 0 9.1 9.3 0 9.2 9.3 0 9.3 9.3 0 9.4 9.3 0 9.5 9.3 0 9.6 9.3 0 9.7 9.3 0 9.8 9.3 0 9.9 9.3 0 10 9.3 0 0 9.4 0 0.1 9.4 0 0.2 9.4 0 0.3 9.4 0 0.4 9.4 0 0.5 9.4 0 0.6 9.4 0 0.7 9.4 0 0.8 9.4 0 0.9 9.4 0 1 9.4 0 1.1 9.4 0 1.2 9.4 0 1.3 9.4 0 1.4 9.4 0 1.5 9.4 0 1.6 9.4 0 1.7 9.4 0 1.8 9.4 0 1.9 9.4 0 2 9.4 0 2.1 9.4 0 2.2 9.4 0 2.3 9.4 0 2.4 9.4 0 2.5 9.4 0 2.6 9.4 0 2.7 9.4 0 2.8 9.4 0 2.9 9.4 0 3 9.4 0 3.1 9.4 0 3.2 9.4 0 3.3 9.4 0 3.4 9.4 0 3.5 9.4 0 3.6 9.4 0 3.7 9.4 0 3.8 9.4 0 3.9 9.4 0 4 9.4 0 4.1 9.4 0 4.2 9.4 0 4.3 9.4 0 4.4 9.4 0 4.5 9.4 0 4.6 9.4 0 4.7 9.4 0 4.8 9.4 0 4.9 9.4 0 5 9.4 0 5.1 9.4 0 5.2 9.4 0 5.3 9.4 0 5.4 9.4 0 5.5 9.4 0 5.6 9.4 0 5.7 9.4 0 5.8 9.4 0 5.9 9.4 0 6 9.4 0 6.1 9.4 0 6.2 9.4 0 6.3 9.4 0 6.4 9.4 0 6.5 9.4 0 6.6 9.4 0 6.7 9.4 0 6.8 9.4 0 6.9 9.4 0 7 9.4 0 7.1 9.4 0 7.2 9.4 0 7.3 9.4 0 7.4 9.4 0 7.5 9.4 0 7.6 9.4 0 7.7 9.4 0 7.8 9.4 0 7.9 9.4 0 8 9.4 0 8.1 9.4 0 8.2 9.4 0 8.3 9.4 0 8.4 9.4 0 8.5 9.4 0 8.6 9.4 0 8.7 9.4 0 8.8 9.4 0 8.9 9.4 0 9 9.4 0 9.1 9.4 0 9.2 9.4 0 9.3 9.4 0 9.4 9.4 0 9.5 9.4 0 9.6 9.4 0 9.7 9.4 0 9.8 9.4 0 9.9 9.4 0 10 9.4 0 0 9.5 0 0.1 9.5 0 0.2 9.5 0 0.3 9.5 0 0.4 9.5 0 0.5 9.5 0 0.6 9.5 0 0.7 9.5 0 0.8 9.5 0 0.9 9.5 0 1 9.5 0 1.1 9.5 0 1.2 9.5 0 1.3 9.5 0 1.4 9.5 0 1.5 9.5 0 1.6 9.5 0 1.7 9.5 0 1.8 9.5 0 1.9 9.5 0 2 9.5 0 2.1 9.5 0 2.2 9.5 0 2.3 9.5 0 2.4 9.5 0 2.5 9.5 0 2.6 9.5 0 2.7 9.5 0 2.8 9.5 0 2.9 9.5 0 3 9.5 0 3.1 9.5 0 3.2 9.5 0 3.3 9.5 0 3.4 9.5 0 3.5 9.5 0 3.6 9.5 0 3.7 9.5 0 3.8 9.5 0 3.9 9.5 0 4 9.5 0 4.1 9.5 0 4.2 9.5 0 4.3 9.5 0 4.4 9.5 0 4.5 9.5 0 4.6 9.5 0 4.7 9.5 0 4.8 9.5 0 4.9 9.5 0 5 9.5 0 5.1 9.5 0 5.2 9.5 0 5.3 9.5 0 5.4 9.5 0 5.5 9.5 0 5.6 9.5 0 5.7 9.5 0 5.8 9.5 0 5.9 9.5 0 6 9.5 0 6.1 9.5 0 6.2 9.5 0 6.3 9.5 0 6.4 9.5 0 6.5 9.5 0 6.6 9.5 0 6.7 9.5 0 6.8 9.5 0 6.9 9.5 0 7 9.5 0 7.1 9.5 0 7.2 9.5 0 7.3 9.5 0 7.4 9.5 0 7.5 9.5 0 7.6 9.5 0 7.7 9.5 0 7.8 9.5 0 7.9 9.5 0 8 9.5 0 8.1 9.5 0 8.2 9.5 0 8.3 9.5 0 8.4 9.5 0 8.5 9.5 0 8.6 9.5 0 8.7 9.5 0 8.8 9.5 0 8.9 9.5 0 9 9.5 0 9.1 9.5 0 9.2 9.5 0 9.3 9.5 0 9.4 9.5 0 9.5 9.5 0 9.6 9.5 0 9.7 9.5 0 9.8 9.5 0 9.9 9.5 0 10 9.5 0 0 9.6 0 0.1 9.6 0 0.2 9.6 0 0.3 9.6 0 0.4 9.6 0 0.5 9.6 0 0.6 9.6 0 0.7 9.6 0 0.8 9.6 0 0.9 9.6 0 1 9.6 0 1.1 9.6 0 1.2 9.6 0 1.3 9.6 0 1.4 9.6 0 1.5 9.6 0 1.6 9.6 0 1.7 9.6 0 1.8 9.6 0 1.9 9.6 0 2 9.6 0 2.1 9.6 0 2.2 9.6 0 2.3 9.6 0 2.4 9.6 0 2.5 9.6 0 2.6 9.6 0 2.7 9.6 0 2.8 9.6 0 2.9 9.6 0 3 9.6 0 3.1 9.6 0 3.2 9.6 0 3.3 9.6 0 3.4 9.6 0 3.5 9.6 0 3.6 9.6 0 3.7 9.6 0 3.8 9.6 0 3.9 9.6 0 4 9.6 0 4.1 9.6 0 4.2 9.6 0 4.3 9.6 0 4.4 9.6 0 4.5 9.6 0 4.6 9.6 0 4.7 9.6 0 4.8 9.6 0 4.9 9.6 0 5 9.6 0 5.1 9.6 0 5.2 9.6 0 5.3 9.6 0 5.4 9.6 0 5.5 9.6 0 5.6 9.6 0 5.7 9.6 0 5.8 9.6 0 5.9 9.6 0 6 9.6 0 6.1 9.6 0 6.2 9.6 0 6.3 9.6 0 6.4 9.6 0 6.5 9.6 0 6.6 9.6 0 6.7 9.6 0 6.8 9.6 0 6.9 9.6 0 7 9.6 0 7.1 9.6 0 7.2 9.6 0 7.3 9.6 0 7.4 9.6 0 7.5 9.6 0 7.6 9.6 0 7.7 9.6 0 7.8 9.6 0 7.9 9.6 0 8 9.6 0 8.1 9.6 0 8.2 9.6 0 8.3 9.6 0 8.4 9.6 0 8.5 9.6 0 8.6 9.6 0 8.7 9.6 0 8.8 9.6 0 8.9 9.6 0 9 9.6 0 9.1 9.6 0 9.2 9.6 0 9.3 9.6 0 9.4 9.6 0 9.5 9.6 0 9.6 9.6 0 9.7 9.6 0 9.8 9.6 0 9.9 9.6 0 10 9.6 0 0 9.7 0 0.1 9.7 0 0.2 9.7 0 0.3 9.7 0 0.4 9.7 0 0.5 9.7 0 0.6 9.7 0 0.7 9.7 0 0.8 9.7 0 0.9 9.7 0 1 9.7 0 1.1 9.7 0 1.2 9.7 0 1.3 9.7 0 1.4 9.7 0 1.5 9.7 0 1.6 9.7 0 1.7 9.7 0 1.8 9.7 0 1.9 9.7 0 2 9.7 0 2.1 9.7 0 2.2 9.7 0 2.3 9.7 0 2.4 9.7 0 2.5 9.7 0 2.6 9.7 0 2.7 9.7 0 2.8 9.7 0 2.9 9.7 0 3 9.7 0 3.1 9.7 0 3.2 9.7 0 3.3 9.7 0 3.4 9.7 0 3.5 9.7 0 3.6 9.7 0 3.7 9.7 0 3.8 9.7 0 3.9 9.7 0 4 9.7 0 4.1 9.7 0 4.2 9.7 0 4.3 9.7 0 4.4 9.7 0 4.5 9.7 0 4.6 9.7 0 4.7 9.7 0 4.8 9.7 0 4.9 9.7 0 5 9.7 0 5.1 9.7 0 5.2 9.7 0 5.3 9.7 0 5.4 9.7 0 5.5 9.7 0 5.6 9.7 0 5.7 9.7 0 5.8 9.7 0 5.9 9.7 0 6 9.7 0 6.1 9.7 0 6.2 9.7 0 6.3 9.7 0 6.4 9.7 0 6.5 9.7 0 6.6 9.7 0 6.7 9.7 0 6.8 9.7 0 6.9 9.7 0 7 9.7 0 7.1 9.7 0 7.2 9.7 0 7.3 9.7 0 7.4 9.7 0 7.5 9.7 0 7.6 9.7 0 7.7 9.7 0 7.8 9.7 0 7.9 9.7 0 8 9.7 0 8.1 9.7 0 8.2 9.7 0 8.3 9.7 0 8.4 9.7 0 8.5 9.7 0 8.6 9.7 0 8.7 9.7 0 8.8 9.7 0 8.9 9.7 0 9 9.7 0 9.1 9.7 0 9.2 9.7 0 9.3 9.7 0 9.4 9.7 0 9.5 9.7 0 9.6 9.7 0 9.7 9.7 0 9.8 9.7 0 9.9 9.7 0 10 9.7 0 0 9.8 0 0.1 9.8 0 0.2 9.8 0 0.3 9.8 0 0.4 9.8 0 0.5 9.8 0 0.6 9.8 0 0.7 9.8 0 0.8 9.8 0 0.9 9.8 0 1 9.8 0 1.1 9.8 0 1.2 9.8 0 1.3 9.8 0 1.4 9.8 0 1.5 9.8 0 1.6 9.8 0 1.7 9.8 0 1.8 9.8 0 1.9 9.8 0 2 9.8 0 2.1 9.8 0 2.2 9.8 0 2.3 9.8 0 2.4 9.8 0 2.5 9.8 0 2.6 9.8 0 2.7 9.8 0 2.8 9.8 0 2.9 9.8 0 3 9.8 0 3.1 9.8 0 3.2 9.8 0 3.3 9.8 0 3.4 9.8 0 3.5 9.8 0 3.6 9.8 0 3.7 9.8 0 3.8 9.8 0 3.9 9.8 0 4 9.8 0 4.1 9.8 0 4.2 9.8 0 4.3 9.8 0 4.4 9.8 0 4.5 9.8 0 4.6 9.8 0 4.7 9.8 0 4.8 9.8 0 4.9 9.8 0 5 9.8 0 5.1 9.8 0 5.2 9.8 0 5.3 9.8 0 5.4 9.8 0 5.5 9.8 0 5.6 9.8 0 5.7 9.8 0 5.8 9.8 0 5.9 9.8 0 6 9.8 0 6.1 9.8 0 6.2 9.8 0 6.3 9.8 0 6.4 9.8 0 6.5 9.8 0 6.6 9.8 0 6.7 9.8 0 6.8 9.8 0 6.9 9.8 0 7 9.8 0 7.1 9.8 0 7.2 9.8 0 7.3 9.8 0 7.4 9.8 0 7.5 9.8 0 7.6 9.8 0 7.7 9.8 0 7.8 9.8 0 7.9 9.8 0 8 9.8 0 8.1 9.8 0 8.2 9.8 0 8.3 9.8 0 8.4 9.8 0 8.5 9.8 0 8.6 9.8 0 8.7 9.8 0 8.8 9.8 0 8.9 9.8 0 9 9.8 0 9.1 9.8 0 9.2 9.8 0 9.3 9.8 0 9.4 9.8 0 9.5 9.8 0 9.6 9.8 0 9.7 9.8 0 9.8 9.8 0 9.9 9.8 0 10 9.8 0 0 9.9 0 0.1 9.9 0 0.2 9.9 0 0.3 9.9 0 0.4 9.9 0 0.5 9.9 0 0.6 9.9 0 0.7 9.9 0 0.8 9.9 0 0.9 9.9 0 1 9.9 0 1.1 9.9 0 1.2 9.9 0 1.3 9.9 0 1.4 9.9 0 1.5 9.9 0 1.6 9.9 0 1.7 9.9 0 1.8 9.9 0 1.9 9.9 0 2 9.9 0 2.1 9.9 0 2.2 9.9 0 2.3 9.9 0 2.4 9.9 0 2.5 9.9 0 2.6 9.9 0 2.7 9.9 0 2.8 9.9 0 2.9 9.9 0 3 9.9 0 3.1 9.9 0 3.2 9.9 0 3.3 9.9 0 3.4 9.9 0 3.5 9.9 0 3.6 9.9 0 3.7 9.9 0 3.8 9.9 0 3.9 9.9 0 4 9.9 0 4.1 9.9 0 4.2 9.9 0 4.3 9.9 0 4.4 9.9 0 4.5 9.9 0 4.6 9.9 0 4.7 9.9 0 4.8 9.9 0 4.9 9.9 0 5 9.9 0 5.1 9.9 0 5.2 9.9 0 5.3 9.9 0 5.4 9.9 0 5.5 9.9 0 5.6 9.9 0 5.7 9.9 0 5.8 9.9 0 5.9 9.9 0 6 9.9 0 6.1 9.9 0 6.2 9.9 0 6.3 9.9 0 6.4 9.9 0 6.5 9.9 0 6.6 9.9 0 6.7 9.9 0 6.8 9.9 0 6.9 9.9 0 7 9.9 0 7.1 9.9 0 7.2 9.9 0 7.3 9.9 0 7.4 9.9 0 7.5 9.9 0 7.6 9.9 0 7.7 9.9 0 7.8 9.9 0 7.9 9.9 0 8 9.9 0 8.1 9.9 0 8.2 9.9 0 8.3 9.9 0 8.4 9.9 0 8.5 9.9 0 8.6 9.9 0 8.7 9.9 0 8.8 9.9 0 8.9 9.9 0 9 9.9 0 9.1 9.9 0 9.2 9.9 0 9.3 9.9 0 9.4 9.9 0 9.5 9.9 0 9.6 9.9 0 9.7 9.9 0 9.8 9.9 0 9.9 9.9 0 10 9.9 0 0 10 0 0.1 10 0 0.2 10 0 0.3 10 0 0.4 10 0 0.5 10 0 0.6 10 0 0.7 10 0 0.8 10 0 0.9 10 0 1 10 0 1.1 10 0 1.2 10 0 1.3 10 0 1.4 10 0 1.5 10 0 1.6 10 0 1.7 10 0 1.8 10 0 1.9 10 0 2 10 0 2.1 10 0 2.2 10 0 2.3 10 0 2.4 10 0 2.5 10 0 2.6 10 0 2.7 10 0 2.8 10 0 2.9 10 0 3 10 0 3.1 10 0 3.2 10 0 3.3 10 0 3.4 10 0 3.5 10 0 3.6 10 0 3.7 10 0 3.8 10 0 3.9 10 0 4 10 0 4.1 10 0 4.2 10 0 4.3 10 0 4.4 10 0 4.5 10 0 4.6 10 0 4.7 10 0 4.8 10 0 4.9 10 0 5 10 0 5.1 10 0 5.2 10 0 5.3 10 0 5.4 10 0 5.5 10 0 5.6 10 0 5.7 10 0 5.8 10 0 5.9 10 0 6 10 0 6.1 10 0 6.2 10 0 6.3 10 0 6.4 10 0 6.5 10 0 6.6 10 0 6.7 10 0 6.8 10 0 6.9 10 0 7 10 0 7.1 10 0 7.2 10 0 7.3 10 0 7.4 10 0 7.5 10 0 7.6 10 0 7.7 10 0 7.8 10 0 7.9 10 0 8 10 0 8.1 10 0 8.2 10 0 8.3 10 0 8.4 10 0 8.5 10 0 8.6 10 0 8.7 10 0 8.8 10 0 8.9 10 0 9 10 0 9.1 10 0 9.2 10 0 9.3 10 0 9.4 10 0 9.5 10 0 9.6 10 0 9.7 10 0 9.8 10 0 9.9 10 0 10 10 0 
</DataArray>
</Points> 
</Piece> 
</StructuredGrid> 
</VTKFile> 
