<?xml version="1.0"?> 
<VTKFile type="StructuredGrid" version="0.1"> 
<StructuredGrid WholeExtent="0 20 0 20 0 0"> 
<Piece Extent="0 20 0 20 0 0"> 
<PointData>
<DataArray type="Float32" Name="plastic_strain" format="ascii" NumberOfComponents="3"> 
-0.00289117 0.00282863 0 -0.00251788 0.00247724 0 -0.00218518 0.00216454 0 -0.00189124 0.00188826 0 -0.00163426 0.00164614 0 -0.0014088 0.00143286 0 -0.0012094 0.00124307 0 -0.00103275 0.00107358 0 -0.000875512 0.000921191 0 -0.000735519 0.000783797 0 -0.000610596 0.0006593 0 -0.000498983 0.000546372 0 -0.00039892 0.000443682 0 -0.000309077 0.000349823 0 -0.000228126 0.000263388 0 -0.000155737 0.000183728 0 -9.15775e-05 0.000110197 0 -4.03914e-05 4.97172e-05 0 -6.92166e-06 9.21513e-06 0 7.11451e-06 -8.34538e-06 0 0 0 0 -0.00284538 0.00278224 0 -0.00247871 0.00243782 0 -0.00215348 0.0021327 0 -0.0018662 0.00186309 0 -0.00161337 0.00162518 0 -0.00139063 0.0014147 0 -0.00119364 0.00122733 0 -0.00101913 0.00105996 0 -0.000863827 0.000909478 0 -0.000725593 0.000773837 0 -0.00060229 0.000650996 0 -0.000492143 0.000539569 0 -0.000393381 0.000438171 0 -0.00030463 0.000345346 0 -0.000224517 0.000259636 0 -0.000153163 0.000180988 0 -9.06891e-05 0.000109348 0 -4.11085e-05 5.06925e-05 0 -8.43573e-06 1.09994e-05 0 5.46384e-06 -6.44752e-06 0 -1.27523e-06 1.63572e-06 0 -0.00273947 0.0026761 0 -0.00238733 0.00234642 0 -0.00207579 0.00205502 0 -0.00180031 0.00179717 0 -0.00155634 0.00156814 0 -0.00134072 0.00136478 0 -0.00115025 0.00118395 0 -0.000981677 0.00102253 0 -0.000831709 0.000877357 0 -0.000698333 0.000746564 0 -0.000579535 0.000628261 0 -0.000473471 0.000520949 0 -0.000378298 0.00042313 0 -0.000292686 0.000333393 0 -0.000215304 0.000250329 0 -0.000146578 0.000174307 0 -8.69292e-05 0.000105695 0 -3.98565e-05 4.9769e-05 0 -8.85765e-06 1.18023e-05 0 4.34529e-06 -5.02834e-06 0 -1.96972e-06 2.45333e-06 0 -0.00257383 0.0025104 0 -0.00224353 0.00220268 0 -0.00195173 0.00193103 0 -0.00169336 0.00169026 0 -0.00146335 0.00147516 0 -0.00125959 0.00128366 0 -0.00107993 0.00111365 0 -0.000921114 0.000961991 0 -0.000779889 0.000825549 0 -0.000654401 0.000702632 0 -0.000542798 0.000591548 0 -0.000443252 0.000490779 0 -0.000353934 0.000398806 0 -0.000273557 0.000314268 0 -0.000200833 0.000235806 0 -0.000136365 0.00016405 0 -8.07561e-05 9.96333e-05 0 -3.71081e-05 4.73051e-05 0 -8.5236e-06 1.18146e-05 0 3.558e-06 -3.97237e-06 0 -2.30283e-06 2.81038e-06 0 -0.00235008 0.00228653 0 -0.00204809 0.00200726 0 -0.00178176 0.00176112 0 -0.00154589 0.00154283 0 -0.00133527 0.00134711 0 -0.00114844 0.00117254 0 -0.000983948 0.00101769 0 -0.000838688 0.000879587 0 -0.000709555 0.000755228 0 -0.000594848 0.000643085 0 -0.000492863 0.000541627 0 -0.000402026 0.000449575 0 -0.000320761 0.000365651 0 -0.000247728 0.000288443 0 -0.000181585 0.000216539 0 -0.00012302 0.00015069 0 -7.27222e-05 9.16439e-05 0 -3.34142e-05 4.37264e-05 0 -7.81922e-06 1.12618e-05 0 2.87395e-06 -3.14515e-06 0 -2.52362e-06 3.11034e-06 0 -0.0020696 0.00200594 0 -0.00180269 0.00176184 0 -0.00156762 0.001547 0 -0.00135949 0.00135647 0 -0.0011734 0.00118527 0 -0.00100827 0.00103239 0 -0.000863044 0.000896808 0 -0.000734924 0.000775839 0 -0.000621126 0.000666807 0 -0.000520082 0.000568323 0 -0.000430225 0.000478994 0 -0.000350311 0.000397868 0 -0.000279093 0.000323991 0 -0.000215267 0.000255988 0 -0.000157528 0.000192482 0 -0.000106505 0.000134169 0 -6.28258e-05 8.1747e-05 0 -2.88107e-05 3.91349e-05 0 -6.77872e-06 1.02534e-05 0 2.30615e-06 -2.52074e-06 0 -2.52012e-06 3.18879e-06 0 -0.001735 0.00167131 0 -0.00151013 0.00146929 0 -0.00131206 0.00129146 0 -0.00113666 0.00113365 0 -0.00097984 0.000991724 0 -0.000840738 0.000864868 0 -0.000718496 0.000752268 0 -0.000610819 0.00065174 0 -0.000515414 0.000561098 0 -0.000430845 0.000479084 0 -0.000355673 0.000404442 0 -0.000288878 0.00033644 0 -0.000229441 0.000274347 0 -0.000176382 0.000217111 0 -0.000128725 0.000163676 0 -8.68416e-05 0.000114491 0 -5.11023e-05 7.00024e-05 0 -2.33546e-05 3.36611e-05 0 -5.4458e-06 8.91687e-06 0 1.86635e-06 -2.06709e-06 0 -2.17588e-06 2.87259e-06 0 -0.00135384 0.00129015 0 -0.00117689 0.00113606 0 -0.00102089 0.0010003 0 -0.000882711 0.000879701 0 -0.000759231 0.000771113 0 -0.000649793 0.000673923 0 -0.000553745 0.000587521 0 -0.000469356 0.000510284 0 -0.000394901 0.000440589 0 -0.000329122 0.000377363 0 -0.000270762 0.00031953 0 -0.000218987 0.000266549 0 -0.000172962 0.000217875 0 -0.000132118 0.000172855 0 -9.58858e-05 0.000130834 0 -6.43776e-05 9.20114e-05 0 -3.77057e-05 5.65871e-05 0 -1.71267e-05 2.74172e-05 0 -3.89722e-06 7.35754e-06 0 1.44872e-06 -1.65425e-06 0 -1.62272e-06 2.31951e-06 0 -0.000935013 0.000871322 0 -0.000810614 0.000769788 0 -0.000700997 0.000680404 0 -0.000603889 0.00060087 0 -0.000517014 0.000528888 0 -0.00044009 0.000464217 0 -0.000372834 0.000406617 0 -0.00031404 0.000354982 0 -0.000262504 0.000308209 0 -0.000217261 0.000265515 0 -0.000177346 0.000226117 0 -0.000142138 0.000189696 0 -0.00011102 0.000155932 0 -8.36878e-05 0.000124429 0 -5.984e-05 9.47874e-05 0 -3.95353e-05 6.7166e-05 0 -2.28324e-05 4.17222e-05 0 -1.02279e-05 2.0537e-05 0 -2.21839e-06 5.6913e-06 0 9.41244e-07 -1.14431e-06 0 -1.00391e-06 1.70077e-06 0 -0.00049018 0.000426489 0 -0.00042148 0.000380652 0 -0.000361032 0.000340433 0 -0.000307525 0.000304496 0 -0.000259646 0.00027151 0 -0.000217405 0.000241528 0 -0.000180814 0.000214603 0 -0.000149209 0.000190167 0 -0.000121925 0.000167648 0 -9.83896e-05 0.000146658 0 -7.80291e-05 0.000126805 0 -6.0456e-05 0.000108009 0 -4.52828e-05 9.01928e-05 0 -3.23926e-05 7.3135e-05 0 -2.16688e-05 5.66164e-05 0 -1.31678e-05 4.0801e-05 0 -6.94605e-06 2.58526e-05 0 -2.75703e-06 1.30934e-05 0 -3.54037e-07 3.84539e-06 0 4.0455e-07 -6.03e-07 0 -3.39636e-07 1.03653e-06 0 -3.18457e-05 -3.18457e-05 0 -2.04139e-05 -2.04139e-05 0 -1.03008e-05 -1.03008e-05 0 -1.51612e-06 -1.51612e-06 0 5.9307e-06 5.9307e-06 0 1.20609e-05 1.20609e-05 0 1.68957e-05 1.68957e-05 0 2.04816e-05 2.04816e-05 0 2.28648e-05 2.28648e-05 0 2.41366e-05 2.41366e-05 0 2.43886e-05 2.43886e-05 0 2.3776e-05 2.3776e-05 0 2.24545e-05 2.24545e-05 0 2.03714e-05 2.03714e-05 0 1.74738e-05 1.74738e-05 0 1.3817e-05 1.3817e-05 0 9.45607e-06 9.45607e-06 0 5.17274e-06 5.17274e-06 0 1.74877e-06 1.74877e-06 0 -9.84495e-08 -9.84495e-08 0 3.48453e-07 3.48453e-07 0 0.000426489 -0.00049018 0 0.000380652 -0.00042148 0 0.000340433 -0.000361032 0 0.000304496 -0.000307525 0 0.00027151 -0.000259646 0 0.000241528 -0.000217405 0 0.000214603 -0.000180814 0 0.000190167 -0.000149209 0 0.000167648 -0.000121925 0 0.000146658 -9.83896e-05 0 0.000126805 -7.80291e-05 0 0.000108009 -6.0456e-05 0 9.01928e-05 -4.52828e-05 0 7.3135e-05 -3.23926e-05 0 5.66164e-05 -2.16688e-05 0 4.0801e-05 -1.31678e-05 0 2.58526e-05 -6.94605e-06 0 1.30934e-05 -2.75703e-06 0 3.84539e-06 -3.54037e-07 0 -6.03e-07 4.0455e-07 0 1.03653e-06 -3.39636e-07 0 0.000871322 -0.000935013 0 0.000769788 -0.000810614 0 0.000680404 -0.000700997 0 0.00060087 -0.000603889 0 0.000528888 -0.000517014 0 0.000464217 -0.00044009 0 0.000406617 -0.000372834 0 0.000354982 -0.00031404 0 0.000308209 -0.000262504 0 0.000265515 -0.000217261 0 0.000226117 -0.000177346 0 0.000189696 -0.000142138 0 0.000155932 -0.00011102 0 0.000124429 -8.36878e-05 0 9.47874e-05 -5.984e-05 0 6.7166e-05 -3.95353e-05 0 4.17222e-05 -2.28324e-05 0 2.0537e-05 -1.02279e-05 0 5.6913e-06 -2.21839e-06 0 -1.14431e-06 9.41244e-07 0 1.70077e-06 -1.00391e-06 0 0.00129015 -0.00135384 0 0.00113606 -0.00117689 0 0.0010003 -0.00102089 0 0.000879701 -0.000882711 0 0.000771113 -0.000759231 0 0.000673923 -0.000649793 0 0.000587521 -0.000553745 0 0.000510284 -0.000469356 0 0.000440589 -0.000394901 0 0.000377363 -0.000329122 0 0.00031953 -0.000270762 0 0.000266549 -0.000218987 0 0.000217875 -0.000172962 0 0.000172855 -0.000132118 0 0.000130834 -9.58858e-05 0 9.20114e-05 -6.43776e-05 0 5.65871e-05 -3.77057e-05 0 2.74172e-05 -1.71267e-05 0 7.35754e-06 -3.89722e-06 0 -1.65425e-06 1.44872e-06 0 2.31951e-06 -1.62272e-06 0 0.00167131 -0.001735 0 0.00146929 -0.00151013 0 0.00129146 -0.00131206 0 0.00113365 -0.00113666 0 0.000991724 -0.00097984 0 0.000864868 -0.000840738 0 0.000752268 -0.000718496 0 0.00065174 -0.000610819 0 0.000561098 -0.000515414 0 0.000479084 -0.000430845 0 0.000404442 -0.000355673 0 0.00033644 -0.000288878 0 0.000274347 -0.000229441 0 0.000217111 -0.000176382 0 0.000163676 -0.000128725 0 0.000114491 -8.68416e-05 0 7.00024e-05 -5.11023e-05 0 3.36611e-05 -2.33546e-05 0 8.91687e-06 -5.4458e-06 0 -2.06709e-06 1.86635e-06 0 2.87259e-06 -2.17588e-06 0 0.00200594 -0.0020696 0 0.00176184 -0.00180269 0 0.001547 -0.00156762 0 0.00135647 -0.00135949 0 0.00118527 -0.0011734 0 0.00103239 -0.00100827 0 0.000896808 -0.000863044 0 0.000775839 -0.000734924 0 0.000666807 -0.000621126 0 0.000568323 -0.000520082 0 0.000478994 -0.000430225 0 0.000397868 -0.000350311 0 0.000323991 -0.000279093 0 0.000255988 -0.000215267 0 0.000192482 -0.000157528 0 0.000134169 -0.000106505 0 8.1747e-05 -6.28258e-05 0 3.91349e-05 -2.88107e-05 0 1.02534e-05 -6.77872e-06 0 -2.51927e-06 2.30514e-06 0 3.19466e-06 -2.52417e-06 0 0.00228653 -0.00235008 0 0.00200726 -0.00204809 0 0.00176112 -0.00178176 0 0.00154283 -0.00154589 0 0.00134711 -0.00133527 0 0.00117254 -0.00114844 0 0.00101769 -0.000983948 0 0.000879587 -0.000838688 0 0.000755228 -0.000709555 0 0.000643085 -0.000594848 0 0.000541627 -0.000492863 0 0.000449575 -0.000402026 0 0.000365651 -0.000320761 0 0.000288443 -0.000247728 0 0.000216539 -0.000181585 0 0.00015069 -0.00012302 0 9.16439e-05 -7.27222e-05 0 4.37264e-05 -3.34142e-05 0 1.12618e-05 -7.81922e-06 0 -3.13938e-06 2.86997e-06 0 3.13339e-06 -2.53952e-06 0 0.0025104 -0.00257383 0 0.00220268 -0.00224353 0 0.00193103 -0.00195173 0 0.00169026 -0.00169336 0 0.00147516 -0.00146335 0 0.00128366 -0.00125959 0 0.00111365 -0.00107993 0 0.000961991 -0.000921114 0 0.000825549 -0.000779889 0 0.000702632 -0.000654401 0 0.000591548 -0.000542798 0 0.000490779 -0.000443252 0 0.000398806 -0.000353934 0 0.000314268 -0.000273557 0 0.000235806 -0.000200833 0 0.00016405 -0.000136365 0 9.96333e-05 -8.07561e-05 0 4.73051e-05 -3.71081e-05 0 1.18146e-05 -8.5236e-06 0 -3.96391e-06 3.55216e-06 0 2.84424e-06 -2.32619e-06 0 0.0026761 -0.00273947 0 0.00234642 -0.00238733 0 0.00205502 -0.00207579 0 0.00179717 -0.00180031 0 0.00156814 -0.00155634 0 0.00136478 -0.00134072 0 0.00118395 -0.00115025 0 0.00102253 -0.000981677 0 0.000877357 -0.000831709 0 0.000746564 -0.000698333 0 0.000628261 -0.000579535 0 0.000520949 -0.000473471 0 0.00042313 -0.000378298 0 0.000333393 -0.000292686 0 0.000250329 -0.000215304 0 0.000174307 -0.000146578 0 0.000105695 -8.69292e-05 0 4.9769e-05 -3.98565e-05 0 1.18023e-05 -8.85765e-06 0 -5.02283e-06 4.34148e-06 0 2.47538e-06 -1.98493e-06 0 0.00278307 -0.00284631 0 0.00243822 -0.00247921 0 0.00213286 -0.00215369 0 0.00186312 -0.00186625 0 0.00162518 -0.00161337 0 0.0014147 -0.00139063 0 0.00122733 -0.00119364 0 0.00105996 -0.00101913 0 0.000909478 -0.000863827 0 0.000773837 -0.000725593 0 0.000650996 -0.00060229 0 0.000539569 -0.000492143 0 0.000438171 -0.000393381 0 0.000345346 -0.00030463 0 0.000259636 -0.000224517 0 0.000180986 -0.000153162 0 0.000109341 -9.06848e-05 0 5.07181e-05 -4.11308e-05 0 1.11362e-05 -8.54665e-06 0 -6.26843e-06 5.31994e-06 0 1.64109e-06 -1.27893e-06 0 0.00283185 -0.00289478 0 0.00247879 -0.00251982 0 0.00216513 -0.00218601 0 0.0018884 -0.00189145 0 0.00164614 -0.00163426 0 0.00143286 -0.0014088 0 0.00124307 -0.0012094 0 0.00107358 -0.00103275 0 0.000921191 -0.000875512 0 0.000783797 -0.000735519 0 0.0006593 -0.000610596 0 0.000546372 -0.000498983 0 0.000443682 -0.00039892 0 0.000349823 -0.000309077 0 0.000263388 -0.000228126 0 0.000183722 -0.000155733 0 0.00011017 -9.15607e-05 0 4.9817e-05 -4.04782e-05 0 9.7469e-06 -7.35301e-06 0 -7.65415e-06 6.55851e-06 0 0 0 0 </DataArray> 
</PointData> 
<Points> 
<DataArray type="Float32" NumberOfComponents="3"> 
100 0 0 105 0 0 110 0 0 115 0 0 120 0 0 125 0 0 130 0 0 135 0 0 140 0 0 145 0 0 150 0 0 155 0 0 160 0 0 165 0 0 170 0 0 175 0 0 180 0 0 185 0 0 190 0 0 195 0 0 200 0 0 99.7428 7.16693 0 104.73 7.52528 0 109.717 7.88363 0 114.704 8.24197 0 119.691 8.60032 0 124.679 8.95867 0 129.666 9.31701 0 134.653 9.67536 0 139.64 10.0337 0 144.627 10.3921 0 149.614 10.7504 0 154.601 11.1087 0 159.589 11.4671 0 164.576 11.8254 0 169.563 12.1838 0 174.55 12.5421 0 179.537 12.9005 0 184.524 13.2588 0 189.511 13.6172 0 194.499 13.9755 0 199.486 14.3339 0 98.9443 14.4919 0 103.892 15.2165 0 108.839 15.9411 0 113.786 16.6657 0 118.733 17.3903 0 123.68 18.1149 0 128.628 18.8395 0 133.575 19.5641 0 138.522 20.2887 0 143.469 21.0133 0 148.417 21.7379 0 153.364 22.4625 0 158.311 23.1871 0 163.258 23.9117 0 168.205 24.6363 0 173.153 25.3609 0 178.1 26.0855 0 183.047 26.8101 0 187.994 27.5347 0 192.941 28.2593 0 197.889 28.9839 0 97.5684 21.9182 0 102.447 23.0142 0 107.325 24.1101 0 112.204 25.206 0 117.082 26.3019 0 121.96 27.3978 0 126.839 28.4937 0 131.717 29.5896 0 136.596 30.6855 0 141.474 31.7815 0 146.353 32.8774 0 151.231 33.9733 0 156.109 35.0692 0 160.988 36.1651 0 165.866 37.261 0 170.745 38.3569 0 175.623 39.4528 0 180.502 40.5488 0 185.38 41.6447 0 190.258 42.7406 0 195.137 43.8365 0 95.5863 29.3812 0 100.366 30.8503 0 105.145 32.3193 0 109.924 33.7884 0 114.704 35.2574 0 119.483 36.7265 0 124.262 38.1956 0 129.042 39.6646 0 133.821 41.1337 0 138.6 42.6027 0 143.379 44.0718 0 148.159 45.5409 0 152.938 47.0099 0 157.717 48.479 0 162.497 49.948 0 167.276 51.4171 0 172.055 52.8861 0 176.835 54.3552 0 181.614 55.8243 0 186.393 57.2933 0 191.173 58.7624 0 92.9788 36.8095 0 97.6278 38.6499 0 102.277 40.4904 0 106.926 42.3309 0 111.575 44.1714 0 116.224 46.0118 0 120.872 47.8523 0 125.521 49.6928 0 130.17 51.5333 0 134.819 53.3737 0 139.468 55.2142 0 144.117 57.0547 0 148.766 58.8952 0 153.415 60.7356 0 158.064 62.5761 0 162.713 64.4166 0 167.362 66.257 0 172.011 68.0975 0 176.66 69.938 0 181.309 71.7785 0 185.958 73.6189 0 89.7376 44.1267 0 94.2244 46.3331 0 98.7113 48.5394 0 103.198 50.7458 0 107.685 52.9521 0 112.172 55.1584 0 116.659 57.3648 0 121.146 59.5711 0 125.633 61.7774 0 130.119 63.9838 0 134.606 66.1901 0 139.093 68.3965 0 143.58 70.6028 0 148.067 72.8091 0 152.554 75.0155 0 157.041 77.2218 0 161.528 79.4281 0 166.014 81.6345 0 170.501 83.8408 0 174.988 86.0471 0 179.475 88.2535 0 85.8665 51.2538 0 90.1598 53.8165 0 94.4531 56.3791 0 98.7464 58.9418 0 103.04 61.5045 0 107.333 64.0672 0 111.626 66.6299 0 115.92 69.1926 0 120.213 71.7553 0 124.506 74.318 0 128.8 76.8806 0 133.093 79.4433 0 137.386 82.006 0 141.68 84.5687 0 145.973 87.1314 0 150.266 89.6941 0 154.56 92.2568 0 158.853 94.8195 0 163.146 97.3822 0 167.44 99.9448 0 171.733 102.508 0 81.3826 58.1109 0 85.4517 61.0164 0 89.5209 63.9219 0 93.59 66.8275 0 97.6591 69.733 0 101.728 72.6386 0 105.797 75.5441 0 109.867 78.4497 0 113.936 81.3552 0 118.005 84.2607 0 122.074 87.1663 0 126.143 90.0718 0 130.212 92.9774 0 134.281 95.8829 0 138.35 98.7885 0 142.42 101.694 0 146.489 104.6 0 150.558 107.505 0 154.627 110.411 0 158.696 113.316 0 162.765 116.222 0 76.3163 64.6206 0 80.1321 67.8517 0 83.9479 71.0827 0 87.7637 74.3137 0 91.5795 77.5447 0 95.3954 80.7758 0 99.2112 84.0068 0 103.027 87.2378 0 106.843 90.4689 0 110.659 93.6999 0 114.474 96.9309 0 118.29 100.162 0 122.106 103.393 0 125.922 106.624 0 129.738 109.855 0 133.553 113.086 0 137.369 116.317 0 141.185 119.548 0 145.001 122.779 0 148.817 126.01 0 152.633 129.241 0 70.7107 70.7107 0 74.2462 74.2462 0 77.7817 77.7817 0 81.3173 81.3173 0 84.8528 84.8528 0 88.3883 88.3883 0 91.9239 91.9239 0 95.4594 95.4594 0 98.9949 98.9949 0 102.53 102.53 0 106.066 106.066 0 109.602 109.602 0 113.137 113.137 0 116.673 116.673 0 120.208 120.208 0 123.744 123.744 0 127.279 127.279 0 130.815 130.815 0 134.35 134.35 0 137.886 137.886 0 141.421 141.421 0 64.6206 76.3163 0 67.8517 80.1321 0 71.0827 83.9479 0 74.3137 87.7637 0 77.5447 91.5795 0 80.7758 95.3954 0 84.0068 99.2112 0 87.2378 103.027 0 90.4689 106.843 0 93.6999 110.659 0 96.9309 114.474 0 100.162 118.29 0 103.393 122.106 0 106.624 125.922 0 109.855 129.738 0 113.086 133.553 0 116.317 137.369 0 119.548 141.185 0 122.779 145.001 0 126.01 148.817 0 129.241 152.633 0 58.1109 81.3826 0 61.0164 85.4517 0 63.9219 89.5209 0 66.8275 93.59 0 69.733 97.6591 0 72.6386 101.728 0 75.5441 105.797 0 78.4497 109.867 0 81.3552 113.936 0 84.2607 118.005 0 87.1663 122.074 0 90.0718 126.143 0 92.9774 130.212 0 95.8829 134.281 0 98.7885 138.35 0 101.694 142.42 0 104.6 146.489 0 107.505 150.558 0 110.411 154.627 0 113.316 158.696 0 116.222 162.765 0 51.2538 85.8665 0 53.8165 90.1598 0 56.3791 94.4531 0 58.9418 98.7464 0 61.5045 103.04 0 64.0672 107.333 0 66.6299 111.626 0 69.1926 115.92 0 71.7553 120.213 0 74.318 124.506 0 76.8806 128.8 0 79.4433 133.093 0 82.006 137.386 0 84.5687 141.68 0 87.1314 145.973 0 89.6941 150.266 0 92.2568 154.56 0 94.8195 158.853 0 97.3822 163.146 0 99.9448 167.44 0 102.508 171.733 0 44.1267 89.7376 0 46.3331 94.2244 0 48.5394 98.7113 0 50.7458 103.198 0 52.9521 107.685 0 55.1584 112.172 0 57.3648 116.659 0 59.5711 121.146 0 61.7774 125.633 0 63.9838 130.119 0 66.1901 134.606 0 68.3965 139.093 0 70.6028 143.58 0 72.8091 148.067 0 75.0155 152.554 0 77.2218 157.041 0 79.4281 161.528 0 81.6345 166.014 0 83.8408 170.501 0 86.0471 174.988 0 88.2535 179.475 0 36.8095 92.9788 0 38.6499 97.6278 0 40.4904 102.277 0 42.3309 106.926 0 44.1714 111.575 0 46.0118 116.224 0 47.8523 120.872 0 49.6928 125.521 0 51.5333 130.17 0 53.3737 134.819 0 55.2142 139.468 0 57.0547 144.117 0 58.8952 148.766 0 60.7356 153.415 0 62.5761 158.064 0 64.4166 162.713 0 66.257 167.362 0 68.0975 172.011 0 69.938 176.66 0 71.7785 181.309 0 73.6189 185.958 0 29.3812 95.5863 0 30.8503 100.366 0 32.3193 105.145 0 33.7884 109.924 0 35.2574 114.704 0 36.7265 119.483 0 38.1956 124.262 0 39.6646 129.042 0 41.1337 133.821 0 42.6027 138.6 0 44.0718 143.379 0 45.5409 148.159 0 47.0099 152.938 0 48.479 157.717 0 49.948 162.497 0 51.4171 167.276 0 52.8861 172.055 0 54.3552 176.835 0 55.8243 181.614 0 57.2933 186.393 0 58.7624 191.173 0 21.9182 97.5684 0 23.0142 102.447 0 24.1101 107.325 0 25.206 112.204 0 26.3019 117.082 0 27.3978 121.96 0 28.4937 126.839 0 29.5896 131.717 0 30.6855 136.596 0 31.7815 141.474 0 32.8774 146.353 0 33.9733 151.231 0 35.0692 156.109 0 36.1651 160.988 0 37.261 165.866 0 38.3569 170.745 0 39.4528 175.623 0 40.5488 180.502 0 41.6447 185.38 0 42.7406 190.258 0 43.8365 195.137 0 14.4919 98.9443 0 15.2165 103.892 0 15.9411 108.839 0 16.6657 113.786 0 17.3903 118.733 0 18.1149 123.68 0 18.8395 128.628 0 19.5641 133.575 0 20.2887 138.522 0 21.0133 143.469 0 21.7379 148.417 0 22.4625 153.364 0 23.1871 158.311 0 23.9117 163.258 0 24.6363 168.205 0 25.3609 173.153 0 26.0855 178.1 0 26.8101 183.047 0 27.5347 187.994 0 28.2593 192.941 0 28.9839 197.889 0 7.16693 99.7428 0 7.52528 104.73 0 7.88363 109.717 0 8.24197 114.704 0 8.60032 119.691 0 8.95867 124.679 0 9.31701 129.666 0 9.67536 134.653 0 10.0337 139.64 0 10.3921 144.627 0 10.7504 149.614 0 11.1087 154.601 0 11.4671 159.589 0 11.8254 164.576 0 12.1838 169.563 0 12.5421 174.55 0 12.9005 179.537 0 13.2588 184.524 0 13.6172 189.511 0 13.9755 194.499 0 14.3339 199.486 0 0 100 0 0 105 0 0 110 0 0 115 0 0 120 0 0 125 0 0 130 0 0 135 0 0 140 0 0 145 0 0 150 0 0 155 0 0 160 0 0 165 0 0 170 0 0 175 0 0 180 0 0 185 0 0 190 0 0 195 0 0 200 0 
</DataArray>
</Points> 
</Piece> 
</StructuredGrid> 
</VTKFile> 
