<?xml version="1.0"?> 
<VTKFile type="StructuredGrid" version="0.1"> 
<StructuredGrid WholeExtent="0 20 0 20 0 0"> 
<Piece Extent="0 20 0 20 0 0"> 
<PointData>
<DataArray type="Float32" Name="displacement" format="ascii" NumberOfComponents="3"> 
0.333896 0 0 0.316845 0 0 0.301584 0 0 0.288051 0 0 0.275885 0 0 0.265024 0 0 0.255306 0 0 0.246568 0 0 0.238783 0 0 0.23178 0 0 0.225532 0 0 0.219956 0 0 0.21497 0 0 0.21056 0 0 0.206649 0 0 0.203226 0 0 0.200186 0 0 0.197427 0 0 0.194935 0 0 0.192628 0 0 0.190494 0 0 0.33298 0.0239523 0 0.315996 0.0227462 0 0.300792 0.02166 0 0.28731 0.0206901 0 0.275184 0.0198158 0 0.264354 0.0190337 0 0.25466 0.0183333 0 0.245944 0.0177042 0 0.238177 0.0171442 0 0.231191 0.0166406 0 0.224958 0.0161915 0 0.219396 0.0157906 0 0.214423 0.0154318 0 0.210026 0.0151142 0 0.206127 0.014832 0 0.202713 0.0145844 0 0.199682 0.0143641 0 0.19693 0.0141642 0 0.194445 0.0139836 0 0.192146 0.0138163 0 0.190018 0.0136615 0 0.330242 0.0483807 0 0.313407 0.0459355 0 0.298338 0.0437398 0 0.284974 0.0417855 0 0.272953 0.0400249 0 0.262214 0.0384499 0 0.252601 0.0370388 0 0.243956 0.03577 0 0.236252 0.0346393 0 0.229323 0.0336221 0 0.223142 0.0327143 0 0.217626 0.0319038 0 0.212694 0.0311784 0 0.208333 0.0305364 0 0.204467 0.0299663 0 0.201082 0.0294663 0 0.198076 0.0290217 0 0.195348 0.0286179 0 0.192883 0.0282529 0 0.190603 0.027915 0 0.188494 0.0276021 0 0.325652 0.0732194 0 0.30905 0.0695066 0 0.294192 0.0661811 0 0.281017 0.0632295 0 0.269167 0.0605718 0 0.258581 0.0581945 0 0.249105 0.056064 0 0.240583 0.0541466 0 0.232987 0.0524362 0 0.226156 0.0508968 0 0.220062 0.0495224 0 0.214624 0.048295 0 0.209762 0.0471966 0 0.205462 0.0462244 0 0.201651 0.0453615 0 0.198313 0.0446051 0 0.19535 0.0439327 0 0.19266 0.0433218 0 0.19023 0.0427694 0 0.187982 0.0422579 0 0.185903 0.0417841 0 0.319007 0.098074 0 0.302744 0.0930922 0 0.288189 0.0886344 0 0.275285 0.084682 0 0.263679 0.0811247 0 0.253312 0.0779442 0 0.244033 0.0750943 0 0.235687 0.072529 0 0.22825 0.0702402 0 0.221561 0.06818 0 0.215593 0.0663402 0 0.210268 0.0646971 0 0.205507 0.0632266 0 0.201297 0.0619251 0 0.197564 0.06077 0 0.194296 0.0597576 0 0.191394 0.0588577 0 0.18876 0.0580401 0 0.18638 0.0573009 0 0.184178 0.0566162 0 0.182142 0.0559822 0 0.310277 0.122879 0 0.294458 0.116631 0 0.280302 0.111041 0 0.267751 0.106086 0 0.256464 0.101628 0 0.246384 0.097645 0 0.237361 0.0940773 0 0.229248 0.0908665 0 0.222018 0.0880023 0 0.215516 0.0854241 0 0.209714 0.0831218 0 0.204538 0.0810654 0 0.199909 0.0792251 0 0.195816 0.0775961 0 0.192188 0.0761503 0 0.189011 0.0748832 0 0.18619 0.0737569 0 0.183628 0.0727336 0 0.181315 0.0718086 0 0.179174 0.0709519 0 0.177194 0.0701586 0 0.299451 0.147304 0 0.284184 0.139811 0 0.270523 0.133105 0 0.258411 0.127161 0 0.247519 0.121815 0 0.237792 0.11704 0 0.229088 0.112764 0 0.221261 0.108918 0 0.214287 0.105488 0 0.208015 0.102401 0 0.202419 0.0996439 0 0.197426 0.0971819 0 0.192962 0.0949785 0 0.189014 0.0930283 0 0.185514 0.0912974 0 0.182449 0.0897803 0 0.179728 0.0884319 0 0.177257 0.087207 0 0.175024 0.0860997 0 0.172959 0.0850744 0 0.171048 0.0841252 0 0.286522 0.171022 0 0.271916 0.162318 0 0.258846 0.154529 0 0.247258 0.147625 0 0.236839 0.141416 0 0.227535 0.135871 0 0.219209 0.130907 0 0.211723 0.126442 0 0.205053 0.122462 0 0.199054 0.118881 0 0.193702 0.115683 0 0.188927 0.112828 0 0.184657 0.110273 0 0.180881 0.108012 0 0.177534 0.106006 0 0.174603 0.104248 0 0.171999 0.102685 0 0.169636 0.101265 0 0.1675 0.0999815 0 0.165523 0.0987933 0 0.163695 0.0976935 0 0.271522 0.19395 0 0.257683 0.184077 0 0.2453 0.175242 0 0.234322 0.167409 0 0.224452 0.160365 0 0.215637 0.154074 0 0.207749 0.148444 0 0.200657 0.143381 0 0.194337 0.138869 0 0.188654 0.134809 0 0.183584 0.131186 0 0.17906 0.127952 0 0.175015 0.125058 0 0.171439 0.122498 0 0.168267 0.120226 0 0.16549 0.118235 0 0.163023 0.116466 0 0.160783 0.114859 0 0.158759 0.113406 0 0.156885 0.112061 0 0.155152 0.110816 0 0.254646 0.215612 0 0.24167 0.204633 0 0.23006 0.194808 0 0.219768 0.186097 0 0.210513 0.178265 0 0.202248 0.17127 0 0.194852 0.165009 0 0.188202 0.15938 0 0.182277 0.154365 0 0.176948 0.149853 0 0.172194 0.145827 0 0.167952 0.142234 0 0.164159 0.13902 0 0.160804 0.136176 0 0.15783 0.133654 0 0.155225 0.131444 0 0.15291 0.12948 0 0.150809 0.127696 0 0.148909 0.126084 0 0.147151 0.124591 0 0.145524 0.12321 0 0.235927 0.235927 0 0.223908 0.223908 0 0.213155 0.213155 0 0.203621 0.203621 0 0.195049 0.195049 0 0.187394 0.187394 0 0.180542 0.180542 0 0.174382 0.174382 0 0.168893 0.168893 0 0.163956 0.163956 0 0.159552 0.159552 0 0.155622 0.155622 0 0.152107 0.152107 0 0.148998 0.148998 0 0.14624 0.14624 0 0.143825 0.143825 0 0.141679 0.141679 0 0.13973 0.13973 0 0.137968 0.137968 0 0.136337 0.136337 0 0.134828 0.134828 0 0.215612 0.254646 0 0.204633 0.24167 0 0.194808 0.23006 0 0.186097 0.219768 0 0.178265 0.210513 0 0.17127 0.202248 0 0.165009 0.194852 0 0.15938 0.188202 0 0.154365 0.182277 0 0.149853 0.176948 0 0.145827 0.172194 0 0.142234 0.167952 0 0.13902 0.164159 0 0.136176 0.160804 0 0.133654 0.15783 0 0.131444 0.155225 0 0.12948 0.15291 0 0.127696 0.150809 0 0.126084 0.148909 0 0.124591 0.147151 0 0.12321 0.145524 0 0.19395 0.271522 0 0.184077 0.257683 0 0.175242 0.2453 0 0.167409 0.234322 0 0.160365 0.224452 0 0.154074 0.215637 0 0.148444 0.207749 0 0.143381 0.200657 0 0.138869 0.194337 0 0.134809 0.188654 0 0.131186 0.183584 0 0.127952 0.17906 0 0.125058 0.175015 0 0.122498 0.171439 0 0.120226 0.168267 0 0.118235 0.16549 0 0.116466 0.163023 0 0.114859 0.160783 0 0.113406 0.158759 0 0.112061 0.156885 0 0.110816 0.155152 0 0.171022 0.286522 0 0.162318 0.271916 0 0.154529 0.258846 0 0.147625 0.247258 0 0.141416 0.236839 0 0.135871 0.227535 0 0.130907 0.219209 0 0.126442 0.211723 0 0.122462 0.205053 0 0.118881 0.199054 0 0.115683 0.193702 0 0.112828 0.188927 0 0.110273 0.184657 0 0.108012 0.180881 0 0.106006 0.177534 0 0.104248 0.174603 0 0.102685 0.171999 0 0.101265 0.169636 0 0.0999815 0.1675 0 0.0987933 0.165523 0 0.0976935 0.163695 0 0.147304 0.299451 0 0.139811 0.284184 0 0.133105 0.270523 0 0.127161 0.258411 0 0.121815 0.247519 0 0.11704 0.237792 0 0.112764 0.229088 0 0.108918 0.221261 0 0.105488 0.214287 0 0.102401 0.208015 0 0.0996439 0.202419 0 0.0971819 0.197426 0 0.0949785 0.192962 0 0.0930283 0.189014 0 0.0912974 0.185514 0 0.0897803 0.182449 0 0.0884319 0.179728 0 0.087207 0.177257 0 0.0860997 0.175024 0 0.0850744 0.172959 0 0.0841252 0.171048 0 0.122879 0.310277 0 0.116631 0.294458 0 0.111041 0.280302 0 0.106086 0.267751 0 0.101628 0.256464 0 0.097645 0.246384 0 0.0940773 0.237361 0 0.0908665 0.229248 0 0.0880023 0.222018 0 0.0854241 0.215516 0 0.0831218 0.209714 0 0.0810654 0.204538 0 0.0792251 0.199909 0 0.0775961 0.195816 0 0.0761503 0.192188 0 0.0748832 0.189011 0 0.0737569 0.18619 0 0.0727336 0.183628 0 0.0718086 0.181315 0 0.0709519 0.179174 0 0.0701586 0.177194 0 0.098074 0.319007 0 0.0930922 0.302744 0 0.0886344 0.288189 0 0.084682 0.275285 0 0.0811247 0.263679 0 0.0779442 0.253312 0 0.0750943 0.244033 0 0.072529 0.235687 0 0.0702402 0.22825 0 0.06818 0.221561 0 0.0663402 0.215593 0 0.0646971 0.210268 0 0.0632266 0.205507 0 0.0619251 0.201297 0 0.06077 0.197564 0 0.0597576 0.194296 0 0.0588577 0.191394 0 0.0580401 0.18876 0 0.0573009 0.18638 0 0.0566162 0.184178 0 0.0559822 0.182142 0 0.0732194 0.325652 0 0.0695066 0.30905 0 0.0661811 0.294192 0 0.0632295 0.281017 0 0.0605718 0.269167 0 0.0581945 0.258581 0 0.056064 0.249105 0 0.0541466 0.240583 0 0.0524362 0.232987 0 0.0508968 0.226156 0 0.0495224 0.220062 0 0.048295 0.214624 0 0.0471966 0.209762 0 0.0462244 0.205462 0 0.0453615 0.201651 0 0.0446051 0.198313 0 0.0439327 0.19535 0 0.0433218 0.19266 0 0.0427694 0.19023 0 0.0422579 0.187982 0 0.0417841 0.185903 0 0.0483807 0.330242 0 0.0459355 0.313407 0 0.0437398 0.298338 0 0.0417855 0.284974 0 0.0400249 0.272953 0 0.0384499 0.262214 0 0.0370388 0.252601 0 0.03577 0.243956 0 0.0346393 0.236252 0 0.0336221 0.229323 0 0.0327143 0.223142 0 0.0319038 0.217626 0 0.0311784 0.212694 0 0.0305364 0.208333 0 0.0299663 0.204467 0 0.0294663 0.201082 0 0.0290217 0.198076 0 0.0286179 0.195348 0 0.0282529 0.192883 0 0.027915 0.190603 0 0.0276021 0.188494 0 0.0239523 0.33298 0 0.0227462 0.315996 0 0.02166 0.300792 0 0.0206901 0.28731 0 0.0198158 0.275184 0 0.0190337 0.264354 0 0.0183333 0.25466 0 0.0177042 0.245944 0 0.0171442 0.238177 0 0.0166406 0.231191 0 0.0161915 0.224958 0 0.0157906 0.219396 0 0.0154318 0.214423 0 0.0151142 0.210026 0 0.014832 0.206127 0 0.0145844 0.202713 0 0.0143641 0.199682 0 0.0141642 0.19693 0 0.0139836 0.194445 0 0.0138163 0.192146 0 0.0136615 0.190018 0 0 0.333896 0 0 0.316845 0 0 0.301584 0 0 0.288051 0 0 0.275885 0 0 0.265024 0 0 0.255306 0 0 0.246568 0 0 0.238783 0 0 0.23178 0 0 0.225532 0 0 0.219956 0 0 0.21497 0 0 0.21056 0 0 0.206649 0 0 0.203226 0 0 0.200186 0 0 0.197427 0 0 0.194935 0 0 0.192628 0 0 0.190494 0 </DataArray> 
</PointData> 
<Points> 
<DataArray type="Float32" NumberOfComponents="3"> 
100 0 0 105 0 0 110 0 0 115 0 0 120 0 0 125 0 0 130 0 0 135 0 0 140 0 0 145 0 0 150 0 0 155 0 0 160 0 0 165 0 0 170 0 0 175 0 0 180 0 0 185 0 0 190 0 0 195 0 0 200 0 0 99.7428 7.16693 0 104.73 7.52528 0 109.717 7.88363 0 114.704 8.24197 0 119.691 8.60032 0 124.679 8.95867 0 129.666 9.31701 0 134.653 9.67536 0 139.64 10.0337 0 144.627 10.3921 0 149.614 10.7504 0 154.601 11.1087 0 159.589 11.4671 0 164.576 11.8254 0 169.563 12.1838 0 174.55 12.5421 0 179.537 12.9005 0 184.524 13.2588 0 189.511 13.6172 0 194.499 13.9755 0 199.486 14.3339 0 98.9443 14.4919 0 103.892 15.2165 0 108.839 15.9411 0 113.786 16.6657 0 118.733 17.3903 0 123.68 18.1149 0 128.628 18.8395 0 133.575 19.5641 0 138.522 20.2887 0 143.469 21.0133 0 148.417 21.7379 0 153.364 22.4625 0 158.311 23.1871 0 163.258 23.9117 0 168.205 24.6363 0 173.153 25.3609 0 178.1 26.0855 0 183.047 26.8101 0 187.994 27.5347 0 192.941 28.2593 0 197.889 28.9839 0 97.5684 21.9182 0 102.447 23.0142 0 107.325 24.1101 0 112.204 25.206 0 117.082 26.3019 0 121.96 27.3978 0 126.839 28.4937 0 131.717 29.5896 0 136.596 30.6855 0 141.474 31.7815 0 146.353 32.8774 0 151.231 33.9733 0 156.109 35.0692 0 160.988 36.1651 0 165.866 37.261 0 170.745 38.3569 0 175.623 39.4528 0 180.502 40.5488 0 185.38 41.6447 0 190.258 42.7406 0 195.137 43.8365 0 95.5863 29.3812 0 100.366 30.8503 0 105.145 32.3193 0 109.924 33.7884 0 114.704 35.2574 0 119.483 36.7265 0 124.262 38.1956 0 129.042 39.6646 0 133.821 41.1337 0 138.6 42.6027 0 143.379 44.0718 0 148.159 45.5409 0 152.938 47.0099 0 157.717 48.479 0 162.497 49.948 0 167.276 51.4171 0 172.055 52.8861 0 176.835 54.3552 0 181.614 55.8243 0 186.393 57.2933 0 191.173 58.7624 0 92.9788 36.8095 0 97.6278 38.6499 0 102.277 40.4904 0 106.926 42.3309 0 111.575 44.1714 0 116.224 46.0118 0 120.872 47.8523 0 125.521 49.6928 0 130.17 51.5333 0 134.819 53.3737 0 139.468 55.2142 0 144.117 57.0547 0 148.766 58.8952 0 153.415 60.7356 0 158.064 62.5761 0 162.713 64.4166 0 167.362 66.257 0 172.011 68.0975 0 176.66 69.938 0 181.309 71.7785 0 185.958 73.6189 0 89.7376 44.1267 0 94.2244 46.3331 0 98.7113 48.5394 0 103.198 50.7458 0 107.685 52.9521 0 112.172 55.1584 0 116.659 57.3648 0 121.146 59.5711 0 125.633 61.7774 0 130.119 63.9838 0 134.606 66.1901 0 139.093 68.3965 0 143.58 70.6028 0 148.067 72.8091 0 152.554 75.0155 0 157.041 77.2218 0 161.528 79.4281 0 166.014 81.6345 0 170.501 83.8408 0 174.988 86.0471 0 179.475 88.2535 0 85.8665 51.2538 0 90.1598 53.8165 0 94.4531 56.3791 0 98.7464 58.9418 0 103.04 61.5045 0 107.333 64.0672 0 111.626 66.6299 0 115.92 69.1926 0 120.213 71.7553 0 124.506 74.318 0 128.8 76.8806 0 133.093 79.4433 0 137.386 82.006 0 141.68 84.5687 0 145.973 87.1314 0 150.266 89.6941 0 154.56 92.2568 0 158.853 94.8195 0 163.146 97.3822 0 167.44 99.9448 0 171.733 102.508 0 81.3826 58.1109 0 85.4517 61.0164 0 89.5209 63.9219 0 93.59 66.8275 0 97.6591 69.733 0 101.728 72.6386 0 105.797 75.5441 0 109.867 78.4497 0 113.936 81.3552 0 118.005 84.2607 0 122.074 87.1663 0 126.143 90.0718 0 130.212 92.9774 0 134.281 95.8829 0 138.35 98.7885 0 142.42 101.694 0 146.489 104.6 0 150.558 107.505 0 154.627 110.411 0 158.696 113.316 0 162.765 116.222 0 76.3163 64.6206 0 80.1321 67.8517 0 83.9479 71.0827 0 87.7637 74.3137 0 91.5795 77.5447 0 95.3954 80.7758 0 99.2112 84.0068 0 103.027 87.2378 0 106.843 90.4689 0 110.659 93.6999 0 114.474 96.9309 0 118.29 100.162 0 122.106 103.393 0 125.922 106.624 0 129.738 109.855 0 133.553 113.086 0 137.369 116.317 0 141.185 119.548 0 145.001 122.779 0 148.817 126.01 0 152.633 129.241 0 70.7107 70.7107 0 74.2462 74.2462 0 77.7817 77.7817 0 81.3173 81.3173 0 84.8528 84.8528 0 88.3883 88.3883 0 91.9239 91.9239 0 95.4594 95.4594 0 98.9949 98.9949 0 102.53 102.53 0 106.066 106.066 0 109.602 109.602 0 113.137 113.137 0 116.673 116.673 0 120.208 120.208 0 123.744 123.744 0 127.279 127.279 0 130.815 130.815 0 134.35 134.35 0 137.886 137.886 0 141.421 141.421 0 64.6206 76.3163 0 67.8517 80.1321 0 71.0827 83.9479 0 74.3137 87.7637 0 77.5447 91.5795 0 80.7758 95.3954 0 84.0068 99.2112 0 87.2378 103.027 0 90.4689 106.843 0 93.6999 110.659 0 96.9309 114.474 0 100.162 118.29 0 103.393 122.106 0 106.624 125.922 0 109.855 129.738 0 113.086 133.553 0 116.317 137.369 0 119.548 141.185 0 122.779 145.001 0 126.01 148.817 0 129.241 152.633 0 58.1109 81.3826 0 61.0164 85.4517 0 63.9219 89.5209 0 66.8275 93.59 0 69.733 97.6591 0 72.6386 101.728 0 75.5441 105.797 0 78.4497 109.867 0 81.3552 113.936 0 84.2607 118.005 0 87.1663 122.074 0 90.0718 126.143 0 92.9774 130.212 0 95.8829 134.281 0 98.7885 138.35 0 101.694 142.42 0 104.6 146.489 0 107.505 150.558 0 110.411 154.627 0 113.316 158.696 0 116.222 162.765 0 51.2538 85.8665 0 53.8165 90.1598 0 56.3791 94.4531 0 58.9418 98.7464 0 61.5045 103.04 0 64.0672 107.333 0 66.6299 111.626 0 69.1926 115.92 0 71.7553 120.213 0 74.318 124.506 0 76.8806 128.8 0 79.4433 133.093 0 82.006 137.386 0 84.5687 141.68 0 87.1314 145.973 0 89.6941 150.266 0 92.2568 154.56 0 94.8195 158.853 0 97.3822 163.146 0 99.9448 167.44 0 102.508 171.733 0 44.1267 89.7376 0 46.3331 94.2244 0 48.5394 98.7113 0 50.7458 103.198 0 52.9521 107.685 0 55.1584 112.172 0 57.3648 116.659 0 59.5711 121.146 0 61.7774 125.633 0 63.9838 130.119 0 66.1901 134.606 0 68.3965 139.093 0 70.6028 143.58 0 72.8091 148.067 0 75.0155 152.554 0 77.2218 157.041 0 79.4281 161.528 0 81.6345 166.014 0 83.8408 170.501 0 86.0471 174.988 0 88.2535 179.475 0 36.8095 92.9788 0 38.6499 97.6278 0 40.4904 102.277 0 42.3309 106.926 0 44.1714 111.575 0 46.0118 116.224 0 47.8523 120.872 0 49.6928 125.521 0 51.5333 130.17 0 53.3737 134.819 0 55.2142 139.468 0 57.0547 144.117 0 58.8952 148.766 0 60.7356 153.415 0 62.5761 158.064 0 64.4166 162.713 0 66.257 167.362 0 68.0975 172.011 0 69.938 176.66 0 71.7785 181.309 0 73.6189 185.958 0 29.3812 95.5863 0 30.8503 100.366 0 32.3193 105.145 0 33.7884 109.924 0 35.2574 114.704 0 36.7265 119.483 0 38.1956 124.262 0 39.6646 129.042 0 41.1337 133.821 0 42.6027 138.6 0 44.0718 143.379 0 45.5409 148.159 0 47.0099 152.938 0 48.479 157.717 0 49.948 162.497 0 51.4171 167.276 0 52.8861 172.055 0 54.3552 176.835 0 55.8243 181.614 0 57.2933 186.393 0 58.7624 191.173 0 21.9182 97.5684 0 23.0142 102.447 0 24.1101 107.325 0 25.206 112.204 0 26.3019 117.082 0 27.3978 121.96 0 28.4937 126.839 0 29.5896 131.717 0 30.6855 136.596 0 31.7815 141.474 0 32.8774 146.353 0 33.9733 151.231 0 35.0692 156.109 0 36.1651 160.988 0 37.261 165.866 0 38.3569 170.745 0 39.4528 175.623 0 40.5488 180.502 0 41.6447 185.38 0 42.7406 190.258 0 43.8365 195.137 0 14.4919 98.9443 0 15.2165 103.892 0 15.9411 108.839 0 16.6657 113.786 0 17.3903 118.733 0 18.1149 123.68 0 18.8395 128.628 0 19.5641 133.575 0 20.2887 138.522 0 21.0133 143.469 0 21.7379 148.417 0 22.4625 153.364 0 23.1871 158.311 0 23.9117 163.258 0 24.6363 168.205 0 25.3609 173.153 0 26.0855 178.1 0 26.8101 183.047 0 27.5347 187.994 0 28.2593 192.941 0 28.9839 197.889 0 7.16693 99.7428 0 7.52528 104.73 0 7.88363 109.717 0 8.24197 114.704 0 8.60032 119.691 0 8.95867 124.679 0 9.31701 129.666 0 9.67536 134.653 0 10.0337 139.64 0 10.3921 144.627 0 10.7504 149.614 0 11.1087 154.601 0 11.4671 159.589 0 11.8254 164.576 0 12.1838 169.563 0 12.5421 174.55 0 12.9005 179.537 0 13.2588 184.524 0 13.6172 189.511 0 13.9755 194.499 0 14.3339 199.486 0 0 100 0 0 105 0 0 110 0 0 115 0 0 120 0 0 125 0 0 130 0 0 135 0 0 140 0 0 145 0 0 150 0 0 155 0 0 160 0 0 165 0 0 170 0 0 175 0 0 180 0 0 185 0 0 190 0 0 195 0 0 200 0 
</DataArray>
</Points> 
</Piece> 
</StructuredGrid> 
</VTKFile> 
