<?xml version="1.0"?> 
<VTKFile type="StructuredGrid" version="0.1"> 
<StructuredGrid WholeExtent="0 20 0 20 0 0"> 
<Piece Extent="0 20 0 20 0 0"> 
<PointData>
<DataArray type="Float32" Name="plastic_strain_4" format="ascii" NumberOfComponents="1"> 
-9.20747e-05 -7.48759e-05 -6.02207e-05 -4.8619e-05 -4.05805e-05 -3.47795e-05 -2.989e-05 -2.56439e-05 -2.1773e-05 -1.82462e-05 -1.50323e-05 -1.21041e-05 -9.43435e-06 -6.90985e-06 -4.41745e-06 -1.63955e-06 1.74145e-06 4.34895e-06 4.80631e-06 3.29588e-06 0 -0.000490994 -0.000424086 -0.000366831 -0.000317711 -0.000275212 -0.000238176 -0.000205447 -0.000176391 -0.000150373 -0.000127036 -0.000106021 -8.70691e-05 -6.99178e-05 -5.42548e-05 -3.97669e-05 -2.63518e-05 -1.39071e-05 -3.98292e-06 1.87032e-06 3.00807e-06 -1.21425e-06 -0.000887114 -0.000772793 -0.000673931 -0.000587497 -0.000510463 -0.000441961 -0.000381123 -0.000327057 -0.000278868 -0.000235784 -0.000197031 -0.000162099 -0.000130478 -0.000101726 -7.54027e-05 -5.15552e-05 -3.02299e-05 -1.30765e-05 -1.74477e-06 2.48683e-06 -1.66021e-06 -0.00127254 -0.00111247 -0.000972902 -0.00084974 -0.000738874 -0.000639658 -0.000551447 -0.000473087 -0.000403424 -0.000341221 -0.000285242 -0.000234775 -0.000189111 -0.000147669 -0.00010987 -7.58769e-05 -4.58512e-05 -2.16397e-05 -5.08912e-06 2.09361e-06 -1.79861e-06 -0.00163877 -0.00143387 -0.0012544 -0.0010955 -0.000952344 -0.000824238 -0.000710484 -0.000609545 -0.000519886 -0.000439805 -0.000367598 -0.000302475 -0.000243647 -0.000190291 -0.000141588 -9.78194e-05 -5.92664e-05 -2.82572e-05 -7.1199e-06 2.22479e-06 -2.14384e-06 -0.00197445 -0.00172769 -0.00151089 -0.00131874 -0.00114593 -0.000991589 -0.000854849 -0.000733605 -0.000625748 -0.000529297 -0.000442271 -0.0003638 -0.000293012 -0.000228825 -0.000170157 -0.000117385 -7.08865e-05 -3.35886e-05 -8.41927e-06 2.58988e-06 -2.593e-06 -0.00226792 -0.00198438 -0.00173476 -0.00151341 -0.00131469 -0.00113761 -0.000981182 -0.000842462 -0.000718511 -0.00060746 -0.00050744 -0.000417366 -0.000336153 -0.000262527 -0.00019521 -0.000134625 -8.11915e-05 -3.83725e-05 -9.63067e-06 2.87045e-06 -3.03288e-06 -0.00250892 -0.00219511 -0.00191855 -0.00167328 -0.00145339 -0.0012577 -0.00108506 -0.000931904 -0.000794665 -0.000671596 -0.000560952 -0.000461408 -0.000371642 -0.00029024 -0.000215788 -0.000148774 -8.96811e-05 -4.23615e-05 -1.06664e-05 3.08679e-06 -3.41972e-06 -0.00268767 -0.00235153 -0.00205522 -0.0017925 -0.0015571 -0.00134752 -0.00116228 -0.000997885 -0.000850844 -0.000719145 -0.000600776 -0.000494262 -0.000398128 -0.000310868 -0.000230972 -0.000159089 -9.58649e-05 -4.5311e-05 -1.14373e-05 3.26165e-06 -3.70847e-06 -0.00279803 -0.00244814 -0.00213979 -0.00186643 -0.00162156 -0.00140336 -0.00121004 -0.00103843 -0.000885368 -0.000748489 -0.000625431 -0.000514641 -0.000414565 -0.00032364 -0.000240304 -0.000165363 -9.96239e-05 -4.71271e-05 -1.19148e-05 3.37706e-06 -3.88769e-06 -0.00283506 -0.00248057 -0.00216817 -0.00189124 -0.00164319 -0.0014221 -0.00122607 -0.00105204 -0.000896955 -0.000758337 -0.000633705 -0.00052148 -0.000420081 -0.000327927 -0.000243436 -0.000167469 -0.000100885 -4.77366e-05 -1.2075e-05 3.41579e-06 -3.94783e-06 -0.00279803 -0.00244814 -0.00213979 -0.00186643 -0.00162156 -0.00140336 -0.00121004 -0.00103843 -0.000885368 -0.000748489 -0.000625431 -0.000514641 -0.000414565 -0.00032364 -0.000240304 -0.000165363 -9.96239e-05 -4.71271e-05 -1.19148e-05 3.37706e-06 -3.88769e-06 -0.00268767 -0.00235153 -0.00205522 -0.0017925 -0.0015571 -0.00134752 -0.00116228 -0.000997885 -0.000850844 -0.000719145 -0.000600776 -0.000494262 -0.000398128 -0.000310868 -0.000230972 -0.000159089 -9.58649e-05 -4.5311e-05 -1.14373e-05 3.26165e-06 -3.70847e-06 -0.00250892 -0.00219511 -0.00191855 -0.00167328 -0.00145339 -0.0012577 -0.00108506 -0.000931904 -0.000794665 -0.000671596 -0.000560952 -0.000461408 -0.000371642 -0.00029024 -0.000215788 -0.000148774 -8.96811e-05 -4.23615e-05 -1.06664e-05 3.08679e-06 -3.41972e-06 -0.00226792 -0.00198438 -0.00173476 -0.00151341 -0.00131469 -0.00113761 -0.000981182 -0.000842462 -0.000718511 -0.00060746 -0.00050744 -0.000417366 -0.000336153 -0.000262527 -0.00019521 -0.000134625 -8.11915e-05 -3.83725e-05 -9.63067e-06 2.87045e-06 -3.03288e-06 -0.00197445 -0.00172769 -0.00151089 -0.00131874 -0.00114593 -0.000991589 -0.000854849 -0.000733605 -0.000625748 -0.000529297 -0.000442271 -0.0003638 -0.000293012 -0.000228825 -0.000170157 -0.000117385 -7.08865e-05 -3.35886e-05 -8.41927e-06 2.58579e-06 -2.60936e-06 -0.00163877 -0.00143387 -0.0012544 -0.0010955 -0.000952344 -0.000824238 -0.000710484 -0.000609545 -0.000519886 -0.000439805 -0.000367598 -0.000302475 -0.000243647 -0.000190291 -0.000141588 -9.78194e-05 -5.92664e-05 -2.82572e-05 -7.1199e-06 2.20872e-06 -2.2081e-06 -0.00127254 -0.00111247 -0.000972902 -0.00084974 -0.000738874 -0.000639658 -0.000551447 -0.000473087 -0.000403424 -0.000341221 -0.000285242 -0.000234775 -0.000189111 -0.000147669 -0.00010987 -7.58769e-05 -4.58512e-05 -2.16397e-05 -5.08912e-06 2.07001e-06 -1.89301e-06 -0.000887114 -0.000772793 -0.000673931 -0.000587497 -0.000510463 -0.000441961 -0.000381123 -0.000327057 -0.000278868 -0.000235784 -0.000197031 -0.000162099 -0.000130478 -0.000101726 -7.54027e-05 -5.15552e-05 -3.02299e-05 -1.30765e-05 -1.74477e-06 2.47146e-06 -1.72168e-06 -0.00049141 -0.000424551 -0.000367119 -0.000317783 -0.000275212 -0.000238176 -0.000205447 -0.000176391 -0.000150373 -0.000127036 -0.000106021 -8.70691e-05 -6.99178e-05 -5.42548e-05 -3.97669e-05 -2.63577e-05 -1.39307e-05 -4.06111e-06 1.67587e-06 2.78493e-06 -1.22923e-06 -9.36942e-05 -7.66822e-05 -6.13419e-05 -4.88993e-05 -4.05805e-05 -3.47795e-05 -2.989e-05 -2.56439e-05 -2.1773e-05 -1.82462e-05 -1.50323e-05 -1.21041e-05 -9.43435e-06 -6.90985e-06 -4.41745e-06 -1.66256e-06 1.64942e-06 4.04487e-06 4.05016e-06 2.44272e-06 0 </DataArray> 
</PointData> 
<Points> 
<DataArray type="Float32" NumberOfComponents="3"> 
100 0 0 105 0 0 110 0 0 115 0 0 120 0 0 125 0 0 130 0 0 135 0 0 140 0 0 145 0 0 150 0 0 155 0 0 160 0 0 165 0 0 170 0 0 175 0 0 180 0 0 185 0 0 190 0 0 195 0 0 200 0 0 99.7428 7.16693 0 104.73 7.52528 0 109.717 7.88363 0 114.704 8.24197 0 119.691 8.60032 0 124.679 8.95867 0 129.666 9.31701 0 134.653 9.67536 0 139.64 10.0337 0 144.627 10.3921 0 149.614 10.7504 0 154.601 11.1087 0 159.589 11.4671 0 164.576 11.8254 0 169.563 12.1838 0 174.55 12.5421 0 179.537 12.9005 0 184.524 13.2588 0 189.511 13.6172 0 194.499 13.9755 0 199.486 14.3339 0 98.9443 14.4919 0 103.892 15.2165 0 108.839 15.9411 0 113.786 16.6657 0 118.733 17.3903 0 123.68 18.1149 0 128.628 18.8395 0 133.575 19.5641 0 138.522 20.2887 0 143.469 21.0133 0 148.417 21.7379 0 153.364 22.4625 0 158.311 23.1871 0 163.258 23.9117 0 168.205 24.6363 0 173.153 25.3609 0 178.1 26.0855 0 183.047 26.8101 0 187.994 27.5347 0 192.941 28.2593 0 197.889 28.9839 0 97.5684 21.9182 0 102.447 23.0142 0 107.325 24.1101 0 112.204 25.206 0 117.082 26.3019 0 121.96 27.3978 0 126.839 28.4937 0 131.717 29.5896 0 136.596 30.6855 0 141.474 31.7815 0 146.353 32.8774 0 151.231 33.9733 0 156.109 35.0692 0 160.988 36.1651 0 165.866 37.261 0 170.745 38.3569 0 175.623 39.4528 0 180.502 40.5488 0 185.38 41.6447 0 190.258 42.7406 0 195.137 43.8365 0 95.5863 29.3812 0 100.366 30.8503 0 105.145 32.3193 0 109.924 33.7884 0 114.704 35.2574 0 119.483 36.7265 0 124.262 38.1956 0 129.042 39.6646 0 133.821 41.1337 0 138.6 42.6027 0 143.379 44.0718 0 148.159 45.5409 0 152.938 47.0099 0 157.717 48.479 0 162.497 49.948 0 167.276 51.4171 0 172.055 52.8861 0 176.835 54.3552 0 181.614 55.8243 0 186.393 57.2933 0 191.173 58.7624 0 92.9788 36.8095 0 97.6278 38.6499 0 102.277 40.4904 0 106.926 42.3309 0 111.575 44.1714 0 116.224 46.0118 0 120.872 47.8523 0 125.521 49.6928 0 130.17 51.5333 0 134.819 53.3737 0 139.468 55.2142 0 144.117 57.0547 0 148.766 58.8952 0 153.415 60.7356 0 158.064 62.5761 0 162.713 64.4166 0 167.362 66.257 0 172.011 68.0975 0 176.66 69.938 0 181.309 71.7785 0 185.958 73.6189 0 89.7376 44.1267 0 94.2244 46.3331 0 98.7113 48.5394 0 103.198 50.7458 0 107.685 52.9521 0 112.172 55.1584 0 116.659 57.3648 0 121.146 59.5711 0 125.633 61.7774 0 130.119 63.9838 0 134.606 66.1901 0 139.093 68.3965 0 143.58 70.6028 0 148.067 72.8091 0 152.554 75.0155 0 157.041 77.2218 0 161.528 79.4281 0 166.014 81.6345 0 170.501 83.8408 0 174.988 86.0471 0 179.475 88.2535 0 85.8665 51.2538 0 90.1598 53.8165 0 94.4531 56.3791 0 98.7464 58.9418 0 103.04 61.5045 0 107.333 64.0672 0 111.626 66.6299 0 115.92 69.1926 0 120.213 71.7553 0 124.506 74.318 0 128.8 76.8806 0 133.093 79.4433 0 137.386 82.006 0 141.68 84.5687 0 145.973 87.1314 0 150.266 89.6941 0 154.56 92.2568 0 158.853 94.8195 0 163.146 97.3822 0 167.44 99.9448 0 171.733 102.508 0 81.3826 58.1109 0 85.4517 61.0164 0 89.5209 63.9219 0 93.59 66.8275 0 97.6591 69.733 0 101.728 72.6386 0 105.797 75.5441 0 109.867 78.4497 0 113.936 81.3552 0 118.005 84.2607 0 122.074 87.1663 0 126.143 90.0718 0 130.212 92.9774 0 134.281 95.8829 0 138.35 98.7885 0 142.42 101.694 0 146.489 104.6 0 150.558 107.505 0 154.627 110.411 0 158.696 113.316 0 162.765 116.222 0 76.3163 64.6206 0 80.1321 67.8517 0 83.9479 71.0827 0 87.7637 74.3137 0 91.5795 77.5447 0 95.3954 80.7758 0 99.2112 84.0068 0 103.027 87.2378 0 106.843 90.4689 0 110.659 93.6999 0 114.474 96.9309 0 118.29 100.162 0 122.106 103.393 0 125.922 106.624 0 129.738 109.855 0 133.553 113.086 0 137.369 116.317 0 141.185 119.548 0 145.001 122.779 0 148.817 126.01 0 152.633 129.241 0 70.7107 70.7107 0 74.2462 74.2462 0 77.7817 77.7817 0 81.3173 81.3173 0 84.8528 84.8528 0 88.3883 88.3883 0 91.9239 91.9239 0 95.4594 95.4594 0 98.9949 98.9949 0 102.53 102.53 0 106.066 106.066 0 109.602 109.602 0 113.137 113.137 0 116.673 116.673 0 120.208 120.208 0 123.744 123.744 0 127.279 127.279 0 130.815 130.815 0 134.35 134.35 0 137.886 137.886 0 141.421 141.421 0 64.6206 76.3163 0 67.8517 80.1321 0 71.0827 83.9479 0 74.3137 87.7637 0 77.5447 91.5795 0 80.7758 95.3954 0 84.0068 99.2112 0 87.2378 103.027 0 90.4689 106.843 0 93.6999 110.659 0 96.9309 114.474 0 100.162 118.29 0 103.393 122.106 0 106.624 125.922 0 109.855 129.738 0 113.086 133.553 0 116.317 137.369 0 119.548 141.185 0 122.779 145.001 0 126.01 148.817 0 129.241 152.633 0 58.1109 81.3826 0 61.0164 85.4517 0 63.9219 89.5209 0 66.8275 93.59 0 69.733 97.6591 0 72.6386 101.728 0 75.5441 105.797 0 78.4497 109.867 0 81.3552 113.936 0 84.2607 118.005 0 87.1663 122.074 0 90.0718 126.143 0 92.9774 130.212 0 95.8829 134.281 0 98.7885 138.35 0 101.694 142.42 0 104.6 146.489 0 107.505 150.558 0 110.411 154.627 0 113.316 158.696 0 116.222 162.765 0 51.2538 85.8665 0 53.8165 90.1598 0 56.3791 94.4531 0 58.9418 98.7464 0 61.5045 103.04 0 64.0672 107.333 0 66.6299 111.626 0 69.1926 115.92 0 71.7553 120.213 0 74.318 124.506 0 76.8806 128.8 0 79.4433 133.093 0 82.006 137.386 0 84.5687 141.68 0 87.1314 145.973 0 89.6941 150.266 0 92.2568 154.56 0 94.8195 158.853 0 97.3822 163.146 0 99.9448 167.44 0 102.508 171.733 0 44.1267 89.7376 0 46.3331 94.2244 0 48.5394 98.7113 0 50.7458 103.198 0 52.9521 107.685 0 55.1584 112.172 0 57.3648 116.659 0 59.5711 121.146 0 61.7774 125.633 0 63.9838 130.119 0 66.1901 134.606 0 68.3965 139.093 0 70.6028 143.58 0 72.8091 148.067 0 75.0155 152.554 0 77.2218 157.041 0 79.4281 161.528 0 81.6345 166.014 0 83.8408 170.501 0 86.0471 174.988 0 88.2535 179.475 0 36.8095 92.9788 0 38.6499 97.6278 0 40.4904 102.277 0 42.3309 106.926 0 44.1714 111.575 0 46.0118 116.224 0 47.8523 120.872 0 49.6928 125.521 0 51.5333 130.17 0 53.3737 134.819 0 55.2142 139.468 0 57.0547 144.117 0 58.8952 148.766 0 60.7356 153.415 0 62.5761 158.064 0 64.4166 162.713 0 66.257 167.362 0 68.0975 172.011 0 69.938 176.66 0 71.7785 181.309 0 73.6189 185.958 0 29.3812 95.5863 0 30.8503 100.366 0 32.3193 105.145 0 33.7884 109.924 0 35.2574 114.704 0 36.7265 119.483 0 38.1956 124.262 0 39.6646 129.042 0 41.1337 133.821 0 42.6027 138.6 0 44.0718 143.379 0 45.5409 148.159 0 47.0099 152.938 0 48.479 157.717 0 49.948 162.497 0 51.4171 167.276 0 52.8861 172.055 0 54.3552 176.835 0 55.8243 181.614 0 57.2933 186.393 0 58.7624 191.173 0 21.9182 97.5684 0 23.0142 102.447 0 24.1101 107.325 0 25.206 112.204 0 26.3019 117.082 0 27.3978 121.96 0 28.4937 126.839 0 29.5896 131.717 0 30.6855 136.596 0 31.7815 141.474 0 32.8774 146.353 0 33.9733 151.231 0 35.0692 156.109 0 36.1651 160.988 0 37.261 165.866 0 38.3569 170.745 0 39.4528 175.623 0 40.5488 180.502 0 41.6447 185.38 0 42.7406 190.258 0 43.8365 195.137 0 14.4919 98.9443 0 15.2165 103.892 0 15.9411 108.839 0 16.6657 113.786 0 17.3903 118.733 0 18.1149 123.68 0 18.8395 128.628 0 19.5641 133.575 0 20.2887 138.522 0 21.0133 143.469 0 21.7379 148.417 0 22.4625 153.364 0 23.1871 158.311 0 23.9117 163.258 0 24.6363 168.205 0 25.3609 173.153 0 26.0855 178.1 0 26.8101 183.047 0 27.5347 187.994 0 28.2593 192.941 0 28.9839 197.889 0 7.16693 99.7428 0 7.52528 104.73 0 7.88363 109.717 0 8.24197 114.704 0 8.60032 119.691 0 8.95867 124.679 0 9.31701 129.666 0 9.67536 134.653 0 10.0337 139.64 0 10.3921 144.627 0 10.7504 149.614 0 11.1087 154.601 0 11.4671 159.589 0 11.8254 164.576 0 12.1838 169.563 0 12.5421 174.55 0 12.9005 179.537 0 13.2588 184.524 0 13.6172 189.511 0 13.9755 194.499 0 14.3339 199.486 0 0 100 0 0 105 0 0 110 0 0 115 0 0 120 0 0 125 0 0 130 0 0 135 0 0 140 0 0 145 0 0 150 0 0 155 0 0 160 0 0 165 0 0 170 0 0 175 0 0 180 0 0 185 0 0 190 0 0 195 0 0 200 0 
</DataArray>
</Points> 
</Piece> 
</StructuredGrid> 
</VTKFile> 
