<?xml version="1.0"?> 
<VTKFile type="StructuredGrid" version="0.1"> 
<StructuredGrid WholeExtent="0 20 0 20 0 0"> 
<Piece Extent="0 20 0 20 0 0"> 
<PointData>
<DataArray type="Float32" Name="plastic_strain_3" format="ascii" NumberOfComponents="1"> 
6.25429e-05 4.06372e-05 2.06376e-05 2.98454e-06 -1.18813e-05 -2.40653e-05 -3.36732e-05 -4.08345e-05 -4.56789e-05 -4.82783e-05 -4.87044e-05 -4.73885e-05 -4.47618e-05 -4.07456e-05 -3.52612e-05 -2.79915e-05 -1.86191e-05 -9.32586e-06 -2.29348e-06 1.23087e-06 0 6.31415e-05 4.08842e-05 2.0776e-05 3.11132e-06 -1.18157e-05 -2.40616e-05 -3.36829e-05 -4.08295e-05 -4.56511e-05 -4.82445e-05 -4.87065e-05 -4.74255e-05 -4.47901e-05 -4.07159e-05 -3.51188e-05 -2.78243e-05 -1.86585e-05 -9.58397e-06 -2.5637e-06 9.83676e-07 -3.60488e-07 6.33751e-05 4.09123e-05 2.07682e-05 3.13452e-06 -1.17969e-05 -2.40628e-05 -3.36998e-05 -4.08484e-05 -4.56488e-05 -4.82313e-05 -4.87261e-05 -4.74781e-05 -4.48322e-05 -4.07078e-05 -3.50246e-05 -2.77286e-05 -1.87659e-05 -9.91247e-06 -2.9447e-06 6.83056e-07 -4.83607e-07 6.34388e-05 4.08492e-05 2.06949e-05 3.10002e-06 -1.18109e-05 -2.4073e-05 -3.37214e-05 -4.0877e-05 -4.56603e-05 -4.82314e-05 -4.875e-05 -4.75266e-05 -4.48715e-05 -4.07113e-05 -3.49725e-05 -2.76847e-05 -1.88772e-05 -1.0197e-05 -3.29095e-06 4.14373e-07 -5.07548e-07 6.3551e-05 4.08378e-05 2.06467e-05 3.05957e-06 -1.18415e-05 -2.40964e-05 -3.3745e-05 -4.08995e-05 -4.56725e-05 -4.82364e-05 -4.87636e-05 -4.75496e-05 -4.48901e-05 -4.07151e-05 -3.49546e-05 -2.76697e-05 -1.89217e-05 -1.03122e-05 -3.44256e-06 2.712e-07 -5.86715e-07 6.36554e-05 4.0846e-05 2.0617e-05 3.02538e-06 -1.18719e-05 -2.412e-05 -3.37642e-05 -4.09146e-05 -4.56816e-05 -4.82411e-05 -4.8769e-05 -4.75574e-05 -4.48982e-05 -4.07206e-05 -3.49537e-05 -2.76648e-05 -1.89212e-05 -1.03242e-05 -3.47473e-06 2.14591e-07 -6.68668e-07 6.36911e-05 4.08389e-05 2.05984e-05 3.01049e-06 -1.18837e-05 -2.41296e-05 -3.37725e-05 -4.0921e-05 -4.56835e-05 -4.82395e-05 -4.87688e-05 -4.75613e-05 -4.4907e-05 -4.07291e-05 -3.49509e-05 -2.76491e-05 -1.89001e-05 -1.03065e-05 -3.47107e-06 2.00747e-07 -6.96713e-07 6.36912e-05 4.08281e-05 2.05906e-05 3.01009e-06 -1.18823e-05 -2.413e-05 -3.37765e-05 -4.09273e-05 -4.5688e-05 -4.82407e-05 -4.87679e-05 -4.75614e-05 -4.4913e-05 -4.07372e-05 -3.49482e-05 -2.76338e-05 -1.88815e-05 -1.02906e-05 -3.46032e-06 2.05521e-07 -6.96797e-07 6.36913e-05 4.08257e-05 2.05934e-05 3.01881e-06 -1.18737e-05 -2.41268e-05 -3.37833e-05 -4.09428e-05 -4.57054e-05 -4.82539e-05 -4.87714e-05 -4.75577e-05 -4.49127e-05 -4.0741e-05 -3.49474e-05 -2.76308e-05 -1.88899e-05 -1.03091e-05 -3.47291e-06 2.0307e-07 -6.96858e-07 6.36914e-05 4.08273e-05 2.05996e-05 3.02887e-06 -1.18645e-05 -2.41231e-05 -3.37894e-05 -4.0958e-05 -4.57235e-05 -4.82684e-05 -4.87757e-05 -4.75535e-05 -4.491e-05 -4.07423e-05 -3.49476e-05 -2.76332e-05 -1.89065e-05 -1.03363e-05 -3.49135e-06 1.9845e-07 -6.96894e-07 6.36914e-05 4.08278e-05 2.06017e-05 3.03224e-06 -1.18614e-05 -2.41218e-05 -3.37915e-05 -4.09631e-05 -4.57295e-05 -4.82733e-05 -4.87771e-05 -4.75521e-05 -4.49091e-05 -4.07428e-05 -3.49476e-05 -2.7634e-05 -1.89121e-05 -1.03455e-05 -3.49754e-06 1.96899e-07 -6.96906e-07 6.36914e-05 4.08273e-05 2.05996e-05 3.02887e-06 -1.18645e-05 -2.41231e-05 -3.37894e-05 -4.0958e-05 -4.57235e-05 -4.82684e-05 -4.87757e-05 -4.75535e-05 -4.491e-05 -4.07423e-05 -3.49476e-05 -2.76332e-05 -1.89065e-05 -1.03363e-05 -3.49135e-06 1.9845e-07 -6.96894e-07 6.36913e-05 4.08257e-05 2.05934e-05 3.01881e-06 -1.18737e-05 -2.41268e-05 -3.37833e-05 -4.09428e-05 -4.57054e-05 -4.82539e-05 -4.87714e-05 -4.75577e-05 -4.49127e-05 -4.0741e-05 -3.49474e-05 -2.76308e-05 -1.88899e-05 -1.03091e-05 -3.47291e-06 2.0307e-07 -6.96858e-07 6.36912e-05 4.08281e-05 2.05906e-05 3.01009e-06 -1.18823e-05 -2.413e-05 -3.37765e-05 -4.09273e-05 -4.5688e-05 -4.82407e-05 -4.87679e-05 -4.75614e-05 -4.4913e-05 -4.07372e-05 -3.49482e-05 -2.76338e-05 -1.88815e-05 -1.02906e-05 -3.46032e-06 2.05521e-07 -6.96797e-07 6.36911e-05 4.08389e-05 2.05984e-05 3.01049e-06 -1.18837e-05 -2.41296e-05 -3.37725e-05 -4.0921e-05 -4.56835e-05 -4.82395e-05 -4.87688e-05 -4.75613e-05 -4.4907e-05 -4.07291e-05 -3.49509e-05 -2.76491e-05 -1.89001e-05 -1.03065e-05 -3.47107e-06 2.00747e-07 -6.96713e-07 6.36554e-05 4.0846e-05 2.0617e-05 3.02538e-06 -1.18719e-05 -2.412e-05 -3.37642e-05 -4.09146e-05 -4.56816e-05 -4.82411e-05 -4.8769e-05 -4.75574e-05 -4.48982e-05 -4.07206e-05 -3.49537e-05 -2.76648e-05 -1.89212e-05 -1.03242e-05 -3.47473e-06 2.14136e-07 -6.70488e-07 6.3551e-05 4.08378e-05 2.06467e-05 3.05957e-06 -1.18415e-05 -2.40964e-05 -3.3745e-05 -4.08995e-05 -4.56725e-05 -4.82364e-05 -4.87636e-05 -4.75496e-05 -4.48901e-05 -4.07151e-05 -3.49546e-05 -2.76697e-05 -1.89217e-05 -1.03122e-05 -3.44256e-06 2.69412e-07 -5.93865e-07 6.34388e-05 4.08492e-05 2.06949e-05 3.10002e-06 -1.18109e-05 -2.4073e-05 -3.37214e-05 -4.0877e-05 -4.56603e-05 -4.82314e-05 -4.875e-05 -4.75266e-05 -4.48715e-05 -4.07113e-05 -3.49725e-05 -2.76847e-05 -1.88772e-05 -1.0197e-05 -3.29095e-06 4.11747e-07 -5.18054e-07 6.33751e-05 4.09123e-05 2.07682e-05 3.13452e-06 -1.17969e-05 -2.40628e-05 -3.36998e-05 -4.08484e-05 -4.56488e-05 -4.82313e-05 -4.87261e-05 -4.74781e-05 -4.48322e-05 -4.07078e-05 -3.50246e-05 -2.77286e-05 -1.87659e-05 -9.91247e-06 -2.9447e-06 6.81346e-07 -4.90448e-07 6.32396e-05 4.09845e-05 2.08367e-05 3.12649e-06 -1.18157e-05 -2.40616e-05 -3.36829e-05 -4.08295e-05 -4.56511e-05 -4.82445e-05 -4.87065e-05 -4.74255e-05 -4.47901e-05 -4.07159e-05 -3.51188e-05 -2.78237e-05 -1.8656e-05 -9.5873e-06 -2.58952e-06 9.48487e-07 -3.62154e-07 6.29244e-05 4.10275e-05 2.08735e-05 3.04353e-06 -1.18813e-05 -2.40653e-05 -3.36732e-05 -4.08345e-05 -4.56789e-05 -4.82783e-05 -4.87044e-05 -4.73885e-05 -4.47618e-05 -4.07456e-05 -3.52612e-05 -2.79891e-05 -1.86094e-05 -9.33882e-06 -2.39388e-06 1.09565e-06 0 </DataArray> 
</PointData> 
<Points> 
<DataArray type="Float32" NumberOfComponents="3"> 
100 0 0 105 0 0 110 0 0 115 0 0 120 0 0 125 0 0 130 0 0 135 0 0 140 0 0 145 0 0 150 0 0 155 0 0 160 0 0 165 0 0 170 0 0 175 0 0 180 0 0 185 0 0 190 0 0 195 0 0 200 0 0 99.7428 7.16693 0 104.73 7.52528 0 109.717 7.88363 0 114.704 8.24197 0 119.691 8.60032 0 124.679 8.95867 0 129.666 9.31701 0 134.653 9.67536 0 139.64 10.0337 0 144.627 10.3921 0 149.614 10.7504 0 154.601 11.1087 0 159.589 11.4671 0 164.576 11.8254 0 169.563 12.1838 0 174.55 12.5421 0 179.537 12.9005 0 184.524 13.2588 0 189.511 13.6172 0 194.499 13.9755 0 199.486 14.3339 0 98.9443 14.4919 0 103.892 15.2165 0 108.839 15.9411 0 113.786 16.6657 0 118.733 17.3903 0 123.68 18.1149 0 128.628 18.8395 0 133.575 19.5641 0 138.522 20.2887 0 143.469 21.0133 0 148.417 21.7379 0 153.364 22.4625 0 158.311 23.1871 0 163.258 23.9117 0 168.205 24.6363 0 173.153 25.3609 0 178.1 26.0855 0 183.047 26.8101 0 187.994 27.5347 0 192.941 28.2593 0 197.889 28.9839 0 97.5684 21.9182 0 102.447 23.0142 0 107.325 24.1101 0 112.204 25.206 0 117.082 26.3019 0 121.96 27.3978 0 126.839 28.4937 0 131.717 29.5896 0 136.596 30.6855 0 141.474 31.7815 0 146.353 32.8774 0 151.231 33.9733 0 156.109 35.0692 0 160.988 36.1651 0 165.866 37.261 0 170.745 38.3569 0 175.623 39.4528 0 180.502 40.5488 0 185.38 41.6447 0 190.258 42.7406 0 195.137 43.8365 0 95.5863 29.3812 0 100.366 30.8503 0 105.145 32.3193 0 109.924 33.7884 0 114.704 35.2574 0 119.483 36.7265 0 124.262 38.1956 0 129.042 39.6646 0 133.821 41.1337 0 138.6 42.6027 0 143.379 44.0718 0 148.159 45.5409 0 152.938 47.0099 0 157.717 48.479 0 162.497 49.948 0 167.276 51.4171 0 172.055 52.8861 0 176.835 54.3552 0 181.614 55.8243 0 186.393 57.2933 0 191.173 58.7624 0 92.9788 36.8095 0 97.6278 38.6499 0 102.277 40.4904 0 106.926 42.3309 0 111.575 44.1714 0 116.224 46.0118 0 120.872 47.8523 0 125.521 49.6928 0 130.17 51.5333 0 134.819 53.3737 0 139.468 55.2142 0 144.117 57.0547 0 148.766 58.8952 0 153.415 60.7356 0 158.064 62.5761 0 162.713 64.4166 0 167.362 66.257 0 172.011 68.0975 0 176.66 69.938 0 181.309 71.7785 0 185.958 73.6189 0 89.7376 44.1267 0 94.2244 46.3331 0 98.7113 48.5394 0 103.198 50.7458 0 107.685 52.9521 0 112.172 55.1584 0 116.659 57.3648 0 121.146 59.5711 0 125.633 61.7774 0 130.119 63.9838 0 134.606 66.1901 0 139.093 68.3965 0 143.58 70.6028 0 148.067 72.8091 0 152.554 75.0155 0 157.041 77.2218 0 161.528 79.4281 0 166.014 81.6345 0 170.501 83.8408 0 174.988 86.0471 0 179.475 88.2535 0 85.8665 51.2538 0 90.1598 53.8165 0 94.4531 56.3791 0 98.7464 58.9418 0 103.04 61.5045 0 107.333 64.0672 0 111.626 66.6299 0 115.92 69.1926 0 120.213 71.7553 0 124.506 74.318 0 128.8 76.8806 0 133.093 79.4433 0 137.386 82.006 0 141.68 84.5687 0 145.973 87.1314 0 150.266 89.6941 0 154.56 92.2568 0 158.853 94.8195 0 163.146 97.3822 0 167.44 99.9448 0 171.733 102.508 0 81.3826 58.1109 0 85.4517 61.0164 0 89.5209 63.9219 0 93.59 66.8275 0 97.6591 69.733 0 101.728 72.6386 0 105.797 75.5441 0 109.867 78.4497 0 113.936 81.3552 0 118.005 84.2607 0 122.074 87.1663 0 126.143 90.0718 0 130.212 92.9774 0 134.281 95.8829 0 138.35 98.7885 0 142.42 101.694 0 146.489 104.6 0 150.558 107.505 0 154.627 110.411 0 158.696 113.316 0 162.765 116.222 0 76.3163 64.6206 0 80.1321 67.8517 0 83.9479 71.0827 0 87.7637 74.3137 0 91.5795 77.5447 0 95.3954 80.7758 0 99.2112 84.0068 0 103.027 87.2378 0 106.843 90.4689 0 110.659 93.6999 0 114.474 96.9309 0 118.29 100.162 0 122.106 103.393 0 125.922 106.624 0 129.738 109.855 0 133.553 113.086 0 137.369 116.317 0 141.185 119.548 0 145.001 122.779 0 148.817 126.01 0 152.633 129.241 0 70.7107 70.7107 0 74.2462 74.2462 0 77.7817 77.7817 0 81.3173 81.3173 0 84.8528 84.8528 0 88.3883 88.3883 0 91.9239 91.9239 0 95.4594 95.4594 0 98.9949 98.9949 0 102.53 102.53 0 106.066 106.066 0 109.602 109.602 0 113.137 113.137 0 116.673 116.673 0 120.208 120.208 0 123.744 123.744 0 127.279 127.279 0 130.815 130.815 0 134.35 134.35 0 137.886 137.886 0 141.421 141.421 0 64.6206 76.3163 0 67.8517 80.1321 0 71.0827 83.9479 0 74.3137 87.7637 0 77.5447 91.5795 0 80.7758 95.3954 0 84.0068 99.2112 0 87.2378 103.027 0 90.4689 106.843 0 93.6999 110.659 0 96.9309 114.474 0 100.162 118.29 0 103.393 122.106 0 106.624 125.922 0 109.855 129.738 0 113.086 133.553 0 116.317 137.369 0 119.548 141.185 0 122.779 145.001 0 126.01 148.817 0 129.241 152.633 0 58.1109 81.3826 0 61.0164 85.4517 0 63.9219 89.5209 0 66.8275 93.59 0 69.733 97.6591 0 72.6386 101.728 0 75.5441 105.797 0 78.4497 109.867 0 81.3552 113.936 0 84.2607 118.005 0 87.1663 122.074 0 90.0718 126.143 0 92.9774 130.212 0 95.8829 134.281 0 98.7885 138.35 0 101.694 142.42 0 104.6 146.489 0 107.505 150.558 0 110.411 154.627 0 113.316 158.696 0 116.222 162.765 0 51.2538 85.8665 0 53.8165 90.1598 0 56.3791 94.4531 0 58.9418 98.7464 0 61.5045 103.04 0 64.0672 107.333 0 66.6299 111.626 0 69.1926 115.92 0 71.7553 120.213 0 74.318 124.506 0 76.8806 128.8 0 79.4433 133.093 0 82.006 137.386 0 84.5687 141.68 0 87.1314 145.973 0 89.6941 150.266 0 92.2568 154.56 0 94.8195 158.853 0 97.3822 163.146 0 99.9448 167.44 0 102.508 171.733 0 44.1267 89.7376 0 46.3331 94.2244 0 48.5394 98.7113 0 50.7458 103.198 0 52.9521 107.685 0 55.1584 112.172 0 57.3648 116.659 0 59.5711 121.146 0 61.7774 125.633 0 63.9838 130.119 0 66.1901 134.606 0 68.3965 139.093 0 70.6028 143.58 0 72.8091 148.067 0 75.0155 152.554 0 77.2218 157.041 0 79.4281 161.528 0 81.6345 166.014 0 83.8408 170.501 0 86.0471 174.988 0 88.2535 179.475 0 36.8095 92.9788 0 38.6499 97.6278 0 40.4904 102.277 0 42.3309 106.926 0 44.1714 111.575 0 46.0118 116.224 0 47.8523 120.872 0 49.6928 125.521 0 51.5333 130.17 0 53.3737 134.819 0 55.2142 139.468 0 57.0547 144.117 0 58.8952 148.766 0 60.7356 153.415 0 62.5761 158.064 0 64.4166 162.713 0 66.257 167.362 0 68.0975 172.011 0 69.938 176.66 0 71.7785 181.309 0 73.6189 185.958 0 29.3812 95.5863 0 30.8503 100.366 0 32.3193 105.145 0 33.7884 109.924 0 35.2574 114.704 0 36.7265 119.483 0 38.1956 124.262 0 39.6646 129.042 0 41.1337 133.821 0 42.6027 138.6 0 44.0718 143.379 0 45.5409 148.159 0 47.0099 152.938 0 48.479 157.717 0 49.948 162.497 0 51.4171 167.276 0 52.8861 172.055 0 54.3552 176.835 0 55.8243 181.614 0 57.2933 186.393 0 58.7624 191.173 0 21.9182 97.5684 0 23.0142 102.447 0 24.1101 107.325 0 25.206 112.204 0 26.3019 117.082 0 27.3978 121.96 0 28.4937 126.839 0 29.5896 131.717 0 30.6855 136.596 0 31.7815 141.474 0 32.8774 146.353 0 33.9733 151.231 0 35.0692 156.109 0 36.1651 160.988 0 37.261 165.866 0 38.3569 170.745 0 39.4528 175.623 0 40.5488 180.502 0 41.6447 185.38 0 42.7406 190.258 0 43.8365 195.137 0 14.4919 98.9443 0 15.2165 103.892 0 15.9411 108.839 0 16.6657 113.786 0 17.3903 118.733 0 18.1149 123.68 0 18.8395 128.628 0 19.5641 133.575 0 20.2887 138.522 0 21.0133 143.469 0 21.7379 148.417 0 22.4625 153.364 0 23.1871 158.311 0 23.9117 163.258 0 24.6363 168.205 0 25.3609 173.153 0 26.0855 178.1 0 26.8101 183.047 0 27.5347 187.994 0 28.2593 192.941 0 28.9839 197.889 0 7.16693 99.7428 0 7.52528 104.73 0 7.88363 109.717 0 8.24197 114.704 0 8.60032 119.691 0 8.95867 124.679 0 9.31701 129.666 0 9.67536 134.653 0 10.0337 139.64 0 10.3921 144.627 0 10.7504 149.614 0 11.1087 154.601 0 11.4671 159.589 0 11.8254 164.576 0 12.1838 169.563 0 12.5421 174.55 0 12.9005 179.537 0 13.2588 184.524 0 13.6172 189.511 0 13.9755 194.499 0 14.3339 199.486 0 0 100 0 0 105 0 0 110 0 0 115 0 0 120 0 0 125 0 0 130 0 0 135 0 0 140 0 0 145 0 0 150 0 0 155 0 0 160 0 0 165 0 0 170 0 0 175 0 0 180 0 0 185 0 0 190 0 0 195 0 0 200 0 
</DataArray>
</Points> 
</Piece> 
</StructuredGrid> 
</VTKFile> 
