<?xml version="1.0"?> 
<VTKFile type="StructuredGrid" version="0.1"> 
<StructuredGrid WholeExtent="0 20 0 20 0 0"> 
<Piece Extent="0 20 0 20 0 0"> 
<PointData>
<DataArray type="Float32" Name="displacement" format="ascii" NumberOfComponents="3"> 
0.367292 0 0 0.348608 0 0 0.331924 0 0 0.31701 0 0 0.303634 0 0 0.291637 0 0 0.280855 0 0 0.271168 0 0 0.262457 0 0 0.254631 0 0 0.247599 0 0 0.241292 0 0 0.235639 0 0 0.230586 0 0 0.226078 0 0 0.222074 0 0 0.218532 0 0 0.215398 0 0 0.212618 0 0 0.210108 0 0 0.207785 0 0 0.366347 0.0263236 0 0.347712 0.0249845 0 0.331071 0.0237888 0 0.316194 0.0227199 0 0.302854 0.0217613 0 0.290887 0.0209014 0 0.280133 0.0201286 0 0.270471 0.0194344 0 0.261782 0.0188101 0 0.253976 0.0182492 0 0.246963 0.0177453 0 0.240672 0.0172932 0 0.235033 0.0168881 0 0.229993 0.0165259 0 0.225497 0.0162028 0 0.221503 0.0159159 0 0.21797 0.015662 0 0.214844 0.0154374 0 0.212071 0.0152382 0 0.209568 0.0150583 0 0.20725 0.0148918 0 0.363415 0.0532277 0 0.344928 0.0505201 0 0.32842 0.0481023 0 0.313663 0.0459409 0 0.300429 0.0440025 0 0.288558 0.0422638 0 0.27789 0.0407013 0 0.268306 0.0392975 0 0.259687 0.0380351 0 0.251943 0.036901 0 0.244986 0.0358819 0 0.238745 0.0349679 0 0.233152 0.0341487 0 0.228152 0.0334164 0 0.223691 0.0327631 0 0.219729 0.0321828 0 0.216225 0.0316695 0 0.213124 0.0312153 0 0.210374 0.0308125 0 0.20789 0.0304488 0 0.205591 0.030112 0 0.358361 0.0805039 0 0.340131 0.0764088 0 0.323853 0.0727519 0 0.309301 0.0694829 0 0.296251 0.0665513 0 0.284545 0.0639216 0 0.274025 0.0615584 0 0.264575 0.0594353 0 0.256075 0.057526 0 0.24844 0.0558106 0 0.241579 0.0542694 0 0.235425 0.0528869 0 0.229909 0.0516479 0 0.224979 0.0505404 0 0.220581 0.0495523 0 0.216674 0.0486746 0 0.213218 0.0478983 0 0.21016 0.0472114 0 0.207448 0.0466021 0 0.204999 0.0460521 0 0.202732 0.0455427 0 0.351081 0.107915 0 0.333222 0.102425 0 0.317274 0.0975233 0 0.303018 0.0931412 0 0.290233 0.0892114 0 0.278765 0.0856863 0 0.268459 0.0825184 0 0.2592 0.0796724 0 0.250873 0.077113 0 0.243393 0.0748136 0 0.236671 0.0727476 0 0.230642 0.0708944 0 0.225239 0.0692335 0 0.220409 0.0677489 0 0.2161 0.0664244 0 0.212272 0.0652479 0 0.208886 0.0642072 0 0.205891 0.0632864 0 0.203234 0.0624697 0 0.200835 0.0617323 0 0.198614 0.0610496 0 0.341504 0.135198 0 0.324132 0.128321 0 0.308619 0.12218 0 0.294752 0.11669 0 0.282316 0.111766 0 0.27116 0.10735 0 0.261136 0.103381 0 0.252129 0.0998155 0 0.24403 0.0966091 0 0.236753 0.0937283 0 0.230215 0.0911399 0 0.224351 0.0888182 0 0.219094 0.0867374 0 0.214396 0.0848774 0 0.210205 0.0832181 0 0.206482 0.0817441 0 0.203188 0.0804403 0 0.200274 0.0792867 0 0.19769 0.0782635 0 0.195356 0.0773397 0 0.193196 0.0764844 0 0.329599 0.162074 0 0.312833 0.153829 0 0.297861 0.146467 0 0.284477 0.139886 0 0.272474 0.133984 0 0.261708 0.12869 0 0.252032 0.123932 0 0.24334 0.119658 0 0.235523 0.115814 0 0.2285 0.11236 0 0.22219 0.109257 0 0.21653 0.106474 0 0.211457 0.10398 0 0.206922 0.10175 0 0.202877 0.0997608 0 0.199284 0.0979938 0 0.196105 0.0964308 0 0.193293 0.095048 0 0.190798 0.0938214 0 0.188546 0.0927139 0 0.186461 0.0916886 0 0.315381 0.188251 0 0.299338 0.178675 0 0.285012 0.170124 0 0.272205 0.162479 0 0.26072 0.155624 0 0.250418 0.149475 0 0.24116 0.143949 0 0.232843 0.138984 0 0.225363 0.134519 0 0.218643 0.130508 0 0.212605 0.126904 0 0.207189 0.123671 0 0.202335 0.120774 0 0.197996 0.118184 0 0.194125 0.115873 0 0.190687 0.113821 0 0.187645 0.112006 0 0.184954 0.110399 0 0.182568 0.108975 0 0.180413 0.107688 0 0.178417 0.106497 0 0.298912 0.213437 0 0.283707 0.202579 0 0.270129 0.192884 0 0.257991 0.184217 0 0.247106 0.176445 0 0.237342 0.169473 0 0.228567 0.163207 0 0.220684 0.157578 0 0.213595 0.152516 0 0.207225 0.147968 0 0.201503 0.143882 0 0.19637 0.140217 0 0.191769 0.136932 0 0.187657 0.133995 0 0.183988 0.131376 0 0.180729 0.129049 0 0.177847 0.126991 0 0.175296 0.125169 0 0.173034 0.123554 0 0.170992 0.122096 0 0.1691 0.120745 0 0.280304 0.237346 0 0.266045 0.225273 0 0.253312 0.214492 0 0.24193 0.204854 0 0.231723 0.19621 0 0.222566 0.188457 0 0.214338 0.18149 0 0.206946 0.175231 0 0.200298 0.169601 0 0.194325 0.164544 0 0.188959 0.16 0 0.184145 0.155924 0 0.179831 0.152271 0 0.175975 0.149006 0 0.172534 0.146093 0 0.169478 0.143505 0 0.166775 0.141216 0 0.164383 0.139191 0 0.162262 0.137395 0 0.160347 0.135773 0 0.158573 0.134272 0 0.259715 0.259715 0 0.246503 0.246503 0 0.234706 0.234706 0 0.22416 0.22416 0 0.214702 0.214702 0 0.206218 0.206218 0 0.198594 0.198594 0 0.191745 0.191745 0 0.185585 0.185585 0 0.180051 0.180051 0 0.175079 0.175079 0 0.170619 0.170619 0 0.166622 0.166622 0 0.163049 0.163049 0 0.159861 0.159861 0 0.15703 0.15703 0 0.154525 0.154525 0 0.152309 0.152309 0 0.150344 0.150344 0 0.148569 0.148569 0 0.146926 0.146926 0 0.237346 0.280304 0 0.225273 0.266045 0 0.214492 0.253312 0 0.204854 0.24193 0 0.19621 0.231723 0 0.188457 0.222566 0 0.18149 0.214338 0 0.175231 0.206946 0 0.169601 0.200298 0 0.164544 0.194325 0 0.16 0.188959 0 0.155924 0.184145 0 0.152271 0.179831 0 0.149006 0.175975 0 0.146093 0.172534 0 0.143505 0.169478 0 0.141216 0.166775 0 0.139191 0.164383 0 0.137395 0.162262 0 0.135773 0.160347 0 0.134272 0.158573 0 0.213437 0.298912 0 0.202579 0.283707 0 0.192884 0.270129 0 0.184217 0.257991 0 0.176445 0.247106 0 0.169473 0.237342 0 0.163207 0.228567 0 0.157578 0.220684 0 0.152516 0.213595 0 0.147968 0.207225 0 0.143882 0.201503 0 0.140217 0.19637 0 0.136932 0.191769 0 0.133995 0.187657 0 0.131376 0.183988 0 0.129049 0.180729 0 0.126991 0.177847 0 0.125169 0.175296 0 0.123554 0.173034 0 0.122096 0.170992 0 0.120745 0.1691 0 0.188251 0.315381 0 0.178675 0.299338 0 0.170124 0.285012 0 0.162479 0.272205 0 0.155624 0.26072 0 0.149475 0.250418 0 0.143949 0.24116 0 0.138984 0.232843 0 0.134519 0.225363 0 0.130508 0.218643 0 0.126904 0.212605 0 0.123671 0.207189 0 0.120774 0.202335 0 0.118184 0.197996 0 0.115873 0.194125 0 0.113821 0.190687 0 0.112006 0.187645 0 0.110399 0.184954 0 0.108975 0.182568 0 0.107688 0.180413 0 0.106497 0.178417 0 0.162074 0.329599 0 0.153829 0.312833 0 0.146467 0.297861 0 0.139886 0.284477 0 0.133984 0.272474 0 0.12869 0.261708 0 0.123932 0.252032 0 0.119658 0.24334 0 0.115814 0.235523 0 0.11236 0.2285 0 0.109257 0.22219 0 0.106474 0.21653 0 0.10398 0.211457 0 0.10175 0.206922 0 0.0997608 0.202877 0 0.0979938 0.199284 0 0.0964308 0.196105 0 0.095048 0.193293 0 0.0938214 0.190798 0 0.0927139 0.188546 0 0.0916886 0.186461 0 0.135198 0.341504 0 0.128321 0.324132 0 0.12218 0.308619 0 0.11669 0.294752 0 0.111766 0.282316 0 0.10735 0.27116 0 0.103381 0.261136 0 0.0998155 0.252129 0 0.0966091 0.24403 0 0.0937283 0.236753 0 0.0911399 0.230215 0 0.0888182 0.224351 0 0.0867374 0.219094 0 0.0848774 0.214396 0 0.0832181 0.210205 0 0.0817441 0.206482 0 0.0804403 0.203188 0 0.0792867 0.200274 0 0.0782635 0.19769 0 0.0773397 0.195356 0 0.0764844 0.193196 0 0.107915 0.351081 0 0.102425 0.333222 0 0.0975233 0.317274 0 0.0931412 0.303018 0 0.0892114 0.290233 0 0.0856863 0.278765 0 0.0825184 0.268459 0 0.0796724 0.2592 0 0.077113 0.250873 0 0.0748136 0.243393 0 0.0727476 0.236671 0 0.0708944 0.230642 0 0.0692335 0.225239 0 0.0677489 0.220409 0 0.0664244 0.2161 0 0.0652479 0.212272 0 0.0642072 0.208886 0 0.0632864 0.205891 0 0.0624697 0.203234 0 0.0617323 0.200835 0 0.0610496 0.198614 0 0.0805039 0.358361 0 0.0764088 0.340131 0 0.0727519 0.323853 0 0.0694829 0.309301 0 0.0665513 0.296251 0 0.0639216 0.284545 0 0.0615584 0.274025 0 0.0594353 0.264575 0 0.057526 0.256075 0 0.0558106 0.24844 0 0.0542694 0.241579 0 0.0528869 0.235425 0 0.0516479 0.229909 0 0.0505404 0.224979 0 0.0495523 0.220581 0 0.0486746 0.216674 0 0.0478983 0.213218 0 0.0472114 0.21016 0 0.0466021 0.207448 0 0.0460521 0.204999 0 0.0455427 0.202732 0 0.0532277 0.363415 0 0.0505201 0.344928 0 0.0481023 0.32842 0 0.0459409 0.313663 0 0.0440025 0.300429 0 0.0422638 0.288558 0 0.0407013 0.27789 0 0.0392975 0.268306 0 0.0380351 0.259687 0 0.036901 0.251943 0 0.0358819 0.244986 0 0.0349679 0.238745 0 0.0341487 0.233152 0 0.0334164 0.228152 0 0.0327631 0.223691 0 0.0321828 0.219729 0 0.0316695 0.216225 0 0.0312153 0.213124 0 0.0308125 0.210374 0 0.0304488 0.20789 0 0.030112 0.205591 0 0.0263236 0.366347 0 0.0249845 0.347712 0 0.0237888 0.331071 0 0.0227199 0.316194 0 0.0217613 0.302854 0 0.0209014 0.290887 0 0.0201286 0.280133 0 0.0194344 0.270471 0 0.0188101 0.261782 0 0.0182492 0.253976 0 0.0177453 0.246963 0 0.0172932 0.240672 0 0.0168881 0.235033 0 0.0165259 0.229993 0 0.0162028 0.225497 0 0.0159159 0.221503 0 0.015662 0.21797 0 0.0154374 0.214844 0 0.0152382 0.212071 0 0.0150583 0.209568 0 0.0148918 0.20725 0 0 0.367292 0 0 0.348608 0 0 0.331924 0 0 0.31701 0 0 0.303634 0 0 0.291637 0 0 0.280855 0 0 0.271168 0 0 0.262457 0 0 0.254631 0 0 0.247599 0 0 0.241292 0 0 0.235639 0 0 0.230586 0 0 0.226078 0 0 0.222074 0 0 0.218532 0 0 0.215398 0 0 0.212618 0 0 0.210108 0 0 0.207785 0 </DataArray> 
</PointData> 
<Points> 
<DataArray type="Float32" NumberOfComponents="3"> 
100 0 0 105 0 0 110 0 0 115 0 0 120 0 0 125 0 0 130 0 0 135 0 0 140 0 0 145 0 0 150 0 0 155 0 0 160 0 0 165 0 0 170 0 0 175 0 0 180 0 0 185 0 0 190 0 0 195 0 0 200 0 0 99.7428 7.16693 0 104.73 7.52528 0 109.717 7.88363 0 114.704 8.24197 0 119.691 8.60032 0 124.679 8.95867 0 129.666 9.31701 0 134.653 9.67536 0 139.64 10.0337 0 144.627 10.3921 0 149.614 10.7504 0 154.601 11.1087 0 159.589 11.4671 0 164.576 11.8254 0 169.563 12.1838 0 174.55 12.5421 0 179.537 12.9005 0 184.524 13.2588 0 189.511 13.6172 0 194.499 13.9755 0 199.486 14.3339 0 98.9443 14.4919 0 103.892 15.2165 0 108.839 15.9411 0 113.786 16.6657 0 118.733 17.3903 0 123.68 18.1149 0 128.628 18.8395 0 133.575 19.5641 0 138.522 20.2887 0 143.469 21.0133 0 148.417 21.7379 0 153.364 22.4625 0 158.311 23.1871 0 163.258 23.9117 0 168.205 24.6363 0 173.153 25.3609 0 178.1 26.0855 0 183.047 26.8101 0 187.994 27.5347 0 192.941 28.2593 0 197.889 28.9839 0 97.5684 21.9182 0 102.447 23.0142 0 107.325 24.1101 0 112.204 25.206 0 117.082 26.3019 0 121.96 27.3978 0 126.839 28.4937 0 131.717 29.5896 0 136.596 30.6855 0 141.474 31.7815 0 146.353 32.8774 0 151.231 33.9733 0 156.109 35.0692 0 160.988 36.1651 0 165.866 37.261 0 170.745 38.3569 0 175.623 39.4528 0 180.502 40.5488 0 185.38 41.6447 0 190.258 42.7406 0 195.137 43.8365 0 95.5863 29.3812 0 100.366 30.8503 0 105.145 32.3193 0 109.924 33.7884 0 114.704 35.2574 0 119.483 36.7265 0 124.262 38.1956 0 129.042 39.6646 0 133.821 41.1337 0 138.6 42.6027 0 143.379 44.0718 0 148.159 45.5409 0 152.938 47.0099 0 157.717 48.479 0 162.497 49.948 0 167.276 51.4171 0 172.055 52.8861 0 176.835 54.3552 0 181.614 55.8243 0 186.393 57.2933 0 191.173 58.7624 0 92.9788 36.8095 0 97.6278 38.6499 0 102.277 40.4904 0 106.926 42.3309 0 111.575 44.1714 0 116.224 46.0118 0 120.872 47.8523 0 125.521 49.6928 0 130.17 51.5333 0 134.819 53.3737 0 139.468 55.2142 0 144.117 57.0547 0 148.766 58.8952 0 153.415 60.7356 0 158.064 62.5761 0 162.713 64.4166 0 167.362 66.257 0 172.011 68.0975 0 176.66 69.938 0 181.309 71.7785 0 185.958 73.6189 0 89.7376 44.1267 0 94.2244 46.3331 0 98.7113 48.5394 0 103.198 50.7458 0 107.685 52.9521 0 112.172 55.1584 0 116.659 57.3648 0 121.146 59.5711 0 125.633 61.7774 0 130.119 63.9838 0 134.606 66.1901 0 139.093 68.3965 0 143.58 70.6028 0 148.067 72.8091 0 152.554 75.0155 0 157.041 77.2218 0 161.528 79.4281 0 166.014 81.6345 0 170.501 83.8408 0 174.988 86.0471 0 179.475 88.2535 0 85.8665 51.2538 0 90.1598 53.8165 0 94.4531 56.3791 0 98.7464 58.9418 0 103.04 61.5045 0 107.333 64.0672 0 111.626 66.6299 0 115.92 69.1926 0 120.213 71.7553 0 124.506 74.318 0 128.8 76.8806 0 133.093 79.4433 0 137.386 82.006 0 141.68 84.5687 0 145.973 87.1314 0 150.266 89.6941 0 154.56 92.2568 0 158.853 94.8195 0 163.146 97.3822 0 167.44 99.9448 0 171.733 102.508 0 81.3826 58.1109 0 85.4517 61.0164 0 89.5209 63.9219 0 93.59 66.8275 0 97.6591 69.733 0 101.728 72.6386 0 105.797 75.5441 0 109.867 78.4497 0 113.936 81.3552 0 118.005 84.2607 0 122.074 87.1663 0 126.143 90.0718 0 130.212 92.9774 0 134.281 95.8829 0 138.35 98.7885 0 142.42 101.694 0 146.489 104.6 0 150.558 107.505 0 154.627 110.411 0 158.696 113.316 0 162.765 116.222 0 76.3163 64.6206 0 80.1321 67.8517 0 83.9479 71.0827 0 87.7637 74.3137 0 91.5795 77.5447 0 95.3954 80.7758 0 99.2112 84.0068 0 103.027 87.2378 0 106.843 90.4689 0 110.659 93.6999 0 114.474 96.9309 0 118.29 100.162 0 122.106 103.393 0 125.922 106.624 0 129.738 109.855 0 133.553 113.086 0 137.369 116.317 0 141.185 119.548 0 145.001 122.779 0 148.817 126.01 0 152.633 129.241 0 70.7107 70.7107 0 74.2462 74.2462 0 77.7817 77.7817 0 81.3173 81.3173 0 84.8528 84.8528 0 88.3883 88.3883 0 91.9239 91.9239 0 95.4594 95.4594 0 98.9949 98.9949 0 102.53 102.53 0 106.066 106.066 0 109.602 109.602 0 113.137 113.137 0 116.673 116.673 0 120.208 120.208 0 123.744 123.744 0 127.279 127.279 0 130.815 130.815 0 134.35 134.35 0 137.886 137.886 0 141.421 141.421 0 64.6206 76.3163 0 67.8517 80.1321 0 71.0827 83.9479 0 74.3137 87.7637 0 77.5447 91.5795 0 80.7758 95.3954 0 84.0068 99.2112 0 87.2378 103.027 0 90.4689 106.843 0 93.6999 110.659 0 96.9309 114.474 0 100.162 118.29 0 103.393 122.106 0 106.624 125.922 0 109.855 129.738 0 113.086 133.553 0 116.317 137.369 0 119.548 141.185 0 122.779 145.001 0 126.01 148.817 0 129.241 152.633 0 58.1109 81.3826 0 61.0164 85.4517 0 63.9219 89.5209 0 66.8275 93.59 0 69.733 97.6591 0 72.6386 101.728 0 75.5441 105.797 0 78.4497 109.867 0 81.3552 113.936 0 84.2607 118.005 0 87.1663 122.074 0 90.0718 126.143 0 92.9774 130.212 0 95.8829 134.281 0 98.7885 138.35 0 101.694 142.42 0 104.6 146.489 0 107.505 150.558 0 110.411 154.627 0 113.316 158.696 0 116.222 162.765 0 51.2538 85.8665 0 53.8165 90.1598 0 56.3791 94.4531 0 58.9418 98.7464 0 61.5045 103.04 0 64.0672 107.333 0 66.6299 111.626 0 69.1926 115.92 0 71.7553 120.213 0 74.318 124.506 0 76.8806 128.8 0 79.4433 133.093 0 82.006 137.386 0 84.5687 141.68 0 87.1314 145.973 0 89.6941 150.266 0 92.2568 154.56 0 94.8195 158.853 0 97.3822 163.146 0 99.9448 167.44 0 102.508 171.733 0 44.1267 89.7376 0 46.3331 94.2244 0 48.5394 98.7113 0 50.7458 103.198 0 52.9521 107.685 0 55.1584 112.172 0 57.3648 116.659 0 59.5711 121.146 0 61.7774 125.633 0 63.9838 130.119 0 66.1901 134.606 0 68.3965 139.093 0 70.6028 143.58 0 72.8091 148.067 0 75.0155 152.554 0 77.2218 157.041 0 79.4281 161.528 0 81.6345 166.014 0 83.8408 170.501 0 86.0471 174.988 0 88.2535 179.475 0 36.8095 92.9788 0 38.6499 97.6278 0 40.4904 102.277 0 42.3309 106.926 0 44.1714 111.575 0 46.0118 116.224 0 47.8523 120.872 0 49.6928 125.521 0 51.5333 130.17 0 53.3737 134.819 0 55.2142 139.468 0 57.0547 144.117 0 58.8952 148.766 0 60.7356 153.415 0 62.5761 158.064 0 64.4166 162.713 0 66.257 167.362 0 68.0975 172.011 0 69.938 176.66 0 71.7785 181.309 0 73.6189 185.958 0 29.3812 95.5863 0 30.8503 100.366 0 32.3193 105.145 0 33.7884 109.924 0 35.2574 114.704 0 36.7265 119.483 0 38.1956 124.262 0 39.6646 129.042 0 41.1337 133.821 0 42.6027 138.6 0 44.0718 143.379 0 45.5409 148.159 0 47.0099 152.938 0 48.479 157.717 0 49.948 162.497 0 51.4171 167.276 0 52.8861 172.055 0 54.3552 176.835 0 55.8243 181.614 0 57.2933 186.393 0 58.7624 191.173 0 21.9182 97.5684 0 23.0142 102.447 0 24.1101 107.325 0 25.206 112.204 0 26.3019 117.082 0 27.3978 121.96 0 28.4937 126.839 0 29.5896 131.717 0 30.6855 136.596 0 31.7815 141.474 0 32.8774 146.353 0 33.9733 151.231 0 35.0692 156.109 0 36.1651 160.988 0 37.261 165.866 0 38.3569 170.745 0 39.4528 175.623 0 40.5488 180.502 0 41.6447 185.38 0 42.7406 190.258 0 43.8365 195.137 0 14.4919 98.9443 0 15.2165 103.892 0 15.9411 108.839 0 16.6657 113.786 0 17.3903 118.733 0 18.1149 123.68 0 18.8395 128.628 0 19.5641 133.575 0 20.2887 138.522 0 21.0133 143.469 0 21.7379 148.417 0 22.4625 153.364 0 23.1871 158.311 0 23.9117 163.258 0 24.6363 168.205 0 25.3609 173.153 0 26.0855 178.1 0 26.8101 183.047 0 27.5347 187.994 0 28.2593 192.941 0 28.9839 197.889 0 7.16693 99.7428 0 7.52528 104.73 0 7.88363 109.717 0 8.24197 114.704 0 8.60032 119.691 0 8.95867 124.679 0 9.31701 129.666 0 9.67536 134.653 0 10.0337 139.64 0 10.3921 144.627 0 10.7504 149.614 0 11.1087 154.601 0 11.4671 159.589 0 11.8254 164.576 0 12.1838 169.563 0 12.5421 174.55 0 12.9005 179.537 0 13.2588 184.524 0 13.6172 189.511 0 13.9755 194.499 0 14.3339 199.486 0 0 100 0 0 105 0 0 110 0 0 115 0 0 120 0 0 125 0 0 130 0 0 135 0 0 140 0 0 145 0 0 150 0 0 155 0 0 160 0 0 165 0 0 170 0 0 175 0 0 180 0 0 185 0 0 190 0 0 195 0 0 200 0 
</DataArray>
</Points> 
</Piece> 
</StructuredGrid> 
</VTKFile> 
