<?xml version="1.0"?> 
<VTKFile type="StructuredGrid" version="0.1"> 
<StructuredGrid WholeExtent="0 20 0 20 0 20"> 
<Piece Extent="0 20 0 20 0 20"> 
<PointData>
<DataArray type="Float32" Name="displacement" format="ascii" NumberOfComponents="3"> 
0.441559 0 0 0.396887 0 0 0.357538 0 0 0.323512 0 0 0.294808 0 0 0.270144 0 0 0.248234 0 0 0.229079 0 0 0.21268 0 0 0.198467 0 0 0.185874 0 0 0.1749 0 0 0.165545 0 0 0.15753 0 0 0.150574 0 0 0.144679 0 0 0.139843 0 0 0.135755 0 0 0.132101 0 0 0.128882 0 0 0.126097 0 0 0.440423 0.0316463 0 0.395867 0.0284447 0 0.356619 0.0256246 0 0.32268 0.023186 0 0.29405 0.0211288 0 0.269449 0.019361 0 0.247596 0.0177908 0 0.22849 0.016418 0 0.212133 0.0152426 0 0.197957 0.014224 0 0.185396 0.0133215 0 0.17445 0.012535 0 0.165119 0.0118645 0 0.157125 0.01129 0 0.150187 0.0107915 0 0.144307 0.010369 0 0.139484 0.0100224 0 0.135406 0.00972941 0 0.131761 0.00946755 0 0.12855 0.00923683 0 0.125773 0.00903725 0 0.436897 0.0639906 0 0.392697 0.0575168 0 0.353764 0.0518144 0 0.320097 0.0468833 0 0.291696 0.0427236 0 0.267292 0.0391491 0 0.245613 0.035974 0 0.226661 0.0331981 0 0.210435 0.0308215 0 0.196372 0.0287618 0 0.183912 0.0269368 0 0.173054 0.0253464 0 0.163798 0.0239907 0 0.155867 0.0228291 0 0.148985 0.0218211 0 0.143151 0.0209667 0 0.138367 0.0202659 0 0.134322 0.0196734 0 0.130707 0.0191439 0 0.127521 0.0186774 0 0.124766 0.0182739 0 0.430822 0.0967821 0 0.387236 0.0869909 0 0.348844 0.0783663 0 0.315646 0.0709083 0 0.28764 0.064617 0 0.263575 0.0592109 0 0.242198 0.0544086 0 0.223509 0.0502102 0 0.207508 0.0466157 0 0.193642 0.0435006 0 0.181355 0.0407404 0 0.170647 0.038335 0 0.16152 0.0362846 0 0.153699 0.0345277 0 0.146913 0.0330032 0 0.141161 0.031711 0 0.136443 0.0306511 0 0.132454 0.029755 0 0.128889 0.0289541 0 0.125748 0.0282485 0 0.123031 0.0276382 0 0.42207 0.129735 0 0.37937 0.11661 0 0.341758 0.105049 0 0.309233 0.0950519 0 0.281797 0.0866184 0 0.25822 0.0793716 0 0.237278 0.0729342 0 0.218969 0.0673063 0 0.203293 0.062488 0 0.189708 0.0583122 0 0.177671 0.0546121 0 0.167181 0.0513878 0 0.158239 0.0486392 0 0.150577 0.0462841 0 0.143928 0.0442405 0 0.138293 0.0425083 0 0.133671 0.0410875 0 0.129763 0.0398863 0 0.126271 0.0388128 0 0.123193 0.0378669 0 0.120532 0.0370487 0 0.410556 0.162536 0 0.369021 0.146092 0 0.332435 0.131608 0 0.300798 0.119083 0 0.27411 0.108518 0 0.251177 0.0994386 0 0.230805 0.0913738 0 0.212995 0.084323 0 0.197747 0.0782865 0 0.184533 0.073055 0 0.172824 0.0684194 0 0.16262 0.0643799 0 0.153922 0.0609364 0 0.146469 0.0579859 0 0.140002 0.0554256 0 0.134521 0.0532555 0 0.130025 0.0514755 0 0.126223 0.0499706 0 0.122826 0.0486256 0 0.119833 0.0474406 0 0.117244 0.0464156 0 0.396244 0.194846 0 0.356157 0.175134 0 0.320846 0.15777 0 0.290312 0.142756 0 0.264554 0.13009 0 0.24242 0.119206 0 0.222759 0.109538 0 0.20557 0.101085 0 0.190854 0.0938489 0 0.1781 0.0875774 0 0.166799 0.0820204 0 0.156951 0.0771779 0 0.148556 0.0730498 0 0.141364 0.0695128 0 0.135122 0.0664436 0 0.129831 0.063842 0 0.125492 0.0617082 0 0.121823 0.0599042 0 0.118544 0.0582919 0 0.115656 0.0568713 0 0.113157 0.0556425 0 0.379151 0.226316 0 0.340793 0.20342 0 0.307006 0.183252 0 0.277789 0.165812 0 0.253142 0.151101 0 0.231963 0.138459 0 0.21315 0.127229 0 0.196703 0.117412 0 0.182621 0.109007 0 0.170417 0.101722 0 0.159604 0.0952677 0 0.150181 0.0896431 0 0.142148 0.0848483 0 0.135265 0.08074 0 0.129293 0.0771751 0 0.124231 0.0741534 0 0.120079 0.0716749 0 0.116568 0.0695795 0 0.113431 0.0677068 0 0.110666 0.0660568 0 0.108275 0.0646295 0 0.359352 0.256594 0 0.322997 0.230635 0 0.290974 0.207769 0 0.263283 0.187996 0 0.239923 0.171316 0 0.21985 0.156983 0 0.202019 0.144251 0 0.186431 0.13312 0 0.173085 0.12359 0 0.161518 0.115331 0 0.15127 0.108013 0 0.142339 0.101636 0 0.134725 0.0961999 0 0.128202 0.0915421 0 0.122541 0.0875001 0 0.117744 0.0840742 0 0.113808 0.0812642 0 0.110481 0.0788884 0 0.107507 0.0767651 0 0.104888 0.0748944 0 0.102621 0.0732762 0 0.336981 0.285338 0 0.30289 0.256471 0 0.27286 0.231044 0 0.246893 0.209056 0 0.224987 0.190507 0 0.206164 0.174569 0 0.189443 0.160411 0 0.174825 0.148033 0 0.16231 0.137435 0 0.151463 0.128251 0 0.141853 0.120113 0 0.133478 0.113022 0 0.126338 0.106977 0 0.120221 0.101797 0 0.114913 0.0973022 0 0.110414 0.0934925 0 0.106723 0.0903677 0 0.103603 0.0877257 0 0.100815 0.0853646 0 0.098358 0.0832843 0 0.0962328 0.0814848 0 0.312229 0.312229 0 0.280642 0.280642 0 0.252818 0.252818 0 0.228758 0.228758 0 0.208461 0.208461 0 0.191021 0.191021 0 0.175528 0.175528 0 0.161984 0.161984 0 0.150388 0.150388 0 0.140338 0.140338 0 0.131433 0.131433 0 0.123673 0.123673 0 0.117058 0.117058 0 0.111391 0.111391 0 0.106472 0.106472 0 0.102304 0.102304 0 0.0988842 0.0988842 0 0.0959933 0.0959933 0 0.0934097 0.0934097 0 0.0911333 0.0911333 0 0.0891643 0.0891643 0 0.285338 0.336981 0 0.256471 0.30289 0 0.231044 0.27286 0 0.209056 0.246893 0 0.190507 0.224987 0 0.174569 0.206164 0 0.160411 0.189443 0 0.148033 0.174825 0 0.137435 0.16231 0 0.128251 0.151463 0 0.120113 0.141853 0 0.113022 0.133478 0 0.106977 0.126338 0 0.101797 0.120221 0 0.0973022 0.114913 0 0.0934925 0.110414 0 0.0903677 0.106723 0 0.0877257 0.103603 0 0.0853646 0.100815 0 0.0832843 0.098358 0 0.0814848 0.0962328 0 0.256594 0.359352 0 0.230635 0.322997 0 0.207769 0.290974 0 0.187996 0.263283 0 0.171316 0.239923 0 0.156983 0.21985 0 0.144251 0.202019 0 0.13312 0.186431 0 0.12359 0.173085 0 0.115331 0.161518 0 0.108013 0.15127 0 0.101636 0.142339 0 0.0961999 0.134725 0 0.0915421 0.128202 0 0.0875001 0.122541 0 0.0840742 0.117744 0 0.0812642 0.113808 0 0.0788884 0.110481 0 0.0767651 0.107507 0 0.0748944 0.104888 0 0.0732762 0.102621 0 0.226316 0.379151 0 0.20342 0.340793 0 0.183252 0.307006 0 0.165812 0.277789 0 0.151101 0.253142 0 0.138459 0.231963 0 0.127229 0.21315 0 0.117412 0.196703 0 0.109007 0.182621 0 0.101722 0.170417 0 0.0952677 0.159604 0 0.0896431 0.150181 0 0.0848483 0.142148 0 0.08074 0.135265 0 0.0771751 0.129293 0 0.0741534 0.124231 0 0.0716749 0.120079 0 0.0695795 0.116568 0 0.0677068 0.113431 0 0.0660568 0.110666 0 0.0646295 0.108275 0 0.194846 0.396244 0 0.175134 0.356157 0 0.15777 0.320846 0 0.142756 0.290312 0 0.13009 0.264554 0 0.119206 0.24242 0 0.109538 0.222759 0 0.101085 0.20557 0 0.0938489 0.190854 0 0.0875774 0.1781 0 0.0820204 0.166799 0 0.0771779 0.156951 0 0.0730498 0.148556 0 0.0695128 0.141364 0 0.0664436 0.135122 0 0.063842 0.129831 0 0.0617082 0.125492 0 0.0599042 0.121823 0 0.0582919 0.118544 0 0.0568713 0.115656 0 0.0556425 0.113157 0 0.162536 0.410556 0 0.146092 0.369021 0 0.131608 0.332435 0 0.119083 0.300798 0 0.108518 0.27411 0 0.0994386 0.251177 0 0.0913738 0.230805 0 0.084323 0.212995 0 0.0782865 0.197747 0 0.073055 0.184533 0 0.0684194 0.172824 0 0.0643799 0.16262 0 0.0609364 0.153922 0 0.0579859 0.146469 0 0.0554256 0.140002 0 0.0532555 0.134521 0 0.0514755 0.130025 0 0.0499706 0.126223 0 0.0486256 0.122826 0 0.0474406 0.119833 0 0.0464156 0.117244 0 0.129735 0.42207 0 0.11661 0.37937 0 0.105049 0.341758 0 0.0950519 0.309233 0 0.0866184 0.281797 0 0.0793716 0.25822 0 0.0729342 0.237278 0 0.0673063 0.218969 0 0.062488 0.203293 0 0.0583122 0.189708 0 0.0546121 0.177671 0 0.0513878 0.167181 0 0.0486392 0.158239 0 0.0462841 0.150577 0 0.0442405 0.143928 0 0.0425083 0.138293 0 0.0410875 0.133671 0 0.0398863 0.129763 0 0.0388128 0.126271 0 0.0378669 0.123193 0 0.0370487 0.120532 0 0.0967821 0.430822 0 0.0869909 0.387236 0 0.0783663 0.348844 0 0.0709083 0.315646 0 0.064617 0.28764 0 0.0592109 0.263575 0 0.0544086 0.242198 0 0.0502102 0.223509 0 0.0466157 0.207508 0 0.0435006 0.193642 0 0.0407404 0.181355 0 0.038335 0.170647 0 0.0362846 0.16152 0 0.0345277 0.153699 0 0.0330032 0.146913 0 0.031711 0.141161 0 0.0306511 0.136443 0 0.029755 0.132454 0 0.0289541 0.128889 0 0.0282485 0.125748 0 0.0276382 0.123031 0 0.0639906 0.436897 0 0.0575168 0.392697 0 0.0518144 0.353764 0 0.0468833 0.320097 0 0.0427236 0.291696 0 0.0391491 0.267292 0 0.035974 0.245613 0 0.0331981 0.226661 0 0.0308215 0.210435 0 0.0287618 0.196372 0 0.0269368 0.183912 0 0.0253464 0.173054 0 0.0239907 0.163798 0 0.0228291 0.155867 0 0.0218211 0.148985 0 0.0209667 0.143151 0 0.0202659 0.138367 0 0.0196734 0.134322 0 0.0191439 0.130707 0 0.0186774 0.127521 0 0.0182739 0.124766 0 0.0316463 0.440423 0 0.0284447 0.395867 0 0.0256246 0.356619 0 0.023186 0.32268 0 0.0211288 0.29405 0 0.019361 0.269449 0 0.0177908 0.247596 0 0.016418 0.22849 0 0.0152426 0.212133 0 0.014224 0.197957 0 0.0133215 0.185396 0 0.012535 0.17445 0 0.0118645 0.165119 0 0.01129 0.157125 0 0.0107915 0.150187 0 0.010369 0.144307 0 0.0100224 0.139484 0 0.00972941 0.135406 0 0.00946755 0.131761 0 0.00923683 0.12855 0 0.00903725 0.125773 0 0 0.441559 0 0 0.396887 0 0 0.357538 0 0 0.323512 0 0 0.294808 0 0 0.270144 0 0 0.248234 0 0 0.229079 0 0 0.21268 0 0 0.198467 0 0 0.185874 0 0 0.1749 0 0 0.165545 0 0 0.15753 0 0 0.150574 0 0 0.144679 0 0 0.139843 0 0 0.135755 0 0 0.132101 0 0 0.128882 0 0 0.126097 0 0.441233 0 0.0169568 0.396595 0 0.0152404 0.357275 0 0.0137284 0.323274 0 0.0124209 0.294591 0 0.0113179 0.269945 0 0.0103701 0.248051 0 0.00952815 0.228911 0 0.00879204 0.212523 0 0.00816178 0.198321 0 0.00761557 0.185737 0 0.00713158 0.174771 0 0.00670983 0.165423 0 0.0063503 0.157414 0 0.00604224 0.150464 0 0.0057749 0.144572 0 0.00554827 0.13974 0 0.00536236 0.135655 0 0.00520516 0.132004 0 0.00506464 0.128787 0 0.00494083 0.126004 0 0.0048337 0.440099 0.031623 0.0169568 0.395575 0.0284238 0.0152404 0.356356 0.0256057 0.0137284 0.322442 0.0231689 0.0124209 0.293834 0.0211132 0.0113179 0.26925 0.0193468 0.0103701 0.247413 0.0177777 0.00952815 0.228322 0.0164059 0.00879204 0.211977 0.0152314 0.00816179 0.197811 0.0142136 0.00761557 0.18526 0.0133117 0.00713158 0.174322 0.0125257 0.00670983 0.164998 0.0118558 0.0063503 0.157009 0.0112817 0.00604224 0.150077 0.0107836 0.0057749 0.144201 0.0103614 0.00554827 0.139381 0.010015 0.00536236 0.135306 0.00972226 0.00520516 0.131664 0.00946059 0.00506464 0.128456 0.00923004 0.00494083 0.12568 0.00903061 0.0048337 0.436576 0.0639435 0.0169568 0.392408 0.0574745 0.0152404 0.353503 0.0517762 0.0137284 0.319861 0.0468488 0.0124209 0.291481 0.0426921 0.0113179 0.267095 0.0391203 0.0103701 0.245433 0.0359475 0.00952816 0.226494 0.0331737 0.00879204 0.21028 0.0307988 0.00816179 0.196228 0.0287406 0.00761557 0.183777 0.026917 0.00713158 0.172927 0.0253278 0.00670983 0.163677 0.023973 0.0063503 0.155752 0.0228123 0.00604224 0.148875 0.021805 0.0057749 0.143046 0.0209513 0.00554827 0.138265 0.020251 0.00536236 0.134223 0.019659 0.00520516 0.13061 0.0191299 0.00506464 0.127427 0.0186637 0.00494083 0.124674 0.0182604 0.0048337 0.430504 0.0967109 0.0169568 0.386951 0.0869268 0.0152404 0.348587 0.0783086 0.0137284 0.315413 0.0708561 0.0124209 0.287428 0.0645694 0.0113179 0.263381 0.0591673 0.0103701 0.24202 0.0543686 0.00952816 0.223345 0.0501733 0.00879205 0.207356 0.0465814 0.00816179 0.193499 0.0434686 0.00761557 0.181221 0.0407104 0.00713159 0.170522 0.0383068 0.00670983 0.161401 0.0362579 0.0063503 0.153586 0.0345023 0.00604224 0.146805 0.0329789 0.0057749 0.141057 0.0316876 0.00554827 0.136342 0.0306285 0.00536236 0.132356 0.0297331 0.00520516 0.128794 0.0289329 0.00506464 0.125655 0.0282278 0.00494083 0.12294 0.0276179 0.0048337 0.421759 0.12964 0.0169568 0.37909 0.116525 0.0152404 0.341506 0.104972 0.0137284 0.309006 0.0949819 0.0124209 0.281589 0.0865546 0.0113179 0.25803 0.0793131 0.0103701 0.237103 0.0728805 0.00952816 0.218807 0.0672568 0.00879205 0.203143 0.062442 0.00816179 0.189568 0.0582693 0.00761557 0.17754 0.0545719 0.00713159 0.167058 0.05135 0.00670983 0.158122 0.0486034 0.0063503 0.150466 0.0462501 0.00604224 0.143823 0.0442079 0.0057749 0.138191 0.042477 0.00554827 0.133573 0.0410573 0.00536236 0.129668 0.039857 0.00520516 0.126178 0.0387842 0.00506464 0.123103 0.0378391 0.00494083 0.120443 0.0370215 0.0048337 0.410254 0.162416 0.0169568 0.368749 0.145985 0.0152404 0.33219 0.131511 0.0137284 0.300576 0.118996 0.0124209 0.273908 0.108438 0.011318 0.250992 0.0993654 0.0103701 0.230635 0.0913065 0.00952816 0.212839 0.084261 0.00879205 0.197602 0.0782289 0.00816179 0.184397 0.0730012 0.00761558 0.172697 0.0683691 0.00713159 0.162501 0.0643325 0.00670983 0.153809 0.0608915 0.0063503 0.146362 0.0579432 0.00604224 0.139899 0.0553848 0.0057749 0.134422 0.0532163 0.00554827 0.129929 0.0514376 0.00536236 0.126131 0.0499338 0.00520516 0.122736 0.0485899 0.00506464 0.119745 0.0474058 0.00494083 0.117158 0.0463815 0.0048337 0.395952 0.194702 0.0169568 0.355895 0.175005 0.0152404 0.32061 0.157654 0.0137284 0.290098 0.14265 0.0124209 0.264359 0.129994 0.011318 0.242242 0.119118 0.0103701 0.222595 0.109457 0.00952816 0.205419 0.101011 0.00879205 0.190714 0.0937798 0.00816179 0.177969 0.087513 0.00761558 0.166677 0.08196 0.00713159 0.156836 0.0771211 0.00670983 0.148447 0.072996 0.0063503 0.14126 0.0694617 0.00604224 0.135022 0.0663947 0.0057749 0.129736 0.0637951 0.00554827 0.1254 0.0616629 0.00536236 0.121734 0.0598601 0.00520516 0.118457 0.058249 0.00506465 0.11557 0.0568295 0.00494083 0.113073 0.0556016 0.0048337 0.378872 0.226149 0.0169568 0.340542 0.20327 0.0152404 0.30678 0.183117 0.0137284 0.277584 0.16569 0.0124209 0.252955 0.150989 0.011318 0.231792 0.138357 0.0103701 0.212993 0.127136 0.00952816 0.196558 0.117326 0.00879205 0.182487 0.108926 0.00816179 0.170292 0.101647 0.00761558 0.159487 0.0951976 0.00713159 0.15007 0.0895771 0.00670983 0.142043 0.0847859 0.0063503 0.135166 0.0806806 0.00604224 0.129198 0.0771183 0.0057749 0.124139 0.0740988 0.00554828 0.11999 0.0716222 0.00536236 0.116482 0.0695283 0.00520516 0.113347 0.067657 0.00506465 0.110585 0.0660082 0.00494083 0.108196 0.064582 0.0048337 0.359087 0.256405 0.0169568 0.322759 0.230465 0.0152404 0.29076 0.207616 0.0137284 0.263089 0.187857 0.0124209 0.239746 0.17119 0.011318 0.219688 0.156867 0.0103701 0.201871 0.144145 0.00952816 0.186294 0.133022 0.00879205 0.172957 0.123499 0.00816179 0.161399 0.115247 0.00761558 0.151158 0.107934 0.00713159 0.142234 0.101561 0.00670983 0.134626 0.0961291 0.0063503 0.128108 0.0914747 0.00604225 0.122451 0.0874358 0.0057749 0.117657 0.0840123 0.00554828 0.113724 0.0812044 0.00536237 0.1104 0.0788304 0.00520516 0.107428 0.0767087 0.00506465 0.10481 0.0748393 0.00494083 0.102546 0.0732223 0.00483371 0.336733 0.285128 0.0169568 0.302667 0.256282 0.0152404 0.272659 0.230874 0.0137284 0.246711 0.208902 0.0124209 0.224821 0.190367 0.011318 0.206012 0.17444 0.0103701 0.189304 0.160293 0.00952816 0.174696 0.147924 0.00879205 0.16219 0.137334 0.00816179 0.151352 0.128157 0.00761558 0.141748 0.120025 0.00713159 0.133379 0.112939 0.00670983 0.126245 0.106898 0.0063503 0.120133 0.101722 0.00604225 0.114828 0.0972306 0.0057749 0.110332 0.0934237 0.00554828 0.106645 0.0903012 0.00536237 0.103527 0.0876612 0.00520516 0.100741 0.0853019 0.00506465 0.0982856 0.0832231 0.00494083 0.096162 0.0814249 0.00483371 0.311999 0.311999 0.0169568 0.280435 0.280435 0.0152404 0.252632 0.252632 0.0137284 0.228589 0.228589 0.0124209 0.208308 0.208308 0.011318 0.19088 0.19088 0.0103701 0.175399 0.175399 0.00952816 0.161865 0.161865 0.00879205 0.150277 0.150277 0.00816179 0.140235 0.140235 0.00761558 0.131337 0.131337 0.00713159 0.123582 0.123582 0.00670983 0.116972 0.116972 0.0063503 0.111309 0.111309 0.00604225 0.106394 0.106394 0.0057749 0.102228 0.102228 0.00554828 0.0988115 0.0988115 0.00536237 0.0959227 0.0959227 0.00520516 0.093341 0.093341 0.00506465 0.0910663 0.0910663 0.00494083 0.0890987 0.0890987 0.00483371 0.285128 0.336733 0.0169568 0.256282 0.302667 0.0152404 0.230874 0.272659 0.0137284 0.208902 0.246711 0.0124209 0.190367 0.224821 0.011318 0.17444 0.206012 0.0103701 0.160293 0.189304 0.00952816 0.147924 0.174696 0.00879205 0.137334 0.16219 0.00816179 0.128157 0.151352 0.00761558 0.120025 0.141748 0.00713159 0.112939 0.133379 0.00670983 0.106898 0.126245 0.0063503 0.101722 0.120133 0.00604225 0.0972306 0.114828 0.0057749 0.0934237 0.110332 0.00554828 0.0903012 0.106645 0.00536237 0.0876612 0.103527 0.00520516 0.0853019 0.100741 0.00506465 0.0832231 0.0982856 0.00494083 0.0814249 0.096162 0.00483371 0.256405 0.359087 0.0169568 0.230465 0.322759 0.0152404 0.207616 0.29076 0.0137284 0.187857 0.263089 0.0124209 0.17119 0.239746 0.011318 0.156867 0.219688 0.0103701 0.144145 0.201871 0.00952816 0.133022 0.186294 0.00879205 0.123499 0.172957 0.00816179 0.115247 0.161399 0.00761558 0.107934 0.151158 0.00713159 0.101561 0.142234 0.00670983 0.0961291 0.134626 0.0063503 0.0914747 0.128108 0.00604225 0.0874358 0.122451 0.0057749 0.0840123 0.117657 0.00554828 0.0812044 0.113724 0.00536237 0.0788304 0.1104 0.00520516 0.0767087 0.107428 0.00506465 0.0748393 0.10481 0.00494083 0.0732223 0.102546 0.00483371 0.226149 0.378872 0.0169568 0.20327 0.340542 0.0152404 0.183117 0.30678 0.0137284 0.16569 0.277584 0.0124209 0.150989 0.252955 0.011318 0.138357 0.231792 0.0103701 0.127136 0.212993 0.00952816 0.117326 0.196558 0.00879205 0.108926 0.182487 0.00816179 0.101647 0.170292 0.00761558 0.0951976 0.159487 0.00713159 0.0895771 0.15007 0.00670983 0.0847859 0.142043 0.0063503 0.0806806 0.135166 0.00604224 0.0771183 0.129198 0.0057749 0.0740988 0.124139 0.00554828 0.0716222 0.11999 0.00536236 0.0695283 0.116482 0.00520516 0.067657 0.113347 0.00506465 0.0660082 0.110585 0.00494083 0.064582 0.108196 0.0048337 0.194702 0.395952 0.0169568 0.175005 0.355895 0.0152404 0.157654 0.32061 0.0137284 0.14265 0.290098 0.0124209 0.129994 0.264359 0.011318 0.119118 0.242242 0.0103701 0.109457 0.222595 0.00952816 0.101011 0.205419 0.00879205 0.0937798 0.190714 0.00816179 0.087513 0.177969 0.00761558 0.08196 0.166677 0.00713159 0.0771211 0.156836 0.00670983 0.072996 0.148447 0.0063503 0.0694617 0.14126 0.00604224 0.0663947 0.135022 0.0057749 0.0637951 0.129736 0.00554827 0.0616629 0.1254 0.00536236 0.0598601 0.121734 0.00520516 0.058249 0.118457 0.00506465 0.0568295 0.11557 0.00494083 0.0556016 0.113073 0.0048337 0.162416 0.410254 0.0169568 0.145985 0.368749 0.0152404 0.131511 0.33219 0.0137284 0.118996 0.300576 0.0124209 0.108438 0.273908 0.011318 0.0993654 0.250992 0.0103701 0.0913065 0.230635 0.00952816 0.084261 0.212839 0.00879205 0.0782289 0.197602 0.00816179 0.0730012 0.184397 0.00761558 0.0683691 0.172697 0.00713159 0.0643325 0.162501 0.00670983 0.0608915 0.153809 0.0063503 0.0579432 0.146362 0.00604224 0.0553848 0.139899 0.0057749 0.0532163 0.134422 0.00554827 0.0514376 0.129929 0.00536236 0.0499338 0.126131 0.00520516 0.0485899 0.122736 0.00506464 0.0474058 0.119745 0.00494083 0.0463815 0.117158 0.0048337 0.12964 0.421759 0.0169568 0.116525 0.37909 0.0152404 0.104972 0.341506 0.0137284 0.0949819 0.309006 0.0124209 0.0865546 0.281589 0.0113179 0.0793131 0.25803 0.0103701 0.0728805 0.237103 0.00952816 0.0672568 0.218807 0.00879205 0.062442 0.203143 0.00816179 0.0582693 0.189568 0.00761557 0.0545719 0.17754 0.00713159 0.05135 0.167058 0.00670983 0.0486034 0.158122 0.0063503 0.0462501 0.150466 0.00604224 0.0442079 0.143823 0.0057749 0.042477 0.138191 0.00554827 0.0410573 0.133573 0.00536236 0.039857 0.129668 0.00520516 0.0387842 0.126178 0.00506464 0.0378391 0.123103 0.00494083 0.0370215 0.120443 0.0048337 0.0967109 0.430504 0.0169568 0.0869268 0.386951 0.0152404 0.0783086 0.348587 0.0137284 0.0708561 0.315413 0.0124209 0.0645694 0.287428 0.0113179 0.0591673 0.263381 0.0103701 0.0543686 0.24202 0.00952816 0.0501733 0.223345 0.00879205 0.0465814 0.207356 0.00816179 0.0434686 0.193499 0.00761557 0.0407104 0.181221 0.00713159 0.0383068 0.170522 0.00670983 0.0362579 0.161401 0.0063503 0.0345023 0.153586 0.00604224 0.0329789 0.146805 0.0057749 0.0316876 0.141057 0.00554827 0.0306285 0.136342 0.00536236 0.0297331 0.132356 0.00520516 0.0289329 0.128794 0.00506464 0.0282278 0.125655 0.00494083 0.0276179 0.12294 0.0048337 0.0639435 0.436576 0.0169568 0.0574745 0.392408 0.0152404 0.0517762 0.353503 0.0137284 0.0468488 0.319861 0.0124209 0.0426921 0.291481 0.0113179 0.0391203 0.267095 0.0103701 0.0359475 0.245433 0.00952816 0.0331737 0.226494 0.00879204 0.0307988 0.21028 0.00816179 0.0287406 0.196228 0.00761557 0.026917 0.183777 0.00713158 0.0253278 0.172927 0.00670983 0.023973 0.163677 0.0063503 0.0228123 0.155752 0.00604224 0.021805 0.148875 0.0057749 0.0209513 0.143046 0.00554827 0.020251 0.138265 0.00536236 0.019659 0.134223 0.00520516 0.0191299 0.13061 0.00506464 0.0186637 0.127427 0.00494083 0.0182604 0.124674 0.0048337 0.031623 0.440099 0.0169568 0.0284238 0.395575 0.0152404 0.0256057 0.356356 0.0137284 0.0231689 0.322442 0.0124209 0.0211132 0.293834 0.0113179 0.0193468 0.26925 0.0103701 0.0177777 0.247413 0.00952815 0.0164059 0.228322 0.00879204 0.0152314 0.211977 0.00816179 0.0142136 0.197811 0.00761557 0.0133117 0.18526 0.00713158 0.0125257 0.174322 0.00670983 0.0118558 0.164998 0.0063503 0.0112817 0.157009 0.00604224 0.0107836 0.150077 0.0057749 0.0103614 0.144201 0.00554827 0.010015 0.139381 0.00536236 0.00972226 0.135306 0.00520516 0.00946059 0.131664 0.00506464 0.00923004 0.128456 0.00494083 0.00903061 0.12568 0.0048337 0 0.441233 0.0169568 0 0.396595 0.0152404 0 0.357275 0.0137284 0 0.323274 0.0124209 0 0.294591 0.0113179 0 0.269945 0.0103701 0 0.248051 0.00952815 0 0.228911 0.00879204 0 0.212523 0.00816178 0 0.198321 0.00761557 0 0.185737 0.00713158 0 0.174771 0.00670983 0 0.165423 0.0063503 0 0.157414 0.00604224 0 0.150464 0.0057749 0 0.144572 0.00554827 0 0.13974 0.00536236 0 0.135655 0.00520516 0 0.132004 0.00506464 0 0.128787 0.00494083 0 0.126004 0.0048337 0.440249 0 0.0340062 0.39571 0 0.0305638 0.356478 0 0.0275316 0.322553 0 0.0249095 0.293934 0 0.0226974 0.269343 0 0.0207966 0.247498 0 0.0191081 0.2284 0 0.0176319 0.21205 0 0.016368 0.197879 0 0.0152726 0.185324 0 0.014302 0.174382 0 0.0134562 0.165055 0 0.0127352 0.157063 0 0.0121173 0.150128 0 0.0115812 0.14425 0 0.0111267 0.139429 0 0.0107539 0.135353 0 0.0104386 0.13171 0 0.0101568 0.1285 0 0.0099085 0.125724 0 0.00969365 0.439117 0.0315525 0.0340062 0.394693 0.0283604 0.0305638 0.355561 0.0255486 0.0275316 0.321723 0.0231172 0.0249095 0.293178 0.0210661 0.0226974 0.26865 0.0193037 0.0207966 0.246862 0.0177381 0.0191081 0.227813 0.0163693 0.0176319 0.211504 0.0151975 0.016368 0.197371 0.0141819 0.0152726 0.184847 0.013282 0.014302 0.173934 0.0124978 0.0134562 0.16463 0.0118293 0.0127352 0.156659 0.0112566 0.0121173 0.149742 0.0107596 0.0115812 0.143879 0.0103383 0.0111267 0.139071 0.00999274 0.0107539 0.135005 0.00970061 0.0104386 0.131371 0.00943952 0.0101568 0.12817 0.00920949 0.0099085 0.125401 0.0090105 0.00969365 0.435602 0.0638009 0.0340062 0.391533 0.0573463 0.0305638 0.352715 0.0516607 0.0275316 0.319148 0.0467443 0.0249095 0.290831 0.0425969 0.0226975 0.266499 0.0390331 0.0207967 0.244885 0.0358674 0.0191081 0.225989 0.0330997 0.0176319 0.209811 0.0307301 0.016368 0.195791 0.0286766 0.0152726 0.183367 0.026857 0.014302 0.172541 0.0252713 0.0134562 0.163312 0.0239196 0.0127352 0.155405 0.0227615 0.0121173 0.148543 0.0217565 0.0115812 0.142728 0.0209046 0.0111267 0.137957 0.0202059 0.0107539 0.133924 0.0196152 0.0104386 0.13032 0.0190873 0.0101568 0.127144 0.0186221 0.00990849 0.124397 0.0182198 0.00969365 0.429544 0.0964951 0.0340062 0.386088 0.0867329 0.0305638 0.34781 0.0781339 0.0275316 0.314709 0.070698 0.0249095 0.286787 0.0644254 0.0226975 0.262793 0.0590353 0.0207967 0.24148 0.0542474 0.0191081 0.222847 0.0500614 0.0176319 0.206893 0.0464776 0.016368 0.193068 0.0433717 0.0152726 0.180817 0.0406197 0.014302 0.170142 0.0382215 0.0134562 0.161041 0.0361771 0.0127352 0.153244 0.0344254 0.0121173 0.146478 0.0329054 0.0115812 0.140743 0.0316171 0.0111267 0.136039 0.0305603 0.0107539 0.132062 0.0296669 0.0104386 0.128507 0.0288684 0.0101568 0.125376 0.0281649 0.00990849 0.122667 0.0275564 0.00969365 0.420818 0.129351 0.0340062 0.378245 0.116265 0.0305638 0.340744 0.104738 0.0275316 0.308316 0.09477 0.0249095 0.280961 0.0863616 0.0226975 0.257455 0.0791363 0.0207967 0.236575 0.072718 0.0191082 0.21832 0.0671069 0.0176319 0.202691 0.0623028 0.016368 0.189146 0.0581394 0.0152726 0.177144 0.0544503 0.014302 0.166685 0.0512355 0.0134562 0.15777 0.0484951 0.0127352 0.150131 0.046147 0.0121174 0.143502 0.0441095 0.0115812 0.137884 0.0423824 0.0111267 0.133275 0.0409659 0.0107539 0.129379 0.0397682 0.0104386 0.125897 0.0386979 0.0101568 0.122829 0.0377548 0.0099085 0.120175 0.0369391 0.00969365 0.409339 0.162054 0.0340062 0.367927 0.145659 0.0305638 0.331449 0.131218 0.0275316 0.299906 0.11873 0.0249095 0.273297 0.108196 0.0226975 0.250432 0.0991438 0.0207967 0.230121 0.0911029 0.0191082 0.212364 0.0840732 0.0176319 0.197161 0.0780545 0.016368 0.183986 0.0728385 0.0152726 0.172312 0.0682167 0.014302 0.162139 0.0641892 0.0134562 0.153466 0.0607558 0.0127352 0.146036 0.0578141 0.0121174 0.139588 0.0552614 0.0115812 0.134122 0.0530978 0.0111267 0.12964 0.0513231 0.0107539 0.12585 0.0498226 0.0104386 0.122462 0.0484817 0.0101568 0.119478 0.0473002 0.0099085 0.116897 0.0462782 0.00969365 0.395069 0.194268 0.0340062 0.355101 0.174614 0.0305638 0.319895 0.157302 0.0275316 0.289451 0.142332 0.0249095 0.26377 0.129704 0.0226975 0.241702 0.118852 0.0207967 0.222099 0.109213 0.0191082 0.204961 0.100786 0.0176319 0.190288 0.0935708 0.016368 0.177572 0.0873179 0.0152726 0.166305 0.0817774 0.014302 0.156486 0.0769492 0.0134562 0.148116 0.0728334 0.0127352 0.140945 0.0693069 0.0121174 0.134722 0.0662468 0.0115812 0.129447 0.063653 0.0111267 0.12512 0.0615255 0.0107539 0.121463 0.0597268 0.0104386 0.118193 0.0581193 0.0101568 0.115313 0.056703 0.0099085 0.112822 0.0554778 0.00969365 0.378027 0.225645 0.0340062 0.339782 0.202817 0.0305638 0.306095 0.182709 0.0275316 0.276965 0.165321 0.0249095 0.252391 0.150653 0.0226975 0.231275 0.138049 0.0207967 0.212518 0.126852 0.0191082 0.19612 0.117064 0.0176319 0.18208 0.108684 0.016368 0.169912 0.101421 0.0152726 0.159131 0.0949855 0.014302 0.149736 0.0893775 0.0134562 0.141727 0.0845969 0.0127352 0.134865 0.0805009 0.0121174 0.12891 0.0769465 0.0115812 0.123863 0.0739338 0.0111267 0.119723 0.0714627 0.0107539 0.116223 0.0693735 0.0104386 0.113095 0.0675063 0.0101568 0.110339 0.0658612 0.0099085 0.107955 0.0644382 0.00969366 0.358286 0.255833 0.0340062 0.322039 0.229951 0.0305638 0.290111 0.207153 0.0275316 0.262502 0.187438 0.0249095 0.239212 0.170808 0.0226975 0.219198 0.156518 0.0207967 0.201421 0.143824 0.0191082 0.185879 0.132726 0.0176319 0.172572 0.123224 0.016368 0.16104 0.11499 0.0152726 0.150821 0.107693 0.014302 0.141917 0.101335 0.0134562 0.134326 0.095915 0.0127352 0.127822 0.0912709 0.0121174 0.122179 0.087241 0.0115812 0.117395 0.0838252 0.0111267 0.113471 0.0810235 0.0107539 0.110154 0.0786548 0.0104386 0.107189 0.0765379 0.0101568 0.104577 0.0746727 0.0099085 0.102318 0.0730593 0.00969366 0.335982 0.284492 0.0340062 0.301991 0.255711 0.0305638 0.272051 0.230359 0.0275316 0.24616 0.208436 0.0249095 0.22432 0.189942 0.0226975 0.205553 0.174051 0.0207967 0.188882 0.159935 0.0191082 0.174307 0.147594 0.0176319 0.161829 0.137028 0.016368 0.151015 0.127871 0.0152726 0.141432 0.119758 0.014302 0.133082 0.112687 0.0134562 0.125964 0.10666 0.0127352 0.119865 0.101495 0.0121174 0.114573 0.097014 0.0115812 0.110087 0.0932156 0.0111267 0.106407 0.0901001 0.0107539 0.103296 0.087466 0.0104386 0.100516 0.0851119 0.0101568 0.0980668 0.0830378 0.0099085 0.095948 0.0812437 0.00969366 0.311303 0.311303 0.0340062 0.27981 0.27981 0.0305638 0.252068 0.252068 0.0275316 0.228079 0.228079 0.0249095 0.207843 0.207843 0.0226975 0.190454 0.190454 0.0207967 0.175008 0.175008 0.0191082 0.161504 0.161504 0.0176319 0.149942 0.149942 0.016368 0.139922 0.139922 0.0152726 0.131044 0.131044 0.014302 0.123307 0.123307 0.0134562 0.116712 0.116712 0.0127352 0.111061 0.111061 0.0121174 0.106157 0.106157 0.0115812 0.102001 0.102001 0.0111267 0.0985914 0.0985914 0.0107539 0.0957091 0.0957091 0.0104386 0.0931332 0.0931332 0.0101568 0.0908636 0.0908636 0.0099085 0.0889004 0.0889004 0.00969366 0.284492 0.335982 0.0340062 0.255711 0.301991 0.0305638 0.230359 0.272051 0.0275316 0.208436 0.24616 0.0249095 0.189942 0.22432 0.0226975 0.174051 0.205553 0.0207967 0.159935 0.188882 0.0191082 0.147594 0.174307 0.0176319 0.137028 0.161829 0.016368 0.127871 0.151015 0.0152726 0.119758 0.141432 0.014302 0.112687 0.133082 0.0134562 0.10666 0.125964 0.0127352 0.101495 0.119865 0.0121174 0.097014 0.114573 0.0115812 0.0932156 0.110087 0.0111267 0.0901001 0.106407 0.0107539 0.087466 0.103296 0.0104386 0.0851119 0.100516 0.0101568 0.0830378 0.0980668 0.0099085 0.0812437 0.095948 0.00969366 0.255833 0.358286 0.0340062 0.229951 0.322039 0.0305638 0.207153 0.290111 0.0275316 0.187438 0.262502 0.0249095 0.170808 0.239212 0.0226975 0.156518 0.219198 0.0207967 0.143824 0.201421 0.0191082 0.132726 0.185879 0.0176319 0.123224 0.172572 0.016368 0.11499 0.16104 0.0152726 0.107693 0.150821 0.014302 0.101335 0.141917 0.0134562 0.095915 0.134326 0.0127352 0.0912709 0.127822 0.0121174 0.087241 0.122179 0.0115812 0.0838252 0.117395 0.0111267 0.0810235 0.113471 0.0107539 0.0786548 0.110154 0.0104386 0.0765379 0.107189 0.0101568 0.0746727 0.104577 0.0099085 0.0730593 0.102318 0.00969366 0.225645 0.378027 0.0340062 0.202817 0.339782 0.0305638 0.182709 0.306095 0.0275316 0.165321 0.276965 0.0249095 0.150653 0.252391 0.0226975 0.138049 0.231275 0.0207967 0.126852 0.212518 0.0191082 0.117064 0.19612 0.0176319 0.108684 0.18208 0.016368 0.101421 0.169912 0.0152726 0.0949855 0.159131 0.014302 0.0893775 0.149736 0.0134562 0.0845969 0.141727 0.0127352 0.0805009 0.134865 0.0121174 0.0769465 0.12891 0.0115812 0.0739338 0.123863 0.0111267 0.0714627 0.119723 0.0107539 0.0693735 0.116223 0.0104386 0.0675063 0.113095 0.0101568 0.0658612 0.110339 0.0099085 0.0644382 0.107955 0.00969366 0.194268 0.395069 0.0340062 0.174614 0.355101 0.0305638 0.157302 0.319895 0.0275316 0.142332 0.289451 0.0249095 0.129704 0.26377 0.0226975 0.118852 0.241702 0.0207967 0.109213 0.222099 0.0191082 0.100786 0.204961 0.0176319 0.0935708 0.190288 0.016368 0.0873179 0.177572 0.0152726 0.0817774 0.166305 0.014302 0.0769492 0.156486 0.0134562 0.0728334 0.148116 0.0127352 0.0693069 0.140945 0.0121174 0.0662468 0.134722 0.0115812 0.063653 0.129447 0.0111267 0.0615255 0.12512 0.0107539 0.0597268 0.121463 0.0104386 0.0581193 0.118193 0.0101568 0.056703 0.115313 0.0099085 0.0554778 0.112822 0.00969365 0.162054 0.409339 0.0340062 0.145659 0.367927 0.0305638 0.131218 0.331449 0.0275316 0.11873 0.299906 0.0249095 0.108196 0.273297 0.0226975 0.0991438 0.250432 0.0207967 0.0911029 0.230121 0.0191082 0.0840732 0.212364 0.0176319 0.0780545 0.197161 0.016368 0.0728385 0.183986 0.0152726 0.0682167 0.172312 0.014302 0.0641892 0.162139 0.0134562 0.0607558 0.153466 0.0127352 0.0578141 0.146036 0.0121174 0.0552614 0.139588 0.0115812 0.0530978 0.134122 0.0111267 0.0513231 0.12964 0.0107539 0.0498226 0.12585 0.0104386 0.0484817 0.122462 0.0101568 0.0473002 0.119478 0.0099085 0.0462782 0.116897 0.00969365 0.129351 0.420818 0.0340062 0.116265 0.378245 0.0305638 0.104738 0.340744 0.0275316 0.09477 0.308316 0.0249095 0.0863616 0.280961 0.0226975 0.0791363 0.257455 0.0207967 0.072718 0.236575 0.0191082 0.0671069 0.21832 0.0176319 0.0623028 0.202691 0.016368 0.0581394 0.189146 0.0152726 0.0544503 0.177144 0.014302 0.0512355 0.166685 0.0134562 0.0484951 0.15777 0.0127352 0.046147 0.150131 0.0121174 0.0441095 0.143502 0.0115812 0.0423824 0.137884 0.0111267 0.0409659 0.133275 0.0107539 0.0397682 0.129379 0.0104386 0.0386979 0.125897 0.0101568 0.0377548 0.122829 0.0099085 0.0369391 0.120175 0.00969365 0.0964951 0.429544 0.0340062 0.0867329 0.386088 0.0305638 0.0781339 0.34781 0.0275316 0.070698 0.314709 0.0249095 0.0644254 0.286787 0.0226975 0.0590353 0.262793 0.0207967 0.0542474 0.24148 0.0191081 0.0500614 0.222847 0.0176319 0.0464776 0.206893 0.016368 0.0433717 0.193068 0.0152726 0.0406197 0.180817 0.014302 0.0382215 0.170142 0.0134562 0.0361771 0.161041 0.0127352 0.0344254 0.153244 0.0121173 0.0329054 0.146478 0.0115812 0.0316171 0.140743 0.0111267 0.0305603 0.136039 0.0107539 0.0296669 0.132062 0.0104386 0.0288684 0.128507 0.0101568 0.0281649 0.125376 0.00990849 0.0275564 0.122667 0.00969365 0.0638009 0.435602 0.0340062 0.0573463 0.391533 0.0305638 0.0516607 0.352715 0.0275316 0.0467443 0.319148 0.0249095 0.0425969 0.290831 0.0226975 0.0390331 0.266499 0.0207967 0.0358674 0.244885 0.0191081 0.0330997 0.225989 0.0176319 0.0307301 0.209811 0.016368 0.0286766 0.195791 0.0152726 0.026857 0.183367 0.014302 0.0252713 0.172541 0.0134562 0.0239196 0.163312 0.0127352 0.0227615 0.155405 0.0121173 0.0217565 0.148543 0.0115812 0.0209046 0.142728 0.0111267 0.0202059 0.137957 0.0107539 0.0196152 0.133924 0.0104386 0.0190873 0.13032 0.0101568 0.0186221 0.127144 0.00990849 0.0182198 0.124397 0.00969365 0.0315525 0.439117 0.0340062 0.0283604 0.394693 0.0305638 0.0255486 0.355561 0.0275316 0.0231172 0.321723 0.0249095 0.0210661 0.293178 0.0226974 0.0193037 0.26865 0.0207966 0.0177381 0.246862 0.0191081 0.0163693 0.227813 0.0176319 0.0151975 0.211504 0.016368 0.0141819 0.197371 0.0152726 0.013282 0.184847 0.014302 0.0124978 0.173934 0.0134562 0.0118293 0.16463 0.0127352 0.0112566 0.156659 0.0121173 0.0107596 0.149742 0.0115812 0.0103383 0.143879 0.0111267 0.00999274 0.139071 0.0107539 0.00970061 0.135005 0.0104386 0.00943952 0.131371 0.0101568 0.00920949 0.12817 0.0099085 0.0090105 0.125401 0.00969365 0 0.440249 0.0340062 0 0.39571 0.0305638 0 0.356478 0.0275316 0 0.322553 0.0249095 0 0.293934 0.0226974 0 0.269343 0.0207966 0 0.247498 0.0191081 0 0.2284 0.0176319 0 0.21205 0.016368 0 0.197879 0.0152726 0 0.185324 0.014302 0 0.174382 0.0134562 0 0.165055 0.0127352 0 0.157063 0.0121173 0 0.150128 0.0115812 0 0.14425 0.0111267 0 0.139429 0.0107539 0 0.135353 0.0104386 0 0.13171 0.0101568 0 0.1285 0.0099085 0 0.125724 0.00969365 0.438595 0 0.0511102 0.394223 0 0.0459363 0.355139 0 0.0413788 0.321341 0 0.0374378 0.29283 0 0.0341132 0.268331 0 0.0312564 0.246569 0 0.0287187 0.227543 0 0.0265 0.211254 0 0.0246004 0.197137 0 0.0229542 0.184628 0 0.0214954 0.173728 0 0.0202241 0.164435 0 0.0191404 0.156474 0 0.0182118 0.149565 0 0.017406 0.143709 0 0.0167229 0.138906 0 0.0161625 0.134845 0 0.0156887 0.131216 0 0.0152652 0.128019 0 0.014892 0.125253 0 0.014569 0.437467 0.0314339 0.0511102 0.39321 0.0282538 0.0459363 0.354225 0.0254526 0.0413788 0.320514 0.0230303 0.0374378 0.292077 0.020987 0.0341132 0.267641 0.0192312 0.0312564 0.245935 0.0176714 0.0287187 0.226958 0.0163079 0.0265 0.21071 0.0151404 0.0246004 0.19663 0.0141286 0.0229542 0.184153 0.0132321 0.0214954 0.173281 0.0124509 0.0202241 0.164013 0.0117849 0.0191404 0.156071 0.0112143 0.0182118 0.14918 0.0107192 0.017406 0.14334 0.0102995 0.0167229 0.138549 0.00995526 0.0161625 0.134498 0.00966422 0.0156887 0.130879 0.00940412 0.0152652 0.127689 0.00917495 0.014892 0.12493 0.00897672 0.014569 0.433965 0.0635611 0.0511102 0.390062 0.0571308 0.0459363 0.35139 0.0514666 0.0413788 0.317949 0.0465687 0.0374378 0.289739 0.0424369 0.0341132 0.265499 0.0388865 0.0312564 0.243966 0.0357327 0.0287187 0.225141 0.0329754 0.0265 0.209024 0.0306148 0.0246004 0.195056 0.0285689 0.0229542 0.182679 0.0267562 0.0214954 0.171894 0.0251765 0.0202241 0.1627 0.0238299 0.0191404 0.154822 0.022676 0.0182118 0.147986 0.0216748 0.017406 0.142192 0.0208262 0.0167229 0.13744 0.0201301 0.0161625 0.133422 0.0195416 0.0156887 0.129831 0.0190157 0.0152652 0.126667 0.0185523 0.014892 0.12393 0.0181515 0.014569 0.42793 0.0961326 0.0511102 0.384637 0.0864071 0.0459363 0.346503 0.0778403 0.0413788 0.313527 0.0704324 0.0374378 0.28571 0.0641834 0.0341132 0.261806 0.0588136 0.0312564 0.240573 0.0540437 0.0287187 0.22201 0.0498735 0.0265 0.206117 0.0463031 0.0246004 0.192343 0.0432089 0.0229542 0.180139 0.0404672 0.0214954 0.169503 0.038078 0.0202241 0.160437 0.0360413 0.0191404 0.152669 0.0342963 0.0182118 0.145928 0.032782 0.017406 0.140215 0.0314984 0.0167229 0.135528 0.0304457 0.0161625 0.131566 0.0295556 0.0156887 0.128025 0.0287602 0.0152652 0.124906 0.0280593 0.014892 0.122207 0.0274531 0.014569 0.419237 0.128865 0.0511103 0.376824 0.115828 0.0459363 0.339464 0.104344 0.0413788 0.307158 0.094414 0.0374378 0.279906 0.0860372 0.0341132 0.256488 0.0788391 0.0312564 0.235686 0.072445 0.0287187 0.2175 0.0668549 0.0265 0.20193 0.0620689 0.0246005 0.188436 0.0579212 0.0229542 0.176479 0.054246 0.0214954 0.16606 0.0510433 0.0202242 0.157178 0.0483131 0.0191404 0.149568 0.0459738 0.0182118 0.142964 0.043944 0.017406 0.137366 0.0422234 0.0167229 0.132775 0.0408122 0.0161625 0.128894 0.0396191 0.0156887 0.125425 0.0385528 0.0152652 0.122368 0.0376133 0.014892 0.119724 0.0368006 0.014569 0.407801 0.161445 0.0511103 0.366544 0.145112 0.0459363 0.330204 0.130725 0.0413788 0.298779 0.118284 0.0374378 0.27227 0.107789 0.0341132 0.249491 0.0987715 0.0312564 0.229257 0.0907609 0.0287187 0.211567 0.0837575 0.0265 0.196421 0.0777615 0.0246005 0.183296 0.0725651 0.0229542 0.171665 0.0679607 0.0214954 0.16153 0.0639483 0.0202242 0.15289 0.0605278 0.0191404 0.145488 0.0575972 0.0182118 0.139064 0.0550541 0.017406 0.133619 0.0528985 0.0167229 0.129153 0.0511305 0.0161625 0.125378 0.0496358 0.0156887 0.122003 0.0482999 0.0152652 0.11903 0.0471229 0.014892 0.116458 0.0461047 0.014569 0.393585 0.193538 0.0511103 0.353767 0.173958 0.0459363 0.318693 0.156711 0.0413788 0.288364 0.141798 0.0374378 0.262779 0.129217 0.0341132 0.240794 0.118406 0.0312564 0.221265 0.108803 0.0287187 0.204192 0.100407 0.0265 0.189574 0.0932195 0.0246005 0.176906 0.0869902 0.0229542 0.165681 0.0814705 0.0214954 0.155899 0.0766604 0.0202242 0.147561 0.0725601 0.0191404 0.140416 0.0690469 0.0182118 0.134216 0.0659982 0.017406 0.128961 0.0634142 0.0167229 0.124651 0.0612947 0.0161625 0.121007 0.0595028 0.0156887 0.11775 0.0579013 0.0152652 0.114881 0.0564903 0.014892 0.112399 0.0552698 0.0145691 0.376606 0.224797 0.0511103 0.338506 0.202055 0.0459363 0.304945 0.182022 0.0413789 0.275924 0.1647 0.0374378 0.251443 0.150087 0.0341133 0.230407 0.13753 0.0312564 0.21172 0.126376 0.0287187 0.195383 0.116625 0.0265 0.181396 0.108276 0.0246005 0.169275 0.10104 0.0229542 0.158534 0.094629 0.0214954 0.149174 0.0890421 0.0202242 0.141195 0.0842795 0.0191404 0.134359 0.0801988 0.0182118 0.128426 0.0766578 0.017406 0.123398 0.0736564 0.0167229 0.119274 0.0711946 0.0161626 0.115787 0.0691133 0.0156887 0.112671 0.0672532 0.0152652 0.109925 0.0656143 0.014892 0.10755 0.0641966 0.0145691 0.35694 0.254872 0.0511103 0.320829 0.229087 0.0459363 0.289021 0.206374 0.0413789 0.261516 0.186734 0.0374378 0.238313 0.170166 0.0341133 0.218375 0.15593 0.0312564 0.200664 0.143284 0.0287187 0.185181 0.132227 0.0265 0.171924 0.122762 0.0246005 0.160435 0.114558 0.0229542 0.150255 0.107289 0.0214954 0.141384 0.100955 0.0202242 0.133822 0.095555 0.0191404 0.127343 0.0909284 0.0182118 0.12172 0.0869137 0.017406 0.116954 0.0835107 0.0167229 0.113046 0.0807196 0.0161626 0.109741 0.0783598 0.0156887 0.106787 0.0762508 0.0152652 0.104185 0.0743927 0.014892 0.101934 0.0727854 0.0145691 0.33472 0.283423 0.0511103 0.300857 0.25475 0.0459363 0.271029 0.229493 0.0413789 0.245236 0.207653 0.0374378 0.223477 0.189229 0.0341133 0.204781 0.173398 0.0312564 0.188172 0.159335 0.0287187 0.173653 0.14704 0.0265001 0.161221 0.136514 0.0246005 0.150448 0.127391 0.0229542 0.140902 0.119308 0.0214954 0.132583 0.112264 0.0202242 0.125491 0.106259 0.0191404 0.119415 0.101115 0.0182118 0.114143 0.09665 0.017406 0.109674 0.0928659 0.0167229 0.106008 0.0897621 0.0161626 0.102909 0.0871379 0.0156887 0.100139 0.0847927 0.0152652 0.0976991 0.0827264 0.014892 0.0955883 0.0809391 0.0145691 0.310134 0.310134 0.0511103 0.278758 0.278758 0.0459363 0.251121 0.251121 0.0413789 0.227223 0.227223 0.0374378 0.207062 0.207062 0.0341133 0.189739 0.189739 0.0312564 0.174351 0.174351 0.0287187 0.160897 0.160897 0.0265001 0.149379 0.149379 0.0246005 0.139397 0.139397 0.0229542 0.130552 0.130552 0.0214954 0.122844 0.122844 0.0202242 0.116274 0.116274 0.0191404 0.110644 0.110644 0.0182118 0.105759 0.105759 0.017406 0.101618 0.101618 0.0167229 0.0982216 0.0982216 0.0161626 0.0953501 0.0953501 0.0156887 0.0927839 0.0927839 0.0152652 0.0905229 0.0905229 0.014892 0.0885671 0.0885671 0.0145691 0.283423 0.33472 0.0511103 0.25475 0.300857 0.0459363 0.229493 0.271029 0.0413789 0.207653 0.245236 0.0374378 0.189229 0.223477 0.0341133 0.173398 0.204781 0.0312564 0.159335 0.188172 0.0287187 0.14704 0.173653 0.0265001 0.136514 0.161221 0.0246005 0.127391 0.150448 0.0229542 0.119308 0.140902 0.0214954 0.112264 0.132583 0.0202242 0.106259 0.125491 0.0191404 0.101115 0.119415 0.0182118 0.09665 0.114143 0.017406 0.0928659 0.109674 0.0167229 0.0897621 0.106008 0.0161626 0.0871379 0.102909 0.0156887 0.0847927 0.100139 0.0152652 0.0827264 0.0976991 0.014892 0.0809391 0.0955883 0.0145691 0.254872 0.35694 0.0511103 0.229087 0.320829 0.0459363 0.206374 0.289021 0.0413789 0.186734 0.261516 0.0374378 0.170166 0.238313 0.0341133 0.15593 0.218375 0.0312564 0.143284 0.200664 0.0287187 0.132227 0.185181 0.0265 0.122762 0.171924 0.0246005 0.114558 0.160435 0.0229542 0.107289 0.150255 0.0214954 0.100955 0.141384 0.0202242 0.095555 0.133822 0.0191404 0.0909284 0.127343 0.0182118 0.0869137 0.12172 0.017406 0.0835107 0.116954 0.0167229 0.0807196 0.113046 0.0161626 0.0783598 0.109741 0.0156887 0.0762508 0.106787 0.0152652 0.0743927 0.104185 0.014892 0.0727854 0.101934 0.0145691 0.224797 0.376606 0.0511103 0.202055 0.338506 0.0459363 0.182022 0.304945 0.0413789 0.1647 0.275924 0.0374378 0.150087 0.251443 0.0341133 0.13753 0.230407 0.0312564 0.126376 0.21172 0.0287187 0.116625 0.195383 0.0265 0.108276 0.181396 0.0246005 0.10104 0.169275 0.0229542 0.094629 0.158534 0.0214954 0.0890421 0.149174 0.0202242 0.0842795 0.141195 0.0191404 0.0801988 0.134359 0.0182118 0.0766578 0.128426 0.017406 0.0736564 0.123398 0.0167229 0.0711946 0.119274 0.0161626 0.0691133 0.115787 0.0156887 0.0672532 0.112671 0.0152652 0.0656143 0.109925 0.014892 0.0641966 0.10755 0.0145691 0.193538 0.393585 0.0511103 0.173958 0.353767 0.0459363 0.156711 0.318693 0.0413788 0.141798 0.288364 0.0374378 0.129217 0.262779 0.0341132 0.118406 0.240794 0.0312564 0.108803 0.221265 0.0287187 0.100407 0.204192 0.0265 0.0932195 0.189574 0.0246005 0.0869902 0.176906 0.0229542 0.0814705 0.165681 0.0214954 0.0766604 0.155899 0.0202242 0.0725601 0.147561 0.0191404 0.0690469 0.140416 0.0182118 0.0659982 0.134216 0.017406 0.0634142 0.128961 0.0167229 0.0612947 0.124651 0.0161625 0.0595028 0.121007 0.0156887 0.0579013 0.11775 0.0152652 0.0564903 0.114881 0.014892 0.0552698 0.112399 0.0145691 0.161445 0.407801 0.0511103 0.145112 0.366544 0.0459363 0.130725 0.330204 0.0413788 0.118284 0.298779 0.0374378 0.107789 0.27227 0.0341132 0.0987715 0.249491 0.0312564 0.0907609 0.229257 0.0287187 0.0837575 0.211567 0.0265 0.0777615 0.196421 0.0246005 0.0725651 0.183296 0.0229542 0.0679607 0.171665 0.0214954 0.0639483 0.16153 0.0202242 0.0605278 0.15289 0.0191404 0.0575972 0.145488 0.0182118 0.0550541 0.139064 0.017406 0.0528985 0.133619 0.0167229 0.0511305 0.129153 0.0161625 0.0496358 0.125378 0.0156887 0.0482999 0.122003 0.0152652 0.0471229 0.11903 0.014892 0.0461047 0.116458 0.014569 0.128865 0.419237 0.0511103 0.115828 0.376824 0.0459363 0.104344 0.339464 0.0413788 0.094414 0.307158 0.0374378 0.0860372 0.279906 0.0341132 0.0788391 0.256488 0.0312564 0.072445 0.235686 0.0287187 0.0668549 0.2175 0.0265 0.0620689 0.20193 0.0246005 0.0579212 0.188436 0.0229542 0.054246 0.176479 0.0214954 0.0510433 0.16606 0.0202242 0.0483131 0.157178 0.0191404 0.0459738 0.149568 0.0182118 0.043944 0.142964 0.017406 0.0422234 0.137366 0.0167229 0.0408122 0.132775 0.0161625 0.0396191 0.128894 0.0156887 0.0385528 0.125425 0.0152652 0.0376133 0.122368 0.014892 0.0368006 0.119724 0.014569 0.0961326 0.42793 0.0511102 0.0864071 0.384637 0.0459363 0.0778403 0.346503 0.0413788 0.0704324 0.313527 0.0374378 0.0641834 0.28571 0.0341132 0.0588136 0.261806 0.0312564 0.0540437 0.240573 0.0287187 0.0498735 0.22201 0.0265 0.0463031 0.206117 0.0246004 0.0432089 0.192343 0.0229542 0.0404672 0.180139 0.0214954 0.038078 0.169503 0.0202241 0.0360413 0.160437 0.0191404 0.0342963 0.152669 0.0182118 0.032782 0.145928 0.017406 0.0314984 0.140215 0.0167229 0.0304457 0.135528 0.0161625 0.0295556 0.131566 0.0156887 0.0287602 0.128025 0.0152652 0.0280593 0.124906 0.014892 0.0274531 0.122207 0.014569 0.0635611 0.433965 0.0511102 0.0571308 0.390062 0.0459363 0.0514666 0.35139 0.0413788 0.0465687 0.317949 0.0374378 0.0424369 0.289739 0.0341132 0.0388865 0.265499 0.0312564 0.0357327 0.243966 0.0287187 0.0329754 0.225141 0.0265 0.0306148 0.209024 0.0246004 0.0285689 0.195056 0.0229542 0.0267562 0.182679 0.0214954 0.0251765 0.171894 0.0202241 0.0238299 0.1627 0.0191404 0.022676 0.154822 0.0182118 0.0216748 0.147986 0.017406 0.0208262 0.142192 0.0167229 0.0201301 0.13744 0.0161625 0.0195416 0.133422 0.0156887 0.0190157 0.129831 0.0152652 0.0185523 0.126667 0.014892 0.0181515 0.12393 0.014569 0.0314339 0.437467 0.0511102 0.0282538 0.39321 0.0459363 0.0254526 0.354225 0.0413788 0.0230303 0.320514 0.0374378 0.020987 0.292077 0.0341132 0.0192312 0.267641 0.0312564 0.0176714 0.245935 0.0287187 0.0163079 0.226958 0.0265 0.0151404 0.21071 0.0246004 0.0141286 0.19663 0.0229542 0.0132321 0.184153 0.0214954 0.0124509 0.173281 0.0202241 0.0117849 0.164013 0.0191404 0.0112143 0.156071 0.0182118 0.0107192 0.14918 0.017406 0.0102995 0.14334 0.0167229 0.00995526 0.138549 0.0161625 0.00966422 0.134498 0.0156887 0.00940412 0.130879 0.0152652 0.00917495 0.127689 0.014892 0.00897672 0.12493 0.014569 0 0.438595 0.0511102 0 0.394223 0.0459363 0 0.355139 0.0413788 0 0.321341 0.0374378 0 0.29283 0.0341132 0 0.268331 0.0312564 0 0.246569 0.0287187 0 0.227543 0.0265 0 0.211254 0.0246004 0 0.197137 0.0229542 0 0.184628 0.0214954 0 0.173728 0.0202241 0 0.164435 0.0191404 0 0.156474 0.0182118 0 0.149565 0.017406 0 0.143709 0.0167229 0 0.138906 0.0161625 0 0.134845 0.0156887 0 0.131216 0.0152652 0 0.128019 0.014892 0 0.125253 0.014569 0.436263 0 0.0682299 0.392127 0 0.0613227 0.353251 0 0.0552385 0.319633 0 0.0499774 0.291274 0 0.0455392 0.266905 0 0.0417255 0.245259 0 0.0383378 0.226334 0 0.0353761 0.210131 0 0.0328403 0.19609 0 0.0306426 0.183647 0 0.0286952 0.172805 0 0.0269982 0.163562 0 0.0255514 0.155643 0 0.0243117 0.148771 0 0.023236 0.142946 0 0.022324 0.138169 0 0.021576 0.13413 0 0.0209435 0.13052 0 0.0203781 0.127339 0 0.0198799 0.124588 0 0.0194488 0.435142 0.0312668 0.0682299 0.391119 0.0281036 0.0613227 0.352342 0.0253173 0.0552385 0.318811 0.0229079 0.0499774 0.290525 0.0208754 0.0455392 0.266219 0.019129 0.0417255 0.244628 0.0175775 0.0383378 0.225752 0.0162212 0.0353761 0.209591 0.01506 0.0328403 0.195585 0.0140536 0.0306426 0.183175 0.0131619 0.0286952 0.172361 0.0123848 0.0269982 0.163142 0.0117224 0.0255514 0.155243 0.0111548 0.0243117 0.148388 0.0106623 0.023236 0.142579 0.0102448 0.022324 0.137813 0.00990242 0.021576 0.133785 0.00961293 0.0209435 0.130184 0.00935422 0.0203781 0.127012 0.00912627 0.0198799 0.124268 0.0089291 0.0194488 0.431658 0.0632232 0.0682299 0.387988 0.0568271 0.0613227 0.349521 0.051193 0.0552385 0.316258 0.0463211 0.0499774 0.288199 0.0422113 0.0455392 0.264088 0.0386798 0.0417255 0.24267 0.0355428 0.0383378 0.223945 0.0328003 0.0353761 0.207913 0.0304522 0.0328403 0.19402 0.0284172 0.0306426 0.181709 0.0266141 0.0286952 0.170981 0.0250428 0.0269982 0.161836 0.0237033 0.0255514 0.154 0.0225556 0.0243117 0.1472 0.0215597 0.023236 0.141437 0.0207156 0.022324 0.13671 0.0200233 0.021576 0.132714 0.0194379 0.0209435 0.129142 0.0189148 0.0203781 0.125995 0.0184539 0.0198799 0.123273 0.0180552 0.0194487 0.425655 0.0956215 0.0682299 0.382592 0.0859477 0.0613227 0.344661 0.0774265 0.0552385 0.31186 0.070058 0.0499774 0.284191 0.0638422 0.0455392 0.260415 0.0585011 0.0417255 0.239295 0.0537565 0.0383378 0.220831 0.0496085 0.0353761 0.205022 0.0460572 0.0328403 0.191322 0.0429794 0.0306426 0.179182 0.0402523 0.0286953 0.168603 0.0378758 0.0269982 0.159585 0.0358499 0.0255514 0.151858 0.0341142 0.0243118 0.145153 0.0326079 0.023236 0.13947 0.0313312 0.0223241 0.134809 0.0302841 0.021576 0.130868 0.0293988 0.0209435 0.127346 0.0286076 0.0203781 0.124243 0.0279104 0.0198799 0.121559 0.0273074 0.0194487 0.417008 0.12818 0.0682299 0.37482 0.115212 0.0613227 0.337659 0.103789 0.0552385 0.305525 0.0939121 0.0499774 0.278418 0.0855799 0.0455392 0.255125 0.0784201 0.0417255 0.234434 0.0720601 0.0383378 0.216345 0.0664998 0.0353761 0.200857 0.0617392 0.0328403 0.187435 0.0576135 0.0306426 0.175542 0.0539579 0.0286953 0.165178 0.0507722 0.0269982 0.156343 0.0480565 0.0255514 0.148773 0.0457297 0.0243118 0.142205 0.0437106 0.023236 0.136637 0.0419992 0.0223241 0.13207 0.0405956 0.021576 0.12821 0.0394088 0.0209435 0.124759 0.0383482 0.0203781 0.121719 0.0374137 0.0198799 0.119089 0.0366054 0.0194488 0.405633 0.160587 0.0682299 0.364596 0.14434 0.0613227 0.328448 0.13003 0.0552385 0.297191 0.117655 0.0499774 0.270823 0.107217 0.0455392 0.248166 0.0982466 0.0417256 0.228039 0.0902786 0.0383378 0.210443 0.0833125 0.0353761 0.195378 0.0773484 0.0328403 0.182322 0.0721797 0.0306426 0.170753 0.0675997 0.0286953 0.160672 0.0636087 0.0269982 0.152078 0.0602064 0.0255514 0.144715 0.0572914 0.0243118 0.138326 0.0547618 0.023236 0.13291 0.0526177 0.0223241 0.128468 0.0508591 0.021576 0.124712 0.0493723 0.0209435 0.121356 0.0480436 0.0203781 0.118399 0.0468728 0.0198799 0.115841 0.0458601 0.0194488 0.391492 0.192509 0.0682299 0.351886 0.173033 0.0613227 0.316999 0.155878 0.0552385 0.286831 0.141044 0.0499774 0.261382 0.12853 0.0455392 0.239514 0.117777 0.0417256 0.220089 0.108225 0.0383378 0.203107 0.0998741 0.0353761 0.188567 0.0927243 0.0328403 0.175966 0.0865281 0.0306426 0.164801 0.0810378 0.0286953 0.155071 0.0762533 0.0269982 0.146777 0.0721748 0.0255514 0.13967 0.0686802 0.0243118 0.133504 0.0656478 0.023236 0.128277 0.0630775 0.0223241 0.123989 0.0609694 0.021576 0.120365 0.059187 0.0209435 0.117125 0.0575941 0.0203781 0.114271 0.0561906 0.0198799 0.111802 0.0549766 0.0194488 0.374604 0.223602 0.0682299 0.336706 0.20098 0.0613227 0.303324 0.181054 0.0552385 0.274457 0.163824 0.0499774 0.250107 0.149289 0.0455392 0.229182 0.136799 0.0417256 0.210595 0.125705 0.0383378 0.194345 0.116005 0.0353761 0.180433 0.1077 0.0328403 0.168376 0.100504 0.0306426 0.157692 0.0941264 0.0286953 0.148382 0.0885692 0.0269982 0.140445 0.0838319 0.0255514 0.133645 0.079773 0.0243118 0.127745 0.0762508 0.023236 0.122743 0.0732654 0.0223241 0.118641 0.0708167 0.021576 0.115172 0.0687465 0.0209435 0.112073 0.0668963 0.0203781 0.109342 0.0652662 0.0198799 0.10698 0.0638561 0.0194488 0.355043 0.253517 0.0682299 0.319124 0.227869 0.0613227 0.287485 0.205277 0.0552386 0.260126 0.185742 0.0499774 0.237046 0.169262 0.0455392 0.217215 0.155101 0.0417256 0.199598 0.142522 0.0383378 0.184197 0.131525 0.0353761 0.171011 0.122109 0.0328403 0.159583 0.11395 0.0306426 0.149457 0.106719 0.0286953 0.140633 0.100419 0.0269982 0.133111 0.0950476 0.0255514 0.126667 0.0904456 0.0243118 0.121074 0.0864522 0.023236 0.116334 0.0830674 0.0223241 0.112445 0.0802911 0.021576 0.109158 0.0779439 0.0209435 0.106221 0.0758462 0.0203781 0.103632 0.073998 0.0198799 0.101393 0.0723993 0.0194488 0.33294 0.281916 0.0682299 0.299257 0.253395 0.0613227 0.269588 0.228273 0.0552386 0.243932 0.206549 0.0499774 0.22229 0.188223 0.0455392 0.203692 0.172476 0.0417256 0.187173 0.158488 0.0383379 0.17273 0.146259 0.0353761 0.160365 0.135789 0.0328403 0.149649 0.126715 0.0306426 0.140153 0.118674 0.0286953 0.131879 0.111668 0.0269982 0.124825 0.105695 0.0255514 0.118781 0.100578 0.0243118 0.113537 0.0961369 0.023236 0.109091 0.0923729 0.0223241 0.105445 0.0892856 0.021576 0.102363 0.0866755 0.0209435 0.099608 0.0843428 0.0203781 0.0971807 0.0822875 0.0198799 0.0950812 0.0805097 0.0194488 0.308485 0.308485 0.0682299 0.277276 0.277276 0.0613227 0.249786 0.249786 0.0552386 0.226015 0.226015 0.0499774 0.205962 0.205962 0.0455392 0.188731 0.188731 0.0417256 0.173424 0.173424 0.0383379 0.160043 0.160043 0.0353761 0.148586 0.148586 0.0328403 0.138657 0.138657 0.0306426 0.129859 0.129859 0.0286953 0.122192 0.122192 0.0269982 0.115656 0.115656 0.0255514 0.110056 0.110056 0.0243118 0.105197 0.105197 0.023236 0.101078 0.101078 0.0223241 0.0977002 0.0977002 0.021576 0.0948441 0.0948441 0.0209435 0.0922915 0.0922915 0.0203781 0.0900426 0.0900426 0.0198799 0.0880972 0.0880972 0.0194488 0.281916 0.33294 0.0682299 0.253395 0.299257 0.0613227 0.228273 0.269588 0.0552386 0.206549 0.243932 0.0499774 0.188223 0.22229 0.0455392 0.172476 0.203692 0.0417256 0.158488 0.187173 0.0383379 0.146259 0.17273 0.0353761 0.135789 0.160365 0.0328403 0.126715 0.149649 0.0306426 0.118674 0.140153 0.0286953 0.111668 0.131879 0.0269982 0.105695 0.124825 0.0255514 0.100578 0.118781 0.0243118 0.0961369 0.113537 0.023236 0.0923729 0.109091 0.0223241 0.0892856 0.105445 0.021576 0.0866755 0.102363 0.0209435 0.0843428 0.099608 0.0203781 0.0822875 0.0971807 0.0198799 0.0805097 0.0950812 0.0194488 0.253517 0.355043 0.0682299 0.227869 0.319124 0.0613227 0.205277 0.287485 0.0552386 0.185742 0.260126 0.0499774 0.169262 0.237046 0.0455392 0.155101 0.217215 0.0417256 0.142522 0.199598 0.0383378 0.131525 0.184197 0.0353761 0.122109 0.171011 0.0328403 0.11395 0.159583 0.0306426 0.106719 0.149457 0.0286953 0.100419 0.140633 0.0269982 0.0950476 0.133111 0.0255514 0.0904456 0.126667 0.0243118 0.0864522 0.121074 0.023236 0.0830674 0.116334 0.0223241 0.0802911 0.112445 0.021576 0.0779439 0.109158 0.0209435 0.0758462 0.106221 0.0203781 0.073998 0.103632 0.0198799 0.0723993 0.101393 0.0194488 0.223602 0.374604 0.0682299 0.20098 0.336706 0.0613227 0.181054 0.303324 0.0552385 0.163824 0.274457 0.0499774 0.149289 0.250107 0.0455392 0.136799 0.229182 0.0417256 0.125705 0.210595 0.0383378 0.116005 0.194345 0.0353761 0.1077 0.180433 0.0328403 0.100504 0.168376 0.0306426 0.0941264 0.157692 0.0286953 0.0885692 0.148382 0.0269982 0.0838319 0.140445 0.0255514 0.079773 0.133645 0.0243118 0.0762508 0.127745 0.023236 0.0732654 0.122743 0.0223241 0.0708167 0.118641 0.021576 0.0687465 0.115172 0.0209435 0.0668963 0.112073 0.0203781 0.0652662 0.109342 0.0198799 0.0638561 0.10698 0.0194488 0.192509 0.391492 0.0682299 0.173033 0.351886 0.0613227 0.155878 0.316999 0.0552385 0.141044 0.286831 0.0499774 0.12853 0.261382 0.0455392 0.117777 0.239514 0.0417256 0.108225 0.220089 0.0383378 0.0998741 0.203107 0.0353761 0.0927243 0.188567 0.0328403 0.0865281 0.175966 0.0306426 0.0810378 0.164801 0.0286953 0.0762533 0.155071 0.0269982 0.0721748 0.146777 0.0255514 0.0686802 0.13967 0.0243118 0.0656478 0.133504 0.023236 0.0630775 0.128277 0.0223241 0.0609694 0.123989 0.021576 0.059187 0.120365 0.0209435 0.0575941 0.117125 0.0203781 0.0561906 0.114271 0.0198799 0.0549766 0.111802 0.0194488 0.160587 0.405633 0.0682299 0.14434 0.364596 0.0613227 0.13003 0.328448 0.0552385 0.117655 0.297191 0.0499774 0.107217 0.270823 0.0455392 0.0982466 0.248166 0.0417256 0.0902786 0.228039 0.0383378 0.0833125 0.210443 0.0353761 0.0773484 0.195378 0.0328403 0.0721797 0.182322 0.0306426 0.0675997 0.170753 0.0286953 0.0636087 0.160672 0.0269982 0.0602064 0.152078 0.0255514 0.0572914 0.144715 0.0243118 0.0547618 0.138326 0.023236 0.0526177 0.13291 0.0223241 0.0508591 0.128468 0.021576 0.0493723 0.124712 0.0209435 0.0480436 0.121356 0.0203781 0.0468728 0.118399 0.0198799 0.0458601 0.115841 0.0194488 0.12818 0.417008 0.0682299 0.115212 0.37482 0.0613227 0.103789 0.337659 0.0552385 0.0939121 0.305525 0.0499774 0.0855799 0.278418 0.0455392 0.0784201 0.255125 0.0417255 0.0720601 0.234434 0.0383378 0.0664998 0.216345 0.0353761 0.0617392 0.200857 0.0328403 0.0576135 0.187435 0.0306426 0.0539579 0.175542 0.0286953 0.0507722 0.165178 0.0269982 0.0480565 0.156343 0.0255514 0.0457297 0.148773 0.0243118 0.0437106 0.142205 0.023236 0.0419992 0.136637 0.0223241 0.0405956 0.13207 0.021576 0.0394088 0.12821 0.0209435 0.0383482 0.124759 0.0203781 0.0374137 0.121719 0.0198799 0.0366054 0.119089 0.0194488 0.0956215 0.425655 0.0682299 0.0859477 0.382592 0.0613227 0.0774265 0.344661 0.0552385 0.070058 0.31186 0.0499774 0.0638422 0.284191 0.0455392 0.0585011 0.260415 0.0417255 0.0537565 0.239295 0.0383378 0.0496085 0.220831 0.0353761 0.0460572 0.205022 0.0328403 0.0429794 0.191322 0.0306426 0.0402523 0.179182 0.0286953 0.0378758 0.168603 0.0269982 0.0358499 0.159585 0.0255514 0.0341142 0.151858 0.0243118 0.0326079 0.145153 0.023236 0.0313312 0.13947 0.0223241 0.0302841 0.134809 0.021576 0.0293988 0.130868 0.0209435 0.0286076 0.127346 0.0203781 0.0279104 0.124243 0.0198799 0.0273074 0.121559 0.0194487 0.0632232 0.431658 0.0682299 0.0568271 0.387988 0.0613227 0.051193 0.349521 0.0552385 0.0463211 0.316258 0.0499774 0.0422113 0.288199 0.0455392 0.0386798 0.264088 0.0417255 0.0355428 0.24267 0.0383378 0.0328003 0.223945 0.0353761 0.0304522 0.207913 0.0328403 0.0284172 0.19402 0.0306426 0.0266141 0.181709 0.0286952 0.0250428 0.170981 0.0269982 0.0237033 0.161836 0.0255514 0.0225556 0.154 0.0243117 0.0215597 0.1472 0.023236 0.0207156 0.141437 0.022324 0.0200233 0.13671 0.021576 0.0194379 0.132714 0.0209435 0.0189148 0.129142 0.0203781 0.0184539 0.125995 0.0198799 0.0180552 0.123273 0.0194487 0.0312668 0.435142 0.0682299 0.0281036 0.391119 0.0613227 0.0253173 0.352342 0.0552385 0.0229079 0.318811 0.0499774 0.0208754 0.290525 0.0455392 0.019129 0.266219 0.0417255 0.0175775 0.244628 0.0383378 0.0162212 0.225752 0.0353761 0.01506 0.209591 0.0328403 0.0140536 0.195585 0.0306426 0.0131619 0.183175 0.0286952 0.0123848 0.172361 0.0269982 0.0117224 0.163142 0.0255514 0.0111548 0.155243 0.0243117 0.0106623 0.148388 0.023236 0.0102448 0.142579 0.022324 0.00990242 0.137813 0.021576 0.00961293 0.133785 0.0209435 0.00935422 0.130184 0.0203781 0.00912627 0.127012 0.0198799 0.0089291 0.124268 0.0194488 0 0.436263 0.0682299 0 0.392127 0.0613227 0 0.353251 0.0552385 0 0.319633 0.0499774 0 0.291274 0.0455392 0 0.266905 0.0417255 0 0.245259 0.0383378 0 0.226334 0.0353761 0 0.210131 0.0328403 0 0.19609 0.0306426 0 0.183647 0.0286952 0 0.172805 0.0269982 0 0.163562 0.0255514 0 0.155643 0.0243117 0 0.148771 0.023236 0 0.142946 0.022324 0 0.138169 0.021576 0 0.13413 0.0209435 0 0.13052 0.0203781 0 0.127339 0.0198799 0 0.124588 0.0194488 0.433249 0 0.0853255 0.389418 0 0.0766874 0.35081 0 0.0690787 0.317424 0 0.0624992 0.289262 0 0.0569489 0.265062 0 0.0521797 0.243565 0 0.0479432 0.224771 0 0.0442394 0.208681 0 0.0410683 0.194736 0 0.0383201 0.18238 0 0.0358848 0.171612 0 0.0337626 0.162434 0 0.0319533 0.154569 0 0.030403 0.147744 0 0.0290576 0.14196 0 0.0279172 0.137216 0 0.0269817 0.133204 0 0.0261907 0.12962 0 0.0254836 0.126461 0 0.0248605 0.123729 0 0.0243214 0.432135 0.0310508 0.0853255 0.388417 0.0279094 0.0766874 0.349908 0.0251424 0.0690787 0.316608 0.0227497 0.0624992 0.288518 0.0207312 0.0569489 0.26438 0.0189968 0.0521797 0.242939 0.0174562 0.0479432 0.224193 0.0161092 0.0442394 0.208144 0.014956 0.0410683 0.194235 0.0139566 0.0383201 0.181911 0.013071 0.0358848 0.171171 0.0122993 0.0337626 0.162016 0.0116415 0.0319533 0.154171 0.0110778 0.030403 0.147365 0.0105887 0.0290576 0.141595 0.0101741 0.0279172 0.136863 0.00983411 0.0269817 0.132862 0.00954663 0.0261907 0.129286 0.00928971 0.0254836 0.126136 0.00906335 0.0248605 0.123411 0.00886755 0.0243214 0.428675 0.0627864 0.0853255 0.385307 0.0564344 0.0766874 0.347107 0.0508393 0.0690787 0.314074 0.0460011 0.0624992 0.286208 0.0419197 0.0569489 0.262264 0.0384127 0.0521797 0.240994 0.0352974 0.0479432 0.222399 0.0325738 0.0442394 0.206478 0.0302419 0.0410683 0.19268 0.028221 0.0383201 0.180455 0.0264304 0.0358848 0.169801 0.0248699 0.0337626 0.160719 0.0235397 0.0319533 0.152937 0.0224 0.030403 0.146185 0.021411 0.0290576 0.140461 0.0205727 0.0279172 0.135767 0.0198851 0.0269817 0.131798 0.0193038 0.0261907 0.128251 0.0187843 0.0254836 0.125126 0.0183266 0.0248605 0.122423 0.0179307 0.0243214 0.422714 0.0949608 0.0853255 0.379949 0.0853538 0.0766874 0.34228 0.0768916 0.0690787 0.309706 0.069574 0.0624992 0.282228 0.0634012 0.0569489 0.258617 0.058097 0.0521797 0.237642 0.0533853 0.0479432 0.219306 0.049266 0.0442394 0.203606 0.0457392 0.0410683 0.190001 0.0426827 0.0383201 0.177945 0.0399745 0.0358848 0.167439 0.0376144 0.0337626 0.158484 0.0356025 0.0319533 0.15081 0.0338788 0.030403 0.144152 0.0323829 0.0290576 0.138508 0.0311151 0.0279172 0.133879 0.0300752 0.0269817 0.129965 0.029196 0.0261907 0.126468 0.0284103 0.0254836 0.123386 0.027718 0.0248605 0.120721 0.0271192 0.0243214 0.414127 0.127294 0.0853255 0.372231 0.114416 0.0766875 0.335326 0.103072 0.0690787 0.303414 0.0932633 0.0624992 0.276495 0.0849887 0.056949 0.253363 0.0778785 0.0521797 0.232815 0.0715624 0.0479432 0.214851 0.0660406 0.0442394 0.19947 0.061313 0.0410683 0.186141 0.0572158 0.0383201 0.17433 0.0535854 0.0358849 0.164038 0.0504218 0.0337626 0.155264 0.0477249 0.0319533 0.147747 0.0454142 0.030403 0.141224 0.043409 0.0290576 0.135694 0.0417095 0.0279172 0.131159 0.0403155 0.0269817 0.127325 0.039137 0.0261907 0.123899 0.0380837 0.0254836 0.12088 0.0371557 0.0248605 0.118268 0.036353 0.0243214 0.40283 0.159477 0.0853255 0.362077 0.143343 0.0766875 0.326179 0.129132 0.0690787 0.295138 0.116843 0.0624992 0.268952 0.106476 0.056949 0.246452 0.097568 0.0521797 0.226464 0.0896552 0.0479432 0.20899 0.0827373 0.0442394 0.194029 0.0768144 0.0410683 0.181063 0.0716814 0.0383201 0.169575 0.0671332 0.0358849 0.159563 0.0631697 0.0337626 0.151029 0.059791 0.0319533 0.143717 0.056896 0.030403 0.137371 0.054384 0.0290576 0.131993 0.0522547 0.0279172 0.127582 0.0505083 0.0269817 0.123852 0.0490318 0.0261907 0.120519 0.0477122 0.0254836 0.117582 0.0465496 0.0248605 0.115042 0.045544 0.0243214 0.388787 0.191179 0.0853255 0.349454 0.171838 0.0766875 0.314808 0.154801 0.0690787 0.284849 0.140069 0.0624992 0.259577 0.127642 0.056949 0.23786 0.116963 0.0521797 0.21857 0.107478 0.0479432 0.201705 0.0991844 0.0442394 0.187265 0.0920842 0.0410684 0.174752 0.0859308 0.0383201 0.163663 0.0804784 0.0358849 0.154001 0.0757271 0.0337626 0.145764 0.0716767 0.0319533 0.138707 0.0682063 0.030403 0.132582 0.0651949 0.0290576 0.127392 0.0626424 0.0279172 0.123134 0.0605488 0.0269817 0.119535 0.0587788 0.0261907 0.116318 0.0571969 0.0254836 0.113483 0.0558032 0.0248605 0.111032 0.0545976 0.0243214 0.372016 0.222057 0.0853255 0.33438 0.199592 0.0766875 0.301228 0.179804 0.0690787 0.272561 0.162692 0.0624992 0.248379 0.148258 0.056949 0.227599 0.135854 0.0521797 0.209141 0.124836 0.0479432 0.193003 0.115204 0.0442394 0.179187 0.106957 0.0410684 0.167213 0.0998097 0.0383201 0.156603 0.0934767 0.0358849 0.147358 0.087958 0.0337626 0.139476 0.0832534 0.0319533 0.132723 0.0792225 0.030403 0.126863 0.0757247 0.0290576 0.121896 0.0727599 0.0279172 0.117822 0.0703282 0.0269817 0.114378 0.0682723 0.0261907 0.1113 0.066435 0.0254837 0.108588 0.0648161 0.0248605 0.106242 0.0634159 0.0243214 0.35259 0.251765 0.0853255 0.316919 0.226295 0.0766875 0.285498 0.203859 0.0690787 0.258329 0.184458 0.0624992 0.235409 0.168093 0.056949 0.215714 0.15403 0.0521797 0.19822 0.141538 0.0479432 0.182925 0.130617 0.0442394 0.16983 0.121266 0.0410684 0.158482 0.113163 0.0383201 0.148426 0.105983 0.0358849 0.139663 0.0997256 0.0337626 0.132193 0.0943917 0.0319533 0.125792 0.0898215 0.030403 0.120239 0.0858557 0.0290576 0.115531 0.0824943 0.0279172 0.11167 0.0797373 0.0269817 0.108405 0.0774063 0.0261907 0.105488 0.0753232 0.0254837 0.102918 0.0734878 0.0248606 0.100694 0.0719001 0.0243214 0.33064 0.279968 0.0853255 0.29719 0.251645 0.0766875 0.267725 0.226696 0.0690787 0.242247 0.205122 0.0624992 0.220754 0.186923 0.056949 0.202286 0.171285 0.0521797 0.18588 0.157393 0.0479432 0.171537 0.145249 0.0442394 0.159258 0.134851 0.0410684 0.148616 0.12584 0.0383201 0.139186 0.117855 0.0358849 0.130968 0.110897 0.0337626 0.123963 0.104966 0.0319533 0.117962 0.0998836 0.030403 0.112753 0.0954736 0.0290576 0.108339 0.0917356 0.0279172 0.104718 0.0886697 0.0269817 0.101657 0.0860777 0.0261907 0.0989211 0.0837611 0.0254837 0.0965107 0.0817201 0.0248606 0.0944257 0.0799547 0.0243214 0.306354 0.306354 0.0853255 0.27536 0.27536 0.0766875 0.24806 0.24806 0.0690787 0.224453 0.224453 0.0624992 0.204539 0.204539 0.056949 0.187427 0.187427 0.0521797 0.172227 0.172227 0.0479432 0.158938 0.158938 0.0442394 0.14756 0.14756 0.0410684 0.137699 0.137699 0.0383201 0.128962 0.128962 0.0358849 0.121349 0.121349 0.0337626 0.114858 0.114858 0.0319533 0.109297 0.109297 0.030403 0.104471 0.104471 0.0290576 0.100381 0.100381 0.0279172 0.0970263 0.0970263 0.0269817 0.0941899 0.0941899 0.0261907 0.0916551 0.0916551 0.0254837 0.0894217 0.0894217 0.0248606 0.0874899 0.0874899 0.0243214 0.279968 0.33064 0.0853255 0.251645 0.29719 0.0766875 0.226696 0.267725 0.0690787 0.205122 0.242247 0.0624992 0.186923 0.220754 0.056949 0.171285 0.202286 0.0521797 0.157393 0.18588 0.0479432 0.145249 0.171537 0.0442394 0.134851 0.159258 0.0410684 0.12584 0.148616 0.0383201 0.117855 0.139186 0.0358849 0.110897 0.130968 0.0337626 0.104966 0.123963 0.0319533 0.0998836 0.117962 0.030403 0.0954736 0.112753 0.0290576 0.0917356 0.108339 0.0279172 0.0886697 0.104718 0.0269817 0.0860777 0.101657 0.0261907 0.0837611 0.0989211 0.0254837 0.0817201 0.0965107 0.0248606 0.0799547 0.0944257 0.0243214 0.251765 0.35259 0.0853255 0.226295 0.316919 0.0766875 0.203859 0.285498 0.0690787 0.184458 0.258329 0.0624992 0.168093 0.235409 0.056949 0.15403 0.215714 0.0521797 0.141538 0.19822 0.0479432 0.130617 0.182925 0.0442394 0.121266 0.16983 0.0410684 0.113163 0.158482 0.0383201 0.105983 0.148426 0.0358849 0.0997256 0.139663 0.0337626 0.0943917 0.132193 0.0319533 0.0898215 0.125792 0.030403 0.0858557 0.120239 0.0290576 0.0824943 0.115531 0.0279172 0.0797373 0.11167 0.0269817 0.0774063 0.108405 0.0261907 0.0753232 0.105488 0.0254837 0.0734878 0.102918 0.0248606 0.0719001 0.100694 0.0243214 0.222057 0.372016 0.0853255 0.199592 0.33438 0.0766875 0.179804 0.301228 0.0690787 0.162692 0.272561 0.0624992 0.148258 0.248379 0.056949 0.135854 0.227599 0.0521797 0.124836 0.209141 0.0479432 0.115204 0.193003 0.0442394 0.106957 0.179187 0.0410684 0.0998097 0.167213 0.0383201 0.0934767 0.156603 0.0358849 0.087958 0.147358 0.0337626 0.0832534 0.139476 0.0319533 0.0792225 0.132723 0.030403 0.0757247 0.126863 0.0290576 0.0727599 0.121896 0.0279172 0.0703282 0.117822 0.0269817 0.0682723 0.114378 0.0261907 0.066435 0.1113 0.0254837 0.0648161 0.108588 0.0248605 0.0634159 0.106242 0.0243214 0.191179 0.388787 0.0853255 0.171838 0.349454 0.0766875 0.154801 0.314808 0.0690787 0.140069 0.284849 0.0624992 0.127642 0.259577 0.056949 0.116963 0.23786 0.0521797 0.107478 0.21857 0.0479432 0.0991844 0.201705 0.0442394 0.0920842 0.187265 0.0410684 0.0859308 0.174752 0.0383201 0.0804784 0.163663 0.0358849 0.0757271 0.154001 0.0337626 0.0716767 0.145764 0.0319533 0.0682063 0.138707 0.030403 0.0651949 0.132582 0.0290576 0.0626424 0.127392 0.0279172 0.0605488 0.123134 0.0269817 0.0587788 0.119535 0.0261907 0.0571969 0.116318 0.0254836 0.0558032 0.113483 0.0248605 0.0545976 0.111032 0.0243214 0.159477 0.40283 0.0853255 0.143343 0.362077 0.0766875 0.129132 0.326179 0.0690787 0.116843 0.295138 0.0624992 0.106476 0.268952 0.056949 0.097568 0.246452 0.0521797 0.0896552 0.226464 0.0479432 0.0827373 0.20899 0.0442394 0.0768144 0.194029 0.0410683 0.0716814 0.181063 0.0383201 0.0671332 0.169575 0.0358849 0.0631697 0.159563 0.0337626 0.059791 0.151029 0.0319533 0.056896 0.143717 0.030403 0.054384 0.137371 0.0290576 0.0522547 0.131993 0.0279172 0.0505083 0.127582 0.0269817 0.0490318 0.123852 0.0261907 0.0477122 0.120519 0.0254836 0.0465496 0.117582 0.0248605 0.045544 0.115042 0.0243214 0.127294 0.414127 0.0853255 0.114416 0.372231 0.0766875 0.103072 0.335326 0.0690787 0.0932633 0.303414 0.0624992 0.0849887 0.276495 0.056949 0.0778785 0.253363 0.0521797 0.0715624 0.232815 0.0479432 0.0660406 0.214851 0.0442394 0.061313 0.19947 0.0410683 0.0572158 0.186141 0.0383201 0.0535854 0.17433 0.0358849 0.0504218 0.164038 0.0337626 0.0477249 0.155264 0.0319533 0.0454142 0.147747 0.030403 0.043409 0.141224 0.0290576 0.0417095 0.135694 0.0279172 0.0403155 0.131159 0.0269817 0.039137 0.127325 0.0261907 0.0380837 0.123899 0.0254836 0.0371557 0.12088 0.0248605 0.036353 0.118268 0.0243214 0.0949608 0.422714 0.0853255 0.0853538 0.379949 0.0766874 0.0768916 0.34228 0.0690787 0.069574 0.309706 0.0624992 0.0634012 0.282228 0.0569489 0.058097 0.258617 0.0521797 0.0533853 0.237642 0.0479432 0.049266 0.219306 0.0442394 0.0457392 0.203606 0.0410683 0.0426827 0.190001 0.0383201 0.0399745 0.177945 0.0358848 0.0376144 0.167439 0.0337626 0.0356025 0.158484 0.0319533 0.0338788 0.15081 0.030403 0.0323829 0.144152 0.0290576 0.0311151 0.138508 0.0279172 0.0300752 0.133879 0.0269817 0.029196 0.129965 0.0261907 0.0284103 0.126468 0.0254836 0.027718 0.123386 0.0248605 0.0271192 0.120721 0.0243214 0.0627864 0.428675 0.0853255 0.0564344 0.385307 0.0766874 0.0508393 0.347107 0.0690787 0.0460011 0.314074 0.0624992 0.0419197 0.286208 0.0569489 0.0384127 0.262264 0.0521797 0.0352974 0.240994 0.0479432 0.0325738 0.222399 0.0442394 0.0302419 0.206478 0.0410683 0.028221 0.19268 0.0383201 0.0264304 0.180455 0.0358848 0.0248699 0.169801 0.0337626 0.0235397 0.160719 0.0319533 0.0224 0.152937 0.030403 0.021411 0.146185 0.0290576 0.0205727 0.140461 0.0279172 0.0198851 0.135767 0.0269817 0.0193038 0.131798 0.0261907 0.0187843 0.128251 0.0254836 0.0183266 0.125126 0.0248605 0.0179307 0.122423 0.0243214 0.0310508 0.432135 0.0853255 0.0279094 0.388417 0.0766874 0.0251424 0.349908 0.0690787 0.0227497 0.316608 0.0624992 0.0207312 0.288518 0.0569489 0.0189968 0.26438 0.0521797 0.0174562 0.242939 0.0479432 0.0161092 0.224193 0.0442394 0.014956 0.208144 0.0410683 0.0139566 0.194235 0.0383201 0.013071 0.181911 0.0358848 0.0122993 0.171171 0.0337626 0.0116415 0.162016 0.0319533 0.0110778 0.154171 0.030403 0.0105887 0.147365 0.0290576 0.0101741 0.141595 0.0279172 0.00983411 0.136863 0.0269817 0.00954663 0.132862 0.0261907 0.00928971 0.129286 0.0254836 0.00906335 0.126136 0.0248605 0.00886755 0.123411 0.0243214 0 0.433249 0.0853255 0 0.389418 0.0766874 0 0.35081 0.0690787 0 0.317424 0.0624992 0 0.289262 0.0569489 0 0.265062 0.0521797 0 0.243565 0.0479432 0 0.224771 0.0442394 0 0.208681 0.0410683 0 0.194736 0.0383201 0 0.18238 0.0358848 0 0.171612 0.0337626 0 0.162434 0.0319533 0 0.154569 0.030403 0 0.147744 0.0290576 0 0.14196 0.0279172 0 0.137216 0.0269817 0 0.133204 0.0261907 0 0.12962 0.0254836 0 0.126461 0.0248605 0 0.123729 0.0243214 0.429551 0 0.102357 0.386094 0 0.0919944 0.347815 0 0.0828667 0.314715 0 0.0749738 0.286793 0 0.0683156 0.2628 0 0.0625943 0.241487 0 0.0575121 0.222854 0 0.053069 0.2069 0 0.0492651 0.193075 0 0.0459684 0.180824 0 0.0430471 0.170149 0 0.0405013 0.161049 0 0.0383309 0.153251 0 0.0364711 0.146485 0 0.0348571 0.14075 0 0.033489 0.136046 0 0.0323668 0.132069 0 0.0314179 0.128515 0 0.0305696 0.125384 0 0.0298221 0.122675 0 0.0291754 0.428446 0.0307857 0.102357 0.385101 0.0276712 0.0919944 0.346921 0.0249278 0.0828667 0.313906 0.0225555 0.0749738 0.286055 0.0205543 0.0683156 0.262124 0.0188347 0.0625943 0.240866 0.0173072 0.0575121 0.22228 0.0159718 0.053069 0.206368 0.0148284 0.0492651 0.192578 0.0138375 0.0459684 0.180359 0.0129596 0.0430471 0.169711 0.0121944 0.0405013 0.160634 0.0115422 0.0383309 0.152857 0.0109834 0.0364711 0.146108 0.0104984 0.0348571 0.140388 0.0100874 0.033489 0.135696 0.0097503 0.0323668 0.13173 0.00946528 0.0314178 0.128185 0.00921056 0.0305696 0.125062 0.00898614 0.0298221 0.12236 0.00879202 0.0291754 0.425016 0.0622504 0.102357 0.382018 0.0559527 0.0919944 0.344144 0.0504054 0.0828667 0.311393 0.0456085 0.0749738 0.283765 0.041562 0.0683156 0.260026 0.0380849 0.0625943 0.238937 0.0349962 0.0575121 0.220501 0.0322959 0.0530691 0.204716 0.0299839 0.0492651 0.191037 0.0279803 0.0459684 0.178916 0.026205 0.0430472 0.168353 0.0246579 0.0405013 0.159348 0.023339 0.0383309 0.151633 0.022209 0.0364711 0.144939 0.0212285 0.0348571 0.139264 0.0203974 0.033489 0.13461 0.0197157 0.0323668 0.130675 0.0191394 0.0314178 0.127159 0.0186243 0.0305696 0.12406 0.0181705 0.0298221 0.12138 0.017778 0.0291754 0.419106 0.0941502 0.102357 0.376706 0.0846252 0.0919944 0.339358 0.0762352 0.0828667 0.307063 0.0689802 0.0749738 0.279819 0.0628601 0.0683156 0.25641 0.0576012 0.0625943 0.235615 0.0529297 0.0575121 0.217435 0.0488457 0.0530691 0.20187 0.045349 0.0492651 0.18838 0.0423187 0.0459684 0.176428 0.0396336 0.0430472 0.166012 0.0372937 0.0405013 0.157133 0.035299 0.0383309 0.149525 0.0335899 0.0364711 0.142923 0.0321069 0.0348571 0.137328 0.0308499 0.033489 0.132738 0.0298189 0.0323668 0.128858 0.0289472 0.0314178 0.12539 0.0281682 0.0305696 0.122335 0.0274819 0.0298221 0.119692 0.0268882 0.0291754 0.410592 0.126207 0.102357 0.369053 0.113439 0.0919944 0.332464 0.102193 0.0828668 0.300825 0.0924673 0.0749738 0.274135 0.0842634 0.0683156 0.251201 0.0772139 0.0625943 0.230828 0.0709518 0.0575121 0.213018 0.0654771 0.0530691 0.197769 0.0607899 0.0492651 0.184553 0.0567278 0.0459684 0.172844 0.0531284 0.0430472 0.162639 0.0499918 0.0405013 0.15394 0.047318 0.0383309 0.146487 0.045027 0.0364711 0.14002 0.043039 0.0348571 0.134538 0.041354 0.0334891 0.130042 0.0399719 0.0323668 0.12624 0.0388035 0.0314179 0.122843 0.0377593 0.0305696 0.11985 0.0368392 0.0298221 0.117261 0.0360434 0.0291754 0.399391 0.158116 0.102357 0.358986 0.142119 0.0919944 0.323395 0.128029 0.0828668 0.292619 0.115845 0.0749738 0.266657 0.105567 0.0683156 0.244348 0.0967354 0.0625943 0.224532 0.0888901 0.0575121 0.207207 0.0820314 0.0530691 0.192374 0.0761591 0.0492651 0.179519 0.07107 0.0459684 0.168129 0.0665606 0.0430472 0.158203 0.062631 0.0405013 0.149741 0.0592812 0.0383309 0.142491 0.056411 0.0364711 0.1362 0.0539204 0.0348572 0.130868 0.0518093 0.0334891 0.126494 0.0500779 0.0323668 0.122797 0.048614 0.0314179 0.119492 0.0473057 0.0305696 0.116581 0.0461531 0.0298221 0.114062 0.0451561 0.0291754 0.385468 0.189547 0.102357 0.346471 0.170371 0.0919944 0.312121 0.15348 0.0828668 0.282418 0.138874 0.0749738 0.257361 0.126553 0.0683156 0.23583 0.115965 0.0625943 0.216704 0.10656 0.0575121 0.199984 0.0983382 0.0530691 0.185668 0.0912986 0.0492651 0.173261 0.0851978 0.0459685 0.162268 0.0797921 0.0430472 0.152688 0.0750813 0.0405013 0.144521 0.0710656 0.0383309 0.137524 0.0676248 0.0364711 0.131452 0.0646391 0.0348572 0.126306 0.0621084 0.0334891 0.122085 0.0600328 0.0323668 0.118516 0.0582779 0.0314179 0.115327 0.0567096 0.0305696 0.112517 0.0553278 0.0298222 0.110086 0.0541326 0.0291754 0.36884 0.220161 0.102357 0.331525 0.197888 0.0919945 0.298657 0.178269 0.0828668 0.270235 0.161304 0.0749738 0.246259 0.146992 0.0683156 0.225657 0.134695 0.0625943 0.207356 0.123771 0.0575122 0.191357 0.114221 0.0530691 0.177658 0.106045 0.0492651 0.165787 0.0989584 0.0459685 0.155268 0.0926795 0.0430472 0.146101 0.0872079 0.0405013 0.138287 0.0825436 0.0383309 0.131592 0.0785471 0.0364711 0.125782 0.0750792 0.0348572 0.120857 0.0721398 0.0334891 0.116818 0.0697289 0.0323668 0.113403 0.0676906 0.0314179 0.110352 0.0658689 0.0305696 0.107663 0.064264 0.0298222 0.105337 0.0628757 0.0291754 0.34958 0.249616 0.102357 0.314213 0.224363 0.0919945 0.283061 0.202119 0.0828668 0.256124 0.182884 0.0749738 0.2334 0.166658 0.0683156 0.213874 0.152715 0.0625943 0.196528 0.14033 0.0575122 0.181364 0.129502 0.0530691 0.168381 0.120232 0.0492651 0.15713 0.112198 0.0459685 0.14716 0.105079 0.0430472 0.138472 0.0988752 0.0405013 0.131066 0.0935869 0.0383309 0.12472 0.0890557 0.0364711 0.119214 0.0851238 0.0348572 0.114546 0.0817912 0.0334891 0.110718 0.0790577 0.0323668 0.107482 0.0767467 0.0314179 0.104589 0.0746814 0.0305697 0.102041 0.0728617 0.0298222 0.0998366 0.0712878 0.0291754 0.327817 0.277579 0.102357 0.294653 0.249497 0.0919945 0.26544 0.224761 0.0828668 0.240179 0.203371 0.0749738 0.21887 0.185328 0.0683156 0.200559 0.169823 0.0625943 0.184294 0.15605 0.0575122 0.170074 0.14401 0.0530691 0.157899 0.133701 0.0492651 0.147348 0.124767 0.0459685 0.137999 0.11685 0.0430472 0.129852 0.109952 0.0405013 0.122907 0.104071 0.0383309 0.116956 0.0990321 0.0364711 0.111792 0.0946597 0.0348572 0.107415 0.0909537 0.0334891 0.103826 0.0879141 0.0323668 0.100791 0.0853442 0.0314179 0.0980783 0.0830475 0.0305697 0.0956885 0.081024 0.0298222 0.0936214 0.0792737 0.0291754 0.303738 0.303738 0.102357 0.27301 0.27301 0.0919945 0.245943 0.245943 0.0828668 0.222537 0.222537 0.0749738 0.202793 0.202793 0.0683156 0.185828 0.185828 0.0625943 0.170757 0.170757 0.0575122 0.157582 0.157582 0.0530691 0.146301 0.146301 0.0492651 0.136525 0.136525 0.0459685 0.127862 0.127862 0.0430472 0.120314 0.120314 0.0405013 0.113879 0.113879 0.0383309 0.108365 0.108365 0.0364711 0.103581 0.103581 0.0348572 0.0995255 0.0995255 0.0334891 0.0961994 0.0961994 0.0323668 0.0933873 0.0933873 0.0314179 0.0908742 0.0908742 0.0305697 0.08866 0.08866 0.0298222 0.0867447 0.0867447 0.0291754 0.277579 0.327817 0.102357 0.249497 0.294653 0.0919945 0.224761 0.26544 0.0828668 0.203371 0.240179 0.0749738 0.185328 0.21887 0.0683156 0.169823 0.200559 0.0625943 0.15605 0.184294 0.0575122 0.14401 0.170074 0.0530691 0.133701 0.157899 0.0492651 0.124767 0.147348 0.0459685 0.11685 0.137999 0.0430472 0.109952 0.129852 0.0405013 0.104071 0.122907 0.0383309 0.0990321 0.116956 0.0364711 0.0946597 0.111792 0.0348572 0.0909537 0.107415 0.0334891 0.0879141 0.103826 0.0323668 0.0853442 0.100791 0.0314179 0.0830475 0.0980783 0.0305697 0.081024 0.0956885 0.0298222 0.0792737 0.0936214 0.0291754 0.249616 0.34958 0.102357 0.224363 0.314213 0.0919945 0.202119 0.283061 0.0828668 0.182884 0.256124 0.0749738 0.166658 0.2334 0.0683156 0.152715 0.213874 0.0625943 0.14033 0.196528 0.0575122 0.129502 0.181364 0.0530691 0.120232 0.168381 0.0492651 0.112198 0.15713 0.0459685 0.105079 0.14716 0.0430472 0.0988752 0.138472 0.0405013 0.0935869 0.131066 0.0383309 0.0890557 0.12472 0.0364711 0.0851238 0.119214 0.0348572 0.0817912 0.114546 0.0334891 0.0790577 0.110718 0.0323668 0.0767467 0.107482 0.0314179 0.0746814 0.104589 0.0305697 0.0728617 0.102041 0.0298222 0.0712878 0.0998366 0.0291754 0.220161 0.36884 0.102357 0.197888 0.331525 0.0919945 0.178269 0.298657 0.0828668 0.161304 0.270235 0.0749738 0.146992 0.246259 0.0683156 0.134695 0.225657 0.0625943 0.123771 0.207356 0.0575122 0.114221 0.191357 0.0530691 0.106045 0.177658 0.0492651 0.0989584 0.165787 0.0459685 0.0926795 0.155268 0.0430472 0.0872079 0.146101 0.0405013 0.0825436 0.138287 0.0383309 0.0785471 0.131592 0.0364711 0.0750792 0.125782 0.0348572 0.0721398 0.120857 0.0334891 0.0697289 0.116818 0.0323668 0.0676906 0.113403 0.0314179 0.0658689 0.110352 0.0305696 0.064264 0.107663 0.0298222 0.0628757 0.105337 0.0291754 0.189547 0.385468 0.102357 0.170371 0.346471 0.0919944 0.15348 0.312121 0.0828668 0.138874 0.282418 0.0749738 0.126553 0.257361 0.0683156 0.115965 0.23583 0.0625943 0.10656 0.216704 0.0575121 0.0983382 0.199984 0.0530691 0.0912986 0.185668 0.0492651 0.0851978 0.173261 0.0459685 0.0797921 0.162268 0.0430472 0.0750813 0.152688 0.0405013 0.0710656 0.144521 0.0383309 0.0676248 0.137524 0.0364711 0.0646391 0.131452 0.0348572 0.0621084 0.126306 0.0334891 0.0600328 0.122085 0.0323668 0.0582779 0.118516 0.0314179 0.0567096 0.115327 0.0305696 0.0553278 0.112517 0.0298222 0.0541326 0.110086 0.0291754 0.158116 0.399391 0.102357 0.142119 0.358986 0.0919944 0.128029 0.323395 0.0828668 0.115845 0.292619 0.0749738 0.105567 0.266657 0.0683156 0.0967354 0.244348 0.0625943 0.0888901 0.224532 0.0575121 0.0820314 0.207207 0.0530691 0.0761591 0.192374 0.0492651 0.07107 0.179519 0.0459684 0.0665606 0.168129 0.0430472 0.062631 0.158203 0.0405013 0.0592812 0.149741 0.0383309 0.056411 0.142491 0.0364711 0.0539204 0.1362 0.0348572 0.0518093 0.130868 0.0334891 0.0500779 0.126494 0.0323668 0.048614 0.122797 0.0314179 0.0473057 0.119492 0.0305696 0.0461531 0.116581 0.0298221 0.0451561 0.114062 0.0291754 0.126207 0.410592 0.102357 0.113439 0.369053 0.0919944 0.102193 0.332464 0.0828668 0.0924673 0.300825 0.0749738 0.0842634 0.274135 0.0683156 0.0772139 0.251201 0.0625943 0.0709518 0.230828 0.0575121 0.0654771 0.213018 0.0530691 0.0607899 0.197769 0.0492651 0.0567278 0.184553 0.0459684 0.0531284 0.172844 0.0430472 0.0499918 0.162639 0.0405013 0.047318 0.15394 0.0383309 0.045027 0.146487 0.0364711 0.043039 0.14002 0.0348571 0.041354 0.134538 0.0334891 0.0399719 0.130042 0.0323668 0.0388035 0.12624 0.0314179 0.0377593 0.122843 0.0305696 0.0368392 0.11985 0.0298221 0.0360434 0.117261 0.0291754 0.0941502 0.419106 0.102357 0.0846252 0.376706 0.0919944 0.0762352 0.339358 0.0828667 0.0689802 0.307063 0.0749738 0.0628601 0.279819 0.0683156 0.0576012 0.25641 0.0625943 0.0529297 0.235615 0.0575121 0.0488457 0.217435 0.0530691 0.045349 0.20187 0.0492651 0.0423187 0.18838 0.0459684 0.0396336 0.176428 0.0430472 0.0372937 0.166012 0.0405013 0.035299 0.157133 0.0383309 0.0335899 0.149525 0.0364711 0.0321069 0.142923 0.0348571 0.0308499 0.137328 0.033489 0.0298189 0.132738 0.0323668 0.0289472 0.128858 0.0314178 0.0281682 0.12539 0.0305696 0.0274819 0.122335 0.0298221 0.0268882 0.119692 0.0291754 0.0622504 0.425016 0.102357 0.0559527 0.382018 0.0919944 0.0504054 0.344144 0.0828667 0.0456085 0.311393 0.0749738 0.041562 0.283765 0.0683156 0.0380849 0.260026 0.0625943 0.0349962 0.238937 0.0575121 0.0322959 0.220501 0.0530691 0.0299839 0.204716 0.0492651 0.0279803 0.191037 0.0459684 0.026205 0.178916 0.0430472 0.0246579 0.168353 0.0405013 0.023339 0.159348 0.0383309 0.022209 0.151633 0.0364711 0.0212285 0.144939 0.0348571 0.0203974 0.139264 0.033489 0.0197157 0.13461 0.0323668 0.0191394 0.130675 0.0314178 0.0186243 0.127159 0.0305696 0.0181705 0.12406 0.0298221 0.017778 0.12138 0.0291754 0.0307857 0.428446 0.102357 0.0276712 0.385101 0.0919944 0.0249278 0.346921 0.0828667 0.0225555 0.313906 0.0749738 0.0205543 0.286055 0.0683156 0.0188347 0.262124 0.0625943 0.0173072 0.240866 0.0575121 0.0159718 0.22228 0.053069 0.0148284 0.206368 0.0492651 0.0138375 0.192578 0.0459684 0.0129596 0.180359 0.0430471 0.0121944 0.169711 0.0405013 0.0115422 0.160634 0.0383309 0.0109834 0.152857 0.0364711 0.0104984 0.146108 0.0348571 0.0100874 0.140388 0.033489 0.0097503 0.135696 0.0323668 0.00946528 0.13173 0.0314178 0.00921056 0.128185 0.0305696 0.00898614 0.125062 0.0298221 0.00879202 0.12236 0.0291754 0 0.429551 0.102357 0 0.386094 0.0919944 0 0.347815 0.0828667 0 0.314715 0.0749738 0 0.286793 0.0683156 0 0.2628 0.0625943 0 0.241487 0.0575121 0 0.222854 0.053069 0 0.2069 0.0492651 0 0.193075 0.0459684 0 0.180824 0.0430471 0 0.170149 0.0405013 0 0.161049 0.0383309 0 0.153251 0.0364711 0 0.146485 0.0348571 0 0.14075 0.033489 0 0.136046 0.0323668 0 0.132069 0.0314179 0 0.128515 0.0305696 0 0.125384 0.0298221 0 0.122675 0.0291754 0.425169 0 0.119283 0.382156 0 0.107207 0.344268 0 0.0965696 0.311506 0 0.0873712 0.283868 0 0.0796118 0.26012 0 0.0729442 0.239025 0 0.0670215 0.220582 0 0.0618437 0.204792 0 0.0574109 0.191107 0 0.0535692 0.178982 0 0.0501649 0.168415 0 0.0471982 0.159408 0 0.0446688 0.15169 0 0.0425015 0.144993 0 0.0406206 0.139317 0 0.0390263 0.134661 0 0.0377183 0.130725 0 0.0366124 0.127207 0 0.0356239 0.124108 0 0.0347528 0.121427 0 0.0339991 0.424076 0.0304717 0.119283 0.381173 0.027389 0.107207 0.343383 0.0246735 0.0965696 0.310705 0.0223255 0.0873712 0.283138 0.0203447 0.0796118 0.259451 0.0186427 0.0729442 0.23841 0.0171308 0.0670215 0.220014 0.015809 0.0618438 0.204265 0.0146773 0.0574109 0.190616 0.0136965 0.0535692 0.178522 0.0128275 0.0501649 0.167982 0.0120702 0.0471982 0.158998 0.0114246 0.0446689 0.1513 0.0108715 0.0425015 0.14462 0.0103915 0.0406206 0.138958 0.00998469 0.0390263 0.134315 0.00965102 0.0377183 0.130389 0.00936892 0.0366124 0.12688 0.00911681 0.0356239 0.123789 0.00889469 0.0347528 0.121115 0.00870256 0.0339991 0.420681 0.0616155 0.119283 0.378122 0.055382 0.107207 0.340634 0.0498913 0.0965696 0.308217 0.0451434 0.0873712 0.280872 0.0411381 0.0796118 0.257374 0.0376965 0.0729442 0.236501 0.0346394 0.0670215 0.218253 0.0319666 0.0618438 0.20263 0.0296783 0.0574109 0.18909 0.0276952 0.0535692 0.177092 0.0259379 0.0501649 0.166638 0.0244066 0.0471982 0.157725 0.0231013 0.0446689 0.150089 0.0219828 0.0425015 0.143462 0.0210123 0.0406206 0.137846 0.0201896 0.0390263 0.133239 0.0195149 0.0377183 0.129345 0.0189445 0.0366124 0.125864 0.0184347 0.0356239 0.122798 0.0179856 0.0347528 0.120145 0.0175971 0.0339991 0.414831 0.0931899 0.119283 0.372864 0.0837621 0.107207 0.335897 0.0754578 0.0965696 0.303931 0.0682767 0.0873712 0.276966 0.0622191 0.0796118 0.253795 0.0570139 0.0729442 0.233212 0.0523901 0.0670216 0.215218 0.0483477 0.0618438 0.199812 0.0448868 0.0574109 0.18646 0.0418874 0.0535692 0.17463 0.0392297 0.050165 0.16432 0.0369137 0.0471982 0.155532 0.0349394 0.0446689 0.148002 0.0332478 0.0425015 0.141467 0.0317799 0.0406206 0.135929 0.0305357 0.0390263 0.131387 0.0295153 0.0377183 0.127546 0.0286525 0.0366124 0.124114 0.0278815 0.0356239 0.12109 0.0272022 0.0347528 0.118474 0.0266146 0.0339991 0.406404 0.12492 0.119283 0.365289 0.112282 0.107207 0.329073 0.10115 0.0965696 0.297757 0.0915243 0.0873713 0.271339 0.0834041 0.0796118 0.248639 0.0764265 0.0729442 0.228475 0.0702284 0.0670216 0.210846 0.0648096 0.0618438 0.195753 0.0601703 0.0574109 0.182672 0.0561496 0.0535692 0.171082 0.052587 0.050165 0.160982 0.0494825 0.0471982 0.152372 0.0468359 0.0446689 0.144995 0.0445684 0.0425015 0.138594 0.0426007 0.0406207 0.133168 0.0409329 0.0390263 0.128718 0.0395649 0.0377183 0.124955 0.0384084 0.0366124 0.121593 0.0373749 0.0356239 0.11863 0.0364643 0.0347528 0.116068 0.0356766 0.0339991 0.395318 0.156503 0.119283 0.355324 0.14067 0.107207 0.320097 0.126724 0.0965696 0.289634 0.114664 0.0873713 0.263938 0.104491 0.0796118 0.241857 0.095749 0.0729442 0.222242 0.0879838 0.0670216 0.205094 0.0811951 0.0618438 0.190413 0.0753828 0.0574109 0.177689 0.0703457 0.0535692 0.166415 0.0658823 0.050165 0.156591 0.0619929 0.0471982 0.148216 0.0586772 0.0446689 0.14104 0.0558364 0.0425015 0.134813 0.0533712 0.0406207 0.129535 0.0512817 0.0390263 0.125206 0.049568 0.0377184 0.121547 0.0481191 0.0366124 0.118276 0.0468242 0.0356239 0.115394 0.0456834 0.0347528 0.112902 0.0446966 0.0339991 0.381537 0.187614 0.119283 0.342938 0.168633 0.107207 0.308938 0.151915 0.0965696 0.279538 0.137458 0.0873713 0.254737 0.125262 0.0796118 0.233426 0.114783 0.0729443 0.214495 0.105474 0.0670216 0.197945 0.0973357 0.0618438 0.183775 0.090368 0.0574109 0.171495 0.0843295 0.0535692 0.160614 0.078979 0.050165 0.151132 0.0743163 0.0471982 0.143049 0.0703416 0.0446689 0.136123 0.066936 0.0425015 0.130113 0.0639808 0.0406207 0.12502 0.061476 0.0390263 0.120842 0.0594215 0.0377184 0.117309 0.0576846 0.0366124 0.114153 0.0561323 0.0356239 0.111371 0.0547647 0.0347528 0.108966 0.0535818 0.0339991 0.365078 0.217916 0.119283 0.328144 0.19587 0.107207 0.295611 0.176451 0.0965696 0.267479 0.159659 0.0873713 0.243748 0.145493 0.0796118 0.223356 0.133322 0.0729443 0.205242 0.122509 0.0670216 0.189406 0.113057 0.0618438 0.175848 0.104964 0.0574109 0.164097 0.0979498 0.0535692 0.153686 0.0917351 0.050165 0.144613 0.0863194 0.0471982 0.136878 0.0817027 0.0446689 0.130251 0.077747 0.0425015 0.124501 0.0743145 0.0406207 0.119627 0.0714051 0.0390263 0.115629 0.0690189 0.0377184 0.112249 0.0670014 0.0366124 0.109228 0.0651984 0.0356239 0.106567 0.0636099 0.0347528 0.104265 0.0622359 0.0339991 0.346014 0.24707 0.119283 0.311009 0.222075 0.107207 0.280175 0.200058 0.0965696 0.253512 0.181019 0.0873713 0.23102 0.164959 0.0796118 0.211693 0.151158 0.0729443 0.194525 0.138899 0.0670216 0.179515 0.128182 0.0618438 0.166665 0.119006 0.0574109 0.155528 0.111054 0.0535692 0.14566 0.104008 0.050165 0.137061 0.0978678 0.0471982 0.129731 0.0926335 0.0446689 0.12345 0.0881486 0.0425015 0.117999 0.0842569 0.0406207 0.11338 0.0809583 0.0390263 0.109591 0.0782528 0.0377184 0.106387 0.0759654 0.0366124 0.103525 0.0739212 0.0356239 0.101002 0.0721202 0.0347528 0.0988207 0.0705624 0.0339991 0.324474 0.274747 0.119283 0.291648 0.246952 0.107207 0.262733 0.222469 0.0965696 0.23773 0.201297 0.0873713 0.216638 0.183438 0.0796118 0.198514 0.168092 0.0729443 0.182415 0.154459 0.0670216 0.16834 0.142542 0.0618438 0.15629 0.132338 0.0574109 0.145846 0.123495 0.0535692 0.136593 0.115659 0.050165 0.128529 0.108831 0.0471982 0.121654 0.103011 0.0446689 0.115765 0.0980233 0.0425016 0.110654 0.0936956 0.0406207 0.106322 0.0900275 0.0390263 0.102768 0.0870189 0.0377184 0.0997645 0.0844753 0.0366124 0.0970799 0.0822021 0.0356239 0.0947147 0.0801994 0.0347528 0.0926688 0.078467 0.0339991 0.30064 0.30064 0.119283 0.270225 0.270225 0.107207 0.243435 0.243435 0.0965696 0.220268 0.220268 0.0873713 0.200726 0.200726 0.0796118 0.183933 0.183933 0.0729443 0.169016 0.169016 0.0670216 0.155975 0.155975 0.0618438 0.14481 0.14481 0.0574109 0.135133 0.135133 0.0535692 0.12656 0.12656 0.050165 0.119088 0.119088 0.0471982 0.112719 0.112719 0.0446689 0.107261 0.107261 0.0425016 0.102526 0.102526 0.0406207 0.098512 0.098512 0.0390263 0.0952199 0.0952199 0.0377184 0.0924366 0.0924366 0.0366124 0.0899491 0.0899491 0.0356239 0.0877576 0.0877576 0.0347528 0.085862 0.085862 0.0339991 0.274747 0.324474 0.119283 0.246952 0.291648 0.107207 0.222469 0.262733 0.0965696 0.201297 0.23773 0.0873713 0.183438 0.216638 0.0796118 0.168092 0.198514 0.0729443 0.154459 0.182415 0.0670216 0.142542 0.16834 0.0618438 0.132338 0.15629 0.0574109 0.123495 0.145846 0.0535692 0.115659 0.136593 0.050165 0.108831 0.128529 0.0471982 0.103011 0.121654 0.0446689 0.0980233 0.115765 0.0425016 0.0936956 0.110654 0.0406207 0.0900275 0.106322 0.0390263 0.0870189 0.102768 0.0377184 0.0844753 0.0997645 0.0366124 0.0822021 0.0970799 0.0356239 0.0801994 0.0947147 0.0347528 0.078467 0.0926688 0.0339991 0.24707 0.346014 0.119283 0.222075 0.311009 0.107207 0.200058 0.280175 0.0965696 0.181019 0.253512 0.0873713 0.164959 0.23102 0.0796118 0.151158 0.211693 0.0729443 0.138899 0.194525 0.0670216 0.128182 0.179515 0.0618438 0.119006 0.166665 0.0574109 0.111054 0.155528 0.0535692 0.104008 0.14566 0.050165 0.0978678 0.137061 0.0471982 0.0926335 0.129731 0.0446689 0.0881486 0.12345 0.0425015 0.0842569 0.117999 0.0406207 0.0809583 0.11338 0.0390263 0.0782528 0.109591 0.0377184 0.0759654 0.106387 0.0366124 0.0739212 0.103525 0.0356239 0.0721202 0.101002 0.0347528 0.0705624 0.0988207 0.0339991 0.217916 0.365078 0.119283 0.19587 0.328144 0.107207 0.176451 0.295611 0.0965696 0.159659 0.267479 0.0873713 0.145493 0.243748 0.0796118 0.133322 0.223356 0.0729443 0.122509 0.205242 0.0670216 0.113057 0.189406 0.0618438 0.104964 0.175848 0.0574109 0.0979498 0.164097 0.0535692 0.0917351 0.153686 0.050165 0.0863194 0.144613 0.0471982 0.0817027 0.136878 0.0446689 0.077747 0.130251 0.0425015 0.0743145 0.124501 0.0406207 0.0714051 0.119627 0.0390263 0.0690189 0.115629 0.0377184 0.0670014 0.112249 0.0366124 0.0651984 0.109228 0.0356239 0.0636099 0.106567 0.0347528 0.0622359 0.104265 0.0339991 0.187614 0.381537 0.119283 0.168633 0.342938 0.107207 0.151915 0.308938 0.0965696 0.137458 0.279538 0.0873713 0.125262 0.254737 0.0796118 0.114783 0.233426 0.0729443 0.105474 0.214495 0.0670216 0.0973357 0.197945 0.0618438 0.090368 0.183775 0.0574109 0.0843295 0.171495 0.0535692 0.078979 0.160614 0.050165 0.0743163 0.151132 0.0471982 0.0703416 0.143049 0.0446689 0.066936 0.136123 0.0425015 0.0639808 0.130113 0.0406207 0.061476 0.12502 0.0390263 0.0594215 0.120842 0.0377184 0.0576846 0.117309 0.0366124 0.0561323 0.114153 0.0356239 0.0547647 0.111371 0.0347528 0.0535818 0.108966 0.0339991 0.156503 0.395318 0.119283 0.14067 0.355324 0.107207 0.126724 0.320097 0.0965696 0.114664 0.289634 0.0873713 0.104491 0.263938 0.0796118 0.095749 0.241857 0.0729442 0.0879838 0.222242 0.0670216 0.0811951 0.205094 0.0618438 0.0753828 0.190413 0.0574109 0.0703457 0.177689 0.0535692 0.0658823 0.166415 0.050165 0.0619929 0.156591 0.0471982 0.0586772 0.148216 0.0446689 0.0558364 0.14104 0.0425015 0.0533712 0.134813 0.0406207 0.0512817 0.129535 0.0390263 0.049568 0.125206 0.0377184 0.0481191 0.121547 0.0366124 0.0468242 0.118276 0.0356239 0.0456834 0.115394 0.0347528 0.0446966 0.112902 0.0339991 0.12492 0.406404 0.119283 0.112282 0.365289 0.107207 0.10115 0.329073 0.0965696 0.0915243 0.297757 0.0873713 0.0834041 0.271339 0.0796118 0.0764265 0.248639 0.0729442 0.0702284 0.228475 0.0670216 0.0648096 0.210846 0.0618438 0.0601703 0.195753 0.0574109 0.0561496 0.182672 0.0535692 0.052587 0.171082 0.050165 0.0494825 0.160982 0.0471982 0.0468359 0.152372 0.0446689 0.0445684 0.144995 0.0425015 0.0426007 0.138594 0.0406207 0.0409329 0.133168 0.0390263 0.0395649 0.128718 0.0377183 0.0384084 0.124955 0.0366124 0.0373749 0.121593 0.0356239 0.0364643 0.11863 0.0347528 0.0356766 0.116068 0.0339991 0.0931899 0.414831 0.119283 0.0837621 0.372864 0.107207 0.0754578 0.335897 0.0965696 0.0682767 0.303931 0.0873712 0.0622191 0.276966 0.0796118 0.0570139 0.253795 0.0729442 0.0523901 0.233212 0.0670216 0.0483477 0.215218 0.0618438 0.0448868 0.199812 0.0574109 0.0418874 0.18646 0.0535692 0.0392297 0.17463 0.050165 0.0369137 0.16432 0.0471982 0.0349394 0.155532 0.0446689 0.0332478 0.148002 0.0425015 0.0317799 0.141467 0.0406206 0.0305357 0.135929 0.0390263 0.0295153 0.131387 0.0377183 0.0286525 0.127546 0.0366124 0.0278815 0.124114 0.0356239 0.0272022 0.12109 0.0347528 0.0266146 0.118474 0.0339991 0.0616155 0.420681 0.119283 0.055382 0.378122 0.107207 0.0498913 0.340634 0.0965696 0.0451434 0.308217 0.0873712 0.0411381 0.280872 0.0796118 0.0376965 0.257374 0.0729442 0.0346394 0.236501 0.0670215 0.0319666 0.218253 0.0618438 0.0296783 0.20263 0.0574109 0.0276952 0.18909 0.0535692 0.0259379 0.177092 0.0501649 0.0244066 0.166638 0.0471982 0.0231013 0.157725 0.0446689 0.0219828 0.150089 0.0425015 0.0210123 0.143462 0.0406206 0.0201896 0.137846 0.0390263 0.0195149 0.133239 0.0377183 0.0189445 0.129345 0.0366124 0.0184347 0.125864 0.0356239 0.0179856 0.122798 0.0347528 0.0175971 0.120145 0.0339991 0.0304717 0.424076 0.119283 0.027389 0.381173 0.107207 0.0246735 0.343383 0.0965696 0.0223255 0.310705 0.0873712 0.0203447 0.283138 0.0796118 0.0186427 0.259451 0.0729442 0.0171308 0.23841 0.0670215 0.015809 0.220014 0.0618438 0.0146773 0.204265 0.0574109 0.0136965 0.190616 0.0535692 0.0128275 0.178522 0.0501649 0.0120702 0.167982 0.0471982 0.0114246 0.158998 0.0446689 0.0108715 0.1513 0.0425015 0.0103915 0.14462 0.0406206 0.00998469 0.138958 0.0390263 0.00965102 0.134315 0.0377183 0.00936892 0.130389 0.0366124 0.00911681 0.12688 0.0356239 0.00889469 0.123789 0.0347528 0.00870256 0.121115 0.0339991 0 0.425169 0.119283 0 0.382156 0.107207 0 0.344268 0.0965696 0 0.311506 0.0873712 0 0.283868 0.0796118 0 0.26012 0.0729442 0 0.239025 0.0670215 0 0.220582 0.0618437 0 0.204792 0.0574109 0 0.191107 0.0535692 0 0.178982 0.0501649 0 0.168415 0.0471982 0 0.159408 0.0446688 0 0.15169 0.0425015 0 0.144993 0.0406206 0 0.139317 0.0390263 0 0.134661 0.0377183 0 0.130725 0.0366124 0 0.127207 0.0356239 0 0.124108 0.0347528 0 0.121427 0.0339991 0.42011 0 0.136063 0.377609 0 0.122288 0.340172 0 0.110154 0.307799 0 0.0996615 0.280491 0 0.0908102 0.257026 0 0.0832044 0.236181 0 0.0764484 0.217958 0 0.0705423 0.202356 0 0.0654859 0.188835 0 0.061104 0.176854 0 0.057221 0.166413 0 0.0538369 0.157513 0 0.0509519 0.149888 0 0.0484796 0.14327 0 0.0463341 0.137662 0 0.0445154 0.133061 0 0.0430234 0.129172 0 0.0417617 0.125697 0 0.0406341 0.122634 0 0.0396404 0.119986 0 0.0387808 0.41903 0.0301091 0.136063 0.376638 0.0270631 0.122288 0.339297 0.02438 0.110154 0.307008 0.0220598 0.0996615 0.27977 0.0201027 0.0908102 0.256365 0.0184209 0.0832044 0.235574 0.016927 0.0764484 0.217398 0.0156209 0.0705423 0.201836 0.0145027 0.0654859 0.188349 0.0135337 0.061104 0.176399 0.012675 0.057221 0.165986 0.0119267 0.0538369 0.157108 0.0112888 0.0509519 0.149502 0.0107423 0.0484796 0.142902 0.0102681 0.0463341 0.137308 0.00986608 0.0445154 0.132719 0.00953638 0.0430234 0.12884 0.00925764 0.0417617 0.125373 0.00900854 0.0406341 0.122319 0.00878908 0.0396404 0.119677 0.00859925 0.0387808 0.415675 0.0608823 0.136063 0.373623 0.0547231 0.122288 0.336581 0.0492977 0.110154 0.30455 0.0446063 0.0996615 0.27753 0.0406487 0.0908102 0.254312 0.0372481 0.0832044 0.233688 0.0342273 0.0764485 0.215657 0.0315864 0.0705423 0.20022 0.0293254 0.065486 0.186841 0.0273658 0.061104 0.174987 0.0256296 0.057221 0.164657 0.0241165 0.0538369 0.155851 0.0228267 0.0509519 0.148305 0.0217216 0.0484796 0.141758 0.0207626 0.0463342 0.136208 0.0199498 0.0445154 0.131657 0.0192831 0.0430234 0.127809 0.0187195 0.0417617 0.12437 0.0182158 0.0406341 0.12134 0.017772 0.0396404 0.118719 0.0173882 0.0387808 0.409895 0.092081 0.136063 0.368427 0.0827655 0.122288 0.331901 0.07456 0.110154 0.300315 0.0674644 0.0996615 0.273671 0.0614789 0.0908102 0.250776 0.0563356 0.0832044 0.230438 0.0517669 0.0764485 0.212658 0.0477727 0.0705423 0.197436 0.0443529 0.065486 0.184243 0.0413893 0.061104 0.172554 0.0387633 0.057221 0.162367 0.0364749 0.053837 0.153683 0.0345241 0.0509519 0.146243 0.0328527 0.0484796 0.139787 0.0314023 0.0463342 0.134314 0.030173 0.0445154 0.129826 0.0291647 0.0430234 0.126031 0.0283122 0.0417617 0.12264 0.0275504 0.0406341 0.119652 0.0268792 0.0396404 0.117068 0.0262987 0.0387808 0.401568 0.123434 0.136063 0.360943 0.110946 0.122288 0.325158 0.0999469 0.110154 0.294214 0.0904354 0.0996615 0.268111 0.0824118 0.0908102 0.245682 0.0755174 0.0832044 0.225757 0.069393 0.0764485 0.208338 0.0640388 0.0705423 0.193425 0.0594547 0.065486 0.1805 0.055482 0.061104 0.169048 0.0519618 0.057221 0.159069 0.0488943 0.053837 0.150561 0.0462793 0.0509519 0.143272 0.0440387 0.0484797 0.136947 0.0420945 0.0463342 0.131586 0.0404466 0.0445154 0.127189 0.039095 0.0430234 0.123471 0.0379523 0.0417617 0.120149 0.0369311 0.0406341 0.117222 0.0360313 0.0396404 0.11469 0.0352531 0.0387808 0.390614 0.154641 0.136063 0.351097 0.138996 0.122288 0.316288 0.125216 0.110154 0.286189 0.1133 0.0996615 0.260798 0.103248 0.0908102 0.23898 0.09461 0.0832045 0.219599 0.0869373 0.0764485 0.202655 0.0802294 0.0705423 0.188149 0.0744863 0.065486 0.175577 0.0695092 0.061104 0.164437 0.0650991 0.057221 0.154729 0.061256 0.053837 0.146454 0.0579799 0.0509519 0.139364 0.0551728 0.0484797 0.133211 0.0527371 0.0463342 0.127996 0.0506725 0.0445154 0.123719 0.0489792 0.0430234 0.120103 0.0475476 0.0417617 0.116871 0.0462682 0.0406341 0.114024 0.045141 0.0396404 0.111561 0.044166 0.0387808 0.376997 0.185381 0.136063 0.338857 0.166627 0.122288 0.305262 0.150107 0.110154 0.276212 0.135822 0.0996615 0.251706 0.123772 0.0908102 0.230649 0.113417 0.0832045 0.211944 0.104219 0.0764485 0.195591 0.096178 0.0705424 0.18159 0.0892933 0.065486 0.169456 0.0833268 0.061104 0.158705 0.07804 0.057221 0.149336 0.0734329 0.053837 0.141349 0.0695056 0.0509519 0.134506 0.0661406 0.0484797 0.128568 0.0632206 0.0463342 0.123534 0.0607456 0.0445154 0.119406 0.0587157 0.0430234 0.115916 0.0569995 0.0417617 0.112797 0.0554657 0.0406341 0.110049 0.0541145 0.0396404 0.107672 0.0529457 0.0387808 0.360734 0.215323 0.136063 0.32424 0.193539 0.122288 0.292094 0.174351 0.110154 0.264297 0.157759 0.0996615 0.240848 0.143763 0.0908102 0.220699 0.131736 0.0832045 0.202801 0.121052 0.0764485 0.187153 0.111712 0.0705424 0.173756 0.103715 0.065486 0.162146 0.0967852 0.061104 0.151859 0.0906445 0.057221 0.142894 0.0852933 0.053837 0.135251 0.0807316 0.0509519 0.128703 0.0768231 0.0484797 0.123021 0.0734315 0.0463342 0.118205 0.0705568 0.0445154 0.114255 0.068199 0.0430234 0.110916 0.0662056 0.0417617 0.107931 0.0644242 0.0406341 0.105302 0.0628547 0.0396404 0.103028 0.0614971 0.0387808 0.341897 0.24413 0.136063 0.307308 0.219432 0.122288 0.276841 0.197677 0.110154 0.250495 0.178865 0.0996615 0.228271 0.162996 0.0908102 0.209174 0.14936 0.0832045 0.192211 0.137247 0.0764485 0.17738 0.126658 0.0705424 0.164683 0.117591 0.065486 0.153679 0.109734 0.061104 0.143929 0.102772 0.057221 0.135432 0.0967045 0.053837 0.128189 0.0915325 0.0509519 0.121983 0.0871011 0.0484797 0.116597 0.0832558 0.0463342 0.112033 0.0799965 0.0445154 0.108289 0.0773232 0.0430234 0.105124 0.0750632 0.0417617 0.102295 0.0730434 0.0406341 0.0998031 0.0712639 0.0396405 0.0976476 0.0697247 0.0387808 0.320613 0.271478 0.136063 0.288177 0.244014 0.122288 0.259607 0.219822 0.110154 0.234901 0.198902 0.0996615 0.214061 0.181255 0.0908102 0.196153 0.166092 0.0832045 0.180245 0.152622 0.0764485 0.166338 0.140846 0.0705424 0.154431 0.130764 0.065486 0.144112 0.122027 0.061104 0.134969 0.114284 0.057221 0.127001 0.107538 0.053837 0.120209 0.101786 0.0509519 0.114389 0.0968585 0.0484797 0.109339 0.0925824 0.0463342 0.105058 0.088958 0.0445154 0.101548 0.0859853 0.0430234 0.0985796 0.083472 0.0417617 0.095927 0.081226 0.0406341 0.0935901 0.0792471 0.0396405 0.0915687 0.0775355 0.0387808 0.297063 0.297063 0.136063 0.26701 0.26701 0.122288 0.240538 0.240538 0.110154 0.217647 0.217647 0.0996615 0.198338 0.198338 0.0908103 0.181745 0.181745 0.0832045 0.167006 0.167006 0.0764485 0.15412 0.15412 0.0705424 0.143088 0.143088 0.065486 0.133527 0.133527 0.061104 0.125055 0.125055 0.057221 0.117672 0.117672 0.053837 0.111379 0.111379 0.0509519 0.105987 0.105987 0.0484797 0.101308 0.101308 0.0463342 0.0973417 0.0973417 0.0445154 0.0940888 0.0940888 0.0430234 0.0913387 0.0913387 0.0417617 0.088881 0.088881 0.0406341 0.0867157 0.0867157 0.0396405 0.0848428 0.0848428 0.0387808 0.271478 0.320613 0.136063 0.244014 0.288177 0.122288 0.219822 0.259607 0.110154 0.198902 0.234901 0.0996615 0.181255 0.214061 0.0908102 0.166092 0.196153 0.0832045 0.152622 0.180245 0.0764485 0.140846 0.166338 0.0705424 0.130764 0.154431 0.065486 0.122027 0.144112 0.061104 0.114284 0.134969 0.057221 0.107538 0.127001 0.053837 0.101786 0.120209 0.0509519 0.0968585 0.114389 0.0484797 0.0925824 0.109339 0.0463342 0.088958 0.105058 0.0445154 0.0859853 0.101548 0.0430234 0.083472 0.0985796 0.0417617 0.081226 0.095927 0.0406341 0.0792471 0.0935901 0.0396405 0.0775355 0.0915687 0.0387808 0.24413 0.341897 0.136063 0.219432 0.307308 0.122288 0.197677 0.276841 0.110154 0.178865 0.250495 0.0996615 0.162996 0.228271 0.0908102 0.14936 0.209174 0.0832045 0.137247 0.192211 0.0764485 0.126658 0.17738 0.0705424 0.117591 0.164683 0.065486 0.109734 0.153679 0.061104 0.102772 0.143929 0.057221 0.0967045 0.135432 0.053837 0.0915325 0.128189 0.0509519 0.0871011 0.121983 0.0484797 0.0832558 0.116597 0.0463342 0.0799965 0.112033 0.0445154 0.0773232 0.108289 0.0430234 0.0750632 0.105124 0.0417617 0.0730434 0.102295 0.0406341 0.0712639 0.0998031 0.0396405 0.0697247 0.0976476 0.0387808 0.215323 0.360734 0.136063 0.193539 0.32424 0.122288 0.174351 0.292094 0.110154 0.157759 0.264297 0.0996615 0.143763 0.240848 0.0908102 0.131736 0.220699 0.0832045 0.121052 0.202801 0.0764485 0.111712 0.187153 0.0705424 0.103715 0.173756 0.065486 0.0967852 0.162146 0.061104 0.0906445 0.151859 0.057221 0.0852933 0.142894 0.053837 0.0807316 0.135251 0.0509519 0.0768231 0.128703 0.0484797 0.0734315 0.123021 0.0463342 0.0705568 0.118205 0.0445154 0.068199 0.114255 0.0430234 0.0662056 0.110916 0.0417617 0.0644242 0.107931 0.0406341 0.0628547 0.105302 0.0396404 0.0614971 0.103028 0.0387808 0.185381 0.376997 0.136063 0.166627 0.338857 0.122288 0.150107 0.305262 0.110154 0.135822 0.276212 0.0996615 0.123772 0.251706 0.0908102 0.113417 0.230649 0.0832045 0.104219 0.211944 0.0764485 0.096178 0.195591 0.0705424 0.0892933 0.18159 0.065486 0.0833268 0.169456 0.061104 0.07804 0.158705 0.057221 0.0734329 0.149336 0.053837 0.0695056 0.141349 0.0509519 0.0661406 0.134506 0.0484797 0.0632206 0.128568 0.0463342 0.0607456 0.123534 0.0445154 0.0587157 0.119406 0.0430234 0.0569995 0.115916 0.0417617 0.0554657 0.112797 0.0406341 0.0541145 0.110049 0.0396404 0.0529457 0.107672 0.0387808 0.154641 0.390614 0.136063 0.138996 0.351097 0.122288 0.125216 0.316288 0.110154 0.1133 0.286189 0.0996615 0.103248 0.260798 0.0908102 0.09461 0.23898 0.0832045 0.0869373 0.219599 0.0764485 0.0802294 0.202655 0.0705423 0.0744863 0.188149 0.065486 0.0695092 0.175577 0.061104 0.0650991 0.164437 0.057221 0.061256 0.154729 0.053837 0.0579799 0.146454 0.0509519 0.0551728 0.139364 0.0484797 0.0527371 0.133211 0.0463342 0.0506725 0.127996 0.0445154 0.0489792 0.123719 0.0430234 0.0475476 0.120103 0.0417617 0.0462682 0.116871 0.0406341 0.045141 0.114024 0.0396404 0.044166 0.111561 0.0387808 0.123434 0.401568 0.136063 0.110946 0.360943 0.122288 0.0999469 0.325158 0.110154 0.0904354 0.294214 0.0996615 0.0824118 0.268111 0.0908102 0.0755174 0.245682 0.0832044 0.069393 0.225757 0.0764485 0.0640388 0.208338 0.0705423 0.0594547 0.193425 0.065486 0.055482 0.1805 0.061104 0.0519618 0.169048 0.057221 0.0488943 0.159069 0.053837 0.0462793 0.150561 0.0509519 0.0440387 0.143272 0.0484797 0.0420945 0.136947 0.0463342 0.0404466 0.131586 0.0445154 0.039095 0.127189 0.0430234 0.0379523 0.123471 0.0417617 0.0369311 0.120149 0.0406341 0.0360313 0.117222 0.0396404 0.0352531 0.11469 0.0387808 0.092081 0.409895 0.136063 0.0827655 0.368427 0.122288 0.07456 0.331901 0.110154 0.0674644 0.300315 0.0996615 0.0614789 0.273671 0.0908102 0.0563356 0.250776 0.0832044 0.0517669 0.230438 0.0764485 0.0477727 0.212658 0.0705423 0.0443529 0.197436 0.065486 0.0413893 0.184243 0.061104 0.0387633 0.172554 0.057221 0.0364749 0.162367 0.053837 0.0345241 0.153683 0.0509519 0.0328527 0.146243 0.0484796 0.0314023 0.139787 0.0463342 0.030173 0.134314 0.0445154 0.0291647 0.129826 0.0430234 0.0283122 0.126031 0.0417617 0.0275504 0.12264 0.0406341 0.0268792 0.119652 0.0396404 0.0262987 0.117068 0.0387808 0.0608823 0.415675 0.136063 0.0547231 0.373623 0.122288 0.0492977 0.336581 0.110154 0.0446063 0.30455 0.0996615 0.0406487 0.27753 0.0908102 0.0372481 0.254312 0.0832044 0.0342273 0.233688 0.0764485 0.0315864 0.215657 0.0705423 0.0293254 0.20022 0.065486 0.0273658 0.186841 0.061104 0.0256296 0.174987 0.057221 0.0241165 0.164657 0.0538369 0.0228267 0.155851 0.0509519 0.0217216 0.148305 0.0484796 0.0207626 0.141758 0.0463342 0.0199498 0.136208 0.0445154 0.0192831 0.131657 0.0430234 0.0187195 0.127809 0.0417617 0.0182158 0.12437 0.0406341 0.017772 0.12134 0.0396404 0.0173882 0.118719 0.0387808 0.0301091 0.41903 0.136063 0.0270631 0.376638 0.122288 0.02438 0.339297 0.110154 0.0220598 0.307008 0.0996615 0.0201027 0.27977 0.0908102 0.0184209 0.256365 0.0832044 0.016927 0.235574 0.0764484 0.0156209 0.217398 0.0705423 0.0145027 0.201836 0.0654859 0.0135337 0.188349 0.061104 0.012675 0.176399 0.057221 0.0119267 0.165986 0.0538369 0.0112888 0.157108 0.0509519 0.0107423 0.149502 0.0484796 0.0102681 0.142902 0.0463341 0.00986608 0.137308 0.0445154 0.00953638 0.132719 0.0430234 0.00925764 0.12884 0.0417617 0.00900854 0.125373 0.0406341 0.00878908 0.122319 0.0396404 0.00859925 0.119677 0.0387808 0 0.42011 0.136063 0 0.377609 0.122288 0 0.340172 0.110154 0 0.307799 0.0996615 0 0.280491 0.0908102 0 0.257026 0.0832044 0 0.236181 0.0764484 0 0.217958 0.0705423 0 0.202356 0.0654859 0 0.188835 0.061104 0 0.176854 0.057221 0 0.166413 0.0538369 0 0.157513 0.0509519 0 0.149888 0.0484796 0 0.14327 0.0463341 0 0.137662 0.0445154 0 0.133061 0.0430234 0 0.129172 0.0417617 0 0.125697 0.0406341 0 0.122634 0.0396404 0 0.119986 0.0387808 0.414381 0 0.152656 0.37246 0 0.137201 0.335533 0 0.123588 0.303602 0 0.111815 0.276667 0 0.101884 0.253521 0 0.0933505 0.232961 0 0.0857704 0.214987 0 0.0791439 0.199598 0 0.0734709 0.186261 0 0.0685546 0.174444 0 0.0641981 0.164146 0 0.0604014 0.155368 0 0.0571646 0.147846 0 0.0543909 0.14132 0 0.0519838 0.135787 0 0.0499432 0.13125 0 0.0482691 0.127414 0 0.0468535 0.123986 0 0.0455883 0.120966 0 0.0444734 0.118354 0 0.0435089 0.413315 0.0296985 0.152656 0.371502 0.026694 0.137201 0.334671 0.0240475 0.123588 0.302822 0.021759 0.111815 0.275955 0.0198286 0.101884 0.252869 0.0181697 0.0933505 0.232362 0.0166962 0.0857704 0.214434 0.015408 0.0791439 0.199085 0.0143051 0.0734709 0.185782 0.0133492 0.0685546 0.173996 0.0125023 0.0641981 0.163724 0.0117642 0.0604014 0.154968 0.0111351 0.0571646 0.147466 0.010596 0.0543909 0.140956 0.0101282 0.0519838 0.135438 0.00973176 0.0499432 0.130913 0.00940657 0.0482691 0.127086 0.00913164 0.0468535 0.123667 0.00888595 0.0455883 0.120655 0.0086695 0.0444734 0.118049 0.00848228 0.0435089 0.410007 0.060052 0.152656 0.368528 0.0539768 0.137201 0.331991 0.0486255 0.123588 0.300397 0.043998 0.111815 0.273746 0.0400945 0.101884 0.250845 0.0367402 0.0933505 0.230502 0.0337607 0.0857704 0.212717 0.0311558 0.0791439 0.197491 0.0289256 0.0734709 0.184295 0.0269929 0.0685546 0.172603 0.0252803 0.0641981 0.162414 0.023788 0.0604014 0.153728 0.0225158 0.0571646 0.146286 0.0214258 0.0543909 0.139828 0.0204799 0.0519838 0.134354 0.0196782 0.0499432 0.129865 0.0190206 0.0482691 0.126069 0.0184647 0.0468535 0.122677 0.0179679 0.0455883 0.119689 0.0175302 0.0444734 0.117104 0.0171517 0.0435089 0.404305 0.0908253 0.152656 0.363403 0.0816368 0.137201 0.327375 0.0735432 0.123588 0.29622 0.0665445 0.111815 0.269939 0.0606406 0.101884 0.247357 0.0555675 0.0933505 0.227297 0.0510611 0.0857704 0.209759 0.0471214 0.0791439 0.194745 0.0437484 0.0734709 0.181732 0.0408253 0.0685546 0.170202 0.0382351 0.0641981 0.160155 0.035978 0.0604015 0.15159 0.0340539 0.0571646 0.144251 0.0324053 0.0543909 0.137883 0.0309747 0.0519838 0.132486 0.0297622 0.0499432 0.128059 0.0287677 0.0482691 0.124316 0.0279269 0.0468535 0.120971 0.0271755 0.0455883 0.118024 0.0265135 0.0444734 0.115476 0.0259409 0.0435089 0.396092 0.12175 0.152656 0.35602 0.109433 0.137201 0.320724 0.0985839 0.123588 0.290203 0.0892022 0.111815 0.264456 0.0812882 0.101884 0.242332 0.0744877 0.0933505 0.222679 0.068447 0.0857704 0.205498 0.0631658 0.0791439 0.190788 0.0586443 0.0734709 0.178041 0.0547259 0.0685546 0.166745 0.0512538 0.0641981 0.156902 0.0482282 0.0604015 0.14851 0.0456489 0.0571646 0.141321 0.043439 0.054391 0.135082 0.0415213 0.0519838 0.129794 0.0398959 0.0499432 0.125457 0.0385628 0.0482691 0.121791 0.0374357 0.0468535 0.118514 0.0364285 0.0455883 0.115627 0.0355411 0.0444734 0.11313 0.0347736 0.0435089 0.385287 0.152532 0.152656 0.346309 0.137101 0.137201 0.311975 0.123508 0.123588 0.282286 0.111755 0.111815 0.257242 0.10184 0.101884 0.235721 0.09332 0.0933505 0.216605 0.085752 0.0857705 0.199892 0.0791357 0.0791439 0.185584 0.0734711 0.0734709 0.173184 0.0685619 0.0685546 0.162196 0.0642121 0.0641981 0.152621 0.0604214 0.0604015 0.144459 0.0571901 0.0571646 0.137466 0.0544215 0.054391 0.131397 0.052019 0.0519838 0.126254 0.0499826 0.0499432 0.122035 0.0483125 0.0482691 0.118468 0.0469004 0.0468535 0.115281 0.0456385 0.0455883 0.112473 0.0445268 0.0444734 0.110044 0.0435652 0.0435089 0.371855 0.182853 0.152656 0.334236 0.164355 0.137201 0.3011 0.14806 0.123588 0.272446 0.13397 0.111815 0.248274 0.122084 0.101884 0.227504 0.111871 0.0933506 0.209054 0.102798 0.0857705 0.192924 0.0948669 0.0791439 0.179115 0.0880762 0.0734709 0.167147 0.0821912 0.0685546 0.156542 0.0769767 0.0641982 0.147301 0.0724325 0.0604015 0.139423 0.0685588 0.0571646 0.132674 0.0652398 0.054391 0.126817 0.0623597 0.0519838 0.121853 0.0599186 0.0499432 0.117781 0.0579164 0.0482691 0.114338 0.0562237 0.0468535 0.111262 0.054711 0.0455883 0.108552 0.0533782 0.0444734 0.106208 0.0522255 0.0435089 0.355814 0.212386 0.152656 0.319818 0.1909 0.137201 0.288111 0.171974 0.123588 0.260693 0.155608 0.111815 0.237564 0.141802 0.101884 0.21769 0.129939 0.0933506 0.200036 0.119402 0.0857705 0.184602 0.110189 0.0791439 0.171388 0.102302 0.073471 0.159936 0.0954662 0.0685546 0.149789 0.0894094 0.0641982 0.140947 0.0841313 0.0604015 0.133409 0.079632 0.0571647 0.126951 0.0757769 0.054391 0.121346 0.0724317 0.0519838 0.116596 0.0695963 0.0499432 0.1127 0.0672707 0.0482691 0.109406 0.0653046 0.0468535 0.106463 0.0635475 0.0455883 0.103869 0.0619995 0.0444734 0.101626 0.0606606 0.043509 0.337234 0.240801 0.152656 0.303117 0.21644 0.137201 0.273066 0.194982 0.123588 0.24708 0.176426 0.111815 0.225159 0.160774 0.101884 0.206322 0.147324 0.0933506 0.18959 0.135376 0.0857705 0.174962 0.124931 0.0791439 0.162438 0.115988 0.073471 0.151585 0.108238 0.0685547 0.141967 0.101371 0.0641982 0.133587 0.095387 0.0604015 0.126443 0.0902857 0.0571647 0.120321 0.0859149 0.054391 0.11501 0.0821221 0.0519838 0.110508 0.0789074 0.0499432 0.106815 0.0762707 0.0482692 0.103693 0.0740415 0.0468535 0.100903 0.0720494 0.0455883 0.0984452 0.0702943 0.0444734 0.0963193 0.0687763 0.043509 0.31624 0.267776 0.152656 0.284248 0.240686 0.137201 0.256067 0.216824 0.123588 0.231698 0.19619 0.111815 0.211142 0.178784 0.101884 0.193478 0.163827 0.0933506 0.177788 0.150541 0.0857705 0.16407 0.138926 0.079144 0.152326 0.128982 0.073471 0.142148 0.120364 0.0685547 0.13313 0.112727 0.0641982 0.125271 0.106073 0.0604015 0.118571 0.1004 0.0571647 0.112831 0.0955394 0.054391 0.10785 0.0913217 0.0519838 0.103628 0.0877469 0.0499432 0.100165 0.0848148 0.0482692 0.0972379 0.0823359 0.0468535 0.0946216 0.0801206 0.0455883 0.0923167 0.0781689 0.0444734 0.0903231 0.0764808 0.043509 0.293012 0.293012 0.152656 0.263369 0.263369 0.137201 0.237258 0.237258 0.123588 0.21468 0.21468 0.111815 0.195633 0.195633 0.101884 0.179267 0.179267 0.0933506 0.164729 0.164729 0.0857705 0.152019 0.152019 0.079144 0.141137 0.141137 0.073471 0.131707 0.131707 0.0685547 0.123351 0.123351 0.0641982 0.116069 0.116069 0.0604015 0.109862 0.109862 0.0571647 0.104543 0.104543 0.054391 0.0999282 0.0999282 0.0519839 0.0960164 0.0960164 0.0499432 0.092808 0.092808 0.0482692 0.0900955 0.0900955 0.0468535 0.0876715 0.0876715 0.0455883 0.0855358 0.0855358 0.0444734 0.0836887 0.0836887 0.043509 0.267776 0.31624 0.152656 0.240686 0.284248 0.137201 0.216824 0.256067 0.123588 0.19619 0.231698 0.111815 0.178784 0.211142 0.101884 0.163827 0.193478 0.0933506 0.150541 0.177788 0.0857705 0.138926 0.16407 0.079144 0.128982 0.152326 0.073471 0.120364 0.142148 0.0685547 0.112727 0.13313 0.0641982 0.106073 0.125271 0.0604015 0.1004 0.118571 0.0571647 0.0955394 0.112831 0.054391 0.0913217 0.10785 0.0519838 0.0877469 0.103628 0.0499432 0.0848148 0.100165 0.0482692 0.0823359 0.0972379 0.0468535 0.0801206 0.0946216 0.0455883 0.0781689 0.0923167 0.0444734 0.0764808 0.0903231 0.043509 0.240801 0.337234 0.152656 0.21644 0.303117 0.137201 0.194982 0.273066 0.123588 0.176426 0.24708 0.111815 0.160774 0.225159 0.101884 0.147324 0.206322 0.0933506 0.135376 0.18959 0.0857705 0.124931 0.174962 0.0791439 0.115988 0.162438 0.073471 0.108238 0.151585 0.0685547 0.101371 0.141967 0.0641982 0.095387 0.133587 0.0604015 0.0902857 0.126443 0.0571647 0.0859149 0.120321 0.054391 0.0821221 0.11501 0.0519838 0.0789074 0.110508 0.0499432 0.0762707 0.106815 0.0482692 0.0740415 0.103693 0.0468535 0.0720494 0.100903 0.0455883 0.0702943 0.0984452 0.0444734 0.0687763 0.0963193 0.043509 0.212386 0.355814 0.152656 0.1909 0.319818 0.137201 0.171974 0.288111 0.123588 0.155608 0.260693 0.111815 0.141802 0.237564 0.101884 0.129939 0.21769 0.0933506 0.119402 0.200036 0.0857705 0.110189 0.184602 0.0791439 0.102302 0.171388 0.073471 0.0954662 0.159936 0.0685546 0.0894094 0.149789 0.0641982 0.0841313 0.140947 0.0604015 0.079632 0.133409 0.0571647 0.0757769 0.126951 0.054391 0.0724317 0.121346 0.0519838 0.0695963 0.116596 0.0499432 0.0672707 0.1127 0.0482691 0.0653046 0.109406 0.0468535 0.0635475 0.106463 0.0455883 0.0619995 0.103869 0.0444734 0.0606606 0.101626 0.043509 0.182853 0.371855 0.152656 0.164355 0.334236 0.137201 0.14806 0.3011 0.123588 0.13397 0.272446 0.111815 0.122084 0.248274 0.101884 0.111871 0.227504 0.0933506 0.102798 0.209054 0.0857705 0.0948669 0.192924 0.0791439 0.0880762 0.179115 0.0734709 0.0821912 0.167147 0.0685546 0.0769767 0.156542 0.0641982 0.0724325 0.147301 0.0604015 0.0685588 0.139423 0.0571646 0.0652398 0.132674 0.054391 0.0623597 0.126817 0.0519838 0.0599186 0.121853 0.0499432 0.0579164 0.117781 0.0482691 0.0562237 0.114338 0.0468535 0.054711 0.111262 0.0455883 0.0533782 0.108552 0.0444734 0.0522255 0.106208 0.0435089 0.152532 0.385287 0.152656 0.137101 0.346309 0.137201 0.123508 0.311975 0.123588 0.111755 0.282286 0.111815 0.10184 0.257242 0.101884 0.09332 0.235721 0.0933505 0.085752 0.216605 0.0857705 0.0791357 0.199892 0.0791439 0.0734711 0.185584 0.0734709 0.0685619 0.173184 0.0685546 0.0642121 0.162196 0.0641981 0.0604214 0.152621 0.0604015 0.0571901 0.144459 0.0571646 0.0544215 0.137466 0.054391 0.052019 0.131397 0.0519838 0.0499826 0.126254 0.0499432 0.0483125 0.122035 0.0482691 0.0469004 0.118468 0.0468535 0.0456385 0.115281 0.0455883 0.0445268 0.112473 0.0444734 0.0435652 0.110044 0.0435089 0.12175 0.396092 0.152656 0.109433 0.35602 0.137201 0.0985839 0.320724 0.123588 0.0892022 0.290203 0.111815 0.0812882 0.264456 0.101884 0.0744877 0.242332 0.0933505 0.068447 0.222679 0.0857704 0.0631658 0.205498 0.0791439 0.0586443 0.190788 0.0734709 0.0547259 0.178041 0.0685546 0.0512538 0.166745 0.0641981 0.0482282 0.156902 0.0604015 0.0456489 0.14851 0.0571646 0.043439 0.141321 0.054391 0.0415213 0.135082 0.0519838 0.0398959 0.129794 0.0499432 0.0385628 0.125457 0.0482691 0.0374357 0.121791 0.0468535 0.0364285 0.118514 0.0455883 0.0355411 0.115627 0.0444734 0.0347736 0.11313 0.0435089 0.0908253 0.404305 0.152656 0.0816368 0.363403 0.137201 0.0735432 0.327375 0.123588 0.0665445 0.29622 0.111815 0.0606406 0.269939 0.101884 0.0555675 0.247357 0.0933505 0.0510611 0.227297 0.0857704 0.0471214 0.209759 0.0791439 0.0437484 0.194745 0.0734709 0.0408253 0.181732 0.0685546 0.0382351 0.170202 0.0641981 0.035978 0.160155 0.0604015 0.0340539 0.15159 0.0571646 0.0324053 0.144251 0.0543909 0.0309747 0.137883 0.0519838 0.0297622 0.132486 0.0499432 0.0287677 0.128059 0.0482691 0.0279269 0.124316 0.0468535 0.0271755 0.120971 0.0455883 0.0265135 0.118024 0.0444734 0.0259409 0.115476 0.0435089 0.060052 0.410007 0.152656 0.0539768 0.368528 0.137201 0.0486255 0.331991 0.123588 0.043998 0.300397 0.111815 0.0400945 0.273746 0.101884 0.0367402 0.250845 0.0933505 0.0337607 0.230502 0.0857704 0.0311558 0.212717 0.0791439 0.0289256 0.197491 0.0734709 0.0269929 0.184295 0.0685546 0.0252803 0.172603 0.0641981 0.023788 0.162414 0.0604014 0.0225158 0.153728 0.0571646 0.0214258 0.146286 0.0543909 0.0204799 0.139828 0.0519838 0.0196782 0.134354 0.0499432 0.0190206 0.129865 0.0482691 0.0184647 0.126069 0.0468535 0.0179679 0.122677 0.0455883 0.0175302 0.119689 0.0444734 0.0171517 0.117104 0.0435089 0.0296985 0.413315 0.152656 0.026694 0.371502 0.137201 0.0240475 0.334671 0.123588 0.021759 0.302822 0.111815 0.0198286 0.275955 0.101884 0.0181697 0.252869 0.0933505 0.0166962 0.232362 0.0857704 0.015408 0.214434 0.0791439 0.0143051 0.199085 0.0734709 0.0133492 0.185782 0.0685546 0.0125023 0.173996 0.0641981 0.0117642 0.163724 0.0604014 0.0111351 0.154968 0.0571646 0.010596 0.147466 0.0543909 0.0101282 0.140956 0.0519838 0.00973176 0.135438 0.0499432 0.00940657 0.130913 0.0482691 0.00913164 0.127086 0.0468535 0.00888595 0.123667 0.0455883 0.0086695 0.120655 0.0444734 0.00848228 0.118049 0.0435089 0 0.414381 0.152656 0 0.37246 0.137201 0 0.335533 0.123588 0 0.303602 0.111815 0 0.276667 0.101884 0 0.253521 0.0933505 0 0.232961 0.0857704 0 0.214987 0.0791439 0 0.199598 0.0734709 0 0.186261 0.0685546 0 0.174444 0.0641981 0 0.164146 0.0604014 0 0.155368 0.0571646 0 0.147846 0.0543909 0 0.14132 0.0519838 0 0.135787 0.0499432 0 0.13125 0.0482691 0 0.127414 0.0468535 0 0.123986 0.0455883 0 0.120966 0.0444734 0 0.118354 0.0435089 0.407992 0 0.169023 0.366718 0 0.151911 0.330361 0 0.136838 0.298922 0 0.123804 0.272402 0 0.112807 0.249614 0 0.103358 0.229371 0 0.0949653 0.211674 0 0.087628 0.196522 0 0.0813466 0.183392 0 0.075903 0.171757 0 0.0710794 0.161618 0 0.0668757 0.152975 0 0.063292 0.14557 0 0.0602211 0.139144 0 0.057556 0.133698 0 0.0552966 0.129231 0 0.053443 0.125454 0 0.0518756 0.122079 0 0.0504746 0.119106 0 0.0492401 0.116534 0 0.0481721 0.406943 0.0292406 0.169023 0.365775 0.0262825 0.151911 0.329511 0.0236768 0.136838 0.298154 0.0214236 0.123804 0.271702 0.0195229 0.112807 0.248972 0.0178897 0.103358 0.228781 0.0164389 0.0949653 0.21113 0.0151705 0.087628 0.196017 0.0140846 0.0813466 0.18292 0.0131436 0.075903 0.171315 0.0123097 0.0710794 0.161203 0.0115831 0.0668757 0.152582 0.0109636 0.063292 0.145196 0.0104329 0.0602211 0.138787 0.00997235 0.057556 0.133354 0.009582 0.0552966 0.128898 0.00926184 0.053443 0.125131 0.00899117 0.0518756 0.121765 0.00874929 0.0504746 0.118799 0.00853619 0.0492401 0.116234 0.00835188 0.0481721 0.403685 0.0591262 0.169023 0.362846 0.0531447 0.151911 0.326874 0.0478759 0.136838 0.295767 0.0433198 0.123804 0.269527 0.0394765 0.112807 0.246979 0.036174 0.103358 0.22695 0.0332404 0.0949653 0.209439 0.0306757 0.087628 0.194448 0.0284799 0.0813466 0.181456 0.026577 0.0759031 0.169944 0.0248909 0.0710794 0.159912 0.0234216 0.0668758 0.151361 0.0221691 0.063292 0.144034 0.0210959 0.0602211 0.137676 0.0201647 0.057556 0.132287 0.0193754 0.0552966 0.127867 0.018728 0.053443 0.12413 0.0181807 0.0518756 0.12079 0.0176916 0.0504746 0.117848 0.0172607 0.0492401 0.115304 0.016888 0.0481721 0.398072 0.089425 0.169023 0.357801 0.0803783 0.151911 0.322328 0.0724095 0.136838 0.291654 0.0655187 0.123804 0.265778 0.0597059 0.112807 0.243544 0.0547111 0.103358 0.223794 0.0502742 0.0949653 0.206527 0.0463953 0.0876281 0.191744 0.0430743 0.0813466 0.178932 0.0401963 0.0759031 0.167581 0.0376461 0.0710795 0.157688 0.0354239 0.0668758 0.149256 0.0335295 0.063292 0.142031 0.0319064 0.0602211 0.135761 0.030498 0.057556 0.130447 0.0293042 0.0552966 0.126088 0.028325 0.053443 0.122404 0.0274973 0.0518756 0.119111 0.0267575 0.0504746 0.11621 0.0261058 0.0492401 0.1137 0.0255421 0.0481721 0.389985 0.119873 0.169023 0.350532 0.107746 0.151911 0.31578 0.0970642 0.136838 0.285729 0.0878272 0.123804 0.260379 0.0800352 0.112807 0.238597 0.0733397 0.103358 0.219247 0.0673921 0.0949654 0.202331 0.0621924 0.0876281 0.187849 0.0577407 0.0813466 0.175298 0.0538828 0.0759031 0.164176 0.0504643 0.0710795 0.154485 0.0474854 0.0668758 0.146224 0.044946 0.063292 0.139145 0.0427703 0.0602211 0.133003 0.0408823 0.057556 0.127797 0.039282 0.0552966 0.123527 0.0379695 0.053443 0.119917 0.0368598 0.0518756 0.116691 0.0358682 0.0504746 0.113849 0.0349946 0.0492401 0.111391 0.034239 0.0481721 0.379347 0.15018 0.169023 0.34097 0.134987 0.151911 0.307166 0.121604 0.136838 0.277935 0.110032 0.123804 0.253277 0.10027 0.112807 0.232088 0.0918817 0.103359 0.213267 0.0844304 0.0949654 0.196812 0.0779162 0.0876281 0.182724 0.072339 0.0813467 0.170516 0.0675057 0.0759031 0.159698 0.063223 0.0710795 0.150271 0.0594909 0.0668758 0.142235 0.0563095 0.063292 0.13535 0.0535837 0.0602211 0.129375 0.0512183 0.057556 0.124311 0.0492135 0.0552966 0.120157 0.0475691 0.0534431 0.116646 0.0461789 0.0518756 0.113508 0.0449366 0.0504746 0.110743 0.0438421 0.0492401 0.108352 0.0428955 0.0481721 0.366123 0.180034 0.169023 0.329084 0.161821 0.151911 0.296458 0.145778 0.136838 0.268246 0.131905 0.123804 0.244447 0.120202 0.112807 0.223998 0.110147 0.103359 0.205832 0.101214 0.0949654 0.189951 0.093405 0.0876281 0.176355 0.0867191 0.0813467 0.164572 0.080925 0.0759031 0.154131 0.0757909 0.0710795 0.145033 0.071317 0.0668758 0.137277 0.0675032 0.063292 0.130631 0.0642355 0.0602211 0.124865 0.0613999 0.057556 0.119977 0.0589966 0.0552966 0.115969 0.0570253 0.0534431 0.11258 0.0553588 0.0518756 0.109551 0.0538695 0.0504746 0.106883 0.0525574 0.0492401 0.104575 0.0514226 0.0481721 0.350329 0.209112 0.169023 0.314888 0.187957 0.151911 0.28367 0.169323 0.136838 0.256674 0.153209 0.123804 0.233902 0.139617 0.112808 0.214335 0.127937 0.103359 0.196953 0.117562 0.0949654 0.181757 0.108491 0.0876281 0.168747 0.100725 0.0813467 0.157472 0.0939954 0.0759031 0.147482 0.0880321 0.0710795 0.138776 0.0828356 0.0668758 0.131355 0.0784058 0.063292 0.124996 0.0746103 0.0602211 0.119479 0.0713168 0.057556 0.114802 0.0685253 0.0552967 0.110966 0.0662357 0.0534431 0.107723 0.0643 0.0518756 0.104825 0.0625701 0.0504746 0.102272 0.0610462 0.0492401 0.100064 0.059728 0.0481721 0.332035 0.237088 0.169023 0.298445 0.213103 0.151911 0.268857 0.191976 0.136838 0.243271 0.173707 0.123804 0.221688 0.158296 0.112808 0.203142 0.145053 0.103359 0.186668 0.13329 0.0949654 0.172266 0.123006 0.0876281 0.159935 0.114201 0.0813467 0.149249 0.106571 0.0759031 0.139781 0.0998097 0.0710795 0.131529 0.093918 0.0668758 0.124496 0.0888955 0.0632921 0.118469 0.0845923 0.0602211 0.11324 0.0808581 0.057556 0.108807 0.0776931 0.0552967 0.105172 0.0750972 0.0534431 0.102098 0.0729025 0.0518756 0.0993513 0.0709413 0.0504746 0.0969315 0.0692134 0.0492401 0.0948385 0.0677189 0.0481721 0.311365 0.263647 0.169023 0.279865 0.236975 0.151911 0.252119 0.213482 0.136838 0.228127 0.193166 0.123804 0.207888 0.176028 0.112808 0.190496 0.161302 0.103359 0.175048 0.148221 0.0949654 0.161542 0.136785 0.0876281 0.149979 0.126994 0.0813467 0.139958 0.118509 0.0759031 0.131079 0.110991 0.0710795 0.123341 0.104439 0.0668758 0.116745 0.0988539 0.0632921 0.111094 0.0940686 0.0602212 0.10619 0.0899161 0.057556 0.102033 0.0863966 0.0552967 0.0986243 0.0835098 0.0534431 0.0957421 0.0810693 0.0518756 0.0931664 0.0788884 0.0504746 0.0908972 0.0769669 0.0492401 0.0889345 0.0753051 0.0481721 0.288494 0.288494 0.169023 0.259309 0.259309 0.151911 0.233601 0.233601 0.136838 0.21137 0.21137 0.123804 0.192618 0.192618 0.112808 0.176504 0.176504 0.103359 0.16219 0.16219 0.0949654 0.149676 0.149676 0.0876281 0.138963 0.138963 0.0813467 0.129678 0.129678 0.0759031 0.121451 0.121451 0.0710795 0.114282 0.114282 0.0668758 0.10817 0.10817 0.0632921 0.102934 0.102934 0.0602212 0.0983901 0.0983901 0.057556 0.0945389 0.0945389 0.0552967 0.0913801 0.0913801 0.0534431 0.0887096 0.0887096 0.0518756 0.0863231 0.0863231 0.0504746 0.0842206 0.0842206 0.0492402 0.0824021 0.0824021 0.0481721 0.263647 0.311365 0.169023 0.236975 0.279865 0.151911 0.213482 0.252119 0.136838 0.193166 0.228127 0.123804 0.176028 0.207888 0.112808 0.161302 0.190496 0.103359 0.148221 0.175048 0.0949654 0.136785 0.161542 0.0876281 0.126994 0.149979 0.0813467 0.118509 0.139958 0.0759031 0.110991 0.131079 0.0710795 0.104439 0.123341 0.0668758 0.0988539 0.116745 0.0632921 0.0940686 0.111094 0.0602212 0.0899161 0.10619 0.057556 0.0863966 0.102033 0.0552967 0.0835098 0.0986243 0.0534431 0.0810693 0.0957421 0.0518756 0.0788884 0.0931664 0.0504746 0.0769669 0.0908972 0.0492401 0.0753051 0.0889345 0.0481721 0.237088 0.332035 0.169023 0.213103 0.298445 0.151911 0.191976 0.268857 0.136838 0.173707 0.243271 0.123804 0.158296 0.221688 0.112808 0.145053 0.203142 0.103359 0.13329 0.186668 0.0949654 0.123006 0.172266 0.0876281 0.114201 0.159935 0.0813467 0.106571 0.149249 0.0759031 0.0998097 0.139781 0.0710795 0.093918 0.131529 0.0668758 0.0888955 0.124496 0.0632921 0.0845923 0.118469 0.0602211 0.0808581 0.11324 0.057556 0.0776931 0.108807 0.0552967 0.0750972 0.105172 0.0534431 0.0729025 0.102098 0.0518756 0.0709413 0.0993513 0.0504746 0.0692134 0.0969315 0.0492401 0.0677189 0.0948385 0.0481721 0.209112 0.350329 0.169023 0.187957 0.314888 0.151911 0.169323 0.28367 0.136838 0.153209 0.256674 0.123804 0.139617 0.233902 0.112808 0.127937 0.214335 0.103359 0.117562 0.196953 0.0949654 0.108491 0.181757 0.0876281 0.100725 0.168747 0.0813467 0.0939954 0.157472 0.0759031 0.0880321 0.147482 0.0710795 0.0828356 0.138776 0.0668758 0.0784058 0.131355 0.063292 0.0746103 0.124996 0.0602211 0.0713168 0.119479 0.057556 0.0685253 0.114802 0.0552967 0.0662357 0.110966 0.0534431 0.0643 0.107723 0.0518756 0.0625701 0.104825 0.0504746 0.0610462 0.102272 0.0492401 0.059728 0.100064 0.0481721 0.180034 0.366123 0.169023 0.161821 0.329084 0.151911 0.145778 0.296458 0.136838 0.131905 0.268246 0.123804 0.120202 0.244447 0.112807 0.110147 0.223998 0.103359 0.101214 0.205832 0.0949654 0.093405 0.189951 0.0876281 0.0867191 0.176355 0.0813467 0.080925 0.164572 0.0759031 0.0757909 0.154131 0.0710795 0.071317 0.145033 0.0668758 0.0675032 0.137277 0.063292 0.0642355 0.130631 0.0602211 0.0613999 0.124865 0.057556 0.0589966 0.119977 0.0552966 0.0570253 0.115969 0.0534431 0.0553588 0.11258 0.0518756 0.0538695 0.109551 0.0504746 0.0525574 0.106883 0.0492401 0.0514226 0.104575 0.0481721 0.15018 0.379347 0.169023 0.134987 0.34097 0.151911 0.121604 0.307166 0.136838 0.110032 0.277935 0.123804 0.10027 0.253277 0.112807 0.0918817 0.232088 0.103359 0.0844304 0.213267 0.0949654 0.0779162 0.196812 0.0876281 0.072339 0.182724 0.0813467 0.0675057 0.170516 0.0759031 0.063223 0.159698 0.0710795 0.0594909 0.150271 0.0668758 0.0563095 0.142235 0.063292 0.0535837 0.13535 0.0602211 0.0512183 0.129375 0.057556 0.0492135 0.124311 0.0552966 0.0475691 0.120157 0.0534431 0.0461789 0.116646 0.0518756 0.0449366 0.113508 0.0504746 0.0438421 0.110743 0.0492401 0.0428955 0.108352 0.0481721 0.119873 0.389985 0.169023 0.107746 0.350532 0.151911 0.0970642 0.31578 0.136838 0.0878272 0.285729 0.123804 0.0800352 0.260379 0.112807 0.0733397 0.238597 0.103358 0.0673921 0.219247 0.0949654 0.0621924 0.202331 0.0876281 0.0577407 0.187849 0.0813466 0.0538828 0.175298 0.0759031 0.0504643 0.164176 0.0710795 0.0474854 0.154485 0.0668758 0.044946 0.146224 0.063292 0.0427703 0.139145 0.0602211 0.0408823 0.133003 0.057556 0.039282 0.127797 0.0552966 0.0379695 0.123527 0.053443 0.0368598 0.119917 0.0518756 0.0358682 0.116691 0.0504746 0.0349946 0.113849 0.0492401 0.034239 0.111391 0.0481721 0.089425 0.398072 0.169023 0.0803783 0.357801 0.151911 0.0724095 0.322328 0.136838 0.0655187 0.291654 0.123804 0.0597059 0.265778 0.112807 0.0547111 0.243544 0.103358 0.0502742 0.223794 0.0949653 0.0463953 0.206527 0.0876281 0.0430743 0.191744 0.0813466 0.0401963 0.178932 0.0759031 0.0376461 0.167581 0.0710795 0.0354239 0.157688 0.0668758 0.0335295 0.149256 0.063292 0.0319064 0.142031 0.0602211 0.030498 0.135761 0.057556 0.0293042 0.130447 0.0552966 0.028325 0.126088 0.053443 0.0274973 0.122404 0.0518756 0.0267575 0.119111 0.0504746 0.0261058 0.11621 0.0492401 0.0255421 0.1137 0.0481721 0.0591262 0.403685 0.169023 0.0531447 0.362846 0.151911 0.0478759 0.326874 0.136838 0.0433198 0.295767 0.123804 0.0394765 0.269527 0.112807 0.036174 0.246979 0.103358 0.0332404 0.22695 0.0949653 0.0306757 0.209439 0.087628 0.0284799 0.194448 0.0813466 0.026577 0.181456 0.0759031 0.0248909 0.169944 0.0710794 0.0234216 0.159912 0.0668758 0.0221691 0.151361 0.063292 0.0210959 0.144034 0.0602211 0.0201647 0.137676 0.057556 0.0193754 0.132287 0.0552966 0.018728 0.127867 0.053443 0.0181807 0.12413 0.0518756 0.0176916 0.12079 0.0504746 0.0172607 0.117848 0.0492401 0.016888 0.115304 0.0481721 0.0292406 0.406943 0.169023 0.0262825 0.365775 0.151911 0.0236768 0.329511 0.136838 0.0214236 0.298154 0.123804 0.0195229 0.271702 0.112807 0.0178897 0.248972 0.103358 0.0164389 0.228781 0.0949653 0.0151705 0.21113 0.087628 0.0140846 0.196017 0.0813466 0.0131436 0.18292 0.075903 0.0123097 0.171315 0.0710794 0.0115831 0.161203 0.0668757 0.0109636 0.152582 0.063292 0.0104329 0.145196 0.0602211 0.00997235 0.138787 0.057556 0.009582 0.133354 0.0552966 0.00926184 0.128898 0.053443 0.00899117 0.125131 0.0518756 0.00874929 0.121765 0.0504746 0.00853619 0.118799 0.0492401 0.00835188 0.116234 0.0481721 0 0.407992 0.169023 0 0.366718 0.151911 0 0.330361 0.136838 0 0.298922 0.123804 0 0.272402 0.112807 0 0.249614 0.103358 0 0.229371 0.0949653 0 0.211674 0.087628 0 0.196522 0.0813466 0 0.183392 0.075903 0 0.171757 0.0710794 0 0.161618 0.0668757 0 0.152975 0.063292 0 0.14557 0.0602211 0 0.139144 0.057556 0 0.133698 0.0552966 0 0.129231 0.053443 0 0.125454 0.0518756 0 0.122079 0.0504746 0 0.119106 0.0492401 0 0.116534 0.0481721 0.400959 0 0.185125 0.360396 0 0.166383 0.324667 0 0.149874 0.29377 0 0.135598 0.267707 0 0.123554 0.245312 0 0.113204 0.225418 0 0.104011 0.208027 0 0.0959745 0.193137 0 0.0890942 0.180233 0 0.0831318 0.168799 0 0.0778485 0.158835 0 0.0732444 0.150342 0 0.0693194 0.143065 0 0.0659562 0.13675 0 0.0630373 0.131398 0 0.0605629 0.127008 0 0.0585328 0.123297 0 0.056816 0.11998 0 0.0552815 0.117058 0 0.0539292 0.114531 0 0.0527592 0.399928 0.0287366 0.185125 0.359469 0.0258294 0.166383 0.323832 0.0232687 0.149874 0.293015 0.0210544 0.135598 0.267019 0.0191864 0.123554 0.244681 0.0175814 0.113204 0.224839 0.0161556 0.104011 0.207492 0.0149091 0.0959745 0.19264 0.013842 0.0890943 0.179769 0.0129171 0.0831318 0.168365 0.0120977 0.0778485 0.158427 0.0113836 0.0732444 0.149955 0.0107749 0.0693194 0.142697 0.0102533 0.0659562 0.136398 0.00980074 0.0630373 0.13106 0.00941714 0.0605629 0.126681 0.00910253 0.0585328 0.12298 0.00883654 0.056816 0.119672 0.00859885 0.0552814 0.116757 0.00838945 0.0539292 0.114237 0.00820834 0.0527591 0.396726 0.058107 0.185125 0.356592 0.0522286 0.166383 0.321239 0.0470506 0.149874 0.290669 0.0425731 0.135598 0.264881 0.0387961 0.123554 0.242722 0.0355505 0.113204 0.223039 0.0326676 0.104011 0.205831 0.0301471 0.0959745 0.191098 0.0279893 0.0890943 0.17833 0.0261192 0.0831318 0.167017 0.0244622 0.0778485 0.157158 0.0230183 0.0732444 0.148755 0.0217874 0.0693194 0.141554 0.0207328 0.0659562 0.135306 0.0198177 0.0630373 0.130011 0.019042 0.0605629 0.125667 0.0184058 0.0585328 0.121995 0.017868 0.056816 0.118713 0.0173874 0.0552814 0.115823 0.016964 0.0539292 0.113322 0.0165977 0.0527591 0.391209 0.0878834 0.185125 0.351633 0.0789927 0.166383 0.316772 0.0711614 0.149874 0.286627 0.0643895 0.135598 0.261198 0.0586769 0.123554 0.239347 0.0537682 0.113204 0.219937 0.0494078 0.104011 0.202968 0.0455958 0.0959745 0.18844 0.0423322 0.0890943 0.17585 0.0395038 0.0831318 0.164694 0.0369977 0.0778485 0.154973 0.0348139 0.0732444 0.146686 0.0329522 0.0693194 0.139586 0.0313572 0.0659562 0.133425 0.0299731 0.0630373 0.128203 0.0288 0.0605629 0.12392 0.0278378 0.0585328 0.120298 0.0270244 0.056816 0.117063 0.0262975 0.0552814 0.114212 0.025657 0.0539292 0.111746 0.0251032 0.0527591 0.383262 0.117807 0.185125 0.34449 0.105889 0.166383 0.310337 0.0953911 0.149874 0.280804 0.0863134 0.135598 0.255892 0.0786558 0.123554 0.234485 0.0720757 0.113204 0.215469 0.0662307 0.104011 0.198845 0.0611208 0.0959746 0.184612 0.0567459 0.0890943 0.172278 0.0529545 0.0831319 0.161349 0.0495951 0.0778486 0.151825 0.0466677 0.0732444 0.143706 0.0441722 0.0693194 0.13675 0.0420341 0.0659562 0.130714 0.0401787 0.0630374 0.125598 0.0386062 0.0605629 0.121402 0.0373164 0.0585328 0.117855 0.0362259 0.056816 0.114685 0.0352515 0.0552814 0.111892 0.034393 0.0539292 0.109476 0.0336506 0.0527591 0.372807 0.147591 0.185125 0.335092 0.13266 0.166383 0.301871 0.119508 0.149874 0.273144 0.108136 0.135598 0.248911 0.0985419 0.123554 0.228088 0.0902982 0.113204 0.209591 0.0829755 0.104011 0.193421 0.0765736 0.0959746 0.179576 0.0710927 0.0890943 0.167578 0.0663427 0.0831319 0.156947 0.062134 0.0778486 0.147683 0.0584664 0.0732444 0.139786 0.05534 0.0693194 0.13302 0.0526613 0.0659562 0.127149 0.0503369 0.0630374 0.122172 0.0483668 0.0605629 0.11809 0.0467509 0.0585328 0.11464 0.0453848 0.056816 0.111556 0.044164 0.0552815 0.10884 0.0430885 0.0539292 0.10649 0.0421583 0.0527592 0.359811 0.17693 0.185125 0.323411 0.159031 0.166383 0.291348 0.143265 0.149874 0.263622 0.129632 0.135598 0.240234 0.118131 0.123554 0.220137 0.108248 0.113204 0.202285 0.09947 0.104011 0.186678 0.0917955 0.0959746 0.173316 0.085225 0.0890943 0.161737 0.0795309 0.0831319 0.151476 0.0744855 0.0778486 0.142535 0.0700889 0.0732444 0.134913 0.066341 0.0693194 0.128383 0.0631298 0.0659562 0.122716 0.0603433 0.0630374 0.117913 0.0579815 0.0605629 0.113974 0.0560444 0.0585328 0.110643 0.0544067 0.056816 0.107667 0.0529433 0.0552815 0.105045 0.051654 0.0539292 0.102778 0.0505389 0.0527592 0.34429 0.205507 0.185125 0.30946 0.184717 0.166383 0.27878 0.166404 0.149874 0.25225 0.150569 0.135598 0.229871 0.13721 0.123554 0.210641 0.125732 0.113204 0.193559 0.115536 0.104011 0.178625 0.106622 0.0959746 0.16584 0.0989899 0.0890944 0.15476 0.0923761 0.0831319 0.144942 0.0865159 0.0778486 0.136386 0.0814091 0.0732444 0.129093 0.0770559 0.0693195 0.122845 0.0733261 0.0659562 0.117423 0.0700896 0.0630374 0.112827 0.0673463 0.0605629 0.109057 0.0650963 0.0585328 0.105871 0.0631942 0.056816 0.103023 0.0614943 0.0552815 0.100514 0.0599968 0.0539292 0.0983441 0.0587016 0.0527592 0.326311 0.233001 0.185125 0.2933 0.20943 0.166383 0.264222 0.188667 0.149875 0.239078 0.170713 0.135598 0.217867 0.155567 0.123554 0.199641 0.142553 0.113204 0.183452 0.130993 0.104011 0.169298 0.120886 0.0959746 0.15718 0.112234 0.0890944 0.146678 0.104735 0.0831319 0.137373 0.0980906 0.0778486 0.129264 0.0923007 0.0732445 0.122352 0.087365 0.0693195 0.11643 0.0831362 0.0659562 0.111291 0.0794667 0.0630374 0.106935 0.0763564 0.0605629 0.103362 0.0738054 0.0585328 0.100342 0.0716488 0.056816 0.097643 0.0697215 0.0552815 0.0952652 0.0680236 0.0539292 0.0932087 0.0665551 0.0527592 0.305997 0.259102 0.185125 0.275041 0.23289 0.166383 0.247774 0.209802 0.149875 0.224195 0.189836 0.135598 0.204305 0.172994 0.123554 0.187213 0.158522 0.113204 0.172031 0.145667 0.104011 0.158758 0.134428 0.0959746 0.147395 0.124806 0.0890944 0.137547 0.116468 0.0831319 0.128821 0.109079 0.0778486 0.121217 0.10264 0.0732445 0.114735 0.097152 0.0693195 0.109182 0.0924494 0.0659562 0.104363 0.0883688 0.0630374 0.100278 0.0849101 0.0605629 0.0969278 0.0820734 0.0585328 0.0940955 0.0796751 0.056816 0.0915645 0.0775319 0.0552815 0.0893347 0.0756439 0.0539292 0.0874061 0.0740109 0.0527592 0.283521 0.283521 0.185125 0.254839 0.254839 0.166383 0.229574 0.229574 0.149875 0.207727 0.207727 0.135598 0.189298 0.189298 0.123554 0.173462 0.173462 0.113204 0.159395 0.159395 0.104011 0.147097 0.147097 0.0959746 0.136568 0.136568 0.0890944 0.127444 0.127444 0.0831319 0.119359 0.119359 0.0778486 0.112314 0.112314 0.0732445 0.106308 0.106308 0.0693195 0.101162 0.101162 0.0659562 0.096697 0.096697 0.0630374 0.0929123 0.0929123 0.0605629 0.0898082 0.0898082 0.0585328 0.087184 0.087184 0.056816 0.0848388 0.0848388 0.0552815 0.0827728 0.0827728 0.0539292 0.0809859 0.0809859 0.0527592 0.259102 0.305997 0.185125 0.23289 0.275041 0.166383 0.209802 0.247774 0.149875 0.189836 0.224195 0.135598 0.172994 0.204305 0.123554 0.158522 0.187213 0.113204 0.145667 0.172031 0.104011 0.134428 0.158758 0.0959746 0.124806 0.147395 0.0890944 0.116468 0.137547 0.0831319 0.109079 0.128821 0.0778486 0.10264 0.121217 0.0732445 0.097152 0.114735 0.0693195 0.0924494 0.109182 0.0659562 0.0883688 0.104363 0.0630374 0.0849101 0.100278 0.0605629 0.0820734 0.0969278 0.0585328 0.0796751 0.0940955 0.056816 0.0775319 0.0915645 0.0552815 0.0756439 0.0893347 0.0539292 0.0740109 0.0874061 0.0527592 0.233001 0.326311 0.185125 0.20943 0.2933 0.166383 0.188667 0.264222 0.149875 0.170713 0.239078 0.135598 0.155567 0.217867 0.123554 0.142553 0.199641 0.113204 0.130993 0.183452 0.104011 0.120886 0.169298 0.0959746 0.112234 0.15718 0.0890944 0.104735 0.146678 0.0831319 0.0980906 0.137373 0.0778486 0.0923007 0.129264 0.0732445 0.087365 0.122352 0.0693195 0.0831362 0.11643 0.0659562 0.0794667 0.111291 0.0630374 0.0763564 0.106935 0.0605629 0.0738054 0.103362 0.0585328 0.0716488 0.100342 0.056816 0.0697215 0.097643 0.0552815 0.0680236 0.0952652 0.0539292 0.0665551 0.0932087 0.0527592 0.205507 0.34429 0.185125 0.184717 0.30946 0.166383 0.166404 0.27878 0.149874 0.150569 0.25225 0.135598 0.13721 0.229871 0.123554 0.125732 0.210641 0.113204 0.115536 0.193559 0.104011 0.106622 0.178625 0.0959746 0.0989899 0.16584 0.0890944 0.0923761 0.15476 0.0831319 0.0865159 0.144942 0.0778486 0.0814091 0.136386 0.0732444 0.0770559 0.129093 0.0693195 0.0733261 0.122845 0.0659562 0.0700896 0.117423 0.0630374 0.0673463 0.112827 0.0605629 0.0650963 0.109057 0.0585328 0.0631942 0.105871 0.056816 0.0614943 0.103023 0.0552815 0.0599968 0.100514 0.0539292 0.0587016 0.0983441 0.0527592 0.17693 0.359811 0.185125 0.159031 0.323411 0.166383 0.143265 0.291348 0.149874 0.129632 0.263622 0.135598 0.118131 0.240234 0.123554 0.108248 0.220137 0.113204 0.09947 0.202285 0.104011 0.0917955 0.186678 0.0959746 0.085225 0.173316 0.0890943 0.0795309 0.161737 0.0831319 0.0744855 0.151476 0.0778486 0.0700889 0.142535 0.0732444 0.066341 0.134913 0.0693194 0.0631298 0.128383 0.0659562 0.0603433 0.122716 0.0630374 0.0579815 0.117913 0.0605629 0.0560444 0.113974 0.0585328 0.0544067 0.110643 0.056816 0.0529433 0.107667 0.0552815 0.051654 0.105045 0.0539292 0.0505389 0.102778 0.0527592 0.147591 0.372807 0.185125 0.13266 0.335092 0.166383 0.119508 0.301871 0.149874 0.108136 0.273144 0.135598 0.0985419 0.248911 0.123554 0.0902982 0.228088 0.113204 0.0829755 0.209591 0.104011 0.0765736 0.193421 0.0959746 0.0710927 0.179576 0.0890943 0.0663427 0.167578 0.0831319 0.062134 0.156947 0.0778486 0.0584664 0.147683 0.0732444 0.05534 0.139786 0.0693194 0.0526613 0.13302 0.0659562 0.0503369 0.127149 0.0630374 0.0483668 0.122172 0.0605629 0.0467509 0.11809 0.0585328 0.0453848 0.11464 0.056816 0.044164 0.111556 0.0552815 0.0430885 0.10884 0.0539292 0.0421583 0.10649 0.0527592 0.117807 0.383262 0.185125 0.105889 0.34449 0.166383 0.0953911 0.310337 0.149874 0.0863134 0.280804 0.135598 0.0786558 0.255892 0.123554 0.0720757 0.234485 0.113204 0.0662307 0.215469 0.104011 0.0611208 0.198845 0.0959746 0.0567459 0.184612 0.0890943 0.0529545 0.172278 0.0831319 0.0495951 0.161349 0.0778486 0.0466677 0.151825 0.0732444 0.0441722 0.143706 0.0693194 0.0420341 0.13675 0.0659562 0.0401787 0.130714 0.0630374 0.0386062 0.125598 0.0605629 0.0373164 0.121402 0.0585328 0.0362259 0.117855 0.056816 0.0352515 0.114685 0.0552814 0.034393 0.111892 0.0539292 0.0336506 0.109476 0.0527591 0.0878834 0.391209 0.185125 0.0789927 0.351633 0.166383 0.0711614 0.316772 0.149874 0.0643895 0.286627 0.135598 0.0586769 0.261198 0.123554 0.0537682 0.239347 0.113204 0.0494078 0.219937 0.104011 0.0455958 0.202968 0.0959745 0.0423322 0.18844 0.0890943 0.0395038 0.17585 0.0831318 0.0369977 0.164694 0.0778485 0.0348139 0.154973 0.0732444 0.0329522 0.146686 0.0693194 0.0313572 0.139586 0.0659562 0.0299731 0.133425 0.0630373 0.0288 0.128203 0.0605629 0.0278378 0.12392 0.0585328 0.0270244 0.120298 0.056816 0.0262975 0.117063 0.0552814 0.025657 0.114212 0.0539292 0.0251032 0.111746 0.0527591 0.058107 0.396726 0.185125 0.0522286 0.356592 0.166383 0.0470506 0.321239 0.149874 0.0425731 0.290669 0.135598 0.0387961 0.264881 0.123554 0.0355505 0.242722 0.113204 0.0326676 0.223039 0.104011 0.0301471 0.205831 0.0959745 0.0279893 0.191098 0.0890943 0.0261192 0.17833 0.0831318 0.0244622 0.167017 0.0778485 0.0230183 0.157158 0.0732444 0.0217874 0.148755 0.0693194 0.0207328 0.141554 0.0659562 0.0198177 0.135306 0.0630373 0.019042 0.130011 0.0605629 0.0184058 0.125667 0.0585328 0.017868 0.121995 0.056816 0.0173874 0.118713 0.0552814 0.016964 0.115823 0.0539292 0.0165977 0.113322 0.0527591 0.0287366 0.399928 0.185125 0.0258294 0.359469 0.166383 0.0232687 0.323832 0.149874 0.0210544 0.293015 0.135598 0.0191864 0.267019 0.123554 0.0175814 0.244681 0.113204 0.0161556 0.224839 0.104011 0.0149091 0.207492 0.0959745 0.013842 0.19264 0.0890943 0.0129171 0.179769 0.0831318 0.0120977 0.168365 0.0778485 0.0113836 0.158427 0.0732444 0.0107749 0.149955 0.0693194 0.0102533 0.142697 0.0659562 0.00980074 0.136398 0.0630373 0.00941714 0.13106 0.0605629 0.00910253 0.126681 0.0585328 0.00883654 0.12298 0.056816 0.00859885 0.119672 0.0552814 0.00838945 0.116757 0.0539292 0.00820834 0.114237 0.0527591 0 0.400959 0.185125 0 0.360396 0.166383 0 0.324667 0.149874 0 0.29377 0.135598 0 0.267707 0.123554 0 0.245312 0.113204 0 0.225418 0.104011 0 0.208027 0.0959745 0 0.193137 0.0890942 0 0.180233 0.0831318 0 0.168799 0.0778485 0 0.158835 0.0732444 0 0.150342 0.0693194 0 0.143065 0.0659562 0 0.13675 0.0630373 0 0.131398 0.0605629 0 0.127008 0.0585328 0 0.123297 0.056816 0 0.11998 0.0552815 0 0.117058 0.0539292 0 0.114531 0.0527592 0.393299 0 0.200923 0.353511 0 0.180583 0.318464 0 0.162665 0.288158 0 0.147171 0.262594 0 0.134098 0.240626 0 0.122865 0.221113 0 0.112887 0.204054 0 0.104164 0.189449 0 0.0966957 0.176791 0 0.0902239 0.165577 0 0.0844894 0.155804 0 0.0794924 0.147473 0 0.0752326 0.140336 0 0.0715827 0.134142 0 0.068415 0.128892 0 0.0657296 0.124587 0 0.0635263 0.120947 0 0.0616631 0.117694 0 0.0599975 0.114829 0 0.0585296 0.11235 0 0.0572593 0.392287 0.0281875 0.200923 0.352602 0.025336 0.180583 0.317645 0.0228242 0.162665 0.287417 0.0206522 0.147171 0.261918 0.01882 0.134098 0.240008 0.0172456 0.122865 0.220544 0.015847 0.112887 0.203529 0.0146244 0.104164 0.188961 0.0135777 0.0966957 0.176337 0.0126705 0.0902239 0.165151 0.0118667 0.0844895 0.155403 0.0111663 0.0794924 0.147094 0.0105693 0.0752326 0.139975 0.0100577 0.0715827 0.133797 0.00961383 0.068415 0.128561 0.0092376 0.0657296 0.124267 0.00892902 0.0635263 0.120636 0.00866814 0.0616631 0.117391 0.00843502 0.0599975 0.114533 0.00822965 0.0585295 0.112061 0.00805203 0.0572593 0.389147 0.0569968 0.200923 0.349779 0.0512308 0.180583 0.315102 0.0461518 0.162665 0.285117 0.0417599 0.147171 0.259822 0.038055 0.134098 0.238086 0.0348715 0.122865 0.218779 0.0320436 0.112887 0.2019 0.0295714 0.104164 0.187449 0.0274548 0.0966957 0.174925 0.0256205 0.0902239 0.163829 0.0239952 0.0844895 0.154159 0.022579 0.0794924 0.145916 0.0213717 0.0752327 0.138854 0.0203373 0.0715827 0.132726 0.0194397 0.068415 0.127532 0.018679 0.0657296 0.123272 0.018055 0.0635263 0.11967 0.0175275 0.0616631 0.116452 0.0170561 0.0599975 0.113616 0.0166408 0.0585295 0.111164 0.0162817 0.0572593 0.383735 0.0862044 0.200923 0.344915 0.0774836 0.180583 0.31072 0.0698019 0.162665 0.281152 0.0631594 0.147171 0.256208 0.0575561 0.134098 0.234775 0.0527412 0.122865 0.215737 0.0484642 0.112887 0.199092 0.0447251 0.104164 0.184842 0.0415239 0.0966957 0.172493 0.0387496 0.0902239 0.16155 0.0362915 0.0844895 0.152015 0.0341494 0.0794924 0.143887 0.0323235 0.0752327 0.136923 0.0307591 0.0715827 0.13088 0.0294015 0.068415 0.125758 0.0282509 0.0657296 0.121557 0.0273072 0.0635263 0.118006 0.0265094 0.0616631 0.114832 0.0257964 0.0599975 0.112036 0.0251683 0.0585295 0.109618 0.0246251 0.0572593 0.37594 0.115556 0.200923 0.337908 0.103866 0.180583 0.304408 0.0935688 0.162666 0.27544 0.0846646 0.147171 0.251004 0.0771533 0.134098 0.230006 0.070699 0.122865 0.211354 0.0649658 0.112887 0.195048 0.0599535 0.104164 0.181087 0.0556623 0.0966957 0.168989 0.0519435 0.0902239 0.158269 0.0486484 0.0844895 0.148927 0.045777 0.0794924 0.140964 0.0433294 0.0752327 0.134142 0.0412322 0.0715827 0.128222 0.0394125 0.068415 0.123204 0.0378701 0.0657296 0.119088 0.0366051 0.0635263 0.115609 0.0355356 0.0616631 0.1125 0.0345799 0.0599975 0.10976 0.0337379 0.0585295 0.107392 0.0330098 0.0572593 0.365684 0.144771 0.200923 0.32869 0.130126 0.180583 0.296104 0.117225 0.162666 0.267926 0.10607 0.147171 0.244157 0.0966595 0.134099 0.223732 0.0885735 0.122865 0.205589 0.0813907 0.112887 0.189727 0.0751113 0.104164 0.176147 0.0697351 0.0966957 0.164379 0.0650761 0.090224 0.153951 0.0609479 0.0844895 0.144865 0.0573506 0.0794924 0.137119 0.0542841 0.0752327 0.130483 0.0516568 0.0715828 0.124724 0.049377 0.068415 0.119843 0.0474446 0.0657296 0.11584 0.0458597 0.0635263 0.112455 0.0445199 0.0616631 0.109431 0.0433225 0.0599975 0.106766 0.0422677 0.0585295 0.104462 0.0413555 0.0572593 0.352937 0.17355 0.200923 0.317232 0.155993 0.180583 0.285782 0.140528 0.162666 0.258587 0.127155 0.147171 0.235645 0.115874 0.134099 0.215932 0.106181 0.122865 0.198422 0.0975702 0.112887 0.183113 0.0900425 0.104164 0.170007 0.0835977 0.0966958 0.158649 0.0780125 0.090224 0.148585 0.0730636 0.0844895 0.139815 0.0687512 0.0794924 0.132339 0.0650752 0.0752327 0.125934 0.0619256 0.0715828 0.120376 0.0591925 0.0684151 0.115665 0.0568761 0.0657296 0.111801 0.0549761 0.0635264 0.108535 0.0533699 0.0616631 0.105616 0.0519346 0.0599975 0.103044 0.0506701 0.0585296 0.10082 0.0495765 0.0572593 0.337712 0.201581 0.200923 0.303547 0.181188 0.180583 0.273454 0.163225 0.162666 0.247432 0.147692 0.147171 0.22548 0.134589 0.134099 0.206618 0.12333 0.122865 0.189862 0.113329 0.112887 0.175214 0.104585 0.104164 0.162673 0.0970997 0.0966958 0.151805 0.0906125 0.090224 0.142175 0.0848644 0.0844895 0.133783 0.0798554 0.0794925 0.12663 0.0755856 0.0752327 0.120501 0.0719274 0.0715828 0.115183 0.0687529 0.0684151 0.110676 0.0660623 0.0657296 0.106979 0.0638555 0.0635264 0.103853 0.0619899 0.0616631 0.10106 0.0603227 0.0599975 0.0985994 0.058854 0.0585296 0.0964713 0.0575837 0.0572593 0.320077 0.228549 0.200923 0.287697 0.205428 0.180583 0.259175 0.185063 0.162666 0.234511 0.167452 0.147171 0.213706 0.152596 0.134099 0.195828 0.13983 0.122865 0.179948 0.128491 0.112887 0.166065 0.118578 0.104164 0.154178 0.11009 0.0966958 0.143878 0.102735 0.090224 0.134751 0.0962181 0.0844896 0.126797 0.0905391 0.0794925 0.120018 0.0856981 0.0752327 0.114209 0.0815503 0.0715828 0.109168 0.0779512 0.0684151 0.104896 0.0749006 0.0657296 0.101392 0.0723986 0.0635264 0.0984299 0.0702833 0.0616631 0.0957827 0.0683931 0.0599975 0.0934506 0.0667279 0.0585296 0.0914337 0.0652877 0.0572593 0.300151 0.254152 0.200923 0.269787 0.228441 0.180583 0.24304 0.205794 0.162666 0.219912 0.18621 0.147171 0.200402 0.16969 0.134099 0.183637 0.155495 0.122865 0.168746 0.142885 0.112887 0.155727 0.131861 0.104164 0.14458 0.122423 0.0966958 0.134921 0.114244 0.090224 0.126362 0.106997 0.0844896 0.118904 0.100682 0.0794925 0.112546 0.0952982 0.0752327 0.107099 0.0906859 0.0715828 0.102372 0.0866836 0.0684151 0.0983661 0.0832912 0.0657296 0.0950802 0.0805089 0.0635264 0.0923023 0.0781567 0.0616631 0.0898199 0.0760548 0.0599975 0.087633 0.074203 0.0585296 0.0857416 0.0726015 0.0572593 0.278104 0.278104 0.200923 0.24997 0.24997 0.180583 0.225188 0.225188 0.162666 0.203759 0.203759 0.147171 0.185682 0.185682 0.134099 0.170149 0.170149 0.122865 0.156351 0.156351 0.112887 0.144288 0.144288 0.104164 0.133961 0.133961 0.0966958 0.125011 0.125011 0.090224 0.117081 0.117081 0.0844896 0.11017 0.11017 0.0794925 0.104279 0.104279 0.0752327 0.0992324 0.0992324 0.0715828 0.0948529 0.0948529 0.0684151 0.0911409 0.0911409 0.0657296 0.0880964 0.0880964 0.0635264 0.0855225 0.0855225 0.0616631 0.0832224 0.0832224 0.0599975 0.0811962 0.0811962 0.0585296 0.0794437 0.0794437 0.0572593 0.254152 0.300151 0.200923 0.228441 0.269787 0.180583 0.205794 0.24304 0.162666 0.18621 0.219912 0.147171 0.16969 0.200402 0.134099 0.155495 0.183637 0.122865 0.142885 0.168746 0.112887 0.131861 0.155727 0.104164 0.122423 0.14458 0.0966958 0.114244 0.134921 0.090224 0.106997 0.126362 0.0844896 0.100682 0.118904 0.0794925 0.0952982 0.112546 0.0752327 0.0906859 0.107099 0.0715828 0.0866836 0.102372 0.0684151 0.0832912 0.0983661 0.0657296 0.0805089 0.0950802 0.0635264 0.0781567 0.0923023 0.0616631 0.0760548 0.0898199 0.0599975 0.074203 0.087633 0.0585296 0.0726015 0.0857416 0.0572593 0.228549 0.320077 0.200923 0.205428 0.287697 0.180583 0.185063 0.259175 0.162666 0.167452 0.234511 0.147171 0.152596 0.213706 0.134099 0.13983 0.195828 0.122865 0.128491 0.179948 0.112887 0.118578 0.166065 0.104164 0.11009 0.154178 0.0966958 0.102735 0.143878 0.090224 0.0962181 0.134751 0.0844896 0.0905391 0.126797 0.0794925 0.0856981 0.120018 0.0752327 0.0815503 0.114209 0.0715828 0.0779512 0.109168 0.0684151 0.0749006 0.104896 0.0657296 0.0723986 0.101392 0.0635264 0.0702833 0.0984299 0.0616631 0.0683931 0.0957827 0.0599975 0.0667279 0.0934506 0.0585296 0.0652877 0.0914337 0.0572593 0.201581 0.337712 0.200923 0.181188 0.303547 0.180583 0.163225 0.273454 0.162666 0.147692 0.247432 0.147171 0.134589 0.22548 0.134099 0.12333 0.206618 0.122865 0.113329 0.189862 0.112887 0.104585 0.175214 0.104164 0.0970997 0.162673 0.0966958 0.0906125 0.151805 0.090224 0.0848644 0.142175 0.0844895 0.0798554 0.133783 0.0794925 0.0755856 0.12663 0.0752327 0.0719274 0.120501 0.0715828 0.0687529 0.115183 0.0684151 0.0660623 0.110676 0.0657296 0.0638555 0.106979 0.0635264 0.0619899 0.103853 0.0616631 0.0603227 0.10106 0.0599975 0.058854 0.0985994 0.0585296 0.0575837 0.0964713 0.0572593 0.17355 0.352937 0.200923 0.155993 0.317232 0.180583 0.140528 0.285782 0.162666 0.127155 0.258587 0.147171 0.115874 0.235645 0.134099 0.106181 0.215932 0.122865 0.0975702 0.198422 0.112887 0.0900425 0.183113 0.104164 0.0835977 0.170007 0.0966958 0.0780125 0.158649 0.090224 0.0730636 0.148585 0.0844895 0.0687512 0.139815 0.0794924 0.0650752 0.132339 0.0752327 0.0619256 0.125934 0.0715828 0.0591925 0.120376 0.0684151 0.0568761 0.115665 0.0657296 0.0549761 0.111801 0.0635264 0.0533699 0.108535 0.0616631 0.0519346 0.105616 0.0599975 0.0506701 0.103044 0.0585296 0.0495765 0.10082 0.0572593 0.144771 0.365684 0.200923 0.130126 0.32869 0.180583 0.117225 0.296104 0.162666 0.10607 0.267926 0.147171 0.0966595 0.244157 0.134099 0.0885735 0.223732 0.122865 0.0813907 0.205589 0.112887 0.0751113 0.189727 0.104164 0.0697351 0.176147 0.0966957 0.0650761 0.164379 0.090224 0.0609479 0.153951 0.0844895 0.0573506 0.144865 0.0794924 0.0542841 0.137119 0.0752327 0.0516568 0.130483 0.0715828 0.049377 0.124724 0.068415 0.0474446 0.119843 0.0657296 0.0458597 0.11584 0.0635263 0.0445199 0.112455 0.0616631 0.0433225 0.109431 0.0599975 0.0422677 0.106766 0.0585295 0.0413555 0.104462 0.0572593 0.115556 0.37594 0.200923 0.103866 0.337908 0.180583 0.0935688 0.304408 0.162666 0.0846646 0.27544 0.147171 0.0771533 0.251004 0.134098 0.070699 0.230006 0.122865 0.0649658 0.211354 0.112887 0.0599535 0.195048 0.104164 0.0556623 0.181087 0.0966957 0.0519435 0.168989 0.0902239 0.0486484 0.158269 0.0844895 0.045777 0.148927 0.0794924 0.0433294 0.140964 0.0752327 0.0412322 0.134142 0.0715827 0.0394125 0.128222 0.068415 0.0378701 0.123204 0.0657296 0.0366051 0.119088 0.0635263 0.0355356 0.115609 0.0616631 0.0345799 0.1125 0.0599975 0.0337379 0.10976 0.0585295 0.0330098 0.107392 0.0572593 0.0862044 0.383735 0.200923 0.0774836 0.344915 0.180583 0.0698019 0.31072 0.162665 0.0631594 0.281152 0.147171 0.0575561 0.256208 0.134098 0.0527412 0.234775 0.122865 0.0484642 0.215737 0.112887 0.0447251 0.199092 0.104164 0.0415239 0.184842 0.0966957 0.0387496 0.172493 0.0902239 0.0362915 0.16155 0.0844895 0.0341494 0.152015 0.0794924 0.0323235 0.143887 0.0752327 0.0307591 0.136923 0.0715827 0.0294015 0.13088 0.068415 0.0282509 0.125758 0.0657296 0.0273072 0.121557 0.0635263 0.0265094 0.118006 0.0616631 0.0257964 0.114832 0.0599975 0.0251683 0.112036 0.0585295 0.0246251 0.109618 0.0572593 0.0569968 0.389147 0.200923 0.0512308 0.349779 0.180583 0.0461518 0.315102 0.162665 0.0417599 0.285117 0.147171 0.038055 0.259822 0.134098 0.0348715 0.238086 0.122865 0.0320436 0.218779 0.112887 0.0295714 0.2019 0.104164 0.0274548 0.187449 0.0966957 0.0256205 0.174925 0.0902239 0.0239952 0.163829 0.0844895 0.022579 0.154159 0.0794924 0.0213717 0.145916 0.0752327 0.0203373 0.138854 0.0715827 0.0194397 0.132726 0.068415 0.018679 0.127532 0.0657296 0.018055 0.123272 0.0635263 0.0175275 0.11967 0.0616631 0.0170561 0.116452 0.0599975 0.0166408 0.113616 0.0585295 0.0162817 0.111164 0.0572593 0.0281875 0.392287 0.200923 0.025336 0.352602 0.180583 0.0228242 0.317645 0.162665 0.0206522 0.287417 0.147171 0.01882 0.261918 0.134098 0.0172456 0.240008 0.122865 0.015847 0.220544 0.112887 0.0146244 0.203529 0.104164 0.0135777 0.188961 0.0966957 0.0126705 0.176337 0.0902239 0.0118667 0.165151 0.0844895 0.0111663 0.155403 0.0794924 0.0105693 0.147094 0.0752326 0.0100577 0.139975 0.0715827 0.00961383 0.133797 0.068415 0.0092376 0.128561 0.0657296 0.00892902 0.124267 0.0635263 0.00866814 0.120636 0.0616631 0.00843502 0.117391 0.0599975 0.00822965 0.114533 0.0585295 0.00805203 0.112061 0.0572593 0 0.393299 0.200923 0 0.353511 0.180583 0 0.318464 0.162665 0 0.288158 0.147171 0 0.262594 0.134098 0 0.240626 0.122865 0 0.221113 0.112887 0 0.204054 0.104164 0 0.189449 0.0966957 0 0.176791 0.0902239 0 0.165577 0.0844894 0 0.155804 0.0794924 0 0.147473 0.0752326 0 0.140336 0.0715827 0 0.134142 0.068415 0 0.128892 0.0657296 0 0.124587 0.0635263 0 0.120947 0.0616631 0 0.117694 0.0599975 0 0.114829 0.0585296 0 0.11235 0.0572593 0.38503 0 0.216381 0.346079 0 0.194477 0.31177 0 0.175182 0.282101 0 0.158495 0.257074 0 0.144417 0.235569 0 0.132319 0.216467 0 0.121572 0.199766 0 0.112177 0.185469 0 0.104134 0.173078 0 0.0971636 0.162099 0 0.0909876 0.152532 0 0.0856058 0.144377 0 0.0810183 0.137391 0 0.0770877 0.131328 0 0.0736764 0.126189 0 0.0707845 0.121975 0 0.068412 0.118412 0 0.0664055 0.115228 0 0.0646118 0.112423 0 0.0630309 0.109997 0 0.0616626 0.38404 0.0275949 0.216381 0.345189 0.0248034 0.194477 0.310968 0.0223444 0.175182 0.281376 0.0202181 0.158495 0.256413 0.0184244 0.144417 0.234964 0.0168831 0.132319 0.21591 0.015514 0.121572 0.199253 0.0143171 0.112177 0.184992 0.0132924 0.104134 0.172633 0.0124044 0.0971636 0.161682 0.0116175 0.0909876 0.15214 0.0109319 0.0856058 0.144006 0.0103474 0.0810183 0.137037 0.00984666 0.0770877 0.13099 0.00941214 0.0736764 0.125865 0.00904385 0.0707845 0.121661 0.00874179 0.068412 0.118107 0.00848644 0.0664055 0.114931 0.00825825 0.0646118 0.112134 0.00805722 0.0630308 0.109714 0.00788337 0.0616626 0.380966 0.0557985 0.216381 0.342426 0.0501538 0.194477 0.308479 0.0451816 0.175182 0.279123 0.0408821 0.158495 0.254361 0.0372552 0.144417 0.233083 0.0341387 0.132319 0.214182 0.0313703 0.121572 0.197658 0.0289501 0.112177 0.183511 0.026878 0.104134 0.171251 0.0250824 0.0971637 0.160388 0.0234913 0.0909876 0.150922 0.0221049 0.0856058 0.142853 0.0209231 0.0810183 0.13594 0.0199105 0.0770877 0.129941 0.0190319 0.0736764 0.124857 0.0182872 0.0707845 0.120687 0.0176764 0.068412 0.117161 0.0171601 0.0664055 0.114011 0.0166987 0.0646118 0.111236 0.0162922 0.0630308 0.108836 0.0159406 0.0616626 0.375668 0.0843921 0.216381 0.337664 0.0758547 0.194477 0.304189 0.0683346 0.175182 0.275242 0.0618319 0.158495 0.250824 0.0563464 0.144417 0.229841 0.0516328 0.132319 0.211203 0.0474458 0.121572 0.194909 0.0437854 0.112177 0.180959 0.0406515 0.104134 0.168869 0.0379356 0.0971637 0.158158 0.0355293 0.0909876 0.148823 0.0334324 0.0856059 0.140867 0.031645 0.0810184 0.13405 0.0301136 0.0770877 0.128134 0.0287847 0.0736764 0.123121 0.0276584 0.0707845 0.119009 0.0267346 0.068412 0.115532 0.0259537 0.0664055 0.112426 0.0252558 0.0646118 0.109689 0.024641 0.0630308 0.107322 0.0241093 0.0616626 0.368036 0.113127 0.216381 0.330805 0.101682 0.194477 0.298009 0.0916019 0.175182 0.269651 0.082885 0.158495 0.245728 0.0755317 0.144417 0.225172 0.0692132 0.132319 0.206913 0.0636006 0.121572 0.190949 0.0586939 0.112177 0.177283 0.0544929 0.104134 0.165439 0.0508524 0.0971637 0.154945 0.0476267 0.0909877 0.1458 0.0448158 0.0856059 0.138005 0.0424198 0.0810184 0.131327 0.040367 0.0770877 0.125531 0.0385856 0.0736764 0.12062 0.0370758 0.0707845 0.116591 0.0358375 0.068412 0.113185 0.0347907 0.0664055 0.110142 0.0338552 0.0646118 0.107461 0.0330311 0.0630308 0.105142 0.0323183 0.0616626 0.357997 0.141728 0.216381 0.321781 0.12739 0.194477 0.28988 0.114761 0.175182 0.262295 0.10384 0.158495 0.239025 0.094628 0.144417 0.21903 0.086712 0.132319 0.201268 0.0796804 0.121572 0.185741 0.0735331 0.112177 0.172447 0.0682701 0.104134 0.160926 0.0637091 0.0971637 0.150718 0.0596679 0.0909877 0.141823 0.0561464 0.0856059 0.134241 0.0531446 0.0810184 0.127744 0.0505727 0.0770877 0.122107 0.0483411 0.0736764 0.117329 0.0464495 0.0707845 0.113411 0.0448981 0.068412 0.110098 0.0435866 0.0664055 0.107137 0.0424146 0.0646118 0.104529 0.0413821 0.0630308 0.102274 0.0404892 0.0616626 0.345517 0.169902 0.216381 0.310563 0.152714 0.194477 0.279775 0.137574 0.175182 0.253151 0.124482 0.158495 0.230693 0.113439 0.144417 0.211394 0.103949 0.132319 0.194252 0.0955199 0.121572 0.179266 0.0881506 0.112177 0.166435 0.0818414 0.104134 0.155316 0.0763737 0.0971637 0.145464 0.0715292 0.0909877 0.136879 0.0673076 0.0856059 0.129561 0.0637091 0.0810184 0.123291 0.060626 0.0770877 0.11785 0.0579507 0.0736764 0.113239 0.0556831 0.0707845 0.109457 0.0538234 0.068412 0.10626 0.0522511 0.0664055 0.103402 0.0508461 0.0646118 0.100885 0.0496084 0.0630309 0.0987086 0.048538 0.0616626 0.330612 0.197343 0.216381 0.297166 0.177379 0.194477 0.267706 0.159794 0.175182 0.242231 0.144588 0.158495 0.220741 0.131761 0.144417 0.202275 0.120738 0.132319 0.185873 0.110948 0.121572 0.171533 0.102388 0.112177 0.159256 0.0950598 0.104134 0.148616 0.0887091 0.0971638 0.139189 0.083082 0.0909877 0.130974 0.0781787 0.0856059 0.123972 0.073999 0.0810184 0.117973 0.0704179 0.0770877 0.112767 0.0673105 0.0736764 0.108354 0.0646767 0.0707845 0.104735 0.0625166 0.068412 0.101676 0.0606904 0.0664056 0.098942 0.0590585 0.0646118 0.0965335 0.0576208 0.0630309 0.0944505 0.0563775 0.0616626 0.313348 0.223745 0.216381 0.281649 0.20111 0.194477 0.253727 0.181172 0.175182 0.229582 0.163932 0.158495 0.209214 0.149388 0.144417 0.191713 0.136892 0.132319 0.176166 0.125791 0.121572 0.162575 0.116086 0.112177 0.150939 0.107778 0.104134 0.140856 0.100577 0.0971638 0.131921 0.0941974 0.0909877 0.124135 0.088638 0.0856059 0.117498 0.0838991 0.0810184 0.111812 0.0798389 0.0770877 0.106878 0.0763158 0.0736764 0.102696 0.0733297 0.0707845 0.0992662 0.0708805 0.068412 0.0963665 0.06881 0.0664056 0.0937753 0.0669598 0.0646118 0.0914926 0.0653298 0.0630309 0.0895184 0.0639201 0.0616626 0.293841 0.248809 0.216381 0.264115 0.223639 0.194477 0.237931 0.201468 0.175182 0.21529 0.182296 0.158495 0.19619 0.166123 0.144417 0.179778 0.152227 0.132319 0.1652 0.139882 0.121572 0.152455 0.129091 0.112177 0.141543 0.119851 0.104134 0.132087 0.111844 0.0971638 0.123708 0.10475 0.0909877 0.116407 0.0985675 0.0856059 0.110184 0.0932978 0.0810184 0.104852 0.0887828 0.0770877 0.100225 0.084865 0.0736764 0.096303 0.0815443 0.0707845 0.0930865 0.0788208 0.068412 0.0903674 0.0765183 0.0664056 0.0879375 0.0744608 0.0646119 0.0857969 0.0726483 0.0630309 0.0839456 0.0710807 0.0616626 0.272258 0.272258 0.216381 0.244715 0.244715 0.194477 0.220455 0.220455 0.175182 0.199476 0.199476 0.158495 0.181779 0.181779 0.144417 0.166573 0.166573 0.132319 0.153065 0.153065 0.121572 0.141256 0.141256 0.112177 0.131146 0.131146 0.104134 0.122385 0.122385 0.0971638 0.114622 0.114622 0.0909877 0.107857 0.107857 0.0856059 0.10209 0.10209 0.0810184 0.09715 0.09715 0.0770877 0.0928629 0.0928629 0.0736764 0.0892293 0.0892293 0.0707845 0.0862491 0.0862491 0.068412 0.0837297 0.0837297 0.0664056 0.0814783 0.0814783 0.0646119 0.0794949 0.0794949 0.0630309 0.0777796 0.0777796 0.0616626 0.248809 0.293841 0.216381 0.223639 0.264115 0.194477 0.201468 0.237931 0.175182 0.182296 0.21529 0.158495 0.166123 0.19619 0.144417 0.152227 0.179778 0.132319 0.139882 0.1652 0.121572 0.129091 0.152455 0.112177 0.119851 0.141543 0.104134 0.111844 0.132087 0.0971638 0.10475 0.123708 0.0909877 0.0985675 0.116407 0.0856059 0.0932978 0.110184 0.0810184 0.0887828 0.104852 0.0770877 0.084865 0.100225 0.0736764 0.0815443 0.096303 0.0707845 0.0788208 0.0930865 0.068412 0.0765183 0.0903674 0.0664056 0.0744608 0.0879375 0.0646119 0.0726483 0.0857969 0.0630309 0.0710807 0.0839456 0.0616626 0.223745 0.313348 0.216381 0.20111 0.281649 0.194477 0.181172 0.253727 0.175182 0.163932 0.229582 0.158495 0.149388 0.209214 0.144417 0.136892 0.191713 0.132319 0.125791 0.176166 0.121572 0.116086 0.162575 0.112177 0.107778 0.150939 0.104134 0.100577 0.140856 0.0971638 0.0941974 0.131921 0.0909877 0.088638 0.124135 0.0856059 0.0838991 0.117498 0.0810184 0.0798389 0.111812 0.0770877 0.0763158 0.106878 0.0736764 0.0733297 0.102696 0.0707845 0.0708805 0.0992662 0.068412 0.06881 0.0963665 0.0664056 0.0669598 0.0937753 0.0646118 0.0653298 0.0914926 0.0630309 0.0639201 0.0895184 0.0616626 0.197343 0.330612 0.216381 0.177379 0.297166 0.194477 0.159794 0.267706 0.175182 0.144588 0.242231 0.158495 0.131761 0.220741 0.144417 0.120738 0.202275 0.132319 0.110948 0.185873 0.121572 0.102388 0.171533 0.112177 0.0950598 0.159256 0.104134 0.0887091 0.148616 0.0971638 0.083082 0.139189 0.0909877 0.0781787 0.130974 0.0856059 0.073999 0.123972 0.0810184 0.0704179 0.117973 0.0770877 0.0673105 0.112767 0.0736764 0.0646767 0.108354 0.0707845 0.0625166 0.104735 0.068412 0.0606904 0.101676 0.0664056 0.0590585 0.098942 0.0646118 0.0576208 0.0965335 0.0630309 0.0563775 0.0944505 0.0616626 0.169902 0.345517 0.216381 0.152714 0.310563 0.194477 0.137574 0.279775 0.175182 0.124482 0.253151 0.158495 0.113439 0.230693 0.144417 0.103949 0.211394 0.132319 0.0955199 0.194252 0.121572 0.0881506 0.179266 0.112177 0.0818414 0.166435 0.104134 0.0763737 0.155316 0.0971637 0.0715292 0.145464 0.0909877 0.0673076 0.136879 0.0856059 0.0637091 0.129561 0.0810184 0.060626 0.123291 0.0770877 0.0579507 0.11785 0.0736764 0.0556831 0.113239 0.0707845 0.0538234 0.109457 0.068412 0.0522511 0.10626 0.0664055 0.0508461 0.103402 0.0646118 0.0496084 0.100885 0.0630309 0.048538 0.0987086 0.0616626 0.141728 0.357997 0.216381 0.12739 0.321781 0.194477 0.114761 0.28988 0.175182 0.10384 0.262295 0.158495 0.094628 0.239025 0.144417 0.086712 0.21903 0.132319 0.0796804 0.201268 0.121572 0.0735331 0.185741 0.112177 0.0682701 0.172447 0.104134 0.0637091 0.160926 0.0971637 0.0596679 0.150718 0.0909877 0.0561464 0.141823 0.0856059 0.0531446 0.134241 0.0810184 0.0505727 0.127744 0.0770877 0.0483411 0.122107 0.0736764 0.0464495 0.117329 0.0707845 0.0448981 0.113411 0.068412 0.0435866 0.110098 0.0664055 0.0424146 0.107137 0.0646118 0.0413821 0.104529 0.0630308 0.0404892 0.102274 0.0616626 0.113127 0.368036 0.216381 0.101682 0.330805 0.194477 0.0916019 0.298009 0.175182 0.082885 0.269651 0.158495 0.0755317 0.245728 0.144417 0.0692132 0.225172 0.132319 0.0636006 0.206913 0.121572 0.0586939 0.190949 0.112177 0.0544929 0.177283 0.104134 0.0508524 0.165439 0.0971637 0.0476267 0.154945 0.0909877 0.0448158 0.1458 0.0856059 0.0424198 0.138005 0.0810184 0.040367 0.131327 0.0770877 0.0385856 0.125531 0.0736764 0.0370758 0.12062 0.0707845 0.0358375 0.116591 0.068412 0.0347907 0.113185 0.0664055 0.0338552 0.110142 0.0646118 0.0330311 0.107461 0.0630308 0.0323183 0.105142 0.0616626 0.0843921 0.375668 0.216381 0.0758547 0.337664 0.194477 0.0683346 0.304189 0.175182 0.0618319 0.275242 0.158495 0.0563464 0.250824 0.144417 0.0516328 0.229841 0.132319 0.0474458 0.211203 0.121572 0.0437854 0.194909 0.112177 0.0406515 0.180959 0.104134 0.0379356 0.168869 0.0971637 0.0355293 0.158158 0.0909876 0.0334324 0.148823 0.0856059 0.031645 0.140867 0.0810184 0.0301136 0.13405 0.0770877 0.0287847 0.128134 0.0736764 0.0276584 0.123121 0.0707845 0.0267346 0.119009 0.068412 0.0259537 0.115532 0.0664055 0.0252558 0.112426 0.0646118 0.024641 0.109689 0.0630308 0.0241093 0.107322 0.0616626 0.0557985 0.380966 0.216381 0.0501538 0.342426 0.194477 0.0451816 0.308479 0.175182 0.0408821 0.279123 0.158495 0.0372552 0.254361 0.144417 0.0341387 0.233083 0.132319 0.0313703 0.214182 0.121572 0.0289501 0.197658 0.112177 0.026878 0.183511 0.104134 0.0250824 0.171251 0.0971637 0.0234913 0.160388 0.0909876 0.0221049 0.150922 0.0856058 0.0209231 0.142853 0.0810183 0.0199105 0.13594 0.0770877 0.0190319 0.129941 0.0736764 0.0182872 0.124857 0.0707845 0.0176764 0.120687 0.068412 0.0171601 0.117161 0.0664055 0.0166987 0.114011 0.0646118 0.0162922 0.111236 0.0630308 0.0159406 0.108836 0.0616626 0.0275949 0.38404 0.216381 0.0248034 0.345189 0.194477 0.0223444 0.310968 0.175182 0.0202181 0.281376 0.158495 0.0184244 0.256413 0.144417 0.0168831 0.234964 0.132319 0.015514 0.21591 0.121572 0.0143171 0.199253 0.112177 0.0132924 0.184992 0.104134 0.0124044 0.172633 0.0971636 0.0116175 0.161682 0.0909876 0.0109319 0.15214 0.0856058 0.0103474 0.144006 0.0810183 0.00984666 0.137037 0.0770877 0.00941214 0.13099 0.0736764 0.00904385 0.125865 0.0707845 0.00874179 0.121661 0.068412 0.00848644 0.118107 0.0664055 0.00825825 0.114931 0.0646118 0.00805722 0.112134 0.0630308 0.00788337 0.109714 0.0616626 0 0.38503 0.216381 0 0.346079 0.194477 0 0.31177 0.175182 0 0.282101 0.158495 0 0.257074 0.144417 0 0.235569 0.132319 0 0.216467 0.121572 0 0.199766 0.112177 0 0.185469 0.104134 0 0.173078 0.0971636 0 0.162099 0.0909876 0 0.152532 0.0856058 0 0.144377 0.0810183 0 0.137391 0.0770877 0 0.131328 0.0736764 0 0.126189 0.0707845 0 0.121975 0.068412 0 0.118412 0.0664055 0 0.115228 0.0646118 0 0.112423 0.0630309 0 0.109997 0.0616626 0.376177 0 0.231465 0.338122 0 0.208036 0.304601 0 0.187396 0.275616 0 0.169546 0.251165 0 0.154486 0.230155 0 0.141544 0.211492 0 0.130048 0.195176 0 0.119998 0.181208 0 0.111393 0.169102 0 0.103936 0.158376 0 0.0973291 0.14903 0 0.0915716 0.141063 0 0.0866637 0.134238 0 0.0824587 0.128315 0 0.0788094 0.123295 0 0.0757161 0.119178 0 0.0731785 0.115698 0 0.0710327 0.112587 0 0.0691142 0.109848 0 0.0674232 0.107478 0 0.0659596 0.375209 0.0269604 0.231465 0.337252 0.024233 0.208036 0.303818 0.0218307 0.187396 0.274907 0.0197533 0.169546 0.250519 0.0180009 0.154486 0.229563 0.0164951 0.141544 0.210948 0.0151575 0.130048 0.194674 0.0139882 0.119998 0.180742 0.012987 0.111393 0.168667 0.0121194 0.103936 0.157969 0.0113507 0.0973291 0.148647 0.0106809 0.0915716 0.140701 0.0101099 0.0866637 0.133893 0.00962071 0.0824587 0.127985 0.00919623 0.0788094 0.122978 0.00883645 0.0757161 0.118872 0.00854138 0.0731785 0.1154 0.00829194 0.0710327 0.112298 0.00806903 0.0691142 0.109565 0.00787266 0.0674232 0.107201 0.00770283 0.0659596 0.372205 0.0545155 0.231465 0.334552 0.0490006 0.208036 0.301386 0.0441428 0.187396 0.272706 0.0399422 0.169546 0.248514 0.0363988 0.154486 0.227725 0.033354 0.141544 0.209259 0.0306494 0.130048 0.193116 0.0282849 0.119998 0.179295 0.0262605 0.111393 0.167317 0.0245062 0.103936 0.156704 0.0229518 0.0973291 0.147457 0.0215973 0.0915716 0.139574 0.0204428 0.0866638 0.132821 0.0194536 0.0824587 0.126961 0.0185953 0.0788094 0.121994 0.0178678 0.0757161 0.11792 0.0172712 0.0731785 0.114476 0.0167668 0.0710327 0.111399 0.0163161 0.0691142 0.108688 0.015919 0.0674232 0.106343 0.0155756 0.0659596 0.367029 0.0824515 0.231465 0.3299 0.0741105 0.208036 0.297195 0.0667635 0.187396 0.268914 0.0604103 0.169546 0.245058 0.0550511 0.154486 0.224559 0.050446 0.141544 0.206349 0.0463554 0.130048 0.19043 0.0427793 0.119998 0.176801 0.0397176 0.111393 0.16499 0.0370642 0.103936 0.154525 0.0347133 0.0973291 0.145406 0.0326648 0.0915716 0.137633 0.0309186 0.0866638 0.130974 0.0294225 0.0824587 0.125195 0.0281244 0.0788094 0.120297 0.0270241 0.0757161 0.11628 0.0261217 0.0731785 0.112884 0.0253588 0.0710327 0.10985 0.0246771 0.0691142 0.107176 0.0240766 0.0674232 0.104864 0.0235572 0.0659596 0.359573 0.110525 0.231465 0.323198 0.0993444 0.208036 0.291157 0.0894958 0.187396 0.263451 0.0809794 0.169546 0.240079 0.0737954 0.154486 0.219997 0.0676224 0.141544 0.202158 0.062139 0.130048 0.186562 0.0573452 0.119998 0.17321 0.053241 0.111393 0.161639 0.0496843 0.103936 0.151386 0.0465329 0.0973291 0.142452 0.0437868 0.0915716 0.134837 0.0414461 0.0866638 0.128313 0.0394407 0.0824587 0.122652 0.0377005 0.0788094 0.117853 0.0362256 0.0757161 0.113918 0.0350159 0.0731785 0.110591 0.0339933 0.0710327 0.107618 0.0330795 0.0691142 0.104999 0.0322744 0.0674232 0.102734 0.0315782 0.0659596 0.349765 0.138469 0.231465 0.314382 0.124461 0.208036 0.283215 0.112122 0.187396 0.256265 0.101453 0.169546 0.23353 0.0924527 0.154486 0.213996 0.084719 0.141544 0.196643 0.0778493 0.130048 0.181473 0.0718435 0.119998 0.168485 0.0667016 0.111393 0.157229 0.0622457 0.103936 0.147257 0.0582976 0.0973292 0.138567 0.0548572 0.0915717 0.131159 0.0519247 0.0866638 0.124813 0.0494123 0.0824587 0.119306 0.0472321 0.0788095 0.114639 0.0453843 0.0757161 0.110811 0.0438688 0.0731785 0.107574 0.0425877 0.0710327 0.104683 0.0414428 0.0691142 0.102135 0.0404342 0.0674232 0.0999317 0.039562 0.0659596 0.337572 0.165995 0.231465 0.303422 0.149202 0.208036 0.273342 0.134411 0.187396 0.247331 0.121621 0.169546 0.22539 0.110831 0.154486 0.206536 0.10156 0.141544 0.189788 0.0933248 0.130048 0.175147 0.0861251 0.119998 0.162611 0.0799611 0.111393 0.151748 0.0746194 0.103936 0.142123 0.0698864 0.0973292 0.133736 0.0657622 0.0915717 0.126587 0.0622467 0.0866638 0.120462 0.0592348 0.0824587 0.115147 0.0566213 0.0788095 0.110642 0.0544062 0.0757161 0.106948 0.0525894 0.0731786 0.103824 0.0510536 0.0710327 0.101033 0.0496811 0.0691142 0.0985745 0.0484721 0.0674232 0.0964481 0.0474264 0.0659596 0.32301 0.192805 0.231465 0.290333 0.1733 0.208036 0.261551 0.15612 0.187396 0.236662 0.141264 0.169546 0.215667 0.128732 0.154486 0.197626 0.117963 0.141544 0.181601 0.108398 0.130048 0.167591 0.100035 0.119998 0.155597 0.0928759 0.111393 0.145202 0.0866714 0.103936 0.135992 0.081174 0.0973292 0.127967 0.0763836 0.0915717 0.121126 0.0723004 0.0866638 0.115266 0.068802 0.0824587 0.11018 0.0657664 0.0788095 0.105869 0.0631935 0.0757161 0.102334 0.0610833 0.0731786 0.0993456 0.0592994 0.0710327 0.0966749 0.0577053 0.0691142 0.0943222 0.056301 0.0674232 0.0922875 0.0550864 0.0659596 0.306142 0.2186 0.231465 0.275172 0.196486 0.208036 0.247893 0.177007 0.187396 0.224304 0.160163 0.169546 0.204405 0.145954 0.154486 0.187306 0.133745 0.141544 0.172118 0.1229 0.130048 0.15884 0.113419 0.119998 0.147472 0.105301 0.111393 0.13762 0.0982669 0.103936 0.128891 0.092034 0.0973292 0.121285 0.0866028 0.0915717 0.114801 0.0819733 0.0866638 0.109246 0.0780069 0.0824587 0.104426 0.0745651 0.0788095 0.100341 0.071648 0.0757161 0.0969904 0.0692555 0.0731786 0.0941579 0.0672329 0.0710327 0.0916267 0.0654255 0.0691142 0.0893968 0.0638333 0.0674232 0.0874683 0.0624563 0.0659597 0.287084 0.243088 0.231465 0.258042 0.218497 0.208036 0.232461 0.196836 0.187396 0.21034 0.178105 0.169546 0.19168 0.162305 0.154487 0.175646 0.148728 0.141544 0.161403 0.136668 0.130048 0.148952 0.126124 0.119998 0.138291 0.117098 0.111393 0.129053 0.109275 0.103936 0.120867 0.102344 0.0973292 0.113734 0.0963044 0.0915717 0.107655 0.0911562 0.0866638 0.102446 0.0867455 0.0824587 0.0979255 0.0829182 0.0788095 0.0940945 0.0796743 0.0757161 0.0909525 0.0770138 0.0731786 0.0882963 0.0747646 0.0710327 0.0859226 0.0727548 0.0691142 0.0838316 0.0709842 0.0674232 0.0820232 0.0694529 0.0659597 0.265997 0.265997 0.231465 0.239088 0.239088 0.208036 0.215386 0.215386 0.187396 0.19489 0.19489 0.169546 0.177601 0.177601 0.154487 0.162744 0.162744 0.141544 0.149548 0.149548 0.130048 0.138011 0.138011 0.119998 0.128133 0.128133 0.111393 0.119574 0.119574 0.103936 0.111989 0.111989 0.0973292 0.10538 0.10538 0.0915717 0.0997471 0.0997471 0.0866638 0.0949207 0.0949207 0.0824587 0.0907327 0.0907327 0.0788095 0.0871831 0.0871831 0.0757161 0.0842718 0.0842718 0.0731786 0.0818107 0.0818107 0.0710327 0.0796114 0.0796114 0.0691142 0.077674 0.077674 0.0674232 0.0759984 0.0759984 0.0659597 0.243088 0.287084 0.231465 0.218497 0.258042 0.208036 0.196836 0.232461 0.187396 0.178105 0.21034 0.169546 0.162305 0.19168 0.154487 0.148728 0.175646 0.141544 0.136668 0.161403 0.130048 0.126124 0.148952 0.119998 0.117098 0.138291 0.111393 0.109275 0.129053 0.103936 0.102344 0.120867 0.0973292 0.0963044 0.113734 0.0915717 0.0911562 0.107655 0.0866638 0.0867455 0.102446 0.0824587 0.0829182 0.0979255 0.0788095 0.0796743 0.0940945 0.0757161 0.0770138 0.0909525 0.0731786 0.0747646 0.0882963 0.0710327 0.0727548 0.0859226 0.0691142 0.0709842 0.0838316 0.0674232 0.0694529 0.0820232 0.0659597 0.2186 0.306142 0.231465 0.196486 0.275172 0.208036 0.177007 0.247893 0.187396 0.160163 0.224304 0.169546 0.145954 0.204405 0.154486 0.133745 0.187306 0.141544 0.1229 0.172118 0.130048 0.113419 0.15884 0.119998 0.105301 0.147472 0.111393 0.0982669 0.13762 0.103936 0.092034 0.128891 0.0973292 0.0866028 0.121285 0.0915717 0.0819733 0.114801 0.0866638 0.0780069 0.109246 0.0824587 0.0745651 0.104426 0.0788095 0.071648 0.100341 0.0757161 0.0692555 0.0969904 0.0731786 0.0672329 0.0941579 0.0710327 0.0654255 0.0916267 0.0691142 0.0638333 0.0893968 0.0674232 0.0624563 0.0874683 0.0659597 0.192805 0.32301 0.231465 0.1733 0.290333 0.208036 0.15612 0.261551 0.187396 0.141264 0.236662 0.169546 0.128732 0.215667 0.154486 0.117963 0.197626 0.141544 0.108398 0.181601 0.130048 0.100035 0.167591 0.119998 0.0928759 0.155597 0.111393 0.0866714 0.145202 0.103936 0.081174 0.135992 0.0973292 0.0763836 0.127967 0.0915717 0.0723004 0.121126 0.0866638 0.068802 0.115266 0.0824587 0.0657664 0.11018 0.0788095 0.0631935 0.105869 0.0757161 0.0610833 0.102334 0.0731786 0.0592994 0.0993456 0.0710327 0.0577053 0.0966749 0.0691142 0.056301 0.0943222 0.0674232 0.0550864 0.0922875 0.0659596 0.165995 0.337572 0.231465 0.149202 0.303422 0.208036 0.134411 0.273342 0.187396 0.121621 0.247331 0.169546 0.110831 0.22539 0.154486 0.10156 0.206536 0.141544 0.0933248 0.189788 0.130048 0.0861251 0.175147 0.119998 0.0799611 0.162611 0.111393 0.0746194 0.151748 0.103936 0.0698864 0.142123 0.0973292 0.0657622 0.133736 0.0915717 0.0622467 0.126587 0.0866638 0.0592348 0.120462 0.0824587 0.0566213 0.115147 0.0788095 0.0544062 0.110642 0.0757161 0.0525894 0.106948 0.0731786 0.0510536 0.103824 0.0710327 0.0496811 0.101033 0.0691142 0.0484721 0.0985745 0.0674232 0.0474264 0.0964481 0.0659596 0.138469 0.349765 0.231465 0.124461 0.314382 0.208036 0.112122 0.283215 0.187396 0.101453 0.256265 0.169546 0.0924527 0.23353 0.154486 0.084719 0.213996 0.141544 0.0778493 0.196643 0.130048 0.0718435 0.181473 0.119998 0.0667016 0.168485 0.111393 0.0622457 0.157229 0.103936 0.0582976 0.147257 0.0973292 0.0548572 0.138567 0.0915717 0.0519247 0.131159 0.0866638 0.0494123 0.124813 0.0824587 0.0472321 0.119306 0.0788095 0.0453843 0.114639 0.0757161 0.0438688 0.110811 0.0731785 0.0425877 0.107574 0.0710327 0.0414428 0.104683 0.0691142 0.0404342 0.102135 0.0674232 0.039562 0.0999317 0.0659596 0.110525 0.359573 0.231465 0.0993444 0.323198 0.208036 0.0894958 0.291157 0.187396 0.0809794 0.263451 0.169546 0.0737954 0.240079 0.154486 0.0676224 0.219997 0.141544 0.062139 0.202158 0.130048 0.0573452 0.186562 0.119998 0.053241 0.17321 0.111393 0.0496843 0.161639 0.103936 0.0465329 0.151386 0.0973291 0.0437868 0.142452 0.0915716 0.0414461 0.134837 0.0866638 0.0394407 0.128313 0.0824587 0.0377005 0.122652 0.0788094 0.0362256 0.117853 0.0757161 0.0350159 0.113918 0.0731785 0.0339933 0.110591 0.0710327 0.0330795 0.107618 0.0691142 0.0322744 0.104999 0.0674232 0.0315782 0.102734 0.0659596 0.0824515 0.367029 0.231465 0.0741105 0.3299 0.208036 0.0667635 0.297195 0.187396 0.0604103 0.268914 0.169546 0.0550511 0.245058 0.154486 0.050446 0.224559 0.141544 0.0463554 0.206349 0.130048 0.0427793 0.19043 0.119998 0.0397176 0.176801 0.111393 0.0370642 0.16499 0.103936 0.0347133 0.154525 0.0973291 0.0326648 0.145406 0.0915716 0.0309186 0.137633 0.0866638 0.0294225 0.130974 0.0824587 0.0281244 0.125195 0.0788094 0.0270241 0.120297 0.0757161 0.0261217 0.11628 0.0731785 0.0253588 0.112884 0.0710327 0.0246771 0.10985 0.0691142 0.0240766 0.107176 0.0674232 0.0235572 0.104864 0.0659596 0.0545155 0.372205 0.231465 0.0490006 0.334552 0.208036 0.0441428 0.301386 0.187396 0.0399422 0.272706 0.169546 0.0363988 0.248514 0.154486 0.033354 0.227725 0.141544 0.0306494 0.209259 0.130048 0.0282849 0.193116 0.119998 0.0262605 0.179295 0.111393 0.0245062 0.167317 0.103936 0.0229518 0.156704 0.0973291 0.0215973 0.147457 0.0915716 0.0204428 0.139574 0.0866638 0.0194536 0.132821 0.0824587 0.0185953 0.126961 0.0788094 0.0178678 0.121994 0.0757161 0.0172712 0.11792 0.0731785 0.0167668 0.114476 0.0710327 0.0163161 0.111399 0.0691142 0.015919 0.108688 0.0674232 0.0155756 0.106343 0.0659596 0.0269604 0.375209 0.231465 0.024233 0.337252 0.208036 0.0218307 0.303818 0.187396 0.0197533 0.274907 0.169546 0.0180009 0.250519 0.154486 0.0164951 0.229563 0.141544 0.0151575 0.210948 0.130048 0.0139882 0.194674 0.119998 0.012987 0.180742 0.111393 0.0121194 0.168667 0.103936 0.0113507 0.157969 0.0973291 0.0106809 0.148647 0.0915716 0.0101099 0.140701 0.0866637 0.00962071 0.133893 0.0824587 0.00919623 0.127985 0.0788094 0.00883645 0.122978 0.0757161 0.00854138 0.118872 0.0731785 0.00829194 0.1154 0.0710327 0.00806903 0.112298 0.0691142 0.00787266 0.109565 0.0674232 0.00770283 0.107201 0.0659596 0 0.376177 0.231465 0 0.338122 0.208036 0 0.304601 0.187396 0 0.275616 0.169546 0 0.251165 0.154486 0 0.230155 0.141544 0 0.211492 0.130048 0 0.195176 0.119998 0 0.181208 0.111393 0 0.169102 0.103936 0 0.158376 0.0973291 0 0.14903 0.0915716 0 0.141063 0.0866637 0 0.134238 0.0824587 0 0.128315 0.0788094 0 0.123295 0.0757161 0 0.119178 0.0731785 0 0.115698 0.0710327 0 0.112587 0.0691142 0 0.109848 0.0674232 0 0.107478 0.0659596 0.366763 0 0.246142 0.329661 0 0.221228 0.29698 0 0.199281 0.26872 0 0.1803 0.244882 0 0.164285 0.224399 0 0.150522 0.206204 0 0.138296 0.190297 0 0.127608 0.176678 0 0.118458 0.164876 0 0.110527 0.154419 0 0.1035 0.145307 0 0.0973768 0.137541 0 0.0921567 0.130887 0 0.0876842 0.125113 0 0.0838031 0.120219 0 0.0805137 0.116206 0 0.0778158 0.112813 0 0.0755345 0.109781 0 0.073495 0.10711 0 0.0716972 0.1048 0 0.0701412 0.36582 0.0262858 0.246142 0.328813 0.0236267 0.221228 0.296216 0.0212844 0.199281 0.268029 0.0192591 0.1803 0.244252 0.0175506 0.164285 0.223822 0.0160825 0.150522 0.205673 0.0147785 0.138297 0.189807 0.0136384 0.127608 0.176224 0.0126624 0.118458 0.164452 0.0118165 0.110527 0.154022 0.0110671 0.1035 0.144934 0.0104141 0.0973768 0.137187 0.00985742 0.0921568 0.13055 0.00938053 0.0876842 0.124791 0.00896673 0.0838031 0.11991 0.00861601 0.0805137 0.115907 0.00832837 0.0778158 0.112523 0.00808521 0.0755345 0.109499 0.00786792 0.073495 0.106835 0.0076765 0.0716972 0.104531 0.00751094 0.0701411 0.362892 0.0531513 0.246142 0.326181 0.0477744 0.221228 0.293845 0.0430383 0.199281 0.265884 0.0389429 0.1803 0.242297 0.0354883 0.164285 0.22203 0.0325198 0.150522 0.204027 0.029883 0.138297 0.188288 0.0275777 0.127608 0.174813 0.0256041 0.118458 0.163135 0.0238937 0.110527 0.152789 0.0223783 0.1035 0.143773 0.0210578 0.0973768 0.136089 0.0199323 0.0921568 0.129505 0.018968 0.0876842 0.123792 0.0181312 0.0838031 0.11895 0.0174221 0.0805137 0.114979 0.0168405 0.0778158 0.111622 0.0163488 0.0755345 0.108622 0.0159094 0.073495 0.10598 0.0155223 0.0716972 0.103694 0.0151876 0.0701411 0.357845 0.0803883 0.246142 0.321645 0.0722561 0.221228 0.289759 0.065093 0.199281 0.262186 0.0588989 0.1803 0.238928 0.053674 0.164285 0.218942 0.0491844 0.150522 0.20119 0.0451963 0.138297 0.185669 0.0417097 0.127608 0.172382 0.0387247 0.118458 0.160867 0.0361379 0.110527 0.150664 0.0338459 0.1035 0.141774 0.0318488 0.0973769 0.134196 0.0301465 0.0921568 0.127704 0.028688 0.0876842 0.122071 0.0274225 0.0838032 0.117296 0.0263499 0.0805137 0.11338 0.0254703 0.0778158 0.11007 0.0247266 0.0755345 0.107112 0.0240621 0.073495 0.104506 0.0234767 0.0716972 0.102252 0.0229703 0.0701411 0.350576 0.10776 0.246142 0.315111 0.0968586 0.221228 0.283872 0.0872565 0.199281 0.25686 0.0789534 0.1803 0.234074 0.0719495 0.164285 0.214495 0.0659312 0.150522 0.197103 0.0605852 0.138297 0.181898 0.0559115 0.127608 0.16888 0.0519102 0.118458 0.157599 0.0484426 0.110527 0.147604 0.0453702 0.1035 0.138894 0.042693 0.0973769 0.13147 0.0404111 0.0921568 0.12511 0.038456 0.0876842 0.119591 0.0367596 0.0838032 0.114913 0.0353218 0.0805137 0.111077 0.0341427 0.0778158 0.107834 0.0331458 0.0755345 0.104936 0.032255 0.073495 0.102383 0.0314702 0.0716972 0.100175 0.0307915 0.0701411 0.341012 0.135004 0.246142 0.306515 0.121347 0.221228 0.276129 0.109317 0.199281 0.249853 0.0989148 0.1803 0.227689 0.09014 0.164285 0.208644 0.0826002 0.150522 0.191726 0.0759026 0.138297 0.176936 0.0700473 0.127608 0.164273 0.0650343 0.118458 0.1533 0.06069 0.110527 0.143577 0.0568409 0.1035 0.135105 0.0534869 0.0973769 0.127884 0.050628 0.0921568 0.121697 0.0481787 0.0876842 0.116329 0.0460534 0.0838032 0.111779 0.0442521 0.0805137 0.108047 0.0427748 0.0778158 0.104892 0.0415259 0.0755345 0.102073 0.0404099 0.073495 0.0995901 0.0394267 0.0716972 0.0974422 0.0385764 0.0701411 0.329125 0.161841 0.246142 0.29583 0.145469 0.221228 0.266503 0.131048 0.199281 0.241143 0.118578 0.1803 0.219751 0.108059 0.164285 0.20137 0.0990201 0.150522 0.185042 0.0909911 0.138297 0.170768 0.0839719 0.127608 0.158547 0.0779624 0.118458 0.147956 0.0727545 0.110527 0.138572 0.0681402 0.1035 0.130395 0.0641194 0.0973769 0.123426 0.0606923 0.0921568 0.117455 0.0577561 0.0876842 0.112273 0.0552083 0.0838032 0.107882 0.0530489 0.0805137 0.104281 0.0512779 0.0778158 0.101236 0.0497808 0.0755345 0.0985152 0.0484429 0.073495 0.0961183 0.0472643 0.0716972 0.0940454 0.0462449 0.0701412 0.314927 0.18798 0.246142 0.283068 0.168964 0.221228 0.255006 0.152214 0.199281 0.230741 0.13773 0.1803 0.210272 0.125512 0.164285 0.192684 0.115013 0.150522 0.17706 0.105687 0.138297 0.163401 0.0975344 0.127608 0.151707 0.0905543 0.118458 0.141573 0.0845053 0.110527 0.132594 0.0791457 0.1035 0.12477 0.0744755 0.0973769 0.118101 0.0704948 0.0921568 0.112388 0.0670844 0.0876842 0.10743 0.0641251 0.0838032 0.103228 0.061617 0.0805137 0.0997821 0.05956 0.0778158 0.0968688 0.057821 0.0755345 0.0942655 0.0562671 0.073495 0.091972 0.0548981 0.0716972 0.0899885 0.0537141 0.0701412 0.298482 0.21313 0.246142 0.268287 0.191569 0.221228 0.24169 0.172578 0.199281 0.218692 0.156156 0.1803 0.199292 0.142303 0.164285 0.182622 0.1304 0.150522 0.167814 0.119827 0.138297 0.154869 0.110583 0.127608 0.143785 0.102669 0.118458 0.134181 0.095811 0.110527 0.12567 0.0897344 0.1035 0.118255 0.0844394 0.0973769 0.111934 0.0799262 0.0921568 0.106519 0.0760595 0.0876842 0.10182 0.0727043 0.0838032 0.0978378 0.0698606 0.0805137 0.0945716 0.0675284 0.0778158 0.0918104 0.0655568 0.0755345 0.089343 0.0637949 0.073495 0.0871693 0.0622428 0.0716972 0.0852894 0.0609004 0.0701412 0.2799 0.237005 0.246142 0.251585 0.213029 0.221228 0.226644 0.191911 0.199281 0.205078 0.173649 0.1803 0.186885 0.158245 0.164285 0.171253 0.145008 0.150522 0.157367 0.13325 0.138297 0.145228 0.122971 0.127608 0.134834 0.114171 0.118458 0.125827 0.106544 0.110527 0.117847 0.0997867 0.1035 0.110893 0.0938986 0.0973769 0.104966 0.0888798 0.0921569 0.099888 0.0845799 0.0876843 0.0954817 0.0808489 0.0838032 0.0917471 0.0776866 0.0805137 0.0886842 0.0750931 0.0778158 0.086095 0.0729007 0.0755345 0.0837811 0.0709414 0.073495 0.0817428 0.0692155 0.0716972 0.0799798 0.0677227 0.0701412 0.259341 0.259341 0.246142 0.233106 0.233106 0.221228 0.209997 0.209997 0.199281 0.190014 0.190014 0.1803 0.173158 0.173158 0.164285 0.158674 0.158674 0.150522 0.145808 0.145808 0.138297 0.13456 0.13456 0.127608 0.12493 0.12493 0.118458 0.116585 0.116585 0.110527 0.109191 0.109191 0.1035 0.102748 0.102748 0.0973769 0.0972561 0.0972561 0.0921569 0.092551 0.092551 0.0876843 0.0884683 0.0884683 0.0838032 0.0850081 0.0850081 0.0805137 0.0821702 0.0821702 0.0778158 0.0797711 0.0797711 0.0755345 0.0776272 0.0776272 0.073495 0.0757386 0.0757386 0.0716972 0.0741051 0.0741051 0.0701412 0.237005 0.2799 0.246142 0.213029 0.251585 0.221228 0.191911 0.226644 0.199281 0.173649 0.205078 0.1803 0.158245 0.186885 0.164285 0.145008 0.171253 0.150522 0.13325 0.157367 0.138297 0.122971 0.145228 0.127608 0.114171 0.134834 0.118458 0.106544 0.125827 0.110527 0.0997867 0.117847 0.1035 0.0938986 0.110893 0.0973769 0.0888798 0.104966 0.0921569 0.0845799 0.099888 0.0876843 0.0808489 0.0954817 0.0838032 0.0776866 0.0917471 0.0805137 0.0750931 0.0886842 0.0778158 0.0729007 0.086095 0.0755345 0.0709414 0.0837811 0.073495 0.0692155 0.0817428 0.0716972 0.0677227 0.0799798 0.0701412 0.21313 0.298482 0.246142 0.191569 0.268287 0.221228 0.172578 0.24169 0.199281 0.156156 0.218692 0.1803 0.142303 0.199292 0.164285 0.1304 0.182622 0.150522 0.119827 0.167814 0.138297 0.110583 0.154869 0.127608 0.102669 0.143785 0.118458 0.095811 0.134181 0.110527 0.0897344 0.12567 0.1035 0.0844394 0.118255 0.0973769 0.0799262 0.111934 0.0921568 0.0760595 0.106519 0.0876842 0.0727043 0.10182 0.0838032 0.0698606 0.0978378 0.0805137 0.0675284 0.0945716 0.0778158 0.0655568 0.0918104 0.0755345 0.0637949 0.089343 0.073495 0.0622428 0.0871693 0.0716972 0.0609004 0.0852894 0.0701412 0.18798 0.314927 0.246142 0.168964 0.283068 0.221228 0.152214 0.255006 0.199281 0.13773 0.230741 0.1803 0.125512 0.210272 0.164285 0.115013 0.192684 0.150522 0.105687 0.17706 0.138297 0.0975344 0.163401 0.127608 0.0905543 0.151707 0.118458 0.0845053 0.141573 0.110527 0.0791457 0.132594 0.1035 0.0744755 0.12477 0.0973769 0.0704948 0.118101 0.0921568 0.0670844 0.112388 0.0876842 0.0641251 0.10743 0.0838032 0.061617 0.103228 0.0805137 0.05956 0.0997821 0.0778158 0.057821 0.0968688 0.0755345 0.0562671 0.0942655 0.073495 0.0548981 0.091972 0.0716972 0.0537141 0.0899885 0.0701412 0.161841 0.329125 0.246142 0.145469 0.29583 0.221228 0.131048 0.266503 0.199281 0.118578 0.241143 0.1803 0.108059 0.219751 0.164285 0.0990201 0.20137 0.150522 0.0909911 0.185042 0.138297 0.0839719 0.170768 0.127608 0.0779624 0.158547 0.118458 0.0727545 0.147956 0.110527 0.0681402 0.138572 0.1035 0.0641194 0.130395 0.0973769 0.0606923 0.123426 0.0921568 0.0577561 0.117455 0.0876842 0.0552083 0.112273 0.0838032 0.0530489 0.107882 0.0805137 0.0512779 0.104281 0.0778158 0.0497808 0.101236 0.0755345 0.0484429 0.0985152 0.073495 0.0472643 0.0961183 0.0716972 0.0462449 0.0940454 0.0701412 0.135004 0.341012 0.246142 0.121347 0.306515 0.221228 0.109317 0.276129 0.199281 0.0989148 0.249853 0.1803 0.09014 0.227689 0.164285 0.0826002 0.208644 0.150522 0.0759026 0.191726 0.138297 0.0700473 0.176936 0.127608 0.0650343 0.164273 0.118458 0.06069 0.1533 0.110527 0.0568409 0.143577 0.1035 0.0534869 0.135105 0.0973769 0.050628 0.127884 0.0921568 0.0481787 0.121697 0.0876842 0.0460534 0.116329 0.0838032 0.0442521 0.111779 0.0805137 0.0427748 0.108047 0.0778158 0.0415259 0.104892 0.0755345 0.0404099 0.102073 0.073495 0.0394267 0.0995901 0.0716972 0.0385764 0.0974422 0.0701411 0.10776 0.350576 0.246142 0.0968586 0.315111 0.221228 0.0872565 0.283872 0.199281 0.0789534 0.25686 0.1803 0.0719495 0.234074 0.164285 0.0659312 0.214495 0.150522 0.0605852 0.197103 0.138297 0.0559115 0.181898 0.127608 0.0519102 0.16888 0.118458 0.0484426 0.157599 0.110527 0.0453702 0.147604 0.1035 0.042693 0.138894 0.0973769 0.0404111 0.13147 0.0921568 0.038456 0.12511 0.0876842 0.0367596 0.119591 0.0838032 0.0353218 0.114913 0.0805137 0.0341427 0.111077 0.0778158 0.0331458 0.107834 0.0755345 0.032255 0.104936 0.073495 0.0314702 0.102383 0.0716972 0.0307915 0.100175 0.0701411 0.0803883 0.357845 0.246142 0.0722561 0.321645 0.221228 0.065093 0.289759 0.199281 0.0588989 0.262186 0.1803 0.053674 0.238928 0.164285 0.0491844 0.218942 0.150522 0.0451963 0.20119 0.138297 0.0417097 0.185669 0.127608 0.0387247 0.172382 0.118458 0.0361379 0.160867 0.110527 0.0338459 0.150664 0.1035 0.0318488 0.141774 0.0973769 0.0301465 0.134196 0.0921568 0.028688 0.127704 0.0876842 0.0274225 0.122071 0.0838032 0.0263499 0.117296 0.0805137 0.0254703 0.11338 0.0778158 0.0247266 0.11007 0.0755345 0.0240621 0.107112 0.073495 0.0234767 0.104506 0.0716972 0.0229703 0.102252 0.0701411 0.0531513 0.362892 0.246142 0.0477744 0.326181 0.221228 0.0430383 0.293845 0.199281 0.0389429 0.265884 0.1803 0.0354883 0.242297 0.164285 0.0325198 0.22203 0.150522 0.029883 0.204027 0.138297 0.0275777 0.188288 0.127608 0.0256041 0.174813 0.118458 0.0238937 0.163135 0.110527 0.0223783 0.152789 0.1035 0.0210578 0.143773 0.0973768 0.0199323 0.136089 0.0921568 0.018968 0.129505 0.0876842 0.0181312 0.123792 0.0838031 0.0174221 0.11895 0.0805137 0.0168405 0.114979 0.0778158 0.0163488 0.111622 0.0755345 0.0159094 0.108622 0.073495 0.0155223 0.10598 0.0716972 0.0151876 0.103694 0.0701411 0.0262858 0.36582 0.246142 0.0236267 0.328813 0.221228 0.0212844 0.296216 0.199281 0.0192591 0.268029 0.1803 0.0175506 0.244252 0.164285 0.0160825 0.223822 0.150522 0.0147785 0.205673 0.138297 0.0136384 0.189807 0.127608 0.0126624 0.176224 0.118458 0.0118165 0.164452 0.110527 0.0110671 0.154022 0.1035 0.0104141 0.144934 0.0973768 0.00985742 0.137187 0.0921568 0.00938053 0.13055 0.0876842 0.00896673 0.124791 0.0838031 0.00861601 0.11991 0.0805137 0.00832837 0.115907 0.0778158 0.00808521 0.112523 0.0755345 0.00786792 0.109499 0.073495 0.0076765 0.106835 0.0716972 0.00751094 0.104531 0.0701411 0 0.366763 0.246142 0 0.329661 0.221228 0 0.29698 0.199281 0 0.26872 0.1803 0 0.244882 0.164285 0 0.224399 0.150522 0 0.206204 0.138296 0 0.190297 0.127608 0 0.176678 0.118458 0 0.164876 0.110527 0 0.154419 0.1035 0 0.145307 0.0973768 0 0.137541 0.0921567 0 0.130887 0.0876842 0 0.125113 0.0838031 0 0.120219 0.0805137 0 0.116206 0.0778158 0 0.112813 0.0755345 0 0.109781 0.073495 0 0.10711 0.0716972 0 0.1048 0.0701412 0.356818 0 0.260381 0.320722 0 0.234029 0.288928 0 0.210813 0.261435 0 0.190735 0.238245 0 0.173794 0.218318 0 0.159234 0.200617 0 0.1463 0.185142 0 0.134993 0.171893 0 0.125313 0.160412 0 0.116923 0.150239 0 0.109489 0.141375 0 0.10301 0.13382 0 0.0974861 0.127347 0 0.0927535 0.121731 0 0.0886473 0.116971 0 0.0851675 0.113067 0 0.0823142 0.109767 0 0.0799019 0.106818 0 0.0777451 0.10422 0 0.0758441 0.101973 0 0.0741986 0.355901 0.025573 0.260381 0.319898 0.022986 0.234029 0.288185 0.0207073 0.210813 0.260763 0.018737 0.190735 0.237632 0.0170749 0.173794 0.217756 0.0156467 0.159234 0.200101 0.0143781 0.1463 0.184666 0.013269 0.134993 0.171451 0.0123195 0.125313 0.159999 0.0114966 0.116923 0.149852 0.0107675 0.109489 0.141011 0.0101322 0.10301 0.133475 0.00959074 0.0974861 0.127019 0.00912684 0.0927535 0.121418 0.00872431 0.0886473 0.11667 0.00838316 0.0851675 0.112776 0.00810339 0.0823142 0.109484 0.00786687 0.0799018 0.106543 0.00765552 0.0777451 0.103952 0.00746932 0.0758441 0.10171 0.00730827 0.0741986 0.353052 0.0517101 0.260381 0.317337 0.046479 0.234029 0.285878 0.0418714 0.210813 0.258676 0.0378872 0.190735 0.23573 0.0345264 0.173794 0.216013 0.0316386 0.159234 0.198499 0.0290734 0.146301 0.183188 0.0268307 0.134993 0.170079 0.0249107 0.125313 0.158718 0.0232468 0.116923 0.148653 0.0217725 0.109489 0.139882 0.0204879 0.10301 0.132407 0.019393 0.0974861 0.126003 0.018455 0.0927535 0.120446 0.0176411 0.0886473 0.115736 0.0169513 0.0851675 0.111873 0.0163855 0.0823142 0.108608 0.0159073 0.0799018 0.10569 0.0154799 0.0777451 0.103119 0.0151034 0.075844 0.100896 0.0147777 0.0741986 0.348142 0.0782085 0.260381 0.312924 0.0702969 0.234029 0.281902 0.0633281 0.210813 0.255078 0.0573022 0.190735 0.232452 0.0522192 0.173794 0.213009 0.0478515 0.159234 0.195739 0.0439718 0.146301 0.18064 0.04058 0.134993 0.167713 0.037676 0.125313 0.156511 0.0351594 0.116923 0.146586 0.0329297 0.109489 0.137937 0.0309869 0.10301 0.130566 0.0293309 0.0974861 0.12425 0.0279122 0.0927535 0.118771 0.0266812 0.0886473 0.114126 0.0256378 0.0851675 0.110317 0.0247822 0.0823142 0.107098 0.0240589 0.0799018 0.10422 0.0234125 0.0777451 0.101685 0.022843 0.075844 0.0994929 0.0223505 0.0741986 0.34107 0.104838 0.260381 0.306567 0.0942323 0.234029 0.276176 0.0848907 0.210813 0.249897 0.076813 0.190735 0.227729 0.0699993 0.173794 0.208682 0.0641445 0.159234 0.191762 0.0589438 0.146301 0.176971 0.054397 0.134994 0.164306 0.0505043 0.125313 0.153332 0.0471309 0.116923 0.143608 0.044142 0.109489 0.135135 0.0415376 0.10301 0.127913 0.0393178 0.0974862 0.121726 0.037416 0.0927535 0.116358 0.0357659 0.0886473 0.111808 0.0343673 0.0851675 0.108076 0.0332203 0.0823142 0.104922 0.0322507 0.0799018 0.102103 0.0313842 0.0777451 0.0996197 0.0306209 0.075844 0.0974718 0.0299607 0.0741986 0.331766 0.131343 0.260381 0.298204 0.118056 0.234029 0.268642 0.106353 0.210814 0.24308 0.0962332 0.190735 0.221517 0.0876968 0.173794 0.20299 0.0803618 0.159234 0.186531 0.0738462 0.146301 0.172143 0.0681499 0.134994 0.159824 0.0632731 0.125313 0.149149 0.0590467 0.116923 0.13969 0.0553022 0.109489 0.131449 0.0520394 0.10301 0.124424 0.0492583 0.0974862 0.118406 0.0468757 0.0927535 0.113184 0.0448084 0.0886473 0.108758 0.0430562 0.0851676 0.105128 0.0416193 0.0823142 0.10206 0.0404045 0.0799019 0.0993179 0.039319 0.0777451 0.0969022 0.0383626 0.0758441 0.0948129 0.0375355 0.0741986 0.3202 0.157453 0.260381 0.287808 0.141525 0.234029 0.259277 0.127495 0.210814 0.234606 0.115363 0.190735 0.213795 0.10513 0.173794 0.195913 0.0963368 0.159234 0.180029 0.0885259 0.146301 0.166142 0.0816973 0.134994 0.154253 0.075851 0.125313 0.14395 0.0707845 0.116923 0.134821 0.0662956 0.109489 0.126866 0.0623842 0.10301 0.120087 0.0590503 0.0974862 0.114278 0.0561941 0.0927536 0.109238 0.0537157 0.0886474 0.104967 0.0516153 0.0851676 0.101463 0.0498927 0.0823142 0.0985021 0.0484365 0.0799019 0.0958556 0.0471351 0.0777451 0.0935242 0.0459887 0.0758441 0.0915077 0.0449971 0.0741986 0.306387 0.182883 0.260381 0.275393 0.164382 0.234029 0.248092 0.148087 0.210814 0.224486 0.133996 0.190735 0.204573 0.12211 0.173794 0.187462 0.111896 0.159234 0.172263 0.102824 0.146301 0.158975 0.0948925 0.134994 0.147599 0.0881019 0.125313 0.13774 0.0822171 0.116923 0.129005 0.0770032 0.109489 0.121394 0.07246 0.10301 0.114906 0.0685877 0.0974862 0.109348 0.0652702 0.0927536 0.104526 0.0623915 0.0886474 0.100439 0.0599518 0.0851676 0.0970866 0.057951 0.0823142 0.0942529 0.0562596 0.0799019 0.0917206 0.0547481 0.0777452 0.0894898 0.0534164 0.0758441 0.0875602 0.0522647 0.0741986 0.290388 0.20735 0.260381 0.261012 0.186375 0.234029 0.235137 0.167899 0.210814 0.212763 0.151923 0.190735 0.19389 0.138446 0.173794 0.177673 0.126867 0.159234 0.163268 0.11658 0.146301 0.150674 0.107588 0.134994 0.139891 0.0998888 0.125313 0.130547 0.0932167 0.116923 0.122268 0.0873052 0.109489 0.115055 0.0821543 0.10301 0.108906 0.0777638 0.0974862 0.103638 0.0740025 0.0927536 0.0990676 0.0707387 0.0886474 0.0951938 0.0679726 0.0851676 0.0920168 0.0657041 0.0823142 0.0893311 0.0637864 0.0799019 0.0869311 0.0620727 0.0777452 0.0848167 0.0605629 0.0758441 0.0829879 0.0592571 0.0741986 0.272311 0.230578 0.260381 0.244763 0.207253 0.234029 0.220499 0.186707 0.210814 0.199518 0.168941 0.190735 0.18182 0.153955 0.173794 0.166612 0.141079 0.159234 0.153104 0.12964 0.146301 0.141294 0.11964 0.134994 0.131183 0.111079 0.125313 0.12242 0.103659 0.116923 0.114657 0.0970855 0.109489 0.107892 0.0913575 0.10301 0.102126 0.0864752 0.0974862 0.0971866 0.0822925 0.0927536 0.0929004 0.0786631 0.0886474 0.0892677 0.0755872 0.0851676 0.0862885 0.0730645 0.0823142 0.08377 0.070932 0.0799019 0.0815194 0.0690263 0.0777452 0.0795366 0.0673474 0.0758441 0.0778217 0.0658953 0.0741986 0.252309 0.252309 0.260381 0.226785 0.226785 0.234029 0.204303 0.204303 0.210814 0.184863 0.184863 0.190735 0.168465 0.168465 0.173794 0.154374 0.154374 0.159234 0.141858 0.141858 0.146301 0.130915 0.130915 0.134994 0.121547 0.121547 0.125313 0.113428 0.113428 0.116923 0.106235 0.106235 0.109489 0.0999673 0.0999673 0.10301 0.0946249 0.0946249 0.0974862 0.090048 0.090048 0.0927536 0.0860766 0.0860766 0.0886474 0.0827108 0.0827108 0.0851676 0.0799504 0.0799504 0.0823142 0.0776169 0.0776169 0.0799019 0.0755316 0.0755316 0.0777452 0.0736944 0.0736944 0.0758441 0.0721055 0.0721055 0.0741986 0.230578 0.272311 0.260381 0.207253 0.244763 0.234029 0.186707 0.220499 0.210814 0.168941 0.199518 0.190735 0.153955 0.18182 0.173794 0.141079 0.166612 0.159234 0.12964 0.153104 0.146301 0.11964 0.141294 0.134994 0.111079 0.131183 0.125313 0.103659 0.12242 0.116923 0.0970855 0.114657 0.109489 0.0913575 0.107892 0.10301 0.0864752 0.102126 0.0974862 0.0822925 0.0971866 0.0927536 0.0786631 0.0929004 0.0886474 0.0755872 0.0892677 0.0851676 0.0730645 0.0862885 0.0823142 0.070932 0.08377 0.0799019 0.0690263 0.0815194 0.0777452 0.0673474 0.0795366 0.0758441 0.0658953 0.0778217 0.0741986 0.20735 0.290388 0.260381 0.186375 0.261012 0.234029 0.167899 0.235137 0.210814 0.151923 0.212763 0.190735 0.138446 0.19389 0.173794 0.126867 0.177673 0.159234 0.11658 0.163268 0.146301 0.107588 0.150674 0.134994 0.0998888 0.139891 0.125313 0.0932167 0.130547 0.116923 0.0873052 0.122268 0.109489 0.0821543 0.115055 0.10301 0.0777638 0.108906 0.0974862 0.0740025 0.103638 0.0927536 0.0707387 0.0990676 0.0886474 0.0679726 0.0951938 0.0851676 0.0657041 0.0920168 0.0823142 0.0637864 0.0893311 0.0799019 0.0620727 0.0869311 0.0777452 0.0605629 0.0848167 0.0758441 0.0592571 0.0829879 0.0741986 0.182883 0.306387 0.260381 0.164382 0.275393 0.234029 0.148087 0.248092 0.210814 0.133996 0.224486 0.190735 0.12211 0.204573 0.173794 0.111896 0.187462 0.159234 0.102824 0.172263 0.146301 0.0948925 0.158975 0.134994 0.0881019 0.147599 0.125313 0.0822171 0.13774 0.116923 0.0770032 0.129005 0.109489 0.07246 0.121394 0.10301 0.0685877 0.114906 0.0974862 0.0652702 0.109348 0.0927536 0.0623915 0.104526 0.0886474 0.0599518 0.100439 0.0851676 0.057951 0.0970866 0.0823142 0.0562596 0.0942529 0.0799019 0.0547481 0.0917206 0.0777452 0.0534164 0.0894898 0.0758441 0.0522647 0.0875602 0.0741986 0.157453 0.3202 0.260381 0.141525 0.287808 0.234029 0.127495 0.259277 0.210814 0.115363 0.234606 0.190735 0.10513 0.213795 0.173794 0.0963368 0.195913 0.159234 0.0885259 0.180029 0.146301 0.0816973 0.166142 0.134994 0.075851 0.154253 0.125313 0.0707845 0.14395 0.116923 0.0662956 0.134821 0.109489 0.0623842 0.126866 0.10301 0.0590503 0.120087 0.0974862 0.0561941 0.114278 0.0927536 0.0537157 0.109238 0.0886474 0.0516153 0.104967 0.0851676 0.0498927 0.101463 0.0823142 0.0484365 0.0985021 0.0799019 0.0471351 0.0958556 0.0777451 0.0459887 0.0935242 0.0758441 0.0449971 0.0915077 0.0741986 0.131343 0.331766 0.260381 0.118056 0.298204 0.234029 0.106353 0.268642 0.210814 0.0962332 0.24308 0.190735 0.0876968 0.221517 0.173794 0.0803618 0.20299 0.159234 0.0738462 0.186531 0.146301 0.0681499 0.172143 0.134994 0.0632731 0.159824 0.125313 0.0590467 0.149149 0.116923 0.0553022 0.13969 0.109489 0.0520394 0.131449 0.10301 0.0492583 0.124424 0.0974862 0.0468757 0.118406 0.0927535 0.0448084 0.113184 0.0886473 0.0430562 0.108758 0.0851676 0.0416193 0.105128 0.0823142 0.0404045 0.10206 0.0799019 0.039319 0.0993179 0.0777451 0.0383626 0.0969022 0.0758441 0.0375355 0.0948129 0.0741986 0.104838 0.34107 0.260381 0.0942323 0.306567 0.234029 0.0848907 0.276176 0.210813 0.076813 0.249897 0.190735 0.0699993 0.227729 0.173794 0.0641445 0.208682 0.159234 0.0589438 0.191762 0.146301 0.054397 0.176971 0.134994 0.0505043 0.164306 0.125313 0.0471309 0.153332 0.116923 0.044142 0.143608 0.109489 0.0415376 0.135135 0.10301 0.0393178 0.127913 0.0974862 0.037416 0.121726 0.0927535 0.0357659 0.116358 0.0886473 0.0343673 0.111808 0.0851675 0.0332203 0.108076 0.0823142 0.0322507 0.104922 0.0799018 0.0313842 0.102103 0.0777451 0.0306209 0.0996197 0.075844 0.0299607 0.0974718 0.0741986 0.0782085 0.348142 0.260381 0.0702969 0.312924 0.234029 0.0633281 0.281902 0.210813 0.0573022 0.255078 0.190735 0.0522192 0.232452 0.173794 0.0478515 0.213009 0.159234 0.0439718 0.195739 0.146301 0.04058 0.18064 0.134993 0.037676 0.167713 0.125313 0.0351594 0.156511 0.116923 0.0329297 0.146586 0.109489 0.0309869 0.137937 0.10301 0.0293309 0.130566 0.0974861 0.0279122 0.12425 0.0927535 0.0266812 0.118771 0.0886473 0.0256378 0.114126 0.0851675 0.0247822 0.110317 0.0823142 0.0240589 0.107098 0.0799018 0.0234125 0.10422 0.0777451 0.022843 0.101685 0.075844 0.0223505 0.0994929 0.0741986 0.0517101 0.353052 0.260381 0.046479 0.317337 0.234029 0.0418714 0.285878 0.210813 0.0378872 0.258676 0.190735 0.0345264 0.23573 0.173794 0.0316386 0.216013 0.159234 0.0290734 0.198499 0.146301 0.0268307 0.183188 0.134993 0.0249107 0.170079 0.125313 0.0232468 0.158718 0.116923 0.0217725 0.148653 0.109489 0.0204879 0.139882 0.10301 0.019393 0.132407 0.0974861 0.018455 0.126003 0.0927535 0.0176411 0.120446 0.0886473 0.0169513 0.115736 0.0851675 0.0163855 0.111873 0.0823142 0.0159073 0.108608 0.0799018 0.0154799 0.10569 0.0777451 0.0151034 0.103119 0.075844 0.0147777 0.100896 0.0741986 0.025573 0.355901 0.260381 0.022986 0.319898 0.234029 0.0207073 0.288185 0.210813 0.018737 0.260763 0.190735 0.0170749 0.237632 0.173794 0.0156467 0.217756 0.159234 0.0143781 0.200101 0.1463 0.013269 0.184666 0.134993 0.0123195 0.171451 0.125313 0.0114966 0.159999 0.116923 0.0107675 0.149852 0.109489 0.0101322 0.141011 0.10301 0.00959074 0.133475 0.0974861 0.00912684 0.127019 0.0927535 0.00872431 0.121418 0.0886473 0.00838316 0.11667 0.0851675 0.00810339 0.112776 0.0823142 0.00786687 0.109484 0.0799018 0.00765552 0.106543 0.0777451 0.00746932 0.103952 0.0758441 0.00730827 0.10171 0.0741986 0 0.356818 0.260381 0 0.320722 0.234029 0 0.288928 0.210813 0 0.261435 0.190735 0 0.238245 0.173794 0 0.218318 0.159234 0 0.200617 0.1463 0 0.185142 0.134993 0 0.171893 0.125313 0 0.160412 0.116923 0 0.150239 0.109489 0 0.141375 0.10301 0 0.13382 0.0974861 0 0.127347 0.0927535 0 0.121731 0.0886473 0 0.116971 0.0851675 0 0.113067 0.0823142 0 0.109767 0.0799019 0 0.106818 0.0777451 0 0.10422 0.0758441 0 0.101973 0.0741986 0.346372 0 0.274154 0.311332 0 0.246411 0.280469 0 0.22197 0.253783 0 0.20083 0.231272 0 0.182993 0.211931 0 0.167662 0.194749 0 0.154044 0.179728 0 0.142139 0.166868 0 0.131946 0.155723 0 0.123112 0.145849 0 0.115283 0.137245 0 0.10846 0.129912 0 0.102643 0.123629 0 0.0976582 0.118178 0 0.0933338 0.113558 0 0.0896694 0.10977 0 0.0866652 0.106567 0 0.0841257 0.103704 0 0.0818556 0.101182 0 0.0798549 0.0990003 0 0.0781236 0.345481 0.0248243 0.274154 0.310532 0.0223131 0.246411 0.279748 0.0201011 0.22197 0.25313 0.0181885 0.20083 0.230678 0.0165752 0.182993 0.211386 0.015189 0.167662 0.194248 0.0139576 0.154044 0.179266 0.012881 0.142139 0.166439 0.0119593 0.131946 0.155322 0.0111605 0.123112 0.145474 0.0104529 0.115283 0.136892 0.00983623 0.10846 0.129578 0.00931066 0.102643 0.123311 0.00886041 0.0976582 0.117874 0.00846973 0.0933338 0.113266 0.00813862 0.0896694 0.109487 0.00786709 0.0866652 0.106293 0.00763754 0.0841257 0.103438 0.00743239 0.0818556 0.100922 0.00725162 0.0798549 0.0987457 0.00709526 0.0781235 0.342715 0.0501962 0.274154 0.308046 0.0451183 0.246411 0.277509 0.0406456 0.22197 0.251104 0.0367782 0.20083 0.228831 0.033516 0.182993 0.209693 0.0307129 0.167662 0.192693 0.028223 0.154044 0.177831 0.0260461 0.142139 0.165106 0.0241824 0.131946 0.154079 0.0225673 0.123112 0.144309 0.0211363 0.115283 0.135796 0.0198894 0.10846 0.12854 0.0188267 0.102643 0.122324 0.0179163 0.0976582 0.116931 0.0171263 0.0933338 0.11236 0.0164568 0.0896694 0.108611 0.0159077 0.0866652 0.105442 0.0154436 0.0841257 0.10261 0.0150287 0.0818556 0.100114 0.0146632 0.0798549 0.0979552 0.014347 0.0781235 0.337949 0.0759188 0.274154 0.303762 0.0682388 0.246411 0.27365 0.0614742 0.22197 0.247612 0.0556249 0.20083 0.225649 0.050691 0.182993 0.206777 0.0464516 0.167662 0.190014 0.0426857 0.154044 0.175358 0.0393933 0.142139 0.16281 0.0365745 0.131946 0.151936 0.0341317 0.123112 0.142302 0.0319674 0.115283 0.133908 0.0300816 0.10846 0.126753 0.0284743 0.102643 0.120623 0.0270974 0.0976582 0.115305 0.0259026 0.0933338 0.110797 0.02489 0.0896694 0.107101 0.0240595 0.0866652 0.103976 0.0233575 0.0841257 0.101183 0.0227301 0.0818556 0.0987218 0.0221773 0.0798549 0.096593 0.0216991 0.0781235 0.331084 0.101768 0.274154 0.297591 0.0914734 0.246411 0.268091 0.0824055 0.22197 0.242582 0.0745646 0.20083 0.221065 0.0679508 0.182993 0.202577 0.0622679 0.167662 0.186154 0.0572197 0.154044 0.171796 0.0528064 0.142139 0.159503 0.0490278 0.131946 0.14885 0.0457533 0.123112 0.139411 0.0428521 0.115283 0.131187 0.0403242 0.10846 0.124178 0.0381696 0.102643 0.118173 0.0363238 0.0976582 0.112962 0.0347222 0.0933338 0.108546 0.0333648 0.0896695 0.104925 0.0322516 0.0866652 0.101863 0.0313106 0.0841257 0.0991272 0.0304695 0.0818556 0.0967163 0.0297284 0.0798549 0.0946308 0.0290874 0.0781235 0.322052 0.127498 0.274154 0.289473 0.1146 0.246411 0.260777 0.10324 0.22197 0.235964 0.0934163 0.20083 0.215035 0.0851304 0.182993 0.197051 0.0780107 0.167662 0.181076 0.0716863 0.154044 0.167109 0.0661571 0.142139 0.155152 0.0614232 0.131946 0.144789 0.0573208 0.123112 0.135608 0.0536861 0.115283 0.127609 0.0505191 0.10846 0.12079 0.0478198 0.102643 0.114949 0.0455073 0.0976583 0.109881 0.0435008 0.0933338 0.105585 0.0418002 0.0896695 0.102063 0.0404056 0.0866652 0.0990847 0.0392266 0.0841257 0.0964231 0.038173 0.0818556 0.094078 0.0372445 0.0798549 0.0920493 0.0364414 0.0781235 0.310826 0.152843 0.274154 0.279382 0.137381 0.246411 0.251687 0.123762 0.22197 0.227739 0.111986 0.20083 0.207538 0.102053 0.182993 0.190181 0.0935183 0.167662 0.174763 0.0859366 0.154044 0.161284 0.0793083 0.142139 0.149743 0.0736334 0.131946 0.139742 0.0687155 0.123112 0.130881 0.0643583 0.115283 0.12316 0.0605617 0.10846 0.11658 0.0573258 0.102643 0.110942 0.0545537 0.0976583 0.10605 0.0521483 0.0933338 0.101905 0.0501096 0.0896695 0.0985048 0.0484378 0.0866652 0.0956306 0.0470245 0.0841257 0.0930618 0.0457613 0.0818556 0.0907984 0.0446483 0.0798549 0.0888405 0.0436855 0.0781235 0.297417 0.177529 0.274154 0.26733 0.15957 0.246411 0.240829 0.143751 0.22197 0.217915 0.130074 0.20083 0.198586 0.118536 0.182993 0.181978 0.108623 0.167662 0.167224 0.0998165 0.154045 0.154326 0.0921176 0.142139 0.143284 0.0855262 0.131946 0.133714 0.079814 0.123112 0.125235 0.074753 0.115283 0.117847 0.0703432 0.10846 0.111551 0.0665847 0.102643 0.106156 0.0633648 0.0976583 0.101476 0.0605709 0.0933338 0.0975087 0.058203 0.0896695 0.0942555 0.0562611 0.0866652 0.0915053 0.0546195 0.0841257 0.0890473 0.0531523 0.0818556 0.0868816 0.0518596 0.0798549 0.0850081 0.0507413 0.0781236 0.281886 0.20128 0.274154 0.253371 0.180918 0.246411 0.228254 0.162983 0.22197 0.206535 0.147476 0.20083 0.188216 0.134395 0.182993 0.172475 0.123155 0.167662 0.158492 0.113171 0.154045 0.146268 0.104442 0.142139 0.135802 0.0969685 0.131946 0.126732 0.0904921 0.123112 0.118696 0.084754 0.115283 0.111694 0.0797543 0.10846 0.105726 0.0754929 0.102643 0.100613 0.0718422 0.0976583 0.0961767 0.0686745 0.0933339 0.0924169 0.0659898 0.0896695 0.0893336 0.0637882 0.0866652 0.086727 0.0619269 0.0841257 0.0843973 0.0602635 0.0818556 0.0823447 0.0587978 0.0798549 0.0805691 0.0575299 0.0781236 0.264338 0.223828 0.274154 0.237597 0.201185 0.246411 0.214044 0.181241 0.22197 0.193678 0.163996 0.20083 0.176499 0.14945 0.182993 0.161738 0.136951 0.167662 0.148626 0.125848 0.154045 0.137162 0.116142 0.142139 0.127348 0.107831 0.131946 0.118842 0.100629 0.123112 0.111306 0.0942484 0.115283 0.10474 0.0886886 0.10846 0.0991439 0.0839499 0.102643 0.0943495 0.0798902 0.0976583 0.0901894 0.0763677 0.0933339 0.0866637 0.0733822 0.0896695 0.0837723 0.070934 0.0866653 0.0813279 0.0688642 0.0841257 0.0791433 0.0670144 0.0818556 0.0772185 0.0653845 0.0798549 0.0755534 0.0639746 0.0781236 0.244922 0.244922 0.274154 0.220145 0.220145 0.246411 0.198322 0.198322 0.22197 0.179452 0.179452 0.20083 0.163535 0.163535 0.182993 0.149858 0.149858 0.167662 0.137709 0.137709 0.154045 0.127087 0.127087 0.142139 0.117994 0.117994 0.131946 0.110113 0.110113 0.123112 0.103131 0.103131 0.115283 0.0970469 0.0970469 0.10846 0.0918616 0.0918616 0.102643 0.0874193 0.0874193 0.0976583 0.0835648 0.0835648 0.0933339 0.080298 0.080298 0.0896695 0.077619 0.077619 0.0866653 0.0753542 0.0753542 0.0841257 0.0733301 0.0733301 0.0818556 0.0715466 0.0715466 0.0798549 0.0700038 0.0700038 0.0781236 0.223828 0.264338 0.274154 0.201185 0.237597 0.246411 0.181241 0.214044 0.22197 0.163996 0.193678 0.20083 0.14945 0.176499 0.182993 0.136951 0.161738 0.167662 0.125848 0.148626 0.154045 0.116142 0.137162 0.142139 0.107831 0.127348 0.131946 0.100629 0.118842 0.123112 0.0942484 0.111306 0.115283 0.0886886 0.10474 0.10846 0.0839499 0.0991439 0.102643 0.0798902 0.0943495 0.0976583 0.0763677 0.0901894 0.0933339 0.0733822 0.0866637 0.0896695 0.070934 0.0837723 0.0866653 0.0688642 0.0813279 0.0841257 0.0670144 0.0791433 0.0818556 0.0653845 0.0772185 0.0798549 0.0639746 0.0755534 0.0781236 0.20128 0.281886 0.274154 0.180918 0.253371 0.246411 0.162983 0.228254 0.22197 0.147476 0.206535 0.20083 0.134395 0.188216 0.182993 0.123155 0.172475 0.167662 0.113171 0.158492 0.154045 0.104442 0.146268 0.142139 0.0969685 0.135802 0.131946 0.0904921 0.126732 0.123112 0.084754 0.118696 0.115283 0.0797543 0.111694 0.10846 0.0754929 0.105726 0.102643 0.0718422 0.100613 0.0976583 0.0686745 0.0961767 0.0933339 0.0659898 0.0924169 0.0896695 0.0637882 0.0893336 0.0866652 0.0619269 0.086727 0.0841257 0.0602635 0.0843973 0.0818556 0.0587978 0.0823447 0.0798549 0.0575299 0.0805691 0.0781236 0.177529 0.297417 0.274154 0.15957 0.26733 0.246411 0.143751 0.240829 0.22197 0.130074 0.217915 0.20083 0.118536 0.198586 0.182993 0.108623 0.181978 0.167662 0.0998165 0.167224 0.154045 0.0921176 0.154326 0.142139 0.0855262 0.143284 0.131946 0.079814 0.133714 0.123112 0.074753 0.125235 0.115283 0.0703432 0.117847 0.10846 0.0665847 0.111551 0.102643 0.0633648 0.106156 0.0976583 0.0605709 0.101476 0.0933338 0.058203 0.0975087 0.0896695 0.0562611 0.0942555 0.0866652 0.0546195 0.0915053 0.0841257 0.0531523 0.0890473 0.0818556 0.0518596 0.0868816 0.0798549 0.0507413 0.0850081 0.0781236 0.152843 0.310826 0.274154 0.137381 0.279382 0.246411 0.123762 0.251687 0.22197 0.111986 0.227739 0.20083 0.102053 0.207538 0.182993 0.0935183 0.190181 0.167662 0.0859366 0.174763 0.154044 0.0793083 0.161284 0.142139 0.0736334 0.149743 0.131946 0.0687155 0.139742 0.123112 0.0643583 0.130881 0.115283 0.0605617 0.12316 0.10846 0.0573258 0.11658 0.102643 0.0545537 0.110942 0.0976583 0.0521483 0.10605 0.0933338 0.0501096 0.101905 0.0896695 0.0484378 0.0985048 0.0866652 0.0470245 0.0956306 0.0841257 0.0457613 0.0930618 0.0818556 0.0446483 0.0907984 0.0798549 0.0436855 0.0888405 0.0781235 0.127498 0.322052 0.274154 0.1146 0.289473 0.246411 0.10324 0.260777 0.22197 0.0934163 0.235964 0.20083 0.0851304 0.215035 0.182993 0.0780107 0.197051 0.167662 0.0716863 0.181076 0.154044 0.0661571 0.167109 0.142139 0.0614232 0.155152 0.131946 0.0573208 0.144789 0.123112 0.0536861 0.135608 0.115283 0.0505191 0.127609 0.10846 0.0478198 0.12079 0.102643 0.0455073 0.114949 0.0976583 0.0435008 0.109881 0.0933338 0.0418002 0.105585 0.0896695 0.0404056 0.102063 0.0866652 0.0392266 0.0990847 0.0841257 0.038173 0.0964231 0.0818556 0.0372445 0.094078 0.0798549 0.0364414 0.0920493 0.0781235 0.101768 0.331084 0.274154 0.0914734 0.297591 0.246411 0.0824055 0.268091 0.22197 0.0745646 0.242582 0.20083 0.0679508 0.221065 0.182993 0.0622679 0.202577 0.167662 0.0572197 0.186154 0.154044 0.0528064 0.171796 0.142139 0.0490278 0.159503 0.131946 0.0457533 0.14885 0.123112 0.0428521 0.139411 0.115283 0.0403242 0.131187 0.10846 0.0381696 0.124178 0.102643 0.0363238 0.118173 0.0976582 0.0347222 0.112962 0.0933338 0.0333648 0.108546 0.0896695 0.0322516 0.104925 0.0866652 0.0313106 0.101863 0.0841257 0.0304695 0.0991272 0.0818556 0.0297284 0.0967163 0.0798549 0.0290874 0.0946308 0.0781235 0.0759188 0.337949 0.274154 0.0682388 0.303762 0.246411 0.0614742 0.27365 0.22197 0.0556249 0.247612 0.20083 0.050691 0.225649 0.182993 0.0464516 0.206777 0.167662 0.0426857 0.190014 0.154044 0.0393933 0.175358 0.142139 0.0365745 0.16281 0.131946 0.0341317 0.151936 0.123112 0.0319674 0.142302 0.115283 0.0300816 0.133908 0.10846 0.0284743 0.126753 0.102643 0.0270974 0.120623 0.0976582 0.0259026 0.115305 0.0933338 0.02489 0.110797 0.0896694 0.0240595 0.107101 0.0866652 0.0233575 0.103976 0.0841257 0.0227301 0.101183 0.0818556 0.0221773 0.0987218 0.0798549 0.0216991 0.096593 0.0781235 0.0501962 0.342715 0.274154 0.0451183 0.308046 0.246411 0.0406456 0.277509 0.22197 0.0367782 0.251104 0.20083 0.033516 0.228831 0.182993 0.0307129 0.209693 0.167662 0.028223 0.192693 0.154044 0.0260461 0.177831 0.142139 0.0241824 0.165106 0.131946 0.0225673 0.154079 0.123112 0.0211363 0.144309 0.115283 0.0198894 0.135796 0.10846 0.0188267 0.12854 0.102643 0.0179163 0.122324 0.0976582 0.0171263 0.116931 0.0933338 0.0164568 0.11236 0.0896694 0.0159077 0.108611 0.0866652 0.0154436 0.105442 0.0841257 0.0150287 0.10261 0.0818556 0.0146632 0.100114 0.0798549 0.014347 0.0979552 0.0781235 0.0248243 0.345481 0.274154 0.0223131 0.310532 0.246411 0.0201011 0.279748 0.22197 0.0181885 0.25313 0.20083 0.0165752 0.230678 0.182993 0.015189 0.211386 0.167662 0.0139576 0.194248 0.154044 0.012881 0.179266 0.142139 0.0119593 0.166439 0.131946 0.0111605 0.155322 0.123112 0.0104529 0.145474 0.115283 0.00983623 0.136892 0.10846 0.00931066 0.129578 0.102643 0.00886041 0.123311 0.0976582 0.00846973 0.117874 0.0933338 0.00813862 0.113266 0.0896694 0.00786709 0.109487 0.0866652 0.00763754 0.106293 0.0841257 0.00743239 0.103438 0.0818556 0.00725162 0.100922 0.0798549 0.00709526 0.0987457 0.0781235 0 0.346372 0.274154 0 0.311332 0.246411 0 0.280469 0.22197 0 0.253783 0.20083 0 0.231272 0.182993 0 0.211931 0.167662 0 0.194749 0.154044 0 0.179728 0.142139 0 0.166868 0.131946 0 0.155723 0.123112 0 0.145849 0.115283 0 0.137245 0.10846 0 0.129912 0.102643 0 0.123629 0.0976582 0 0.118178 0.0933338 0 0.113558 0.0896694 0 0.10977 0.0866652 0 0.106567 0.0841257 0 0.103704 0.0818556 0 0.101182 0.0798549 0 0.0990003 0.0781236 0.335455 0 0.287435 0.30152 0 0.258351 0.27163 0 0.232729 0.245786 0 0.210567 0.223987 0 0.191865 0.205256 0 0.175792 0.188618 0 0.161514 0.174072 0 0.149031 0.161617 0 0.138345 0.150824 0 0.129082 0.141262 0 0.120874 0.13293 0 0.113719 0.125829 0 0.107619 0.119746 0 0.102391 0.114467 0 0.0978553 0.109993 0 0.0940121 0.106325 0 0.0908611 0.103223 0 0.0881979 0.10045 0 0.0858181 0.0980057 0 0.0837216 0.0958905 0 0.0819084 0.334592 0.0240419 0.287435 0.300744 0.0216098 0.258351 0.270932 0.0194676 0.232729 0.245154 0.0176154 0.210567 0.223411 0.016053 0.191865 0.204729 0.0147106 0.175792 0.188133 0.0135181 0.161514 0.173624 0.0124756 0.149031 0.161202 0.011583 0.138345 0.150436 0.0108095 0.129082 0.140898 0.0101241 0.120874 0.132588 0.00952698 0.113719 0.125505 0.00901805 0.107619 0.119438 0.00858206 0.102391 0.114173 0.00820375 0.0978553 0.109711 0.00788312 0.0940121 0.106051 0.00762018 0.0908611 0.102957 0.00739787 0.0881979 0.100191 0.00719913 0.085818 0.0977536 0.00702397 0.0837215 0.0956439 0.00687238 0.0819084 0.331914 0.0486141 0.287435 0.298337 0.0436962 0.258351 0.268763 0.0393646 0.232729 0.243191 0.0356192 0.210567 0.221622 0.0324601 0.191865 0.20309 0.0297457 0.175792 0.186627 0.0273345 0.161514 0.172234 0.0252264 0.149032 0.159911 0.0234215 0.138345 0.149232 0.0218574 0.129082 0.13977 0.0204716 0.120874 0.131527 0.0192641 0.113719 0.124501 0.018235 0.107619 0.118481 0.0173534 0.102391 0.113259 0.0165885 0.0978553 0.108832 0.0159401 0.0940121 0.105202 0.0154085 0.0908611 0.102133 0.0149589 0.0881979 0.0993893 0.0145571 0.085818 0.0969711 0.0142029 0.0837215 0.0948782 0.0138964 0.0819084 0.327298 0.073526 0.287435 0.294188 0.0660881 0.258351 0.265025 0.0595367 0.232729 0.239809 0.0538721 0.210567 0.21854 0.0490941 0.191865 0.200265 0.0449887 0.175792 0.184032 0.0413418 0.161514 0.169839 0.0381535 0.149032 0.157687 0.0354237 0.138345 0.147157 0.033058 0.129082 0.137827 0.0309621 0.120874 0.129698 0.0291359 0.113719 0.122769 0.0275795 0.107619 0.116834 0.0262461 0.102391 0.111684 0.0250891 0.0978553 0.107319 0.0241086 0.0940121 0.103739 0.0233044 0.0908611 0.100713 0.0226246 0.0881979 0.0980072 0.0220168 0.085818 0.0956225 0.0214811 0.0837215 0.0935588 0.0210175 0.0819084 0.320649 0.0985609 0.287435 0.288212 0.0885903 0.258351 0.259641 0.0798084 0.232729 0.234938 0.072215 0.210567 0.214101 0.0658101 0.191865 0.196197 0.0603069 0.175792 0.180293 0.0554183 0.161514 0.166389 0.0511444 0.149032 0.154484 0.0474851 0.138345 0.144167 0.044314 0.129082 0.135027 0.0415044 0.120874 0.127063 0.0390564 0.113719 0.120275 0.03697 0.107619 0.11446 0.0351827 0.102391 0.109415 0.0336318 0.0978554 0.105139 0.0323173 0.0940121 0.101632 0.0312394 0.0908611 0.0986668 0.030328 0.0881979 0.0960162 0.0295133 0.085818 0.09368 0.0287952 0.0837215 0.0916582 0.0281737 0.0819084 0.311902 0.123479 0.287435 0.28035 0.110988 0.258352 0.252559 0.0999858 0.232729 0.228529 0.0904726 0.210567 0.20826 0.0824485 0.191865 0.190845 0.0755539 0.175792 0.175375 0.0694294 0.161514 0.16185 0.064075 0.149032 0.15027 0.0594905 0.138345 0.140235 0.0555176 0.129082 0.131344 0.0519977 0.120874 0.123597 0.0489308 0.113719 0.116994 0.046317 0.107619 0.111338 0.0440777 0.102391 0.10643 0.0421347 0.0978554 0.102271 0.040488 0.0940121 0.0988595 0.0391375 0.0908611 0.0959753 0.0379957 0.0881979 0.093397 0.036975 0.085818 0.0911245 0.0360753 0.0837215 0.0891579 0.0352967 0.0819084 0.301029 0.148026 0.287435 0.270577 0.133051 0.258352 0.243754 0.119862 0.232729 0.220562 0.108457 0.210567 0.201 0.0988383 0.191865 0.184192 0.0905731 0.175792 0.169261 0.0832311 0.161514 0.156208 0.0768123 0.149032 0.145032 0.0713165 0.138345 0.135346 0.0665539 0.129082 0.126765 0.0623343 0.120874 0.119288 0.0586577 0.113719 0.112916 0.0555242 0.107619 0.107457 0.0528398 0.102391 0.10272 0.0505106 0.0978554 0.0987055 0.0485365 0.0940121 0.0954132 0.0469176 0.0908611 0.0926296 0.0455488 0.0881979 0.0901412 0.0443252 0.0858181 0.0879479 0.0432467 0.0837215 0.0860498 0.0423133 0.0819084 0.288043 0.171934 0.287435 0.258905 0.154541 0.258352 0.233239 0.139221 0.232729 0.211048 0.125975 0.210567 0.19233 0.114802 0.191865 0.176247 0.105202 0.175792 0.16196 0.096674 0.161514 0.149469 0.0892184 0.149032 0.138775 0.0828351 0.138345 0.129508 0.0773032 0.129082 0.121297 0.0724021 0.120874 0.114142 0.0681317 0.113719 0.108045 0.0644921 0.107619 0.102821 0.0613742 0.102391 0.098289 0.0586687 0.0978554 0.0944476 0.0563758 0.0940121 0.0912973 0.0544954 0.0908611 0.0886338 0.0529055 0.0881979 0.0862527 0.0514842 0.0858181 0.0841541 0.0502316 0.0837216 0.0823378 0.0491475 0.0819084 0.273002 0.194936 0.287435 0.245385 0.175216 0.258352 0.22106 0.157847 0.232729 0.200027 0.142828 0.210567 0.182286 0.130161 0.191865 0.167043 0.119276 0.175792 0.153502 0.109608 0.161514 0.141664 0.101155 0.149032 0.131528 0.0939173 0.138345 0.122745 0.0876453 0.129083 0.114963 0.0820885 0.120874 0.108182 0.0772469 0.113719 0.102403 0.0731203 0.107619 0.0974522 0.0695853 0.102391 0.0931564 0.0665179 0.0978554 0.0895156 0.0639182 0.0940122 0.0865299 0.0617862 0.0908611 0.0840054 0.0599836 0.0881979 0.0817487 0.0583722 0.0858181 0.0797596 0.0569519 0.0837216 0.0780382 0.0557228 0.0819084 0.256007 0.216773 0.287435 0.230109 0.194844 0.258352 0.207298 0.175529 0.232729 0.187575 0.158829 0.210567 0.170939 0.144742 0.191865 0.156644 0.132638 0.175792 0.143946 0.121886 0.161514 0.132845 0.112486 0.149032 0.12334 0.104438 0.138345 0.115104 0.0974637 0.129083 0.107806 0.0912844 0.120874 0.101447 0.0859003 0.113719 0.0960281 0.0813115 0.107619 0.0913855 0.0773804 0.102391 0.0873571 0.0739694 0.0978554 0.083943 0.0710785 0.0940122 0.0811431 0.0687077 0.0908611 0.0787758 0.0667032 0.0881979 0.0766596 0.0649113 0.0858181 0.0747943 0.0633319 0.0837216 0.0731801 0.0619651 0.0819084 0.237203 0.237203 0.287435 0.213207 0.213207 0.258352 0.192072 0.192072 0.232729 0.173797 0.173797 0.210567 0.158383 0.158383 0.191865 0.145138 0.145138 0.175792 0.133373 0.133373 0.161514 0.123087 0.123087 0.149032 0.114281 0.114281 0.138345 0.106649 0.106649 0.129083 0.0998873 0.0998873 0.120874 0.0939958 0.0939958 0.113719 0.0889746 0.0889746 0.107619 0.084673 0.084673 0.102391 0.0809406 0.0809406 0.0978554 0.0777772 0.0777772 0.0940122 0.0751829 0.0751829 0.0908611 0.0729895 0.0729895 0.0881979 0.0710287 0.0710287 0.0858181 0.0693005 0.0693005 0.0837216 0.0678049 0.0678049 0.0819084 0.216773 0.256007 0.287435 0.194844 0.230109 0.258352 0.175529 0.207298 0.232729 0.158829 0.187575 0.210567 0.144742 0.170939 0.191865 0.132638 0.156644 0.175792 0.121886 0.143946 0.161514 0.112486 0.132845 0.149032 0.104438 0.12334 0.138345 0.0974637 0.115104 0.129083 0.0912844 0.107806 0.120874 0.0859003 0.101447 0.113719 0.0813115 0.0960281 0.107619 0.0773804 0.0913855 0.102391 0.0739694 0.0873571 0.0978554 0.0710785 0.083943 0.0940122 0.0687077 0.0811431 0.0908611 0.0667032 0.0787758 0.0881979 0.0649113 0.0766596 0.0858181 0.0633319 0.0747943 0.0837216 0.0619651 0.0731801 0.0819084 0.194936 0.273002 0.287435 0.175216 0.245385 0.258352 0.157847 0.22106 0.232729 0.142828 0.200027 0.210567 0.130161 0.182286 0.191865 0.119276 0.167043 0.175792 0.109608 0.153502 0.161514 0.101155 0.141664 0.149032 0.0939173 0.131528 0.138345 0.0876453 0.122745 0.129083 0.0820885 0.114963 0.120874 0.0772469 0.108182 0.113719 0.0731203 0.102403 0.107619 0.0695853 0.0974522 0.102391 0.0665179 0.0931564 0.0978554 0.0639182 0.0895156 0.0940122 0.0617862 0.0865299 0.0908611 0.0599836 0.0840054 0.0881979 0.0583722 0.0817487 0.0858181 0.0569519 0.0797596 0.0837216 0.0557228 0.0780382 0.0819084 0.171934 0.288043 0.287435 0.154541 0.258905 0.258352 0.139221 0.233239 0.232729 0.125975 0.211048 0.210567 0.114802 0.19233 0.191865 0.105202 0.176247 0.175792 0.096674 0.16196 0.161514 0.0892184 0.149469 0.149032 0.0828351 0.138775 0.138345 0.0773032 0.129508 0.129082 0.0724021 0.121297 0.120874 0.0681317 0.114142 0.113719 0.0644921 0.108045 0.107619 0.0613742 0.102821 0.102391 0.0586687 0.098289 0.0978554 0.0563758 0.0944476 0.0940121 0.0544954 0.0912973 0.0908611 0.0529055 0.0886338 0.0881979 0.0514842 0.0862527 0.0858181 0.0502316 0.0841541 0.0837216 0.0491475 0.0823378 0.0819084 0.148026 0.301029 0.287435 0.133051 0.270577 0.258352 0.119862 0.243754 0.232729 0.108457 0.220562 0.210567 0.0988383 0.201 0.191865 0.0905731 0.184192 0.175792 0.0832311 0.169261 0.161514 0.0768123 0.156208 0.149032 0.0713165 0.145032 0.138345 0.0665539 0.135346 0.129082 0.0623343 0.126765 0.120874 0.0586577 0.119288 0.113719 0.0555242 0.112916 0.107619 0.0528398 0.107457 0.102391 0.0505106 0.10272 0.0978554 0.0485365 0.0987055 0.0940121 0.0469176 0.0954132 0.0908611 0.0455488 0.0926296 0.0881979 0.0443252 0.0901412 0.0858181 0.0432467 0.0879479 0.0837215 0.0423133 0.0860498 0.0819084 0.123479 0.311902 0.287435 0.110988 0.28035 0.258352 0.0999858 0.252559 0.232729 0.0904726 0.228529 0.210567 0.0824485 0.20826 0.191865 0.0755539 0.190845 0.175792 0.0694294 0.175375 0.161514 0.064075 0.16185 0.149032 0.0594905 0.15027 0.138345 0.0555176 0.140235 0.129082 0.0519977 0.131344 0.120874 0.0489308 0.123597 0.113719 0.046317 0.116994 0.107619 0.0440777 0.111338 0.102391 0.0421347 0.10643 0.0978554 0.040488 0.102271 0.0940121 0.0391375 0.0988595 0.0908611 0.0379957 0.0959753 0.0881979 0.036975 0.093397 0.085818 0.0360753 0.0911245 0.0837215 0.0352967 0.0891579 0.0819084 0.0985609 0.320649 0.287435 0.0885903 0.288212 0.258351 0.0798084 0.259641 0.232729 0.072215 0.234938 0.210567 0.0658101 0.214101 0.191865 0.0603069 0.196197 0.175792 0.0554183 0.180293 0.161514 0.0511444 0.166389 0.149032 0.0474851 0.154484 0.138345 0.044314 0.144167 0.129082 0.0415044 0.135027 0.120874 0.0390564 0.127063 0.113719 0.03697 0.120275 0.107619 0.0351827 0.11446 0.102391 0.0336318 0.109415 0.0978554 0.0323173 0.105139 0.0940121 0.0312394 0.101632 0.0908611 0.030328 0.0986668 0.0881979 0.0295133 0.0960162 0.085818 0.0287952 0.09368 0.0837215 0.0281737 0.0916582 0.0819084 0.073526 0.327298 0.287435 0.0660881 0.294188 0.258351 0.0595367 0.265025 0.232729 0.0538721 0.239809 0.210567 0.0490941 0.21854 0.191865 0.0449887 0.200265 0.175792 0.0413418 0.184032 0.161514 0.0381535 0.169839 0.149032 0.0354237 0.157687 0.138345 0.033058 0.147157 0.129082 0.0309621 0.137827 0.120874 0.0291359 0.129698 0.113719 0.0275795 0.122769 0.107619 0.0262461 0.116834 0.102391 0.0250891 0.111684 0.0978553 0.0241086 0.107319 0.0940121 0.0233044 0.103739 0.0908611 0.0226246 0.100713 0.0881979 0.0220168 0.0980072 0.085818 0.0214811 0.0956225 0.0837215 0.0210175 0.0935588 0.0819084 0.0486141 0.331914 0.287435 0.0436962 0.298337 0.258351 0.0393646 0.268763 0.232729 0.0356192 0.243191 0.210567 0.0324601 0.221622 0.191865 0.0297457 0.20309 0.175792 0.0273345 0.186627 0.161514 0.0252264 0.172234 0.149032 0.0234215 0.159911 0.138345 0.0218574 0.149232 0.129082 0.0204716 0.13977 0.120874 0.0192641 0.131527 0.113719 0.018235 0.124501 0.107619 0.0173534 0.118481 0.102391 0.0165885 0.113259 0.0978553 0.0159401 0.108832 0.0940121 0.0154085 0.105202 0.0908611 0.0149589 0.102133 0.0881979 0.0145571 0.0993893 0.085818 0.0142029 0.0969711 0.0837215 0.0138964 0.0948782 0.0819084 0.0240419 0.334592 0.287435 0.0216098 0.300744 0.258351 0.0194676 0.270932 0.232729 0.0176154 0.245154 0.210567 0.016053 0.223411 0.191865 0.0147106 0.204729 0.175792 0.0135181 0.188133 0.161514 0.0124756 0.173624 0.149031 0.011583 0.161202 0.138345 0.0108095 0.150436 0.129082 0.0101241 0.140898 0.120874 0.00952698 0.132588 0.113719 0.00901805 0.125505 0.107619 0.00858206 0.119438 0.102391 0.00820375 0.114173 0.0978553 0.00788312 0.109711 0.0940121 0.00762018 0.106051 0.0908611 0.00739787 0.102957 0.0881979 0.00719913 0.100191 0.085818 0.00702397 0.0977536 0.0837215 0.00687238 0.0956439 0.0819084 0 0.335455 0.287435 0 0.30152 0.258351 0 0.27163 0.232729 0 0.245786 0.210567 0 0.223987 0.191865 0 0.205256 0.175792 0 0.188618 0.161514 0 0.174072 0.149031 0 0.161617 0.138345 0 0.150824 0.129082 0 0.141262 0.120874 0 0.13293 0.113719 0 0.125829 0.107619 0 0.119746 0.102391 0 0.114467 0.0978553 0 0.109993 0.0940121 0 0.106325 0.0908611 0 0.103223 0.0881979 0 0.10045 0.0858181 0 0.0980057 0.0837216 0 0.0958905 0.0819084 0.324102 0 0.300201 0.291314 0 0.269831 0.262437 0 0.243073 0.237468 0 0.219928 0.216409 0 0.200397 0.198316 0 0.183609 0.182242 0 0.168697 0.16819 0 0.15566 0.156157 0 0.144499 0.14573 0 0.134825 0.136492 0 0.126252 0.128443 0 0.118778 0.121584 0 0.112405 0.115707 0 0.106943 0.110608 0 0.102204 0.106286 0 0.0981882 0.102742 0 0.0948949 0.0997446 0 0.0921117 0.0970639 0 0.0896259 0.0946999 0 0.0874377 0.0926527 0 0.0855469 0.323268 0.0232282 0.300201 0.290565 0.0208784 0.269831 0.261762 0.0188087 0.243073 0.236858 0.0170193 0.219928 0.215853 0.01551 0.200397 0.197806 0.0142132 0.183609 0.181774 0.0130612 0.168697 0.167757 0.012054 0.15566 0.155756 0.0111917 0.144499 0.145355 0.0104444 0.134825 0.136141 0.00978229 0.126252 0.128113 0.00920543 0.118778 0.121271 0.0087138 0.112405 0.11541 0.00829263 0.106943 0.110324 0.00792718 0.102204 0.106013 0.00761744 0.0981882 0.102478 0.00736342 0.0948949 0.0994881 0.00714859 0.0921117 0.0968143 0.00695647 0.0896259 0.0944564 0.00678705 0.0874377 0.0924144 0.00664033 0.0855469 0.32068 0.0469688 0.300201 0.288239 0.0422173 0.269831 0.259666 0.0380323 0.243073 0.234962 0.0344139 0.219928 0.214125 0.031362 0.200397 0.196222 0.0287399 0.183609 0.180318 0.0264105 0.168697 0.166414 0.024374 0.15566 0.154509 0.0226303 0.144499 0.144192 0.0211191 0.134825 0.135051 0.0197804 0.126252 0.127087 0.0186139 0.118778 0.1203 0.0176198 0.112405 0.114486 0.0167682 0.106943 0.109441 0.0160292 0.102204 0.105164 0.0154029 0.0981882 0.101657 0.0148893 0.0948949 0.0986916 0.0144549 0.0921117 0.0960392 0.0140664 0.0896259 0.0937002 0.0137238 0.0874376 0.0916746 0.0134271 0.0855468 0.316221 0.0710376 0.300201 0.284231 0.0638512 0.269831 0.256055 0.0575217 0.243073 0.231694 0.0520491 0.219928 0.211147 0.0474333 0.200397 0.193493 0.0434674 0.183609 0.177811 0.0399444 0.168697 0.1641 0.0368642 0.15566 0.15236 0.034227 0.144499 0.142187 0.0319415 0.134825 0.133173 0.0299167 0.126252 0.12532 0.0281525 0.118778 0.118627 0.026649 0.112405 0.112894 0.025361 0.106943 0.107919 0.0242433 0.102204 0.103702 0.0232961 0.0981882 0.100244 0.0225192 0.0948949 0.0973192 0.0218622 0.0921117 0.0947036 0.0212746 0.0896259 0.0923972 0.0207565 0.0874376 0.0903997 0.0203078 0.0855468 0.309797 0.0952251 0.300201 0.278457 0.0855919 0.269831 0.250854 0.0771072 0.243073 0.226987 0.0697712 0.219928 0.206858 0.0635838 0.200397 0.189563 0.0582676 0.183609 0.174199 0.0535451 0.168697 0.160766 0.0494162 0.15566 0.149265 0.045881 0.144499 0.139298 0.0428173 0.134825 0.130468 0.040103 0.126252 0.122774 0.0377382 0.118778 0.116217 0.0357227 0.112405 0.1106 0.0339961 0.106943 0.105726 0.032498 0.102204 0.101595 0.0312282 0.0981882 0.0982073 0.0301868 0.0948949 0.0953422 0.0293061 0.0921117 0.0927798 0.0285185 0.0896259 0.0905202 0.0278239 0.0874376 0.0885633 0.0272224 0.0855468 0.301346 0.1193 0.300201 0.270861 0.107232 0.269831 0.244011 0.0966018 0.243073 0.220795 0.0874111 0.219928 0.201215 0.0796594 0.200397 0.184392 0.0729991 0.183609 0.169447 0.0670825 0.168697 0.156381 0.0619098 0.15566 0.145193 0.0574808 0.144499 0.135498 0.0536426 0.134825 0.126909 0.0502421 0.126252 0.119425 0.0472793 0.118779 0.113047 0.0447543 0.112405 0.107583 0.0425912 0.106943 0.102842 0.0407143 0.102204 0.0988239 0.0391234 0.0981883 0.0955283 0.0378187 0.0948949 0.0927414 0.0367154 0.0921117 0.0902489 0.0357286 0.0896259 0.0880509 0.0348585 0.0874377 0.0861474 0.0341049 0.0855468 0.290841 0.143016 0.300201 0.261419 0.128548 0.269831 0.235504 0.115805 0.243073 0.213098 0.104787 0.219929 0.194201 0.0954947 0.200397 0.177964 0.0875104 0.183609 0.16354 0.0804177 0.168697 0.150929 0.0742167 0.15566 0.140132 0.0689073 0.144499 0.130775 0.0643061 0.134825 0.122485 0.0602296 0.126252 0.115262 0.0566779 0.118779 0.109106 0.0536509 0.112405 0.103833 0.0510579 0.106943 0.0992572 0.0488078 0.102204 0.0953789 0.0469007 0.0981883 0.0921982 0.0453367 0.0948949 0.0895084 0.044014 0.0921117 0.0871028 0.0428311 0.0896259 0.0849814 0.0417879 0.0874377 0.0831443 0.0408846 0.0855469 0.278295 0.166114 0.300201 0.250142 0.14931 0.269831 0.225345 0.134509 0.243073 0.203906 0.121712 0.219929 0.185823 0.110918 0.200397 0.170287 0.101644 0.183609 0.156485 0.0934062 0.168697 0.144419 0.0862036 0.15566 0.134087 0.0800367 0.144499 0.125134 0.0746923 0.134825 0.117201 0.0699575 0.126252 0.11029 0.0658321 0.118779 0.1044 0.0623163 0.112405 0.0993539 0.0593044 0.106943 0.0949754 0.0566909 0.102204 0.0912645 0.0544758 0.0981883 0.088221 0.0526591 0.0948949 0.0856472 0.0511228 0.0921117 0.0833454 0.0497489 0.0896259 0.0813155 0.0485372 0.0874377 0.0795576 0.0474879 0.0855469 0.263762 0.188338 0.300201 0.237079 0.169286 0.269831 0.213578 0.152504 0.243073 0.193258 0.137995 0.219929 0.17612 0.125758 0.200397 0.161395 0.115243 0.183609 0.148314 0.105903 0.168697 0.136877 0.0977366 0.15566 0.127085 0.0907446 0.144499 0.118599 0.0846852 0.134825 0.111081 0.0793169 0.126252 0.104531 0.0746396 0.118779 0.0989481 0.0706534 0.112405 0.0941657 0.0672385 0.106943 0.0900159 0.0642754 0.102204 0.0864987 0.061764 0.0981883 0.0836142 0.0597043 0.0948949 0.0811748 0.0579624 0.0921117 0.0789931 0.0564046 0.089626 0.0770693 0.0550309 0.0874377 0.0754032 0.0538412 0.0855469 0.247342 0.209437 0.300201 0.22232 0.188249 0.269831 0.200282 0.169588 0.243073 0.181227 0.153454 0.219929 0.165156 0.139845 0.200397 0.151347 0.128153 0.183609 0.139081 0.117766 0.168697 0.128356 0.108685 0.15566 0.119174 0.10091 0.144499 0.111216 0.0941719 0.134825 0.104166 0.0882022 0.126252 0.0980233 0.083001 0.118779 0.0927883 0.0785682 0.112405 0.0883036 0.0747708 0.106943 0.0844121 0.0714758 0.102204 0.0811139 0.068683 0.0981883 0.0784089 0.0663925 0.0948949 0.0761214 0.0644556 0.0921117 0.0740756 0.0627233 0.089626 0.0722715 0.0611957 0.0874377 0.0707091 0.0598727 0.0855469 0.229175 0.229175 0.300201 0.205991 0.205991 0.269831 0.185571 0.185571 0.243073 0.167916 0.167916 0.219929 0.153025 0.153025 0.200397 0.140231 0.140231 0.183609 0.128865 0.128865 0.168697 0.118928 0.118928 0.15566 0.11042 0.11042 0.144499 0.103047 0.103047 0.134825 0.0965147 0.0965147 0.126252 0.0908233 0.0908233 0.118779 0.0859728 0.0859728 0.112405 0.0818175 0.0818175 0.106944 0.0782119 0.0782119 0.102204 0.0751559 0.0751559 0.0981883 0.0726496 0.0726496 0.0948949 0.0705301 0.0705301 0.0921117 0.0686346 0.0686346 0.089626 0.066963 0.066963 0.0874377 0.0655154 0.0655154 0.0855469 0.209437 0.247342 0.300201 0.188249 0.22232 0.269831 0.169588 0.200282 0.243073 0.153454 0.181227 0.219929 0.139845 0.165156 0.200397 0.128153 0.151347 0.183609 0.117766 0.139081 0.168697 0.108685 0.128356 0.15566 0.10091 0.119174 0.144499 0.0941719 0.111216 0.134825 0.0882022 0.104166 0.126252 0.083001 0.0980233 0.118779 0.0785682 0.0927883 0.112405 0.0747708 0.0883036 0.106943 0.0714758 0.0844121 0.102204 0.068683 0.0811139 0.0981883 0.0663925 0.0784089 0.0948949 0.0644556 0.0761214 0.0921117 0.0627233 0.0740756 0.089626 0.0611957 0.0722715 0.0874377 0.0598727 0.0707091 0.0855469 0.188338 0.263762 0.300201 0.169286 0.237079 0.269831 0.152504 0.213578 0.243073 0.137995 0.193258 0.219929 0.125758 0.17612 0.200397 0.115243 0.161395 0.183609 0.105903 0.148314 0.168697 0.0977366 0.136877 0.15566 0.0907446 0.127085 0.144499 0.0846852 0.118599 0.134825 0.0793169 0.111081 0.126252 0.0746396 0.104531 0.118779 0.0706534 0.0989481 0.112405 0.0672385 0.0941657 0.106943 0.0642754 0.0900159 0.102204 0.061764 0.0864987 0.0981883 0.0597043 0.0836142 0.0948949 0.0579624 0.0811748 0.0921117 0.0564046 0.0789931 0.089626 0.0550309 0.0770693 0.0874377 0.0538412 0.0754032 0.0855469 0.166114 0.278295 0.300201 0.14931 0.250142 0.269831 0.134509 0.225345 0.243073 0.121712 0.203906 0.219929 0.110918 0.185823 0.200397 0.101644 0.170287 0.183609 0.0934062 0.156485 0.168697 0.0862036 0.144419 0.15566 0.0800367 0.134087 0.144499 0.0746923 0.125134 0.134825 0.0699575 0.117201 0.126252 0.0658321 0.11029 0.118779 0.0623163 0.1044 0.112405 0.0593044 0.0993539 0.106943 0.0566909 0.0949754 0.102204 0.0544758 0.0912645 0.0981883 0.0526591 0.088221 0.0948949 0.0511228 0.0856472 0.0921117 0.0497489 0.0833454 0.0896259 0.0485372 0.0813155 0.0874377 0.0474879 0.0795576 0.0855469 0.143016 0.290841 0.300201 0.128548 0.261419 0.269831 0.115805 0.235504 0.243073 0.104787 0.213098 0.219929 0.0954947 0.194201 0.200397 0.0875104 0.177964 0.183609 0.0804177 0.16354 0.168697 0.0742167 0.150929 0.15566 0.0689073 0.140132 0.144499 0.0643061 0.130775 0.134825 0.0602296 0.122485 0.126252 0.0566779 0.115262 0.118779 0.0536509 0.109106 0.112405 0.0510579 0.103833 0.106943 0.0488078 0.0992572 0.102204 0.0469007 0.0953789 0.0981883 0.0453367 0.0921982 0.0948949 0.044014 0.0895084 0.0921117 0.0428311 0.0871028 0.0896259 0.0417879 0.0849814 0.0874377 0.0408846 0.0831443 0.0855469 0.1193 0.301346 0.300201 0.107232 0.270861 0.269831 0.0966018 0.244011 0.243073 0.0874111 0.220795 0.219928 0.0796594 0.201215 0.200397 0.0729991 0.184392 0.183609 0.0670825 0.169447 0.168697 0.0619098 0.156381 0.15566 0.0574808 0.145193 0.144499 0.0536426 0.135498 0.134825 0.0502421 0.126909 0.126252 0.0472793 0.119425 0.118779 0.0447543 0.113047 0.112405 0.0425912 0.107583 0.106943 0.0407143 0.102842 0.102204 0.0391234 0.0988239 0.0981883 0.0378187 0.0955283 0.0948949 0.0367154 0.0927414 0.0921117 0.0357286 0.0902489 0.0896259 0.0348585 0.0880509 0.0874377 0.0341049 0.0861474 0.0855468 0.0952251 0.309797 0.300201 0.0855919 0.278457 0.269831 0.0771072 0.250854 0.243073 0.0697712 0.226987 0.219928 0.0635838 0.206858 0.200397 0.0582676 0.189563 0.183609 0.0535451 0.174199 0.168697 0.0494162 0.160766 0.15566 0.045881 0.149265 0.144499 0.0428173 0.139298 0.134825 0.040103 0.130468 0.126252 0.0377382 0.122774 0.118778 0.0357227 0.116217 0.112405 0.0339961 0.1106 0.106943 0.032498 0.105726 0.102204 0.0312282 0.101595 0.0981882 0.0301868 0.0982073 0.0948949 0.0293061 0.0953422 0.0921117 0.0285185 0.0927798 0.0896259 0.0278239 0.0905202 0.0874376 0.0272224 0.0885633 0.0855468 0.0710376 0.316221 0.300201 0.0638512 0.284231 0.269831 0.0575217 0.256055 0.243073 0.0520491 0.231694 0.219928 0.0474333 0.211147 0.200397 0.0434674 0.193493 0.183609 0.0399444 0.177811 0.168697 0.0368642 0.1641 0.15566 0.034227 0.15236 0.144499 0.0319415 0.142187 0.134825 0.0299167 0.133173 0.126252 0.0281525 0.12532 0.118778 0.026649 0.118627 0.112405 0.025361 0.112894 0.106943 0.0242433 0.107919 0.102204 0.0232961 0.103702 0.0981882 0.0225192 0.100244 0.0948949 0.0218622 0.0973192 0.0921117 0.0212746 0.0947036 0.0896259 0.0207565 0.0923972 0.0874376 0.0203078 0.0903997 0.0855468 0.0469688 0.32068 0.300201 0.0422173 0.288239 0.269831 0.0380323 0.259666 0.243073 0.0344139 0.234962 0.219928 0.031362 0.214125 0.200397 0.0287399 0.196222 0.183609 0.0264105 0.180318 0.168697 0.024374 0.166414 0.15566 0.0226303 0.154509 0.144499 0.0211191 0.144192 0.134825 0.0197804 0.135051 0.126252 0.0186139 0.127087 0.118778 0.0176198 0.1203 0.112405 0.0167682 0.114486 0.106943 0.0160292 0.109441 0.102204 0.0154029 0.105164 0.0981882 0.0148893 0.101657 0.0948949 0.0144549 0.0986916 0.0921117 0.0140664 0.0960392 0.0896259 0.0137238 0.0937002 0.0874376 0.0134271 0.0916746 0.0855468 0.0232282 0.323268 0.300201 0.0208784 0.290565 0.269831 0.0188087 0.261762 0.243073 0.0170193 0.236858 0.219928 0.01551 0.215853 0.200397 0.0142132 0.197806 0.183609 0.0130612 0.181774 0.168697 0.012054 0.167757 0.15566 0.0111917 0.155756 0.144499 0.0104444 0.145355 0.134825 0.00978229 0.136141 0.126252 0.00920543 0.128113 0.118778 0.0087138 0.121271 0.112405 0.00829263 0.11541 0.106943 0.00792718 0.110324 0.102204 0.00761744 0.106013 0.0981882 0.00736342 0.102478 0.0948949 0.00714859 0.0994881 0.0921117 0.00695647 0.0968143 0.0896259 0.00678705 0.0944564 0.0874377 0.00664033 0.0924144 0.0855469 0 0.324102 0.300201 0 0.291314 0.269831 0 0.262437 0.243073 0 0.237468 0.219928 0 0.216409 0.200397 0 0.198316 0.183609 0 0.182242 0.168697 0 0.16819 0.15566 0 0.156157 0.144499 0 0.14573 0.134825 0 0.136492 0.126252 0 0.128443 0.118778 0 0.121584 0.112405 0 0.115707 0.106943 0 0.110608 0.102204 0 0.106286 0.0981882 0 0.102742 0.0948949 0 0.0997446 0.0921117 0 0.0970639 0.0896259 0 0.0946999 0.0874377 0 0.0926527 0.0855469 0.312346 0 0.312433 0.280747 0 0.280831 0.252917 0 0.252987 0.228856 0 0.228901 0.208564 0 0.208574 0.191129 0 0.191102 0.175641 0 0.175582 0.1621 0 0.162014 0.150505 0 0.150399 0.140457 0 0.140331 0.131554 0 0.131408 0.123798 0 0.12363 0.117189 0 0.116995 0.111527 0 0.111309 0.106613 0 0.106374 0.102449 0 0.102192 0.0990326 0 0.0987605 0.0961429 0 0.0958612 0.093557 0 0.0932736 0.0912749 0 0.0909977 0.0892967 0 0.0890335 0.311543 0.0223857 0.312433 0.280025 0.020121 0.280831 0.252267 0.0181265 0.252987 0.228268 0.016402 0.228901 0.208027 0.0149477 0.208574 0.190638 0.0136981 0.191102 0.17519 0.0125881 0.175582 0.161683 0.0116176 0.162014 0.150118 0.0107866 0.150399 0.140095 0.0100664 0.140331 0.131216 0.00942841 0.131408 0.12348 0.00887254 0.12363 0.116887 0.00839882 0.116995 0.11124 0.00799302 0.111309 0.106339 0.00764087 0.106374 0.102185 0.00734239 0.102192 0.0987779 0.00709757 0.0987605 0.0958956 0.00689047 0.0958612 0.0933164 0.00670514 0.0932735 0.0910402 0.00654159 0.0909976 0.089067 0.00639981 0.0890334 0.309048 0.0452651 0.312433 0.277783 0.0406859 0.280831 0.250247 0.0366527 0.252987 0.22644 0.0331658 0.228901 0.206362 0.030225 0.208574 0.189112 0.0276984 0.191102 0.173787 0.0254539 0.175582 0.160389 0.0234914 0.162014 0.148916 0.0218111 0.150399 0.138974 0.0203549 0.140331 0.130166 0.0190648 0.131408 0.122492 0.0179408 0.12363 0.115952 0.0169829 0.116995 0.110349 0.0161623 0.111309 0.105488 0.0154503 0.106374 0.101367 0.0148467 0.102192 0.0979871 0.0143517 0.0987605 0.0951279 0.0139329 0.0958612 0.0925694 0.0135582 0.0932735 0.0903114 0.0132275 0.0909976 0.088354 0.0129408 0.0890334 0.304751 0.0684609 0.312433 0.27392 0.061535 0.280831 0.246767 0.0554352 0.252987 0.223291 0.0501614 0.228901 0.203492 0.0457136 0.208574 0.186482 0.0418923 0.191102 0.17137 0.0384975 0.175582 0.158158 0.0355295 0.162014 0.146845 0.0329881 0.150399 0.137041 0.0307856 0.140331 0.128356 0.0288344 0.131409 0.120788 0.0271344 0.12363 0.114339 0.0256857 0.116995 0.108815 0.0244446 0.111309 0.104021 0.0233677 0.106374 0.0999574 0.0224549 0.102192 0.0966245 0.0217061 0.0987605 0.0938051 0.0210728 0.0958612 0.0912821 0.020506 0.0932735 0.0890555 0.0200058 0.0909976 0.0871253 0.0195722 0.0890334 0.29856 0.0917711 0.312433 0.268356 0.082487 0.280831 0.241754 0.0743103 0.252987 0.218755 0.0672408 0.228901 0.199359 0.0612787 0.208574 0.182693 0.0561562 0.191102 0.167889 0.0516056 0.175582 0.154945 0.0476269 0.162014 0.143862 0.0442202 0.150399 0.134257 0.0412678 0.140332 0.125748 0.0386523 0.131409 0.118334 0.0363735 0.12363 0.112017 0.0344315 0.116995 0.106604 0.0327678 0.111309 0.101908 0.0313242 0.106374 0.0979268 0.0301006 0.102192 0.0946616 0.0290969 0.0987605 0.0918995 0.0282479 0.0958612 0.0894277 0.0274881 0.0932735 0.0872464 0.0268176 0.0909976 0.0853554 0.0262364 0.0890334 0.290415 0.114973 0.312433 0.261035 0.103342 0.280831 0.23516 0.0930977 0.252987 0.212788 0.0842409 0.228901 0.19392 0.0767714 0.208574 0.17771 0.0703538 0.191102 0.163309 0.0646527 0.175582 0.150719 0.0596682 0.162014 0.139938 0.0554002 0.150399 0.130595 0.0517014 0.140332 0.122318 0.0484245 0.131409 0.115106 0.0455696 0.12363 0.108961 0.0431366 0.116995 0.103696 0.0410524 0.111309 0.0991278 0.0392437 0.106374 0.0952555 0.0377107 0.102192 0.0920794 0.0364533 0.0987605 0.0893925 0.0353896 0.0958612 0.0869882 0.0344378 0.0932736 0.0848664 0.0335978 0.0909976 0.083027 0.0328696 0.0890334 0.280291 0.137828 0.312433 0.251936 0.123885 0.280831 0.226962 0.111604 0.252987 0.20537 0.100987 0.228901 0.18716 0.0920326 0.208574 0.171515 0.0843393 0.191102 0.157616 0.0775049 0.175582 0.145465 0.0715295 0.162014 0.13506 0.066413 0.150399 0.126042 0.061979 0.140332 0.118054 0.0580507 0.131409 0.111094 0.0546283 0.12363 0.105163 0.0517116 0.116995 0.100081 0.0492131 0.111309 0.0956722 0.0470449 0.106374 0.0919349 0.0452072 0.102192 0.0888695 0.0436998 0.0987605 0.0862763 0.0424247 0.0958612 0.0839558 0.0412836 0.0932736 0.0819079 0.0402766 0.0909976 0.0801327 0.0394037 0.0890334 0.2682 0.160089 0.312433 0.241068 0.143894 0.280831 0.217171 0.12963 0.252987 0.196511 0.117298 0.228901 0.179087 0.106897 0.208574 0.164116 0.0979611 0.191102 0.150817 0.0900229 0.175582 0.13919 0.0830824 0.162014 0.129233 0.0771396 0.150399 0.120605 0.0719894 0.140332 0.112961 0.0674267 0.131409 0.106302 0.0634515 0.12363 0.100626 0.0600637 0.116996 0.0957641 0.0571616 0.111309 0.0915451 0.0546433 0.106374 0.087969 0.0525087 0.102192 0.0850358 0.0507579 0.0987605 0.0825545 0.0492768 0.0958612 0.0803341 0.0479515 0.0932736 0.0783746 0.0467818 0.0909977 0.0766759 0.0457679 0.0890335 0.254195 0.181507 0.312433 0.228479 0.163145 0.280831 0.205831 0.146973 0.252987 0.186249 0.13299 0.228902 0.169735 0.121198 0.208574 0.155546 0.111067 0.191102 0.142942 0.102067 0.175582 0.131921 0.0941977 0.162014 0.122485 0.0874599 0.150399 0.114307 0.0816206 0.140332 0.107063 0.0764475 0.131409 0.100751 0.0719405 0.12363 0.0953714 0.0680995 0.116996 0.0907634 0.0648092 0.111309 0.0867647 0.0619539 0.106374 0.0833754 0.0595337 0.102192 0.0805953 0.0575487 0.0987605 0.0782436 0.0558695 0.0958612 0.0761392 0.0543668 0.0932736 0.0742819 0.0530406 0.0909977 0.072672 0.051891 0.0890335 0.238371 0.20184 0.312433 0.214256 0.181421 0.280831 0.193017 0.163437 0.252987 0.174655 0.147888 0.228902 0.159168 0.134775 0.208574 0.145863 0.123509 0.191102 0.134043 0.113501 0.175582 0.123709 0.10475 0.162014 0.11486 0.0972574 0.150399 0.107191 0.0907641 0.140332 0.100398 0.0850114 0.131409 0.0944786 0.0799995 0.12363 0.0894343 0.0757283 0.116996 0.0851131 0.0720693 0.111309 0.0813633 0.0688942 0.106375 0.078185 0.0662029 0.102192 0.075578 0.0639955 0.0987606 0.0733727 0.0621281 0.0958612 0.0713993 0.0604571 0.0932736 0.0696577 0.0589824 0.0909977 0.0681479 0.0577041 0.0890335 0.220862 0.220862 0.312433 0.198518 0.198518 0.280831 0.17884 0.17884 0.252987 0.161826 0.161826 0.228902 0.147477 0.147477 0.208574 0.135149 0.135149 0.191102 0.124197 0.124197 0.175582 0.114622 0.114622 0.162014 0.106423 0.106423 0.150399 0.099318 0.099318 0.140332 0.0930232 0.0930232 0.131409 0.0875389 0.0875389 0.12363 0.0828651 0.0828651 0.116996 0.0788614 0.0788614 0.111309 0.075387 0.075387 0.106375 0.0724421 0.0724421 0.102192 0.0700266 0.0700266 0.0987606 0.0679833 0.0679833 0.0958612 0.0661548 0.0661548 0.0932736 0.0645411 0.0645411 0.0909977 0.0631423 0.0631423 0.0890335 0.20184 0.238371 0.312433 0.181421 0.214256 0.280831 0.163437 0.193017 0.252987 0.147888 0.174655 0.228902 0.134775 0.159168 0.208574 0.123509 0.145863 0.191102 0.113501 0.134043 0.175582 0.10475 0.123709 0.162014 0.0972574 0.11486 0.150399 0.0907641 0.107191 0.140332 0.0850114 0.100398 0.131409 0.0799995 0.0944786 0.12363 0.0757283 0.0894343 0.116996 0.0720693 0.0851131 0.111309 0.0688942 0.0813633 0.106375 0.0662029 0.078185 0.102192 0.0639955 0.075578 0.0987606 0.0621281 0.0733727 0.0958612 0.0604571 0.0713993 0.0932736 0.0589824 0.0696577 0.0909977 0.0577041 0.0681479 0.0890335 0.181507 0.254195 0.312433 0.163145 0.228479 0.280831 0.146973 0.205831 0.252987 0.13299 0.186249 0.228902 0.121198 0.169735 0.208574 0.111067 0.155546 0.191102 0.102067 0.142942 0.175582 0.0941977 0.131921 0.162014 0.0874599 0.122485 0.150399 0.0816206 0.114307 0.140332 0.0764475 0.107063 0.131409 0.0719405 0.100751 0.12363 0.0680995 0.0953714 0.116996 0.0648092 0.0907634 0.111309 0.0619539 0.0867647 0.106374 0.0595337 0.0833754 0.102192 0.0575487 0.0805953 0.0987605 0.0558695 0.0782436 0.0958612 0.0543668 0.0761392 0.0932736 0.0530406 0.0742819 0.0909977 0.051891 0.072672 0.0890335 0.160089 0.2682 0.312433 0.143894 0.241068 0.280831 0.12963 0.217171 0.252987 0.117298 0.196511 0.228901 0.106897 0.179087 0.208574 0.0979611 0.164116 0.191102 0.0900229 0.150817 0.175582 0.0830824 0.13919 0.162014 0.0771396 0.129233 0.150399 0.0719894 0.120605 0.140332 0.0674267 0.112961 0.131409 0.0634515 0.106302 0.12363 0.0600637 0.100626 0.116996 0.0571616 0.0957641 0.111309 0.0546433 0.0915451 0.106374 0.0525087 0.087969 0.102192 0.0507579 0.0850358 0.0987605 0.0492768 0.0825545 0.0958612 0.0479515 0.0803341 0.0932736 0.0467818 0.0783746 0.0909977 0.0457679 0.0766759 0.0890335 0.137828 0.280291 0.312433 0.123885 0.251936 0.280831 0.111604 0.226962 0.252987 0.100987 0.20537 0.228901 0.0920326 0.18716 0.208574 0.0843393 0.171515 0.191102 0.0775049 0.157616 0.175582 0.0715295 0.145465 0.162014 0.066413 0.13506 0.150399 0.061979 0.126042 0.140332 0.0580507 0.118054 0.131409 0.0546283 0.111094 0.12363 0.0517116 0.105163 0.116995 0.0492131 0.100081 0.111309 0.0470449 0.0956722 0.106374 0.0452072 0.0919349 0.102192 0.0436998 0.0888695 0.0987605 0.0424247 0.0862763 0.0958612 0.0412836 0.0839558 0.0932736 0.0402766 0.0819079 0.0909976 0.0394037 0.0801327 0.0890334 0.114973 0.290415 0.312433 0.103342 0.261035 0.280831 0.0930977 0.23516 0.252987 0.0842409 0.212788 0.228901 0.0767714 0.19392 0.208574 0.0703538 0.17771 0.191102 0.0646527 0.163309 0.175582 0.0596682 0.150719 0.162014 0.0554002 0.139938 0.150399 0.0517014 0.130595 0.140332 0.0484245 0.122318 0.131409 0.0455696 0.115106 0.12363 0.0431366 0.108961 0.116995 0.0410524 0.103696 0.111309 0.0392437 0.0991278 0.106374 0.0377107 0.0952555 0.102192 0.0364533 0.0920794 0.0987605 0.0353896 0.0893925 0.0958612 0.0344378 0.0869882 0.0932736 0.0335978 0.0848664 0.0909976 0.0328696 0.083027 0.0890334 0.0917711 0.29856 0.312433 0.082487 0.268356 0.280831 0.0743103 0.241754 0.252987 0.0672408 0.218755 0.228901 0.0612787 0.199359 0.208574 0.0561562 0.182693 0.191102 0.0516056 0.167889 0.175582 0.0476269 0.154945 0.162014 0.0442202 0.143862 0.150399 0.0412678 0.134257 0.140332 0.0386523 0.125748 0.131409 0.0363735 0.118334 0.12363 0.0344315 0.112017 0.116995 0.0327678 0.106604 0.111309 0.0313242 0.101908 0.106374 0.0301006 0.0979268 0.102192 0.0290969 0.0946616 0.0987605 0.0282479 0.0918995 0.0958612 0.0274881 0.0894277 0.0932735 0.0268176 0.0872464 0.0909976 0.0262364 0.0853554 0.0890334 0.0684609 0.304751 0.312433 0.061535 0.27392 0.280831 0.0554352 0.246767 0.252987 0.0501614 0.223291 0.228901 0.0457136 0.203492 0.208574 0.0418923 0.186482 0.191102 0.0384975 0.17137 0.175582 0.0355295 0.158158 0.162014 0.0329881 0.146845 0.150399 0.0307856 0.137041 0.140331 0.0288344 0.128356 0.131409 0.0271344 0.120788 0.12363 0.0256857 0.114339 0.116995 0.0244446 0.108815 0.111309 0.0233677 0.104021 0.106374 0.0224549 0.0999574 0.102192 0.0217061 0.0966245 0.0987605 0.0210728 0.0938051 0.0958612 0.020506 0.0912821 0.0932735 0.0200058 0.0890555 0.0909976 0.0195722 0.0871253 0.0890334 0.0452651 0.309048 0.312433 0.0406859 0.277783 0.280831 0.0366527 0.250247 0.252987 0.0331658 0.22644 0.228901 0.030225 0.206362 0.208574 0.0276984 0.189112 0.191102 0.0254539 0.173787 0.175582 0.0234914 0.160389 0.162014 0.0218111 0.148916 0.150399 0.0203549 0.138974 0.140331 0.0190648 0.130166 0.131408 0.0179408 0.122492 0.12363 0.0169829 0.115952 0.116995 0.0161623 0.110349 0.111309 0.0154503 0.105488 0.106374 0.0148467 0.101367 0.102192 0.0143517 0.0979871 0.0987605 0.0139329 0.0951279 0.0958612 0.0135582 0.0925694 0.0932735 0.0132275 0.0903114 0.0909976 0.0129408 0.088354 0.0890334 0.0223857 0.311543 0.312433 0.020121 0.280025 0.280831 0.0181265 0.252267 0.252987 0.016402 0.228268 0.228901 0.0149477 0.208027 0.208574 0.0136981 0.190638 0.191102 0.0125881 0.17519 0.175582 0.0116176 0.161683 0.162014 0.0107866 0.150118 0.150399 0.0100664 0.140095 0.140331 0.00942841 0.131216 0.131408 0.00887254 0.12348 0.12363 0.00839882 0.116887 0.116995 0.00799302 0.11124 0.111309 0.00764087 0.106339 0.106374 0.00734239 0.102185 0.102192 0.00709757 0.0987779 0.0987605 0.00689047 0.0958956 0.0958612 0.00670514 0.0933164 0.0932735 0.00654159 0.0910402 0.0909976 0.00639981 0.089067 0.0890334 0 0.312346 0.312433 0 0.280747 0.280831 0 0.252917 0.252987 0 0.228856 0.228901 0 0.208564 0.208574 0 0.191129 0.191102 0 0.175641 0.175582 0 0.1621 0.162014 0 0.150505 0.150399 0 0.140457 0.140331 0 0.131554 0.131408 0 0.123798 0.12363 0 0.117189 0.116995 0 0.111527 0.111309 0 0.106613 0.106374 0 0.102449 0.102192 0 0.0990326 0.0987605 0 0.0961429 0.0958612 0 0.093557 0.0932736 0 0.0912749 0.0909977 0 0.0892967 0.0890335 </DataArray> 
</PointData> 
<Points> 
<DataArray type="Float32" NumberOfComponents="3"> 
100 0 0 105 0 0 110 0 0 115 0 0 120 0 0 125 0 0 130 0 0 135 0 0 140 0 0 145 0 0 150 0 0 155 0 0 160 0 0 165 0 0 170 0 0 175 0 0 180 0 0 185 0 0 190 0 0 195 0 0 200 0 0 99.7428 7.16693 0 104.73 7.52528 0 109.717 7.88363 0 114.704 8.24197 0 119.691 8.60032 0 124.679 8.95867 0 129.666 9.31701 0 134.653 9.67536 0 139.64 10.0337 0 144.627 10.3921 0 149.614 10.7504 0 154.601 11.1087 0 159.589 11.4671 0 164.576 11.8254 0 169.563 12.1838 0 174.55 12.5421 0 179.537 12.9005 0 184.524 13.2588 0 189.511 13.6172 0 194.499 13.9755 0 199.486 14.3339 0 98.9443 14.4919 0 103.892 15.2165 0 108.839 15.9411 0 113.786 16.6657 0 118.733 17.3903 0 123.68 18.1149 0 128.628 18.8395 0 133.575 19.5641 0 138.522 20.2887 0 143.469 21.0133 0 148.417 21.7379 0 153.364 22.4625 0 158.311 23.1871 0 163.258 23.9117 0 168.205 24.6363 0 173.153 25.3609 0 178.1 26.0855 0 183.047 26.8101 0 187.994 27.5347 0 192.941 28.2593 0 197.889 28.9839 0 97.5684 21.9182 0 102.447 23.0142 0 107.325 24.1101 0 112.204 25.206 0 117.082 26.3019 0 121.96 27.3978 0 126.839 28.4937 0 131.717 29.5896 0 136.596 30.6855 0 141.474 31.7815 0 146.353 32.8774 0 151.231 33.9733 0 156.109 35.0692 0 160.988 36.1651 0 165.866 37.261 0 170.745 38.3569 0 175.623 39.4528 0 180.502 40.5488 0 185.38 41.6447 0 190.258 42.7406 0 195.137 43.8365 0 95.5863 29.3812 0 100.366 30.8503 0 105.145 32.3193 0 109.924 33.7884 0 114.704 35.2574 0 119.483 36.7265 0 124.262 38.1956 0 129.042 39.6646 0 133.821 41.1337 0 138.6 42.6027 0 143.379 44.0718 0 148.159 45.5409 0 152.938 47.0099 0 157.717 48.479 0 162.497 49.948 0 167.276 51.4171 0 172.055 52.8861 0 176.835 54.3552 0 181.614 55.8243 0 186.393 57.2933 0 191.173 58.7624 0 92.9788 36.8095 0 97.6278 38.6499 0 102.277 40.4904 0 106.926 42.3309 0 111.575 44.1714 0 116.224 46.0118 0 120.872 47.8523 0 125.521 49.6928 0 130.17 51.5333 0 134.819 53.3737 0 139.468 55.2142 0 144.117 57.0547 0 148.766 58.8952 0 153.415 60.7356 0 158.064 62.5761 0 162.713 64.4166 0 167.362 66.257 0 172.011 68.0975 0 176.66 69.938 0 181.309 71.7785 0 185.958 73.6189 0 89.7376 44.1267 0 94.2244 46.3331 0 98.7113 48.5394 0 103.198 50.7458 0 107.685 52.9521 0 112.172 55.1584 0 116.659 57.3648 0 121.146 59.5711 0 125.633 61.7774 0 130.119 63.9838 0 134.606 66.1901 0 139.093 68.3965 0 143.58 70.6028 0 148.067 72.8091 0 152.554 75.0155 0 157.041 77.2218 0 161.528 79.4281 0 166.014 81.6345 0 170.501 83.8408 0 174.988 86.0471 0 179.475 88.2535 0 85.8665 51.2538 0 90.1598 53.8165 0 94.4531 56.3791 0 98.7464 58.9418 0 103.04 61.5045 0 107.333 64.0672 0 111.626 66.6299 0 115.92 69.1926 0 120.213 71.7553 0 124.506 74.318 0 128.8 76.8806 0 133.093 79.4433 0 137.386 82.006 0 141.68 84.5687 0 145.973 87.1314 0 150.266 89.6941 0 154.56 92.2568 0 158.853 94.8195 0 163.146 97.3822 0 167.44 99.9448 0 171.733 102.508 0 81.3826 58.1109 0 85.4517 61.0164 0 89.5209 63.9219 0 93.59 66.8275 0 97.6591 69.733 0 101.728 72.6386 0 105.797 75.5441 0 109.867 78.4497 0 113.936 81.3552 0 118.005 84.2607 0 122.074 87.1663 0 126.143 90.0718 0 130.212 92.9774 0 134.281 95.8829 0 138.35 98.7885 0 142.42 101.694 0 146.489 104.6 0 150.558 107.505 0 154.627 110.411 0 158.696 113.316 0 162.765 116.222 0 76.3163 64.6206 0 80.1321 67.8517 0 83.9479 71.0827 0 87.7637 74.3137 0 91.5795 77.5447 0 95.3954 80.7758 0 99.2112 84.0068 0 103.027 87.2378 0 106.843 90.4689 0 110.659 93.6999 0 114.474 96.9309 0 118.29 100.162 0 122.106 103.393 0 125.922 106.624 0 129.738 109.855 0 133.553 113.086 0 137.369 116.317 0 141.185 119.548 0 145.001 122.779 0 148.817 126.01 0 152.633 129.241 0 70.7107 70.7107 0 74.2462 74.2462 0 77.7817 77.7817 0 81.3173 81.3173 0 84.8528 84.8528 0 88.3883 88.3883 0 91.9239 91.9239 0 95.4594 95.4594 0 98.9949 98.9949 0 102.53 102.53 0 106.066 106.066 0 109.602 109.602 0 113.137 113.137 0 116.673 116.673 0 120.208 120.208 0 123.744 123.744 0 127.279 127.279 0 130.815 130.815 0 134.35 134.35 0 137.886 137.886 0 141.421 141.421 0 64.6206 76.3163 0 67.8517 80.1321 0 71.0827 83.9479 0 74.3137 87.7637 0 77.5447 91.5795 0 80.7758 95.3954 0 84.0068 99.2112 0 87.2378 103.027 0 90.4689 106.843 0 93.6999 110.659 0 96.9309 114.474 0 100.162 118.29 0 103.393 122.106 0 106.624 125.922 0 109.855 129.738 0 113.086 133.553 0 116.317 137.369 0 119.548 141.185 0 122.779 145.001 0 126.01 148.817 0 129.241 152.633 0 58.1109 81.3826 0 61.0164 85.4517 0 63.9219 89.5209 0 66.8275 93.59 0 69.733 97.6591 0 72.6386 101.728 0 75.5441 105.797 0 78.4497 109.867 0 81.3552 113.936 0 84.2607 118.005 0 87.1663 122.074 0 90.0718 126.143 0 92.9774 130.212 0 95.8829 134.281 0 98.7885 138.35 0 101.694 142.42 0 104.6 146.489 0 107.505 150.558 0 110.411 154.627 0 113.316 158.696 0 116.222 162.765 0 51.2538 85.8665 0 53.8165 90.1598 0 56.3791 94.4531 0 58.9418 98.7464 0 61.5045 103.04 0 64.0672 107.333 0 66.6299 111.626 0 69.1926 115.92 0 71.7553 120.213 0 74.318 124.506 0 76.8806 128.8 0 79.4433 133.093 0 82.006 137.386 0 84.5687 141.68 0 87.1314 145.973 0 89.6941 150.266 0 92.2568 154.56 0 94.8195 158.853 0 97.3822 163.146 0 99.9448 167.44 0 102.508 171.733 0 44.1267 89.7376 0 46.3331 94.2244 0 48.5394 98.7113 0 50.7458 103.198 0 52.9521 107.685 0 55.1584 112.172 0 57.3648 116.659 0 59.5711 121.146 0 61.7774 125.633 0 63.9838 130.119 0 66.1901 134.606 0 68.3965 139.093 0 70.6028 143.58 0 72.8091 148.067 0 75.0155 152.554 0 77.2218 157.041 0 79.4281 161.528 0 81.6345 166.014 0 83.8408 170.501 0 86.0471 174.988 0 88.2535 179.475 0 36.8095 92.9788 0 38.6499 97.6278 0 40.4904 102.277 0 42.3309 106.926 0 44.1714 111.575 0 46.0118 116.224 0 47.8523 120.872 0 49.6928 125.521 0 51.5333 130.17 0 53.3737 134.819 0 55.2142 139.468 0 57.0547 144.117 0 58.8952 148.766 0 60.7356 153.415 0 62.5761 158.064 0 64.4166 162.713 0 66.257 167.362 0 68.0975 172.011 0 69.938 176.66 0 71.7785 181.309 0 73.6189 185.958 0 29.3812 95.5863 0 30.8503 100.366 0 32.3193 105.145 0 33.7884 109.924 0 35.2574 114.704 0 36.7265 119.483 0 38.1956 124.262 0 39.6646 129.042 0 41.1337 133.821 0 42.6027 138.6 0 44.0718 143.379 0 45.5409 148.159 0 47.0099 152.938 0 48.479 157.717 0 49.948 162.497 0 51.4171 167.276 0 52.8861 172.055 0 54.3552 176.835 0 55.8243 181.614 0 57.2933 186.393 0 58.7624 191.173 0 21.9182 97.5684 0 23.0142 102.447 0 24.1101 107.325 0 25.206 112.204 0 26.3019 117.082 0 27.3978 121.96 0 28.4937 126.839 0 29.5896 131.717 0 30.6855 136.596 0 31.7815 141.474 0 32.8774 146.353 0 33.9733 151.231 0 35.0692 156.109 0 36.1651 160.988 0 37.261 165.866 0 38.3569 170.745 0 39.4528 175.623 0 40.5488 180.502 0 41.6447 185.38 0 42.7406 190.258 0 43.8365 195.137 0 14.4919 98.9443 0 15.2165 103.892 0 15.9411 108.839 0 16.6657 113.786 0 17.3903 118.733 0 18.1149 123.68 0 18.8395 128.628 0 19.5641 133.575 0 20.2887 138.522 0 21.0133 143.469 0 21.7379 148.417 0 22.4625 153.364 0 23.1871 158.311 0 23.9117 163.258 0 24.6363 168.205 0 25.3609 173.153 0 26.0855 178.1 0 26.8101 183.047 0 27.5347 187.994 0 28.2593 192.941 0 28.9839 197.889 0 7.16693 99.7428 0 7.52528 104.73 0 7.88363 109.717 0 8.24197 114.704 0 8.60032 119.691 0 8.95867 124.679 0 9.31701 129.666 0 9.67536 134.653 0 10.0337 139.64 0 10.3921 144.627 0 10.7504 149.614 0 11.1087 154.601 0 11.4671 159.589 0 11.8254 164.576 0 12.1838 169.563 0 12.5421 174.55 0 12.9005 179.537 0 13.2588 184.524 0 13.6172 189.511 0 13.9755 194.499 0 14.3339 199.486 0 0 100 0 0 105 0 0 110 0 0 115 0 0 120 0 0 125 0 0 130 0 0 135 0 0 140 0 0 145 0 0 150 0 0 155 0 0 160 0 0 165 0 0 170 0 0 175 0 0 180 0 0 185 0 0 190 0 0 195 0 0 200 0 99.9262 0 3.84004 104.923 0 4.03204 109.919 0 4.22404 114.915 0 4.41604 119.911 0 4.60805 124.908 0 4.80005 129.904 0 4.99205 134.9 0 5.18405 139.897 0 5.37605 144.893 0 5.56806 149.889 0 5.76006 154.886 0 5.95206 159.882 0 6.14406 164.878 0 6.33606 169.875 0 6.52807 174.871 0 6.72007 179.867 0 6.91207 184.864 0 7.10407 189.86 0 7.29607 194.856 0 7.48807 199.852 0 7.68008 99.6693 7.16165 3.84004 104.653 7.51973 4.03204 109.636 7.87781 4.22404 114.62 8.23589 4.41604 119.603 8.59398 4.60805 124.587 8.95206 4.80005 129.57 9.31014 4.99205 134.554 9.66822 5.18405 139.537 10.0263 5.37605 144.52 10.3844 5.56806 149.504 10.7425 5.76006 154.487 11.1006 5.95206 159.471 11.4586 6.14406 164.454 11.8167 6.33606 169.438 12.1748 6.52807 174.421 12.5329 6.72007 179.405 12.891 6.91207 184.388 13.249 7.10407 189.372 13.6071 7.29607 194.355 13.9652 7.48807 199.339 14.3233 7.68008 98.8714 14.4813 3.84004 103.815 15.2053 4.03204 108.759 15.9294 4.22404 113.702 16.6534 4.41604 118.646 17.3775 4.60805 123.589 18.1016 4.80005 128.533 18.8256 4.99205 133.476 19.5497 5.18405 138.42 20.2738 5.37605 143.363 20.9978 5.56806 148.307 21.7219 5.76006 153.251 22.446 5.95206 158.194 23.17 6.14406 163.138 23.8941 6.33606 168.081 24.6181 6.52807 173.025 25.3422 6.72007 177.968 26.0663 6.91207 182.912 26.7903 7.10407 187.856 27.5144 7.29607 192.799 28.2385 7.48807 197.743 28.9625 7.68008 97.4964 21.9021 3.84004 102.371 22.9972 4.03204 107.246 24.0923 4.22404 112.121 25.1874 4.41604 116.996 26.2825 4.60805 121.871 27.3776 4.80005 126.745 28.4727 4.99205 131.62 29.5678 5.18405 136.495 30.6629 5.37605 141.37 31.758 5.56806 146.245 32.8531 5.76006 151.119 33.9482 5.95206 155.994 35.0433 6.14406 160.869 36.1384 6.33606 165.744 37.2335 6.52807 170.619 38.3286 6.72007 175.494 39.4237 6.91207 180.368 40.5189 7.10407 185.243 41.614 7.29607 190.118 42.7091 7.48807 194.993 43.8042 7.68008 95.5158 29.3595 3.84004 100.292 30.8275 4.03204 105.067 32.2955 4.22404 109.843 33.7635 4.41604 114.619 35.2314 4.60805 119.395 36.6994 4.80005 124.171 38.1674 4.99205 128.946 39.6354 5.18405 133.722 41.1033 5.37605 138.498 42.5713 5.56806 143.274 44.0393 5.76006 148.05 45.5073 5.95206 152.825 46.9752 6.14406 157.601 48.4432 6.33606 162.377 49.9112 6.52807 167.153 51.3792 6.72007 171.928 52.8471 6.91207 176.704 54.3151 7.10407 181.48 55.7831 7.29607 186.256 57.2511 7.48807 191.032 58.719 7.68008 92.9103 36.7823 3.84004 97.5558 38.6214 4.03204 102.201 40.4606 4.22404 106.847 42.2997 4.41604 111.492 44.1388 4.60805 116.138 45.9779 4.80005 120.783 47.817 4.99205 125.429 49.6561 5.18405 130.074 51.4952 5.37605 134.72 53.3344 5.56806 139.365 55.1735 5.76006 144.011 57.0126 5.95206 148.656 58.8517 6.14406 153.302 60.6908 6.33606 157.947 62.5299 6.52807 162.593 64.3691 6.72007 167.238 66.2082 6.91207 171.884 68.0473 7.10407 176.529 69.8864 7.29607 181.175 71.7255 7.48807 185.821 73.5646 7.68008 89.6714 44.0942 3.84004 94.1549 46.2989 4.03204 98.6385 48.5036 4.22404 103.122 50.7083 4.41604 107.606 52.913 4.60805 112.089 55.1177 4.80005 116.573 57.3225 4.99205 121.056 59.5272 5.18405 125.54 61.7319 5.37605 130.023 63.9366 5.56806 134.507 66.1413 5.76006 138.991 68.346 5.95206 143.474 70.5507 6.14406 147.958 72.7554 6.33606 152.441 74.9601 6.52807 156.925 77.1648 6.72007 161.408 79.3696 6.91207 165.892 81.5743 7.10407 170.376 83.779 7.29607 174.859 85.9837 7.48807 179.343 88.1884 7.68008 85.8031 51.216 3.84004 90.0933 53.7768 4.03204 94.3835 56.3376 4.22404 98.6736 58.8984 4.41604 102.964 61.4592 4.60805 107.254 64.02 4.80005 111.544 66.5807 4.99205 115.834 69.1415 5.18405 120.124 71.7023 5.37605 124.415 74.2631 5.56806 128.705 76.8239 5.76006 132.995 79.3847 5.95206 137.285 81.9455 6.14406 141.575 84.5063 6.33606 145.865 87.0671 6.52807 150.156 89.6279 6.72007 154.446 92.1887 6.91207 158.736 94.7495 7.10407 163.026 97.3103 7.29607 167.316 99.8711 7.48807 171.606 102.432 7.68008 81.3226 58.068 3.84004 85.3887 60.9714 4.03204 89.4548 63.8748 4.22404 93.521 66.7782 4.41604 97.5871 69.6816 4.60805 101.653 72.585 4.80005 105.719 75.4884 4.99205 109.785 78.3918 5.18405 113.852 81.2952 5.37605 117.918 84.1986 5.56806 121.984 87.102 5.76006 126.05 90.0054 5.95206 130.116 92.9088 6.14406 134.182 95.8122 6.33606 138.248 98.7156 6.52807 142.315 101.619 6.72007 146.381 104.522 6.91207 150.447 107.426 7.10407 154.513 110.329 7.29607 158.579 113.233 7.48807 162.645 116.136 7.68008 76.26 64.573 3.84004 80.073 67.8016 4.03204 83.886 71.0303 4.22404 87.699 74.2589 4.41604 91.512 77.4876 4.60805 95.325 80.7162 4.80005 99.138 83.9448 4.99205 102.951 87.1735 5.18405 106.764 90.4021 5.37605 110.577 93.6308 5.56806 114.39 96.8594 5.76006 118.203 100.088 5.95206 122.016 103.317 6.14406 125.829 106.545 6.33606 129.642 109.774 6.52807 133.455 113.003 6.72007 137.268 116.231 6.91207 141.081 119.46 7.10407 144.894 122.689 7.29607 148.707 125.917 7.48807 152.52 129.146 7.68008 70.6585 70.6585 3.84004 74.1914 74.1914 4.03204 77.7244 77.7244 4.22404 81.2573 81.2573 4.41604 84.7902 84.7902 4.60805 88.3232 88.3232 4.80005 91.8561 91.8561 4.99205 95.389 95.389 5.18405 98.9219 98.9219 5.37605 102.455 102.455 5.56806 105.988 105.988 5.76006 109.521 109.521 5.95206 113.054 113.054 6.14406 116.587 116.587 6.33606 120.119 120.119 6.52807 123.652 123.652 6.72007 127.185 127.185 6.91207 130.718 130.718 7.10407 134.251 134.251 7.29607 137.784 137.784 7.48807 141.317 141.317 7.68008 64.573 76.26 3.84004 67.8016 80.073 4.03204 71.0303 83.886 4.22404 74.2589 87.699 4.41604 77.4876 91.512 4.60805 80.7162 95.325 4.80005 83.9448 99.138 4.99205 87.1735 102.951 5.18405 90.4021 106.764 5.37605 93.6308 110.577 5.56806 96.8594 114.39 5.76006 100.088 118.203 5.95206 103.317 122.016 6.14406 106.545 125.829 6.33606 109.774 129.642 6.52807 113.003 133.455 6.72007 116.231 137.268 6.91207 119.46 141.081 7.10407 122.689 144.894 7.29607 125.917 148.707 7.48807 129.146 152.52 7.68008 58.068 81.3226 3.84004 60.9714 85.3887 4.03204 63.8748 89.4548 4.22404 66.7782 93.521 4.41604 69.6816 97.5871 4.60805 72.585 101.653 4.80005 75.4884 105.719 4.99205 78.3918 109.785 5.18405 81.2952 113.852 5.37605 84.1986 117.918 5.56806 87.102 121.984 5.76006 90.0054 126.05 5.95206 92.9088 130.116 6.14406 95.8122 134.182 6.33606 98.7156 138.248 6.52807 101.619 142.315 6.72007 104.522 146.381 6.91207 107.426 150.447 7.10407 110.329 154.513 7.29607 113.233 158.579 7.48807 116.136 162.645 7.68008 51.216 85.8031 3.84004 53.7768 90.0933 4.03204 56.3376 94.3835 4.22404 58.8984 98.6736 4.41604 61.4592 102.964 4.60805 64.02 107.254 4.80005 66.5807 111.544 4.99205 69.1415 115.834 5.18405 71.7023 120.124 5.37605 74.2631 124.415 5.56806 76.8239 128.705 5.76006 79.3847 132.995 5.95206 81.9455 137.285 6.14406 84.5063 141.575 6.33606 87.0671 145.865 6.52807 89.6279 150.156 6.72007 92.1887 154.446 6.91207 94.7495 158.736 7.10407 97.3103 163.026 7.29607 99.8711 167.316 7.48807 102.432 171.606 7.68008 44.0942 89.6714 3.84004 46.2989 94.1549 4.03204 48.5036 98.6385 4.22404 50.7083 103.122 4.41604 52.913 107.606 4.60805 55.1177 112.089 4.80005 57.3225 116.573 4.99205 59.5272 121.056 5.18405 61.7319 125.54 5.37605 63.9366 130.023 5.56806 66.1413 134.507 5.76006 68.346 138.991 5.95206 70.5507 143.474 6.14406 72.7554 147.958 6.33606 74.9601 152.441 6.52807 77.1648 156.925 6.72007 79.3696 161.408 6.91207 81.5743 165.892 7.10407 83.779 170.376 7.29607 85.9837 174.859 7.48807 88.1884 179.343 7.68008 36.7823 92.9103 3.84004 38.6214 97.5558 4.03204 40.4606 102.201 4.22404 42.2997 106.847 4.41604 44.1388 111.492 4.60805 45.9779 116.138 4.80005 47.817 120.783 4.99205 49.6561 125.429 5.18405 51.4952 130.074 5.37605 53.3344 134.72 5.56806 55.1735 139.365 5.76006 57.0126 144.011 5.95206 58.8517 148.656 6.14406 60.6908 153.302 6.33606 62.5299 157.947 6.52807 64.3691 162.593 6.72007 66.2082 167.238 6.91207 68.0473 171.884 7.10407 69.8864 176.529 7.29607 71.7255 181.175 7.48807 73.5646 185.821 7.68008 29.3595 95.5158 3.84004 30.8275 100.292 4.03204 32.2955 105.067 4.22404 33.7635 109.843 4.41604 35.2314 114.619 4.60805 36.6994 119.395 4.80005 38.1674 124.171 4.99205 39.6354 128.946 5.18405 41.1033 133.722 5.37605 42.5713 138.498 5.56806 44.0393 143.274 5.76006 45.5073 148.05 5.95206 46.9752 152.825 6.14406 48.4432 157.601 6.33606 49.9112 162.377 6.52807 51.3792 167.153 6.72007 52.8471 171.928 6.91207 54.3151 176.704 7.10407 55.7831 181.48 7.29607 57.2511 186.256 7.48807 58.719 191.032 7.68008 21.9021 97.4964 3.84004 22.9972 102.371 4.03204 24.0923 107.246 4.22404 25.1874 112.121 4.41604 26.2825 116.996 4.60805 27.3776 121.871 4.80005 28.4727 126.745 4.99205 29.5678 131.62 5.18405 30.6629 136.495 5.37605 31.758 141.37 5.56806 32.8531 146.245 5.76006 33.9482 151.119 5.95206 35.0433 155.994 6.14406 36.1384 160.869 6.33606 37.2335 165.744 6.52807 38.3286 170.619 6.72007 39.4237 175.494 6.91207 40.5189 180.368 7.10407 41.614 185.243 7.29607 42.7091 190.118 7.48807 43.8042 194.993 7.68008 14.4813 98.8714 3.84004 15.2053 103.815 4.03204 15.9294 108.759 4.22404 16.6534 113.702 4.41604 17.3775 118.646 4.60805 18.1016 123.589 4.80005 18.8256 128.533 4.99205 19.5497 133.476 5.18405 20.2738 138.42 5.37605 20.9978 143.363 5.56806 21.7219 148.307 5.76006 22.446 153.251 5.95206 23.17 158.194 6.14406 23.8941 163.138 6.33606 24.6181 168.081 6.52807 25.3422 173.025 6.72007 26.0663 177.968 6.91207 26.7903 182.912 7.10407 27.5144 187.856 7.29607 28.2385 192.799 7.48807 28.9625 197.743 7.68008 7.16165 99.6693 3.84004 7.51973 104.653 4.03204 7.87781 109.636 4.22404 8.23589 114.62 4.41604 8.59398 119.603 4.60805 8.95206 124.587 4.80005 9.31014 129.57 4.99205 9.66822 134.554 5.18405 10.0263 139.537 5.37605 10.3844 144.52 5.56806 10.7425 149.504 5.76006 11.1006 154.487 5.95206 11.4586 159.471 6.14406 11.8167 164.454 6.33606 12.1748 169.438 6.52807 12.5329 174.421 6.72007 12.891 179.405 6.91207 13.249 184.388 7.10407 13.6071 189.372 7.29607 13.9652 194.355 7.48807 14.3233 199.339 7.68008 0 99.9262 3.84004 0 104.923 4.03204 0 109.919 4.22404 0 114.915 4.41604 0 119.911 4.60805 0 124.908 4.80005 0 129.904 4.99205 0 134.9 5.18405 0 139.897 5.37605 0 144.893 5.56806 0 149.889 5.76006 0 154.886 5.95206 0 159.882 6.14406 0 164.878 6.33606 0 169.875 6.52807 0 174.871 6.72007 0 179.867 6.91207 0 184.864 7.10407 0 189.86 7.29607 0 194.856 7.48807 0 199.852 7.68008 99.703 0 7.70092 104.688 0 8.08597 109.673 0 8.47102 114.658 0 8.85606 119.644 0 9.24111 124.629 0 9.62616 129.614 0 10.0112 134.599 0 10.3962 139.584 0 10.7813 144.569 0 11.1663 149.555 0 11.5514 154.54 0 11.9364 159.525 0 12.3215 164.51 0 12.7065 169.495 0 13.0916 174.48 0 13.4766 179.465 0 13.8617 184.451 0 14.2467 189.436 0 14.6318 194.421 0 15.0168 199.406 0 15.4018 99.4466 7.14565 7.70092 104.419 7.50293 8.08597 109.391 7.86022 8.47102 114.364 8.2175 8.85606 119.336 8.57478 9.24111 124.308 8.93206 9.62616 129.281 9.28935 10.0112 134.253 9.64663 10.3962 139.225 10.0039 10.7813 144.198 10.3612 11.1663 149.17 10.7185 11.5514 154.142 11.0758 11.9364 159.115 11.433 12.3215 164.087 11.7903 12.7065 169.059 12.1476 13.0916 174.032 12.5049 13.4766 179.004 12.8622 13.8617 183.976 13.2195 14.2467 188.949 13.5767 14.6318 193.921 13.934 15.0168 198.893 14.2913 15.4018 98.6505 14.4489 7.70092 103.583 15.1714 8.08597 108.516 15.8938 8.47102 113.448 16.6163 8.85606 118.381 17.3387 9.24111 123.313 18.0611 9.62616 128.246 18.7836 10.0112 133.178 19.506 10.3962 138.111 20.2285 10.7813 143.043 20.9509 11.1663 147.976 21.6734 11.5514 152.908 22.3958 11.9364 157.841 23.1183 12.3215 162.773 23.8407 12.7065 167.706 24.5632 13.0916 172.638 25.2856 13.4766 177.571 26.008 13.8617 182.503 26.7305 14.2467 187.436 27.4529 14.6318 192.369 28.1754 15.0168 197.301 28.8978 15.4018 97.2786 21.8532 7.70092 102.143 22.9458 8.08597 107.007 24.0385 8.47102 111.87 25.1311 8.85606 116.734 26.2238 9.24111 121.598 27.3164 9.62616 126.462 28.4091 10.0112 131.326 29.5018 10.3962 136.19 30.5944 10.7813 141.054 31.6871 11.1663 145.918 32.7797 11.5514 150.782 33.8724 11.9364 155.646 34.9651 12.3215 160.51 36.0577 12.7065 165.374 37.1504 13.0916 170.238 38.243 13.4766 175.102 39.3357 13.8617 179.965 40.4283 14.2467 184.829 41.521 14.6318 189.693 42.6137 15.0168 194.557 43.7063 15.4018 95.3025 29.2939 7.70092 100.068 30.7586 8.08597 104.833 32.2233 8.47102 109.598 33.688 8.85606 114.363 35.1527 9.24111 119.128 36.6174 9.62616 123.893 38.0821 10.0112 128.658 39.5468 10.3962 133.423 41.0115 10.7813 138.189 42.4762 11.1663 142.954 43.9409 11.5514 147.719 45.4056 11.9364 152.484 46.8703 12.3215 157.249 48.335 12.7065 162.014 49.7997 13.0916 166.779 51.2644 13.4766 171.544 52.7291 13.8617 176.31 54.1938 14.2467 181.075 55.6585 14.6318 185.84 57.1232 15.0168 190.605 58.5879 15.4018 92.7027 36.7002 7.70092 97.3379 38.5352 8.08597 101.973 40.3702 8.47102 106.608 42.2052 8.85606 111.243 44.0402 9.24111 115.878 45.8752 9.62616 120.514 47.7102 10.0112 125.149 49.5452 10.3962 129.784 51.3802 10.7813 134.419 53.2152 11.1663 139.054 55.0502 11.5514 143.689 56.8852 11.9364 148.324 58.7203 12.3215 152.959 60.5553 12.7065 157.595 62.3903 13.0916 162.23 64.2253 13.4766 166.865 66.0603 13.8617 171.5 67.8953 14.2467 176.135 69.7303 14.6318 180.77 71.5653 15.0168 185.405 73.4003 15.4018 89.4711 43.9957 7.70092 93.9446 46.1955 8.08597 98.4182 48.3953 8.47102 102.892 50.5951 8.85606 107.365 52.7948 9.24111 111.839 54.9946 9.62616 116.312 57.1944 10.0112 120.786 59.3942 10.3962 125.26 61.594 10.7813 129.733 63.7938 11.1663 134.207 65.9936 11.5514 138.68 68.1933 11.9364 143.154 70.3931 12.3215 147.627 72.5929 12.7065 152.101 74.7927 13.0916 156.574 76.9925 13.4766 161.048 79.1923 13.8617 165.521 81.3921 14.2467 169.995 83.5918 14.6318 174.469 85.7916 15.0168 178.942 87.9914 15.4018 85.6115 51.1016 7.70092 89.8921 53.6566 8.08597 94.1726 56.2117 8.47102 98.4532 58.7668 8.85606 102.734 61.3219 9.24111 107.014 63.8769 9.62616 111.295 66.432 10.0112 115.576 68.9871 10.3962 119.856 71.5422 10.7813 124.137 74.0973 11.1663 128.417 76.6523 11.5514 132.698 79.2074 11.9364 136.978 81.7625 12.3215 141.259 84.3176 12.7065 145.54 86.8727 13.0916 149.82 89.4277 13.4766 154.101 91.9828 13.8617 158.381 94.5379 14.2467 162.662 97.093 14.6318 166.942 99.648 15.0168 171.223 102.203 15.4018 81.1409 57.9383 7.70092 85.198 60.8352 8.08597 89.255 63.7321 8.47102 93.3121 66.629 8.85606 97.3691 69.5259 9.24111 101.426 72.4229 9.62616 105.483 75.3198 10.0112 109.54 78.2167 10.3962 113.597 81.1136 10.7813 117.654 84.0105 11.1663 121.711 86.9074 11.5514 125.768 89.8044 11.9364 129.825 92.7013 12.3215 133.883 95.5982 12.7065 137.94 98.4951 13.0916 141.997 101.392 13.4766 146.054 104.289 13.8617 150.111 107.186 14.2467 154.168 110.083 14.6318 158.225 112.98 15.0168 162.282 115.877 15.4018 76.0897 64.4287 7.70092 79.8941 67.6502 8.08597 83.6986 70.8716 8.47102 87.5031 74.093 8.85606 91.3076 77.3145 9.24111 95.1121 80.5359 9.62616 98.9165 83.7573 10.0112 102.721 86.9788 10.3962 106.526 90.2002 10.7813 110.33 93.4216 11.1663 114.134 96.6431 11.5514 117.939 99.8645 11.9364 121.743 103.086 12.3215 125.548 106.307 12.7065 129.352 109.529 13.0916 133.157 112.75 13.4766 136.961 115.972 13.8617 140.766 119.193 14.2467 144.57 122.415 14.6318 148.375 125.636 15.0168 152.179 128.857 15.4018 70.5007 70.5007 7.70092 74.0257 74.0257 8.08597 77.5508 77.5508 8.47102 81.0758 81.0758 8.85606 84.6008 84.6008 9.24111 88.1259 88.1259 9.62616 91.6509 91.6509 10.0112 95.1759 95.1759 10.3962 98.701 98.701 10.7813 102.226 102.226 11.1663 105.751 105.751 11.5514 109.276 109.276 11.9364 112.801 112.801 12.3215 116.326 116.326 12.7065 119.851 119.851 13.0916 123.376 123.376 13.4766 126.901 126.901 13.8617 130.426 130.426 14.2467 133.951 133.951 14.6318 137.476 137.476 15.0168 141.001 141.001 15.4018 64.4287 76.0897 7.70092 67.6502 79.8941 8.08597 70.8716 83.6986 8.47102 74.093 87.5031 8.85606 77.3145 91.3076 9.24111 80.5359 95.1121 9.62616 83.7573 98.9165 10.0112 86.9788 102.721 10.3962 90.2002 106.526 10.7813 93.4216 110.33 11.1663 96.6431 114.134 11.5514 99.8645 117.939 11.9364 103.086 121.743 12.3215 106.307 125.548 12.7065 109.529 129.352 13.0916 112.75 133.157 13.4766 115.972 136.961 13.8617 119.193 140.766 14.2467 122.415 144.57 14.6318 125.636 148.375 15.0168 128.857 152.179 15.4018 57.9383 81.1409 7.70092 60.8352 85.198 8.08597 63.7321 89.255 8.47102 66.629 93.3121 8.85606 69.5259 97.3691 9.24111 72.4229 101.426 9.62616 75.3198 105.483 10.0112 78.2167 109.54 10.3962 81.1136 113.597 10.7813 84.0105 117.654 11.1663 86.9074 121.711 11.5514 89.8044 125.768 11.9364 92.7013 129.825 12.3215 95.5982 133.883 12.7065 98.4951 137.94 13.0916 101.392 141.997 13.4766 104.289 146.054 13.8617 107.186 150.111 14.2467 110.083 154.168 14.6318 112.98 158.225 15.0168 115.877 162.282 15.4018 51.1016 85.6115 7.70092 53.6566 89.8921 8.08597 56.2117 94.1726 8.47102 58.7668 98.4532 8.85606 61.3219 102.734 9.24111 63.8769 107.014 9.62616 66.432 111.295 10.0112 68.9871 115.576 10.3962 71.5422 119.856 10.7813 74.0973 124.137 11.1663 76.6523 128.417 11.5514 79.2074 132.698 11.9364 81.7625 136.978 12.3215 84.3176 141.259 12.7065 86.8727 145.54 13.0916 89.4277 149.82 13.4766 91.9828 154.101 13.8617 94.5379 158.381 14.2467 97.093 162.662 14.6318 99.648 166.942 15.0168 102.203 171.223 15.4018 43.9957 89.4711 7.70092 46.1955 93.9446 8.08597 48.3953 98.4182 8.47102 50.5951 102.892 8.85606 52.7948 107.365 9.24111 54.9946 111.839 9.62616 57.1944 116.312 10.0112 59.3942 120.786 10.3962 61.594 125.26 10.7813 63.7938 129.733 11.1663 65.9936 134.207 11.5514 68.1933 138.68 11.9364 70.3931 143.154 12.3215 72.5929 147.627 12.7065 74.7927 152.101 13.0916 76.9925 156.574 13.4766 79.1923 161.048 13.8617 81.3921 165.521 14.2467 83.5918 169.995 14.6318 85.7916 174.469 15.0168 87.9914 178.942 15.4018 36.7002 92.7027 7.70092 38.5352 97.3379 8.08597 40.3702 101.973 8.47102 42.2052 106.608 8.85606 44.0402 111.243 9.24111 45.8752 115.878 9.62616 47.7102 120.514 10.0112 49.5452 125.149 10.3962 51.3802 129.784 10.7813 53.2152 134.419 11.1663 55.0502 139.054 11.5514 56.8852 143.689 11.9364 58.7203 148.324 12.3215 60.5553 152.959 12.7065 62.3903 157.595 13.0916 64.2253 162.23 13.4766 66.0603 166.865 13.8617 67.8953 171.5 14.2467 69.7303 176.135 14.6318 71.5653 180.77 15.0168 73.4003 185.405 15.4018 29.2939 95.3025 7.70092 30.7586 100.068 8.08597 32.2233 104.833 8.47102 33.688 109.598 8.85606 35.1527 114.363 9.24111 36.6174 119.128 9.62616 38.0821 123.893 10.0112 39.5468 128.658 10.3962 41.0115 133.423 10.7813 42.4762 138.189 11.1663 43.9409 142.954 11.5514 45.4056 147.719 11.9364 46.8703 152.484 12.3215 48.335 157.249 12.7065 49.7997 162.014 13.0916 51.2644 166.779 13.4766 52.7291 171.544 13.8617 54.1938 176.31 14.2467 55.6585 181.075 14.6318 57.1232 185.84 15.0168 58.5879 190.605 15.4018 21.8532 97.2786 7.70092 22.9458 102.143 8.08597 24.0385 107.007 8.47102 25.1311 111.87 8.85606 26.2238 116.734 9.24111 27.3164 121.598 9.62616 28.4091 126.462 10.0112 29.5018 131.326 10.3962 30.5944 136.19 10.7813 31.6871 141.054 11.1663 32.7797 145.918 11.5514 33.8724 150.782 11.9364 34.9651 155.646 12.3215 36.0577 160.51 12.7065 37.1504 165.374 13.0916 38.243 170.238 13.4766 39.3357 175.102 13.8617 40.4283 179.965 14.2467 41.521 184.829 14.6318 42.6137 189.693 15.0168 43.7063 194.557 15.4018 14.4489 98.6505 7.70092 15.1714 103.583 8.08597 15.8938 108.516 8.47102 16.6163 113.448 8.85606 17.3387 118.381 9.24111 18.0611 123.313 9.62616 18.7836 128.246 10.0112 19.506 133.178 10.3962 20.2285 138.111 10.7813 20.9509 143.043 11.1663 21.6734 147.976 11.5514 22.3958 152.908 11.9364 23.1183 157.841 12.3215 23.8407 162.773 12.7065 24.5632 167.706 13.0916 25.2856 172.638 13.4766 26.008 177.571 13.8617 26.7305 182.503 14.2467 27.4529 187.436 14.6318 28.1754 192.369 15.0168 28.8978 197.301 15.4018 7.14565 99.4466 7.70092 7.50293 104.419 8.08597 7.86022 109.391 8.47102 8.2175 114.364 8.85606 8.57478 119.336 9.24111 8.93206 124.308 9.62616 9.28935 129.281 10.0112 9.64663 134.253 10.3962 10.0039 139.225 10.7813 10.3612 144.198 11.1663 10.7185 149.17 11.5514 11.0758 154.142 11.9364 11.433 159.115 12.3215 11.7903 164.087 12.7065 12.1476 169.059 13.0916 12.5049 174.032 13.4766 12.8622 179.004 13.8617 13.2195 183.976 14.2467 13.5767 188.949 14.6318 13.934 193.921 15.0168 14.2913 198.893 15.4018 0 99.703 7.70092 0 104.688 8.08597 0 109.673 8.47102 0 114.658 8.85606 0 119.644 9.24111 0 124.629 9.62616 0 129.614 10.0112 0 134.599 10.3962 0 139.584 10.7813 0 144.569 11.1663 0 149.555 11.5514 0 154.54 11.9364 0 159.525 12.3215 0 164.51 12.7065 0 169.495 13.0916 0 174.48 13.4766 0 179.465 13.8617 0 184.451 14.2467 0 189.436 14.6318 0 194.421 15.0168 0 199.406 15.4018 99.3279 0 11.5741 104.294 0 12.1528 109.261 0 12.7315 114.227 0 13.3102 119.194 0 13.8889 124.16 0 14.4676 129.126 0 15.0463 134.093 0 15.625 139.059 0 16.2037 144.026 0 16.7824 148.992 0 17.3611 153.958 0 17.9398 158.925 0 18.5185 163.891 0 19.0972 168.858 0 19.6759 173.824 0 20.2546 178.79 0 20.8333 183.757 0 21.412 188.723 0 21.9908 193.689 0 22.5695 198.656 0 23.1482 99.0725 7.11877 11.5741 104.026 7.47471 12.1528 108.98 7.83064 12.7315 113.933 8.18658 13.3102 118.887 8.54252 13.8889 123.841 8.89846 14.4676 128.794 9.2544 15.0463 133.748 9.61034 15.625 138.702 9.96627 16.2037 143.655 10.3222 16.7824 148.609 10.6782 17.3611 153.562 11.0341 17.9398 158.516 11.39 18.5185 163.47 11.746 19.0972 168.423 12.1019 19.6759 173.377 12.4578 20.2546 178.331 12.8138 20.8333 183.284 13.1697 21.412 188.238 13.5257 21.9908 193.191 13.8816 22.5695 198.145 14.2375 23.1482 98.2794 14.3946 11.5741 103.193 15.1143 12.1528 108.107 15.834 12.7315 113.021 16.5537 13.3102 117.935 17.2735 13.8889 122.849 17.9932 14.4676 127.763 18.7129 15.0463 132.677 19.4326 15.625 137.591 20.1524 16.2037 142.505 20.8721 16.7824 147.419 21.5918 17.3611 152.333 22.3116 17.9398 157.247 23.0313 18.5185 162.161 23.751 19.0972 167.075 24.4707 19.6759 171.989 25.1905 20.2546 176.903 25.9102 20.8333 181.817 26.6299 21.412 186.731 27.3497 21.9908 191.645 28.0694 22.5695 196.559 28.7891 23.1482 96.9127 21.7709 11.5741 101.758 22.8595 12.1528 106.604 23.948 12.7315 111.45 25.0366 13.3102 116.295 26.1251 13.8889 121.141 27.2137 14.4676 125.986 28.3022 15.0463 130.832 29.3908 15.625 135.678 30.4793 16.2037 140.523 31.5679 16.7824 145.369 32.6564 17.3611 150.215 33.745 17.9398 155.06 34.8335 18.5185 159.906 35.9221 19.0972 164.752 37.0106 19.6759 169.597 38.0992 20.2546 174.443 39.1877 20.8333 179.288 40.2762 21.412 184.134 41.3648 21.9908 188.98 42.4533 22.5695 193.825 43.5419 23.1482 94.9439 29.1837 11.5741 99.6911 30.6429 12.1528 104.438 32.1021 12.7315 109.186 33.5613 13.3102 113.933 35.0205 13.8889 118.68 36.4797 14.4676 123.427 37.9389 15.0463 128.174 39.398 15.625 132.922 40.8572 16.2037 137.669 42.3164 16.7824 142.416 43.7756 17.3611 147.163 45.2348 17.9398 151.91 46.694 18.5185 156.657 48.1532 19.0972 161.405 49.6124 19.6759 166.152 51.0715 20.2546 170.899 52.5307 20.8333 175.646 53.9899 21.412 180.393 55.4491 21.9908 185.141 56.9083 22.5695 189.888 58.3675 23.1482 92.354 36.5621 11.5741 96.9717 38.3902 12.1528 101.589 40.2183 12.7315 106.207 42.0464 13.3102 110.825 43.8745 13.8889 115.442 45.7026 14.4676 120.06 47.5307 15.0463 124.678 49.3588 15.625 129.296 51.1869 16.2037 133.913 53.015 16.7824 138.531 54.8431 17.3611 143.149 56.6712 17.9398 147.766 58.4993 18.5185 152.384 60.3275 19.0972 157.002 62.1556 19.6759 161.619 63.9837 20.2546 166.237 65.8118 20.8333 170.855 67.6399 21.412 175.473 69.468 21.9908 180.09 71.2961 22.5695 184.708 73.1242 23.1482 89.1345 43.8302 11.5741 93.5912 46.0217 12.1528 98.0479 48.2132 12.7315 102.505 50.4047 13.3102 106.961 52.5962 13.8889 111.418 54.7877 14.4676 115.875 56.9792 15.0463 120.332 59.1708 15.625 124.788 61.3623 16.2037 129.245 63.5538 16.7824 133.702 65.7453 17.3611 138.158 67.9368 17.9398 142.615 70.1283 18.5185 147.072 72.3198 19.0972 151.529 74.5113 19.6759 155.985 76.7028 20.2546 160.442 78.8943 20.8333 164.899 81.0858 21.412 169.356 83.2774 21.9907 173.812 85.4689 22.5695 178.269 87.6604 23.1482 85.2894 50.9093 11.5741 89.5539 53.4548 12.1528 93.8183 56.0002 12.7315 98.0828 58.5457 13.3102 102.347 61.0912 13.8889 106.612 63.6366 14.4676 110.876 66.1821 15.0463 115.141 68.7276 15.625 119.405 71.273 16.2037 123.67 73.8185 16.7824 127.934 76.364 17.3611 132.199 78.9094 17.9398 136.463 81.4549 18.5185 140.728 84.0004 19.0972 144.992 86.5458 19.6759 149.256 89.0913 20.2546 153.521 91.6368 20.8333 157.785 94.1822 21.412 162.05 96.7277 21.9907 166.314 99.2732 22.5695 170.579 101.819 23.1482 80.8357 57.7203 11.5741 84.8775 60.6063 12.1528 88.9192 63.4924 12.7315 92.961 66.3784 13.3102 97.0028 69.2644 13.8889 101.045 72.1504 14.4676 105.086 75.0364 15.0463 109.128 77.9224 15.625 113.17 80.8084 16.2037 117.212 83.6945 16.7824 121.254 86.5805 17.3611 125.295 89.4665 17.9398 129.337 92.3525 18.5185 133.379 95.2385 19.0972 137.421 98.1245 19.6759 141.462 101.011 20.2546 145.504 103.897 20.8333 149.546 106.783 21.412 153.588 109.669 21.9907 157.63 112.555 22.5695 161.671 115.441 23.1482 75.8034 64.1863 11.5741 79.5936 67.3957 12.1528 83.3837 70.605 12.7315 87.1739 73.8143 13.3102 90.9641 77.0236 13.8889 94.7542 80.2329 14.4676 98.5444 83.4422 15.0463 102.335 86.6516 15.625 106.125 89.8609 16.2037 109.915 93.0702 16.7824 113.705 96.2795 17.3611 117.495 99.4888 17.9398 121.285 102.698 18.5185 125.076 105.907 19.0972 128.866 109.117 19.6759 132.656 112.326 20.2546 136.446 115.535 20.8333 140.236 118.745 21.412 144.026 121.954 21.9907 147.817 125.163 22.5695 151.607 128.373 23.1482 70.2355 70.2355 11.5741 73.7472 73.7472 12.1528 77.259 77.259 12.7315 80.7708 80.7708 13.3102 84.2826 84.2826 13.8889 87.7943 87.7943 14.4676 91.3061 91.3061 15.0463 94.8179 94.8179 15.625 98.3296 98.3296 16.2037 101.841 101.841 16.7824 105.353 105.353 17.3611 108.865 108.865 17.9398 112.377 112.377 18.5185 115.889 115.889 19.0972 119.4 119.4 19.6759 122.912 122.912 20.2546 126.424 126.424 20.8333 129.936 129.936 21.412 133.447 133.447 21.9907 136.959 136.959 22.5695 140.471 140.471 23.1482 64.1863 75.8034 11.5741 67.3957 79.5936 12.1528 70.605 83.3837 12.7315 73.8143 87.1739 13.3102 77.0236 90.9641 13.8889 80.2329 94.7542 14.4676 83.4422 98.5444 15.0463 86.6516 102.335 15.625 89.8609 106.125 16.2037 93.0702 109.915 16.7824 96.2795 113.705 17.3611 99.4888 117.495 17.9398 102.698 121.285 18.5185 105.907 125.076 19.0972 109.117 128.866 19.6759 112.326 132.656 20.2546 115.535 136.446 20.8333 118.745 140.236 21.412 121.954 144.026 21.9907 125.163 147.817 22.5695 128.373 151.607 23.1482 57.7203 80.8357 11.5741 60.6063 84.8775 12.1528 63.4924 88.9192 12.7315 66.3784 92.961 13.3102 69.2644 97.0028 13.8889 72.1504 101.045 14.4676 75.0364 105.086 15.0463 77.9224 109.128 15.625 80.8084 113.17 16.2037 83.6945 117.212 16.7824 86.5805 121.254 17.3611 89.4665 125.295 17.9398 92.3525 129.337 18.5185 95.2385 133.379 19.0972 98.1245 137.421 19.6759 101.011 141.462 20.2546 103.897 145.504 20.8333 106.783 149.546 21.412 109.669 153.588 21.9907 112.555 157.63 22.5695 115.441 161.671 23.1482 50.9093 85.2894 11.5741 53.4548 89.5539 12.1528 56.0002 93.8183 12.7315 58.5457 98.0828 13.3102 61.0912 102.347 13.8889 63.6366 106.612 14.4676 66.1821 110.876 15.0463 68.7276 115.141 15.625 71.273 119.405 16.2037 73.8185 123.67 16.7824 76.364 127.934 17.3611 78.9094 132.199 17.9398 81.4549 136.463 18.5185 84.0004 140.728 19.0972 86.5458 144.992 19.6759 89.0913 149.256 20.2546 91.6368 153.521 20.8333 94.1822 157.785 21.412 96.7277 162.05 21.9907 99.2732 166.314 22.5695 101.819 170.579 23.1482 43.8302 89.1345 11.5741 46.0217 93.5912 12.1528 48.2132 98.0479 12.7315 50.4047 102.505 13.3102 52.5962 106.961 13.8889 54.7877 111.418 14.4676 56.9792 115.875 15.0463 59.1708 120.332 15.625 61.3623 124.788 16.2037 63.5538 129.245 16.7824 65.7453 133.702 17.3611 67.9368 138.158 17.9398 70.1283 142.615 18.5185 72.3198 147.072 19.0972 74.5113 151.529 19.6759 76.7028 155.985 20.2546 78.8943 160.442 20.8333 81.0858 164.899 21.412 83.2774 169.356 21.9907 85.4689 173.812 22.5695 87.6604 178.269 23.1482 36.5621 92.354 11.5741 38.3902 96.9717 12.1528 40.2183 101.589 12.7315 42.0464 106.207 13.3102 43.8745 110.825 13.8889 45.7026 115.442 14.4676 47.5307 120.06 15.0463 49.3588 124.678 15.625 51.1869 129.296 16.2037 53.015 133.913 16.7824 54.8431 138.531 17.3611 56.6712 143.149 17.9398 58.4993 147.766 18.5185 60.3275 152.384 19.0972 62.1556 157.002 19.6759 63.9837 161.619 20.2546 65.8118 166.237 20.8333 67.6399 170.855 21.412 69.468 175.473 21.9908 71.2961 180.09 22.5695 73.1242 184.708 23.1482 29.1837 94.9439 11.5741 30.6429 99.6911 12.1528 32.1021 104.438 12.7315 33.5613 109.186 13.3102 35.0205 113.933 13.8889 36.4797 118.68 14.4676 37.9389 123.427 15.0463 39.398 128.174 15.625 40.8572 132.922 16.2037 42.3164 137.669 16.7824 43.7756 142.416 17.3611 45.2348 147.163 17.9398 46.694 151.91 18.5185 48.1532 156.657 19.0972 49.6124 161.405 19.6759 51.0715 166.152 20.2546 52.5307 170.899 20.8333 53.9899 175.646 21.412 55.4491 180.393 21.9908 56.9083 185.141 22.5695 58.3675 189.888 23.1482 21.7709 96.9127 11.5741 22.8595 101.758 12.1528 23.948 106.604 12.7315 25.0366 111.45 13.3102 26.1251 116.295 13.8889 27.2137 121.141 14.4676 28.3022 125.986 15.0463 29.3908 130.832 15.625 30.4793 135.678 16.2037 31.5679 140.523 16.7824 32.6564 145.369 17.3611 33.745 150.215 17.9398 34.8335 155.06 18.5185 35.9221 159.906 19.0972 37.0106 164.752 19.6759 38.0992 169.597 20.2546 39.1877 174.443 20.8333 40.2762 179.288 21.412 41.3648 184.134 21.9908 42.4533 188.98 22.5695 43.5419 193.825 23.1482 14.3946 98.2794 11.5741 15.1143 103.193 12.1528 15.834 108.107 12.7315 16.5537 113.021 13.3102 17.2735 117.935 13.8889 17.9932 122.849 14.4676 18.7129 127.763 15.0463 19.4326 132.677 15.625 20.1524 137.591 16.2037 20.8721 142.505 16.7824 21.5918 147.419 17.3611 22.3116 152.333 17.9398 23.0313 157.247 18.5185 23.751 162.161 19.0972 24.4707 167.075 19.6759 25.1905 171.989 20.2546 25.9102 176.903 20.8333 26.6299 181.817 21.412 27.3497 186.731 21.9908 28.0694 191.645 22.5695 28.7891 196.559 23.1482 7.11877 99.0725 11.5741 7.47471 104.026 12.1528 7.83064 108.98 12.7315 8.18658 113.933 13.3102 8.54252 118.887 13.8889 8.89846 123.841 14.4676 9.2544 128.794 15.0463 9.61034 133.748 15.625 9.96627 138.702 16.2037 10.3222 143.655 16.7824 10.6782 148.609 17.3611 11.0341 153.562 17.9398 11.39 158.516 18.5185 11.746 163.47 19.0972 12.1019 168.423 19.6759 12.4578 173.377 20.2546 12.8138 178.331 20.8333 13.1697 183.284 21.412 13.5257 188.238 21.9908 13.8816 193.191 22.5695 14.2375 198.145 23.1482 0 99.3279 11.5741 0 104.294 12.1528 0 109.261 12.7315 0 114.227 13.3102 0 119.194 13.8889 0 124.16 14.4676 0 129.126 15.0463 0 134.093 15.625 0 139.059 16.2037 0 144.026 16.7824 0 148.992 17.3611 0 153.958 17.9398 0 158.925 18.5185 0 163.891 19.0972 0 168.858 19.6759 0 173.824 20.2546 0 178.79 20.8333 0 183.757 21.412 0 188.723 21.9908 0 193.689 22.5695 0 198.656 23.1482 98.7992 0 15.4507 103.739 0 16.2232 108.679 0 16.9957 113.619 0 17.7683 118.559 0 18.5408 123.499 0 19.3133 128.439 0 20.0858 133.379 0 20.8584 138.319 0 21.6309 143.259 0 22.4034 148.199 0 23.176 153.139 0 23.9485 158.079 0 24.721 163.019 0 25.4936 167.959 0 26.2661 172.899 0 27.0386 177.839 0 27.8112 182.778 0 28.5837 187.718 0 29.3562 192.658 0 30.1288 197.598 0 30.9013 98.5451 7.08087 15.4507 103.472 7.43491 16.2232 108.4 7.78896 16.9957 113.327 8.143 17.7683 118.254 8.49705 18.5408 123.181 8.85109 19.3133 128.109 9.20513 20.0858 133.036 9.55918 20.8584 137.963 9.91322 21.6309 142.89 10.2673 22.4034 147.818 10.6213 23.176 152.745 10.9754 23.9485 157.672 11.3294 24.721 162.599 11.6834 25.4936 167.527 12.0375 26.2661 172.454 12.3915 27.0386 177.381 12.7456 27.8112 182.308 13.0996 28.5837 187.236 13.4537 29.3562 192.163 13.8077 30.1288 197.09 14.1617 30.9013 97.7562 14.3179 15.4507 102.644 15.0338 16.2232 107.532 15.7497 16.9957 112.42 16.4656 17.7683 117.307 17.1815 18.5408 122.195 17.8974 19.3133 127.083 18.6133 20.0858 131.971 19.3292 20.8584 136.859 20.0451 21.6309 141.746 20.761 22.4034 146.634 21.4769 23.176 151.522 22.1928 23.9485 156.41 22.9087 24.721 161.298 23.6246 25.4936 166.186 24.3405 26.2661 171.073 25.0564 27.0386 175.961 25.7723 27.8112 180.849 26.4882 28.5837 185.737 27.2041 29.3562 190.625 27.92 30.1288 195.512 28.6359 30.9013 96.3968 21.655 15.4507 101.217 22.7378 16.2232 106.036 23.8206 16.9957 110.856 24.9033 17.7683 115.676 25.9861 18.5408 120.496 27.0688 19.3133 125.316 28.1516 20.0858 130.136 29.2343 20.8584 134.955 30.3171 21.6309 139.775 31.3998 22.4034 144.595 32.4826 23.176 149.415 33.5653 23.9485 154.235 34.6481 24.721 159.055 35.7308 25.4936 163.875 36.8136 26.2661 168.694 37.8963 27.0386 173.514 38.9791 27.8112 178.334 40.0618 28.5837 183.154 41.1446 29.3562 187.974 42.2273 30.1288 192.794 43.3101 30.9013 94.4385 29.0284 15.4507 99.1604 30.4798 16.2232 103.882 31.9312 16.9957 108.604 33.3826 17.7683 113.326 34.8341 18.5408 118.048 36.2855 19.3133 122.77 37.7369 20.0858 127.492 39.1883 20.8584 132.214 40.6397 21.6309 136.936 42.0911 22.4034 141.658 43.5426 23.176 146.38 44.994 23.9485 151.102 46.4454 24.721 155.824 47.8968 25.4936 160.545 49.3482 26.2661 165.267 50.7997 27.0386 169.989 52.2511 27.8112 174.711 53.7025 28.5837 179.433 55.1539 29.3562 184.155 56.6053 30.1288 188.877 58.0568 30.9013 91.8623 36.3675 15.4507 96.4554 38.1858 16.2232 101.049 40.0042 16.9957 105.642 41.8226 17.7683 110.235 43.6409 18.5408 114.828 45.4593 19.3133 119.421 47.2777 20.0858 124.014 49.0961 20.8584 128.607 50.9144 21.6309 133.2 52.7328 22.4034 137.793 54.5512 23.176 142.387 56.3696 23.9485 146.98 58.1879 24.721 151.573 60.0063 25.4936 156.166 61.8247 26.2661 160.759 63.643 27.0386 165.352 65.4614 27.8112 169.945 67.2798 28.5837 174.538 69.0982 29.3562 179.132 70.9165 30.1288 183.725 72.7349 30.9013 88.66 43.5969 15.4507 93.093 45.7767 16.2232 97.526 47.9565 16.9957 101.959 50.1364 17.7683 106.392 52.3162 18.5408 110.825 54.4961 19.3133 115.258 56.6759 20.0858 119.691 58.8558 20.8584 124.124 61.0356 21.6309 128.557 63.2154 22.4034 132.99 65.3953 23.176 137.423 67.5751 23.9485 141.856 69.755 24.721 146.289 71.9348 25.4936 150.722 74.1147 26.2661 155.155 76.2945 27.0386 159.588 78.4743 27.8112 164.021 80.6542 28.5837 168.454 82.834 29.3562 172.887 85.0139 30.1288 177.32 87.1937 30.9013 84.8354 50.6383 15.4507 89.0771 53.1702 16.2232 93.3189 55.7021 16.9957 97.5607 58.234 17.7683 101.802 60.766 18.5408 106.044 63.2979 19.3133 110.286 65.8298 20.0858 114.528 68.3617 20.8584 118.77 70.8936 21.6309 123.011 73.4255 22.4034 127.253 75.9574 23.176 131.495 78.4894 23.9485 135.737 81.0213 24.721 139.978 83.5532 25.4936 144.22 86.0851 26.2661 148.462 88.617 27.0386 152.704 91.1489 27.8112 156.945 93.6808 28.5837 161.187 96.2128 29.3562 165.429 98.7447 30.1288 169.671 101.277 30.9013 80.4053 57.413 15.4507 84.4256 60.2837 16.2232 88.4459 63.1544 16.9957 92.4661 66.025 17.7683 96.4864 68.8957 18.5408 100.507 71.7663 19.3133 104.527 74.637 20.0858 108.547 77.5076 20.8584 112.567 80.3783 21.6309 116.588 83.2489 22.4034 120.608 86.1196 23.176 124.628 88.9902 23.9485 128.649 91.8609 24.721 132.669 94.7315 25.4936 136.689 97.6022 26.2661 140.709 100.473 27.0386 144.73 103.343 27.8112 148.75 106.214 28.5837 152.77 109.085 29.3562 156.79 111.955 30.1288 160.811 114.826 30.9013 75.3999 63.8446 15.4507 79.1699 67.0369 16.2232 82.9398 70.2291 16.9957 86.7098 73.4213 17.7683 90.4798 76.6136 18.5408 94.2498 79.8058 19.3133 98.0198 82.998 20.0858 101.79 86.1903 20.8584 105.56 89.3825 21.6309 109.33 92.5747 22.4034 113.1 95.767 23.176 116.87 98.9592 23.9485 120.64 102.151 24.721 124.41 105.344 25.4936 128.18 108.536 26.2661 131.95 111.728 27.0386 135.72 114.92 27.8112 139.49 118.113 28.5837 143.26 121.305 29.3562 147.03 124.497 30.1288 150.8 127.689 30.9013 69.8616 69.8616 15.4507 73.3546 73.3546 16.2232 76.8477 76.8477 16.9957 80.3408 80.3408 17.7683 83.8339 83.8339 18.5408 87.327 87.327 19.3133 90.82 90.82 20.0858 94.3131 94.3131 20.8584 97.8062 97.8062 21.6309 101.299 101.299 22.4034 104.792 104.792 23.176 108.285 108.285 23.9485 111.779 111.779 24.721 115.272 115.272 25.4936 118.765 118.765 26.2661 122.258 122.258 27.0386 125.751 125.751 27.8112 129.244 129.244 28.5837 132.737 132.737 29.3562 136.23 136.23 30.1288 139.723 139.723 30.9013 63.8446 75.3999 15.4507 67.0369 79.1699 16.2232 70.2291 82.9398 16.9957 73.4213 86.7098 17.7683 76.6136 90.4798 18.5408 79.8058 94.2498 19.3133 82.998 98.0198 20.0858 86.1903 101.79 20.8584 89.3825 105.56 21.6309 92.5747 109.33 22.4034 95.767 113.1 23.176 98.9592 116.87 23.9485 102.151 120.64 24.721 105.344 124.41 25.4936 108.536 128.18 26.2661 111.728 131.95 27.0386 114.92 135.72 27.8112 118.113 139.49 28.5837 121.305 143.26 29.3562 124.497 147.03 30.1288 127.689 150.8 30.9013 57.413 80.4053 15.4507 60.2837 84.4256 16.2232 63.1544 88.4459 16.9957 66.025 92.4661 17.7683 68.8957 96.4864 18.5408 71.7663 100.507 19.3133 74.637 104.527 20.0858 77.5076 108.547 20.8584 80.3783 112.567 21.6309 83.2489 116.588 22.4034 86.1196 120.608 23.176 88.9902 124.628 23.9485 91.8609 128.649 24.721 94.7315 132.669 25.4936 97.6022 136.689 26.2661 100.473 140.709 27.0386 103.343 144.73 27.8112 106.214 148.75 28.5837 109.085 152.77 29.3562 111.955 156.79 30.1288 114.826 160.811 30.9013 50.6383 84.8354 15.4507 53.1702 89.0771 16.2232 55.7021 93.3189 16.9957 58.234 97.5607 17.7683 60.766 101.802 18.5408 63.2979 106.044 19.3133 65.8298 110.286 20.0858 68.3617 114.528 20.8584 70.8936 118.77 21.6309 73.4255 123.011 22.4034 75.9574 127.253 23.176 78.4894 131.495 23.9485 81.0213 135.737 24.721 83.5532 139.978 25.4936 86.0851 144.22 26.2661 88.617 148.462 27.0386 91.1489 152.704 27.8112 93.6808 156.945 28.5837 96.2128 161.187 29.3562 98.7447 165.429 30.1288 101.277 169.671 30.9013 43.5969 88.66 15.4507 45.7767 93.093 16.2232 47.9565 97.526 16.9957 50.1364 101.959 17.7683 52.3162 106.392 18.5408 54.4961 110.825 19.3133 56.6759 115.258 20.0858 58.8558 119.691 20.8584 61.0356 124.124 21.6309 63.2154 128.557 22.4034 65.3953 132.99 23.176 67.5751 137.423 23.9485 69.755 141.856 24.721 71.9348 146.289 25.4936 74.1147 150.722 26.2661 76.2945 155.155 27.0386 78.4743 159.588 27.8112 80.6542 164.021 28.5837 82.834 168.454 29.3562 85.0139 172.887 30.1288 87.1937 177.32 30.9013 36.3675 91.8623 15.4507 38.1858 96.4554 16.2232 40.0042 101.049 16.9957 41.8226 105.642 17.7683 43.6409 110.235 18.5408 45.4593 114.828 19.3133 47.2777 119.421 20.0858 49.0961 124.014 20.8584 50.9144 128.607 21.6309 52.7328 133.2 22.4034 54.5512 137.793 23.176 56.3696 142.387 23.9485 58.1879 146.98 24.721 60.0063 151.573 25.4936 61.8247 156.166 26.2661 63.643 160.759 27.0386 65.4614 165.352 27.8112 67.2798 169.945 28.5837 69.0982 174.538 29.3562 70.9165 179.132 30.1288 72.7349 183.725 30.9013 29.0284 94.4385 15.4507 30.4798 99.1604 16.2232 31.9312 103.882 16.9957 33.3826 108.604 17.7683 34.8341 113.326 18.5408 36.2855 118.048 19.3133 37.7369 122.77 20.0858 39.1883 127.492 20.8584 40.6397 132.214 21.6309 42.0911 136.936 22.4034 43.5426 141.658 23.176 44.994 146.38 23.9485 46.4454 151.102 24.721 47.8968 155.824 25.4936 49.3482 160.545 26.2661 50.7997 165.267 27.0386 52.2511 169.989 27.8112 53.7025 174.711 28.5837 55.1539 179.433 29.3562 56.6053 184.155 30.1288 58.0568 188.877 30.9013 21.655 96.3968 15.4507 22.7378 101.217 16.2232 23.8206 106.036 16.9957 24.9033 110.856 17.7683 25.9861 115.676 18.5408 27.0688 120.496 19.3133 28.1516 125.316 20.0858 29.2343 130.136 20.8584 30.3171 134.955 21.6309 31.3998 139.775 22.4034 32.4826 144.595 23.176 33.5653 149.415 23.9485 34.6481 154.235 24.721 35.7308 159.055 25.4936 36.8136 163.875 26.2661 37.8963 168.694 27.0386 38.9791 173.514 27.8112 40.0618 178.334 28.5837 41.1446 183.154 29.3562 42.2273 187.974 30.1288 43.3101 192.794 30.9013 14.3179 97.7562 15.4507 15.0338 102.644 16.2232 15.7497 107.532 16.9957 16.4656 112.42 17.7683 17.1815 117.307 18.5408 17.8974 122.195 19.3133 18.6133 127.083 20.0858 19.3292 131.971 20.8584 20.0451 136.859 21.6309 20.761 141.746 22.4034 21.4769 146.634 23.176 22.1928 151.522 23.9485 22.9087 156.41 24.721 23.6246 161.298 25.4936 24.3405 166.186 26.2661 25.0564 171.073 27.0386 25.7723 175.961 27.8112 26.4882 180.849 28.5837 27.2041 185.737 29.3562 27.92 190.625 30.1288 28.6359 195.512 30.9013 7.08087 98.5451 15.4507 7.43491 103.472 16.2232 7.78896 108.4 16.9957 8.143 113.327 17.7683 8.49705 118.254 18.5408 8.85109 123.181 19.3133 9.20513 128.109 20.0858 9.55918 133.036 20.8584 9.91322 137.963 21.6309 10.2673 142.89 22.4034 10.6213 147.818 23.176 10.9754 152.745 23.9485 11.3294 157.672 24.721 11.6834 162.599 25.4936 12.0375 167.527 26.2661 12.3915 172.454 27.0386 12.7456 177.381 27.8112 13.0996 182.308 28.5837 13.4537 187.236 29.3562 13.8077 192.163 30.1288 14.1617 197.09 30.9013 0 98.7992 15.4507 0 103.739 16.2232 0 108.679 16.9957 0 113.619 17.7683 0 118.559 18.5408 0 123.499 19.3133 0 128.439 20.0858 0 133.379 20.8584 0 138.319 21.6309 0 143.259 22.4034 0 148.199 23.176 0 153.139 23.9485 0 158.079 24.721 0 163.019 25.4936 0 167.959 26.2661 0 172.899 27.0386 0 177.839 27.8112 0 182.778 28.5837 0 187.718 29.3562 0 192.658 30.1288 0 197.598 30.9013 98.1156 0 19.3216 103.021 0 20.2877 107.927 0 21.2537 112.833 0 22.2198 117.739 0 23.1859 122.645 0 24.152 127.55 0 25.1181 132.456 0 26.0841 137.362 0 27.0502 142.268 0 28.0163 147.173 0 28.9824 152.079 0 29.9485 156.985 0 30.9145 161.891 0 31.8806 166.797 0 32.8467 171.702 0 33.8128 176.608 0 34.7789 181.514 0 35.7449 186.42 0 36.711 191.325 0 37.6771 196.231 0 38.6432 97.8633 7.03188 19.3216 102.756 7.38348 20.2877 107.65 7.73507 21.2537 112.543 8.08666 22.2198 117.436 8.43826 23.1859 122.329 8.78985 24.152 127.222 9.14145 25.1181 132.115 9.49304 26.0841 137.009 9.84463 27.0502 141.902 10.1962 28.0163 146.795 10.5478 28.9824 151.688 10.8994 29.9485 156.581 11.251 30.9145 161.474 11.6026 31.8806 166.368 11.9542 32.8467 171.261 12.3058 33.8128 176.154 12.6574 34.7789 181.047 13.009 35.7449 185.94 13.3606 36.711 190.833 13.7122 37.6771 195.727 14.0638 38.6432 97.0799 14.2189 19.3216 101.934 14.9298 20.2877 106.788 15.6408 21.2537 111.642 16.3517 22.2198 116.496 17.0626 23.1859 121.35 17.7736 24.152 126.204 18.4845 25.1181 131.058 19.1955 26.0841 135.912 19.9064 27.0502 140.766 20.6174 28.0163 145.62 21.3283 28.9824 150.474 22.0392 29.9485 155.328 22.7502 30.9145 160.182 23.4611 31.8806 165.036 24.1721 32.8467 169.89 24.883 33.8128 174.744 25.594 34.7789 179.598 26.3049 35.7449 184.452 27.0158 36.711 189.306 27.7268 37.6771 194.16 28.4377 38.6432 95.7298 21.5052 19.3216 100.516 22.5805 20.2877 105.303 23.6557 21.2537 110.089 24.731 22.2198 114.876 25.8063 23.1859 119.662 26.8815 24.152 124.449 27.9568 25.1181 129.235 29.0321 26.0841 134.022 30.1073 27.0502 138.808 31.1826 28.0163 143.595 32.2578 28.9824 148.381 33.3331 29.9485 153.168 34.4084 30.9145 157.954 35.4836 31.8806 162.741 36.5589 32.8467 167.527 37.6341 33.8128 172.314 38.7094 34.7789 177.1 39.7847 35.7449 181.887 40.8599 36.711 186.673 41.9352 37.6771 191.46 43.0105 38.6432 93.7851 28.8275 19.3216 98.4744 30.2689 20.2877 103.164 31.7103 21.2537 107.853 33.1517 22.2198 112.542 34.5931 23.1859 117.231 36.0344 24.152 121.921 37.4758 25.1181 126.61 38.9172 26.0841 131.299 40.3586 27.0502 135.988 41.7999 28.0163 140.678 43.2413 28.9824 145.367 44.6827 29.9485 150.056 46.1241 30.9145 154.745 47.5654 31.8806 159.435 49.0068 32.8467 164.124 50.4482 33.8128 168.813 51.8896 34.7789 173.502 53.331 35.7449 178.192 54.7723 36.711 182.881 56.2137 37.6771 187.57 57.6551 38.6432 91.2268 36.1158 19.3216 95.7881 37.9216 20.2877 100.349 39.7274 21.2537 104.911 41.5332 22.2198 109.472 43.339 23.1859 114.033 45.1448 24.152 118.595 46.9506 25.1181 123.156 48.7564 26.0841 127.717 50.5622 27.0502 132.279 52.368 28.0163 136.84 54.1738 28.9824 141.401 55.9796 29.9485 145.963 57.7853 30.9145 150.524 59.5911 31.8806 155.085 61.3969 32.8467 159.647 63.2027 33.8128 164.208 65.0085 34.7789 168.77 66.8143 35.7449 173.331 68.6201 36.711 177.892 70.4259 37.6771 182.454 72.2317 38.6432 88.0466 43.2952 19.3216 92.4489 45.46 20.2877 96.8512 47.6248 21.2537 101.254 49.7895 22.2198 105.656 51.9543 23.1859 110.058 54.119 24.152 114.461 56.2838 25.1181 118.863 58.4486 26.0841 123.265 60.6133 27.0502 127.668 62.7781 28.0163 132.07 64.9428 28.9824 136.472 67.1076 29.9485 140.875 69.2724 30.9145 145.277 71.4371 31.8806 149.679 73.6019 32.8467 154.082 75.7667 33.8128 158.484 77.9314 34.7789 162.886 80.0962 35.7449 167.288 82.2609 36.711 171.691 84.4257 37.6771 176.093 86.5905 38.6432 84.2484 50.288 19.3216 88.4609 52.8023 20.2877 92.6733 55.3167 21.2537 96.8857 57.8311 22.2198 101.098 60.3455 23.1859 105.311 62.8599 24.152 109.523 65.3743 25.1181 113.735 67.8887 26.0841 117.948 70.4031 27.0502 122.16 72.9175 28.0163 126.373 75.4319 28.9824 130.585 77.9463 29.9485 134.797 80.4607 30.9145 139.01 82.9751 31.8806 143.222 85.4895 32.8467 147.435 88.0039 33.8128 151.647 90.5183 34.7789 155.86 93.0327 35.7449 160.072 95.5471 36.711 164.284 98.0615 37.6771 168.497 100.576 38.6432 79.8491 57.0158 19.3216 83.8415 59.8666 20.2877 87.834 62.7174 21.2537 91.8264 65.5682 22.2198 95.8189 68.419 23.1859 99.8113 71.2698 24.152 103.804 74.1206 25.1181 107.796 76.9714 26.0841 111.789 79.8222 27.0502 115.781 82.673 28.0163 119.774 85.5237 28.9824 123.766 88.3745 29.9485 127.758 91.2253 30.9145 131.751 94.0761 31.8806 135.743 96.9269 32.8467 139.736 99.7777 33.8128 143.728 102.628 34.7789 147.721 105.479 35.7449 151.713 108.33 36.711 155.706 111.181 37.6771 159.698 114.032 38.6432 74.8782 63.4029 19.3216 78.6221 66.5731 20.2877 82.366 69.7432 21.2537 86.1099 72.9134 22.2198 89.8538 76.0835 23.1859 93.5978 79.2537 24.152 97.3417 82.4238 25.1181 101.086 85.594 26.0841 104.829 88.7641 27.0502 108.573 91.9342 28.0163 112.317 95.1044 28.9824 116.061 98.2745 29.9485 119.805 101.445 30.9145 123.549 104.615 31.8806 127.293 107.785 32.8467 131.037 110.955 33.8128 134.781 114.125 34.7789 138.525 117.295 35.7449 142.269 120.466 36.711 146.012 123.636 37.6771 149.756 126.806 38.6432 69.3782 69.3782 19.3216 72.8471 72.8471 20.2877 76.316 76.316 21.2537 79.785 79.785 22.2198 83.2539 83.2539 23.1859 86.7228 86.7228 24.152 90.1917 90.1917 25.1181 93.6606 93.6606 26.0841 97.1295 97.1295 27.0502 100.598 100.598 28.0163 104.067 104.067 28.9824 107.536 107.536 29.9485 111.005 111.005 30.9145 114.474 114.474 31.8806 117.943 117.943 32.8467 121.412 121.412 33.8128 124.881 124.881 34.7789 128.35 128.35 35.7449 131.819 131.819 36.711 135.288 135.288 37.6771 138.756 138.756 38.6432 63.4029 74.8782 19.3216 66.5731 78.6221 20.2877 69.7432 82.366 21.2537 72.9134 86.1099 22.2198 76.0835 89.8538 23.1859 79.2537 93.5978 24.152 82.4238 97.3417 25.1181 85.594 101.086 26.0841 88.7641 104.829 27.0502 91.9342 108.573 28.0163 95.1044 112.317 28.9824 98.2745 116.061 29.9485 101.445 119.805 30.9145 104.615 123.549 31.8806 107.785 127.293 32.8467 110.955 131.037 33.8128 114.125 134.781 34.7789 117.295 138.525 35.7449 120.466 142.269 36.711 123.636 146.012 37.6771 126.806 149.756 38.6432 57.0158 79.8491 19.3216 59.8666 83.8415 20.2877 62.7174 87.834 21.2537 65.5682 91.8264 22.2198 68.419 95.8189 23.1859 71.2698 99.8113 24.152 74.1206 103.804 25.1181 76.9714 107.796 26.0841 79.8222 111.789 27.0502 82.673 115.781 28.0163 85.5237 119.774 28.9824 88.3745 123.766 29.9485 91.2253 127.758 30.9145 94.0761 131.751 31.8806 96.9269 135.743 32.8467 99.7777 139.736 33.8128 102.628 143.728 34.7789 105.479 147.721 35.7449 108.33 151.713 36.711 111.181 155.706 37.6771 114.032 159.698 38.6432 50.288 84.2484 19.3216 52.8023 88.4609 20.2877 55.3167 92.6733 21.2537 57.8311 96.8857 22.2198 60.3455 101.098 23.1859 62.8599 105.311 24.152 65.3743 109.523 25.1181 67.8887 113.735 26.0841 70.4031 117.948 27.0502 72.9175 122.16 28.0163 75.4319 126.373 28.9824 77.9463 130.585 29.9485 80.4607 134.797 30.9145 82.9751 139.01 31.8806 85.4895 143.222 32.8467 88.0039 147.435 33.8128 90.5183 151.647 34.7789 93.0327 155.86 35.7449 95.5471 160.072 36.711 98.0615 164.284 37.6771 100.576 168.497 38.6432 43.2952 88.0466 19.3216 45.46 92.4489 20.2877 47.6248 96.8512 21.2537 49.7895 101.254 22.2198 51.9543 105.656 23.1859 54.119 110.058 24.152 56.2838 114.461 25.1181 58.4486 118.863 26.0841 60.6133 123.265 27.0502 62.7781 127.668 28.0163 64.9428 132.07 28.9824 67.1076 136.472 29.9485 69.2724 140.875 30.9145 71.4371 145.277 31.8806 73.6019 149.679 32.8467 75.7667 154.082 33.8128 77.9314 158.484 34.7789 80.0962 162.886 35.7449 82.2609 167.288 36.711 84.4257 171.691 37.6771 86.5905 176.093 38.6432 36.1158 91.2268 19.3216 37.9216 95.7881 20.2877 39.7274 100.349 21.2537 41.5332 104.911 22.2198 43.339 109.472 23.1859 45.1448 114.033 24.152 46.9506 118.595 25.1181 48.7564 123.156 26.0841 50.5622 127.717 27.0502 52.368 132.279 28.0163 54.1738 136.84 28.9824 55.9796 141.401 29.9485 57.7853 145.963 30.9145 59.5911 150.524 31.8806 61.3969 155.085 32.8467 63.2027 159.647 33.8128 65.0085 164.208 34.7789 66.8143 168.77 35.7449 68.6201 173.331 36.711 70.4259 177.892 37.6771 72.2317 182.454 38.6432 28.8275 93.7851 19.3216 30.2689 98.4744 20.2877 31.7103 103.164 21.2537 33.1517 107.853 22.2198 34.5931 112.542 23.1859 36.0344 117.231 24.152 37.4758 121.921 25.1181 38.9172 126.61 26.0841 40.3586 131.299 27.0502 41.7999 135.988 28.0163 43.2413 140.678 28.9824 44.6827 145.367 29.9485 46.1241 150.056 30.9145 47.5654 154.745 31.8806 49.0068 159.435 32.8467 50.4482 164.124 33.8128 51.8896 168.813 34.7789 53.331 173.502 35.7449 54.7723 178.192 36.711 56.2137 182.881 37.6771 57.6551 187.57 38.6432 21.5052 95.7298 19.3216 22.5805 100.516 20.2877 23.6557 105.303 21.2537 24.731 110.089 22.2198 25.8063 114.876 23.1859 26.8815 119.662 24.152 27.9568 124.449 25.1181 29.0321 129.235 26.0841 30.1073 134.022 27.0502 31.1826 138.808 28.0163 32.2578 143.595 28.9824 33.3331 148.381 29.9485 34.4084 153.168 30.9145 35.4836 157.954 31.8806 36.5589 162.741 32.8467 37.6341 167.527 33.8128 38.7094 172.314 34.7789 39.7847 177.1 35.7449 40.8599 181.887 36.711 41.9352 186.673 37.6771 43.0105 191.46 38.6432 14.2189 97.0799 19.3216 14.9298 101.934 20.2877 15.6408 106.788 21.2537 16.3517 111.642 22.2198 17.0626 116.496 23.1859 17.7736 121.35 24.152 18.4845 126.204 25.1181 19.1955 131.058 26.0841 19.9064 135.912 27.0502 20.6174 140.766 28.0163 21.3283 145.62 28.9824 22.0392 150.474 29.9485 22.7502 155.328 30.9145 23.4611 160.182 31.8806 24.1721 165.036 32.8467 24.883 169.89 33.8128 25.594 174.744 34.7789 26.3049 179.598 35.7449 27.0158 184.452 36.711 27.7268 189.306 37.6771 28.4377 194.16 38.6432 7.03188 97.8633 19.3216 7.38348 102.756 20.2877 7.73507 107.65 21.2537 8.08666 112.543 22.2198 8.43826 117.436 23.1859 8.78985 122.329 24.152 9.14145 127.222 25.1181 9.49304 132.115 26.0841 9.84463 137.009 27.0502 10.1962 141.902 28.0163 10.5478 146.795 28.9824 10.8994 151.688 29.9485 11.251 156.581 30.9145 11.6026 161.474 31.8806 11.9542 166.368 32.8467 12.3058 171.261 33.8128 12.6574 176.154 34.7789 13.009 181.047 35.7449 13.3606 185.94 36.711 13.7122 190.833 37.6771 14.0638 195.727 38.6432 0 98.1156 19.3216 0 103.021 20.2877 0 107.927 21.2537 0 112.833 22.2198 0 117.739 23.1859 0 122.645 24.152 0 127.55 25.1181 0 132.456 26.0841 0 137.362 27.0502 0 142.268 28.0163 0 147.173 28.9824 0 152.079 29.9485 0 156.985 30.9145 0 161.891 31.8806 0 166.797 32.8467 0 171.702 33.8128 0 176.608 34.7789 0 181.514 35.7449 0 186.42 36.711 0 191.325 37.6771 0 196.231 38.6432 97.2769 0 23.1777 102.141 0 24.3366 107.005 0 25.4954 111.868 0 26.6543 116.732 0 27.8132 121.596 0 28.9721 126.46 0 30.131 131.324 0 31.2899 136.188 0 32.4487 141.052 0 33.6076 145.915 0 34.7665 150.779 0 35.9254 155.643 0 37.0843 160.507 0 38.2432 165.371 0 39.402 170.235 0 40.5609 175.098 0 41.7198 179.962 0 42.8787 184.826 0 44.0376 189.69 0 45.1965 194.554 0 46.3553 97.0268 6.97177 23.1777 101.878 7.32036 24.3366 106.729 7.66895 25.4954 111.581 8.01754 26.6543 116.432 8.36612 27.8132 121.283 8.71471 28.9721 126.135 9.0633 30.131 130.986 9.41189 31.2899 135.837 9.76048 32.4487 140.689 10.1091 33.6076 145.54 10.4577 34.7665 150.391 10.8062 35.9254 155.243 11.1548 37.0843 160.094 11.5034 38.2432 164.945 11.852 39.402 169.797 12.2006 40.5609 174.648 12.5492 41.7198 179.499 12.8978 42.8787 184.351 13.2464 44.0376 189.202 13.595 45.1965 194.054 13.9435 46.3553 96.25 14.0973 23.1777 101.062 14.8022 24.3366 105.875 15.5071 25.4954 110.687 16.2119 26.6543 115.5 16.9168 27.8132 120.312 17.6216 28.9721 125.125 18.3265 30.131 129.937 19.0314 31.2899 134.75 19.7362 32.4487 139.562 20.4411 33.6076 144.375 21.146 34.7665 149.187 21.8508 35.9254 154 22.5557 37.0843 158.812 23.2606 38.2432 163.625 23.9654 39.402 168.437 24.6703 40.5609 173.25 25.3752 41.7198 178.062 26.08 42.8787 182.875 26.7849 44.0376 187.687 27.4898 45.1965 192.5 28.1946 46.3553 94.9115 21.3214 23.1777 99.6571 22.3875 24.3366 104.403 23.4535 25.4954 109.148 24.5196 26.6543 113.894 25.5857 27.8132 118.639 26.6517 28.9721 123.385 27.7178 30.131 128.131 28.7839 31.2899 132.876 29.8499 32.4487 137.622 30.916 33.6076 142.367 31.9821 34.7665 147.113 33.0482 35.9254 151.858 34.1142 37.0843 156.604 35.1803 38.2432 161.35 36.2464 39.402 166.095 37.3124 40.5609 170.841 38.3785 41.7198 175.586 39.4446 42.8787 180.332 40.5106 44.0376 185.077 41.5767 45.1965 189.823 42.6428 46.3553 92.9834 28.5811 23.1777 97.6326 30.0102 24.3366 102.282 31.4392 25.4954 106.931 32.8683 26.6543 111.58 34.2973 27.8132 116.229 35.7264 28.9721 120.878 37.1554 30.131 125.528 38.5845 31.2899 130.177 40.0136 32.4487 134.826 41.4426 33.6076 139.475 42.8717 34.7665 144.124 44.3007 35.9254 148.773 45.7298 37.0843 153.423 47.1588 38.2432 158.072 48.5879 39.402 162.721 50.017 40.5609 167.37 51.446 41.7198 172.019 52.8751 42.8787 176.668 54.3041 44.0376 181.318 55.7332 45.1965 185.967 57.1622 46.3553 90.4469 35.8071 23.1777 94.9693 37.5975 24.3366 99.4916 39.3878 25.4954 104.014 41.1782 26.6543 108.536 42.9685 27.8132 113.059 44.7589 28.9721 117.581 46.5492 30.131 122.103 48.3396 31.2899 126.626 50.13 32.4487 131.148 51.9203 33.6076 135.67 53.7107 34.7665 140.193 55.501 35.9254 144.715 57.2914 37.0843 149.237 59.0817 38.2432 153.76 60.8721 39.402 158.282 62.6624 40.5609 162.804 64.4528 41.7198 167.327 66.2432 42.8787 171.849 68.0335 44.0376 176.372 69.8239 45.1965 180.894 71.6142 46.3553 87.2939 42.9251 23.1777 91.6586 45.0714 24.3366 96.0233 47.2176 25.4954 100.388 49.3639 26.6543 104.753 51.5102 27.8132 109.117 53.6564 28.9721 113.482 55.8027 30.131 117.847 57.9489 31.2899 122.211 60.0952 32.4487 126.576 62.2414 33.6076 130.941 64.3877 34.7665 135.306 66.5339 35.9254 139.67 68.6802 37.0843 144.035 70.8265 38.2432 148.4 72.9727 39.402 152.764 75.119 40.5609 157.129 77.2652 41.7198 161.494 79.4115 42.8787 165.858 81.5577 44.0376 170.223 83.704 45.1965 174.588 85.8503 46.3553 83.5282 49.8581 23.1777 87.7047 52.351 24.3366 91.8811 54.8439 25.4954 96.0575 57.3368 26.6543 100.234 59.8297 27.8132 104.41 62.3226 28.9721 108.587 64.8155 30.131 112.763 67.3084 31.2899 116.94 69.8013 32.4487 121.116 72.2942 33.6076 125.292 74.7871 34.7665 129.469 77.28 35.9254 133.645 79.7729 37.0843 137.822 82.2658 38.2432 141.998 84.7587 39.402 146.174 87.2516 40.5609 150.351 89.7445 41.7198 154.527 92.2374 42.8787 158.704 94.7303 44.0376 162.88 97.2232 45.1965 167.056 99.7161 46.3553 79.1665 56.5284 23.1777 83.1248 59.3549 24.3366 87.0831 62.1813 25.4954 91.0414 65.0077 26.6543 94.9998 67.8341 27.8132 98.9581 70.6606 28.9721 102.916 73.487 30.131 106.875 76.3134 31.2899 110.833 79.1398 32.4487 114.791 81.9662 33.6076 118.75 84.7927 34.7665 122.708 87.6191 35.9254 126.666 90.4455 37.0843 130.625 93.2719 38.2432 134.583 96.0984 39.402 138.541 98.9248 40.5609 142.5 101.751 41.7198 146.458 104.578 42.8787 150.416 107.404 44.0376 154.375 110.23 45.1965 158.333 113.057 46.3553 74.2381 62.8609 23.1777 77.95 66.004 24.3366 81.6619 69.147 25.4954 85.3738 72.2901 26.6543 89.0857 75.4331 27.8132 92.7976 78.5762 28.9721 96.5096 81.7192 30.131 100.221 84.8623 31.2899 103.933 88.0053 32.4487 107.645 91.1484 33.6076 111.357 94.2914 34.7665 115.069 97.4345 35.9254 118.781 100.578 37.0843 122.493 103.721 38.2432 126.205 106.864 39.402 129.917 110.007 40.5609 133.629 113.15 41.7198 137.341 116.293 42.8787 141.052 119.436 44.0376 144.764 122.579 45.1965 148.476 125.722 46.3553 68.7852 68.7852 23.1777 72.2244 72.2244 24.3366 75.6637 75.6637 25.4954 79.1029 79.1029 26.6543 82.5422 82.5422 27.8132 85.9814 85.9814 28.9721 89.4207 89.4207 30.131 92.86 92.86 31.2899 96.2992 96.2992 32.4487 99.7385 99.7385 33.6076 103.178 103.178 34.7665 106.617 106.617 35.9254 110.056 110.056 37.0843 113.496 113.496 38.2432 116.935 116.935 39.402 120.374 120.374 40.5609 123.813 123.813 41.7198 127.253 127.253 42.8787 130.692 130.692 44.0376 134.131 134.131 45.1965 137.57 137.57 46.3553 62.8609 74.2381 23.1777 66.004 77.95 24.3366 69.147 81.6619 25.4954 72.2901 85.3738 26.6543 75.4331 89.0857 27.8132 78.5762 92.7976 28.9721 81.7192 96.5096 30.131 84.8623 100.221 31.2899 88.0053 103.933 32.4487 91.1484 107.645 33.6076 94.2914 111.357 34.7665 97.4345 115.069 35.9254 100.578 118.781 37.0843 103.721 122.493 38.2432 106.864 126.205 39.402 110.007 129.917 40.5609 113.15 133.629 41.7198 116.293 137.341 42.8787 119.436 141.052 44.0376 122.579 144.764 45.1965 125.722 148.476 46.3553 56.5284 79.1665 23.1777 59.3549 83.1248 24.3366 62.1813 87.0831 25.4954 65.0077 91.0414 26.6543 67.8341 94.9998 27.8132 70.6606 98.9581 28.9721 73.487 102.916 30.131 76.3134 106.875 31.2899 79.1398 110.833 32.4487 81.9662 114.791 33.6076 84.7927 118.75 34.7665 87.6191 122.708 35.9254 90.4455 126.666 37.0843 93.2719 130.625 38.2432 96.0984 134.583 39.402 98.9248 138.541 40.5609 101.751 142.5 41.7198 104.578 146.458 42.8787 107.404 150.416 44.0376 110.23 154.375 45.1965 113.057 158.333 46.3553 49.8581 83.5282 23.1777 52.351 87.7047 24.3366 54.8439 91.8811 25.4954 57.3368 96.0575 26.6543 59.8297 100.234 27.8132 62.3226 104.41 28.9721 64.8155 108.587 30.131 67.3084 112.763 31.2899 69.8013 116.94 32.4487 72.2942 121.116 33.6076 74.7871 125.292 34.7665 77.28 129.469 35.9254 79.7729 133.645 37.0843 82.2658 137.822 38.2432 84.7587 141.998 39.402 87.2516 146.174 40.5609 89.7445 150.351 41.7198 92.2374 154.527 42.8787 94.7303 158.704 44.0376 97.2232 162.88 45.1965 99.7161 167.056 46.3553 42.9251 87.2939 23.1777 45.0714 91.6586 24.3366 47.2176 96.0233 25.4954 49.3639 100.388 26.6543 51.5102 104.753 27.8132 53.6564 109.117 28.9721 55.8027 113.482 30.131 57.9489 117.847 31.2899 60.0952 122.211 32.4487 62.2414 126.576 33.6076 64.3877 130.941 34.7665 66.5339 135.306 35.9254 68.6802 139.67 37.0843 70.8265 144.035 38.2432 72.9727 148.4 39.402 75.119 152.764 40.5609 77.2652 157.129 41.7198 79.4115 161.494 42.8787 81.5577 165.858 44.0376 83.704 170.223 45.1965 85.8503 174.588 46.3553 35.8071 90.4469 23.1777 37.5975 94.9693 24.3366 39.3878 99.4916 25.4954 41.1782 104.014 26.6543 42.9685 108.536 27.8132 44.7589 113.059 28.9721 46.5492 117.581 30.131 48.3396 122.103 31.2899 50.13 126.626 32.4487 51.9203 131.148 33.6076 53.7107 135.67 34.7665 55.501 140.193 35.9254 57.2914 144.715 37.0843 59.0817 149.237 38.2432 60.8721 153.76 39.402 62.6624 158.282 40.5609 64.4528 162.804 41.7198 66.2432 167.327 42.8787 68.0335 171.849 44.0376 69.8239 176.372 45.1965 71.6142 180.894 46.3553 28.5811 92.9834 23.1777 30.0102 97.6326 24.3366 31.4392 102.282 25.4954 32.8683 106.931 26.6543 34.2973 111.58 27.8132 35.7264 116.229 28.9721 37.1554 120.878 30.131 38.5845 125.528 31.2899 40.0136 130.177 32.4487 41.4426 134.826 33.6076 42.8717 139.475 34.7665 44.3007 144.124 35.9254 45.7298 148.773 37.0843 47.1588 153.423 38.2432 48.5879 158.072 39.402 50.017 162.721 40.5609 51.446 167.37 41.7198 52.8751 172.019 42.8787 54.3041 176.668 44.0376 55.7332 181.318 45.1965 57.1622 185.967 46.3553 21.3214 94.9115 23.1777 22.3875 99.6571 24.3366 23.4535 104.403 25.4954 24.5196 109.148 26.6543 25.5857 113.894 27.8132 26.6517 118.639 28.9721 27.7178 123.385 30.131 28.7839 128.131 31.2899 29.8499 132.876 32.4487 30.916 137.622 33.6076 31.9821 142.367 34.7665 33.0482 147.113 35.9254 34.1142 151.858 37.0843 35.1803 156.604 38.2432 36.2464 161.35 39.402 37.3124 166.095 40.5609 38.3785 170.841 41.7198 39.4446 175.586 42.8787 40.5106 180.332 44.0376 41.5767 185.077 45.1965 42.6428 189.823 46.3553 14.0973 96.25 23.1777 14.8022 101.062 24.3366 15.5071 105.875 25.4954 16.2119 110.687 26.6543 16.9168 115.5 27.8132 17.6216 120.312 28.9721 18.3265 125.125 30.131 19.0314 129.937 31.2899 19.7362 134.75 32.4487 20.4411 139.562 33.6076 21.146 144.375 34.7665 21.8508 149.187 35.9254 22.5557 154 37.0843 23.2606 158.812 38.2432 23.9654 163.625 39.402 24.6703 168.437 40.5609 25.3752 173.25 41.7198 26.08 178.062 42.8787 26.7849 182.875 44.0376 27.4898 187.687 45.1965 28.1946 192.5 46.3553 6.97177 97.0268 23.1777 7.32036 101.878 24.3366 7.66895 106.729 25.4954 8.01754 111.581 26.6543 8.36612 116.432 27.8132 8.71471 121.283 28.9721 9.0633 126.135 30.131 9.41189 130.986 31.2899 9.76048 135.837 32.4487 10.1091 140.689 33.6076 10.4577 145.54 34.7665 10.8062 150.391 35.9254 11.1548 155.243 37.0843 11.5034 160.094 38.2432 11.852 164.945 39.402 12.2006 169.797 40.5609 12.5492 174.648 41.7198 12.8978 179.499 42.8787 13.2464 184.351 44.0376 13.595 189.202 45.1965 13.9435 194.054 46.3553 0 97.2769 23.1777 0 102.141 24.3366 0 107.005 25.4954 0 111.868 26.6543 0 116.732 27.8132 0 121.596 28.9721 0 126.46 30.131 0 131.324 31.2899 0 136.188 32.4487 0 141.052 33.6076 0 145.915 34.7665 0 150.779 35.9254 0 155.643 37.0843 0 160.507 38.2432 0 165.371 39.402 0 170.235 40.5609 0 175.098 41.7198 0 179.962 42.8787 0 184.826 44.0376 0 189.69 45.1965 0 194.554 46.3553 96.2833 0 27.0096 101.098 0 28.3601 105.912 0 29.7106 110.726 0 31.0611 115.54 0 32.4116 120.354 0 33.762 125.168 0 35.1125 129.983 0 36.463 134.797 0 37.8135 139.611 0 39.164 144.425 0 40.5144 149.239 0 41.8649 154.053 0 43.2154 158.868 0 44.5659 163.682 0 45.9164 168.496 0 47.2668 173.31 0 48.6173 178.124 0 49.9678 182.938 0 51.3183 187.753 0 52.6688 192.567 0 54.0193 96.0357 6.90056 27.0096 100.838 7.24559 28.3601 105.639 7.59062 29.7106 110.441 7.93565 31.0611 115.243 8.28067 32.4116 120.045 8.6257 33.762 124.846 8.97073 35.1125 129.648 9.31576 36.463 134.45 9.66079 37.8135 139.252 10.0058 39.164 144.054 10.3508 40.5144 148.855 10.6959 41.8649 153.657 11.0409 43.2154 158.459 11.3859 44.5659 163.261 11.731 45.9164 168.063 12.076 47.2668 172.864 12.421 48.6173 177.666 12.766 49.9678 182.468 13.1111 51.3183 187.27 13.4561 52.6688 192.071 13.8011 54.0193 95.2669 13.9533 27.0096 100.03 14.651 28.3601 104.794 15.3487 29.7106 109.557 16.0463 31.0611 114.32 16.744 32.4116 119.084 17.4417 33.762 123.847 18.1393 35.1125 128.61 18.837 36.463 133.374 19.5347 37.8135 138.137 20.2323 39.164 142.9 20.93 40.5144 147.664 21.6277 41.8649 152.427 22.3253 43.2154 157.19 23.023 44.5659 161.954 23.7207 45.9164 166.717 24.4183 47.2668 171.48 25.116 48.6173 176.244 25.8137 49.9678 181.007 26.5113 51.3183 185.77 27.209 52.6688 190.534 27.9067 54.0193 93.9421 21.1036 27.0096 98.6392 22.1588 28.3601 103.336 23.214 29.7106 108.033 24.2692 31.0611 112.731 25.3243 32.4116 117.428 26.3795 33.762 122.125 27.4347 35.1125 126.822 28.4899 36.463 131.519 29.5451 37.8135 136.216 30.6002 39.164 140.913 31.6554 40.5144 145.61 32.7106 41.8649 150.307 33.7658 43.2154 155.004 34.821 44.5659 159.702 35.8762 45.9164 164.399 36.9313 47.2668 169.096 37.9865 48.6173 173.793 39.0417 49.9678 178.49 40.0969 51.3183 183.187 41.1521 52.6688 187.884 42.2072 54.0193 92.0337 28.2892 27.0096 96.6354 29.7037 28.3601 101.237 31.1181 29.7106 105.839 32.5326 31.0611 110.44 33.947 32.4116 115.042 35.3615 33.762 119.644 36.776 35.1125 124.245 38.1904 36.463 128.847 39.6049 37.8135 133.449 41.0193 39.164 138.051 42.4338 40.5144 142.652 43.8482 41.8649 147.254 45.2627 43.2154 151.856 46.6772 44.5659 156.457 48.0916 45.9164 161.059 49.5061 47.2668 165.661 50.9205 48.6173 170.262 52.335 49.9678 174.864 53.7495 51.3183 179.466 55.1639 52.6688 184.067 56.5784 54.0193 89.5231 35.4414 27.0096 93.9993 37.2135 28.3601 98.4754 38.9855 29.7106 102.952 40.7576 31.0611 107.428 42.5297 32.4116 111.904 44.3017 33.762 116.38 46.0738 35.1125 120.856 47.8459 36.463 125.332 49.6179 37.8135 129.809 51.39 39.164 134.285 53.1621 40.5144 138.761 54.9341 41.8649 143.237 56.7062 43.2154 147.713 58.4783 44.5659 152.189 60.2504 45.9164 156.665 62.0224 47.2668 161.142 63.7945 48.6173 165.618 65.5666 49.9678 170.094 67.3386 51.3183 174.57 69.1107 52.6688 179.046 70.8828 54.0193 86.4023 42.4867 27.0096 90.7224 44.611 28.3601 95.0425 46.7354 29.7106 99.3627 48.8597 31.0611 103.683 50.984 32.4116 108.003 53.1084 33.762 112.323 55.2327 35.1125 116.643 57.357 36.463 120.963 59.4814 37.8135 125.283 61.6057 39.164 129.603 63.73 40.5144 133.924 65.8544 41.8649 138.244 67.9787 43.2154 142.564 70.1031 44.5659 146.884 72.2274 45.9164 151.204 74.3517 47.2668 155.524 76.4761 48.6173 159.844 78.6004 49.9678 164.164 80.7247 51.3183 168.485 82.8491 52.6688 172.805 84.9734 54.0193 82.6751 49.3488 27.0096 86.8089 51.8163 28.3601 90.9426 54.2837 29.7106 95.0764 56.7512 31.0611 99.2101 59.2186 32.4116 103.344 61.686 33.762 107.478 64.1535 35.1125 111.611 66.6209 36.463 115.745 69.0884 37.8135 119.879 71.5558 39.164 124.013 74.0232 40.5144 128.146 76.4907 41.8649 132.28 78.9581 43.2154 136.414 81.4256 44.5659 140.548 83.893 45.9164 144.681 86.3605 47.2668 148.815 88.8279 48.6173 152.949 91.2953 49.9678 157.083 93.7628 51.3183 161.216 96.2302 52.6688 165.35 98.6977 54.0193 78.3579 55.9511 27.0096 82.2758 58.7486 28.3601 86.1937 61.5462 29.7106 90.1116 64.3437 31.0611 94.0295 67.1413 32.4116 97.9474 69.9388 33.762 101.865 72.7364 35.1125 105.783 75.5339 36.463 109.701 78.3315 37.8135 113.619 81.1291 39.164 117.537 83.9266 40.5144 121.455 86.7242 41.8649 125.373 89.5217 43.2154 129.291 92.3193 44.5659 133.208 95.1168 45.9164 137.126 97.9144 47.2668 141.044 100.712 48.6173 144.962 103.509 49.9678 148.88 106.307 51.3183 152.798 109.105 52.6688 156.716 111.902 54.0193 73.4799 62.2189 27.0096 77.1539 65.3298 28.3601 80.8278 68.4408 29.7106 84.5018 71.5517 31.0611 88.1758 74.6627 32.4116 91.8498 77.7736 33.762 95.5238 80.8846 35.1125 99.1978 83.9955 36.463 102.872 87.1064 37.8135 106.546 90.2174 39.164 110.22 93.3283 40.5144 113.894 96.4393 41.8649 117.568 99.5502 43.2154 121.242 102.661 44.5659 124.916 105.772 45.9164 128.59 108.883 47.2668 132.264 111.994 48.6173 135.938 115.105 49.9678 139.612 118.216 51.3183 143.286 121.327 52.6688 146.96 124.438 54.0193 68.0826 68.0826 27.0096 71.4867 71.4867 28.3601 74.8909 74.8909 29.7106 78.295 78.295 31.0611 81.6991 81.6991 32.4116 85.1032 85.1032 33.762 88.5074 88.5074 35.1125 91.9115 91.9115 36.463 95.3156 95.3156 37.8135 98.7198 98.7198 39.164 102.124 102.124 40.5144 105.528 105.528 41.8649 108.932 108.932 43.2154 112.336 112.336 44.5659 115.74 115.74 45.9164 119.145 119.145 47.2668 122.549 122.549 48.6173 125.953 125.953 49.9678 129.357 129.357 51.3183 132.761 132.761 52.6688 136.165 136.165 54.0193 62.2189 73.4799 27.0096 65.3298 77.1539 28.3601 68.4408 80.8278 29.7106 71.5517 84.5018 31.0611 74.6627 88.1758 32.4116 77.7736 91.8498 33.762 80.8846 95.5238 35.1125 83.9955 99.1978 36.463 87.1064 102.872 37.8135 90.2174 106.546 39.164 93.3283 110.22 40.5144 96.4393 113.894 41.8649 99.5502 117.568 43.2154 102.661 121.242 44.5659 105.772 124.916 45.9164 108.883 128.59 47.2668 111.994 132.264 48.6173 115.105 135.938 49.9678 118.216 139.612 51.3183 121.327 143.286 52.6688 124.438 146.96 54.0193 55.9511 78.3579 27.0096 58.7486 82.2758 28.3601 61.5462 86.1937 29.7106 64.3437 90.1116 31.0611 67.1413 94.0295 32.4116 69.9388 97.9474 33.762 72.7364 101.865 35.1125 75.5339 105.783 36.463 78.3315 109.701 37.8135 81.1291 113.619 39.164 83.9266 117.537 40.5144 86.7242 121.455 41.8649 89.5217 125.373 43.2154 92.3193 129.291 44.5659 95.1168 133.208 45.9164 97.9144 137.126 47.2668 100.712 141.044 48.6173 103.509 144.962 49.9678 106.307 148.88 51.3183 109.105 152.798 52.6688 111.902 156.716 54.0193 49.3488 82.6751 27.0096 51.8163 86.8089 28.3601 54.2837 90.9426 29.7106 56.7512 95.0764 31.0611 59.2186 99.2101 32.4116 61.686 103.344 33.762 64.1535 107.478 35.1125 66.6209 111.611 36.463 69.0884 115.745 37.8135 71.5558 119.879 39.164 74.0232 124.013 40.5144 76.4907 128.146 41.8649 78.9581 132.28 43.2154 81.4256 136.414 44.5659 83.893 140.548 45.9164 86.3605 144.681 47.2668 88.8279 148.815 48.6173 91.2953 152.949 49.9678 93.7628 157.083 51.3183 96.2302 161.216 52.6688 98.6977 165.35 54.0193 42.4867 86.4023 27.0096 44.611 90.7224 28.3601 46.7354 95.0425 29.7106 48.8597 99.3627 31.0611 50.984 103.683 32.4116 53.1084 108.003 33.762 55.2327 112.323 35.1125 57.357 116.643 36.463 59.4814 120.963 37.8135 61.6057 125.283 39.164 63.73 129.603 40.5144 65.8544 133.924 41.8649 67.9787 138.244 43.2154 70.1031 142.564 44.5659 72.2274 146.884 45.9164 74.3517 151.204 47.2668 76.4761 155.524 48.6173 78.6004 159.844 49.9678 80.7247 164.164 51.3183 82.8491 168.485 52.6688 84.9734 172.805 54.0193 35.4414 89.5231 27.0096 37.2135 93.9993 28.3601 38.9855 98.4754 29.7106 40.7576 102.952 31.0611 42.5297 107.428 32.4116 44.3017 111.904 33.762 46.0738 116.38 35.1125 47.8459 120.856 36.463 49.6179 125.332 37.8135 51.39 129.809 39.164 53.1621 134.285 40.5144 54.9341 138.761 41.8649 56.7062 143.237 43.2154 58.4783 147.713 44.5659 60.2504 152.189 45.9164 62.0224 156.665 47.2668 63.7945 161.142 48.6173 65.5666 165.618 49.9678 67.3386 170.094 51.3183 69.1107 174.57 52.6688 70.8828 179.046 54.0193 28.2892 92.0337 27.0096 29.7037 96.6354 28.3601 31.1181 101.237 29.7106 32.5326 105.839 31.0611 33.947 110.44 32.4116 35.3615 115.042 33.762 36.776 119.644 35.1125 38.1904 124.245 36.463 39.6049 128.847 37.8135 41.0193 133.449 39.164 42.4338 138.051 40.5144 43.8482 142.652 41.8649 45.2627 147.254 43.2154 46.6772 151.856 44.5659 48.0916 156.457 45.9164 49.5061 161.059 47.2668 50.9205 165.661 48.6173 52.335 170.262 49.9678 53.7495 174.864 51.3183 55.1639 179.466 52.6688 56.5784 184.067 54.0193 21.1036 93.9421 27.0096 22.1588 98.6392 28.3601 23.214 103.336 29.7106 24.2692 108.033 31.0611 25.3243 112.731 32.4116 26.3795 117.428 33.762 27.4347 122.125 35.1125 28.4899 126.822 36.463 29.5451 131.519 37.8135 30.6002 136.216 39.164 31.6554 140.913 40.5144 32.7106 145.61 41.8649 33.7658 150.307 43.2154 34.821 155.004 44.5659 35.8762 159.702 45.9164 36.9313 164.399 47.2668 37.9865 169.096 48.6173 39.0417 173.793 49.9678 40.0969 178.49 51.3183 41.1521 183.187 52.6688 42.2072 187.884 54.0193 13.9533 95.2669 27.0096 14.651 100.03 28.3601 15.3487 104.794 29.7106 16.0463 109.557 31.0611 16.744 114.32 32.4116 17.4417 119.084 33.762 18.1393 123.847 35.1125 18.837 128.61 36.463 19.5347 133.374 37.8135 20.2323 138.137 39.164 20.93 142.9 40.5144 21.6277 147.664 41.8649 22.3253 152.427 43.2154 23.023 157.19 44.5659 23.7207 161.954 45.9164 24.4183 166.717 47.2668 25.116 171.48 48.6173 25.8137 176.244 49.9678 26.5113 181.007 51.3183 27.209 185.77 52.6688 27.9067 190.534 54.0193 6.90056 96.0357 27.0096 7.24559 100.838 28.3601 7.59062 105.639 29.7106 7.93565 110.441 31.0611 8.28067 115.243 32.4116 8.6257 120.045 33.762 8.97073 124.846 35.1125 9.31576 129.648 36.463 9.66079 134.45 37.8135 10.0058 139.252 39.164 10.3508 144.054 40.5144 10.6959 148.855 41.8649 11.0409 153.657 43.2154 11.3859 158.459 44.5659 11.731 163.261 45.9164 12.076 168.063 47.2668 12.421 172.864 48.6173 12.766 177.666 49.9678 13.1111 182.468 51.3183 13.4561 187.27 52.6688 13.8011 192.071 54.0193 0 96.2833 27.0096 0 101.098 28.3601 0 105.912 29.7106 0 110.726 31.0611 0 115.54 32.4116 0 120.354 33.762 0 125.168 35.1125 0 129.983 36.463 0 134.797 37.8135 0 139.611 39.164 0 144.425 40.5144 0 149.239 41.8649 0 154.053 43.2154 0 158.868 44.5659 0 163.682 45.9164 0 168.496 47.2668 0 173.31 48.6173 0 178.124 49.9678 0 182.938 51.3183 0 187.753 52.6688 0 192.567 54.0193 95.136 0 30.8082 99.8928 0 32.3486 104.65 0 33.889 109.406 0 35.4294 114.163 0 36.9698 118.92 0 38.5102 123.677 0 40.0506 128.434 0 41.591 133.19 0 43.1314 137.947 0 44.6719 142.704 0 46.2123 147.461 0 47.7527 152.218 0 49.2931 156.974 0 50.8335 161.731 0 52.3739 166.488 0 53.9143 171.245 0 55.4547 176.002 0 56.9951 180.758 0 58.5355 185.515 0 60.0759 190.272 0 61.6164 94.8913 6.81833 30.8082 99.6359 7.15925 32.3486 104.38 7.50017 33.889 109.125 7.84108 35.4294 113.87 8.182 36.9698 118.614 8.52292 38.5102 123.359 8.86383 40.0506 128.103 9.20475 41.591 132.848 9.54567 43.1314 137.592 9.88658 44.6719 142.337 10.2275 46.2123 147.082 10.5684 47.7527 151.826 10.9093 49.2931 156.571 11.2502 50.8335 161.315 11.5912 52.3739 166.06 11.9321 53.9143 170.804 12.273 55.4547 175.549 12.6139 56.9951 180.294 12.9548 58.5355 185.038 13.2957 60.0759 189.783 13.6367 61.6164 94.1317 13.7871 30.8082 98.8383 14.4764 32.3486 103.545 15.1658 33.889 108.251 15.8551 35.4294 112.958 16.5445 36.9698 117.665 17.2338 38.5102 122.371 17.9232 40.0506 127.078 18.6125 41.591 131.784 19.3019 43.1314 136.491 19.9912 44.6719 141.198 20.6806 46.2123 145.904 21.3699 47.7527 150.611 22.0593 49.2931 155.317 22.7486 50.8335 160.024 23.438 52.3739 164.73 24.1274 53.9143 169.437 24.8167 55.4547 174.144 25.5061 56.9951 178.85 26.1954 58.5355 183.557 26.8848 60.0759 188.263 27.5741 61.6164 92.8227 20.8521 30.8082 97.4638 21.8947 32.3486 102.105 22.9374 33.889 106.746 23.98 35.4294 111.387 25.0226 36.9698 116.028 26.0652 38.5102 120.669 27.1078 40.0506 125.311 28.1504 41.591 129.952 29.193 43.1314 134.593 30.2356 44.6719 139.234 31.2782 46.2123 143.875 32.3208 47.7527 148.516 33.3634 49.2931 153.157 34.406 50.8335 157.799 35.4486 52.3739 162.44 36.4912 53.9143 167.081 37.5339 55.4547 171.722 38.5765 56.9951 176.363 39.6191 58.5355 181.004 40.6617 60.0759 185.645 41.7043 61.6164 90.937 27.9521 30.8082 95.4838 29.3497 32.3486 100.031 30.7473 33.889 104.578 32.1449 35.4294 109.124 33.5425 36.9698 113.671 34.9401 38.5102 118.218 36.3377 40.0506 122.765 37.7353 41.591 127.312 39.1329 43.1314 131.859 40.5305 44.6719 136.405 41.9281 46.2123 140.952 43.3257 47.7527 145.499 44.7233 49.2931 150.046 46.1209 50.8335 154.593 47.5186 52.3739 159.14 48.9162 53.9143 163.687 50.3138 55.4547 168.233 51.7114 56.9951 172.78 53.109 58.5355 177.327 54.5066 60.0759 181.874 55.9042 61.6164 88.4563 35.0191 30.8082 92.8791 36.77 32.3486 97.302 38.521 33.889 101.725 40.2719 35.4294 106.148 42.0229 36.9698 110.57 43.7738 38.5102 114.993 45.5248 40.0506 119.416 47.2757 41.591 123.839 49.0267 43.1314 128.262 50.7776 44.6719 132.684 52.5286 46.2123 137.107 54.2795 47.7527 141.53 56.0305 49.2931 145.953 57.7814 50.8335 150.376 59.5324 52.3739 154.799 61.2833 53.9143 159.221 63.0343 55.4547 163.644 64.7852 56.9951 168.067 66.5362 58.5355 172.49 68.2872 60.0759 176.913 70.0381 61.6164 85.3727 41.9804 30.8082 89.6414 44.0794 32.3486 93.91 46.1785 33.889 98.1786 48.2775 35.4294 102.447 50.3765 36.9698 106.716 52.4755 38.5102 110.985 54.5745 40.0506 115.253 56.6736 41.591 119.522 58.7726 43.1314 123.79 60.8716 44.6719 128.059 62.9706 46.2123 132.328 65.0696 47.7527 136.596 67.1687 49.2931 140.865 69.2677 50.8335 145.134 71.3667 52.3739 149.402 73.4657 53.9143 153.671 75.5647 55.4547 157.94 77.6638 56.9951 162.208 79.7628 58.5355 166.477 81.8618 60.0759 170.745 83.9608 61.6164 81.6899 48.7608 30.8082 85.7744 51.1988 32.3486 89.8589 53.6369 33.889 93.9434 56.0749 35.4294 98.0279 58.5129 36.9698 102.112 60.951 38.5102 106.197 63.389 40.0506 110.281 65.827 41.591 114.366 68.2651 43.1314 118.45 70.7031 44.6719 122.535 73.1412 46.2123 126.619 75.5792 47.7527 130.704 78.0172 49.2931 134.788 80.4553 50.8335 138.873 82.8933 52.3739 142.957 85.3314 53.9143 147.042 87.7694 55.4547 151.126 90.2074 56.9951 155.211 92.6455 58.5355 159.295 95.0835 60.0759 163.38 97.5215 61.6164 77.4241 55.2843 30.8082 81.2954 58.0486 32.3486 85.1666 60.8128 33.889 89.0378 63.577 35.4294 92.909 66.3412 36.9698 96.7802 69.1054 38.5102 100.651 71.8696 40.0506 104.523 74.6339 41.591 108.394 77.3981 43.1314 112.265 80.1623 44.6719 116.136 82.9265 46.2123 120.007 85.6907 47.7527 123.879 88.4549 49.2931 127.75 91.2192 50.8335 131.621 93.9834 52.3739 135.492 96.7476 53.9143 139.363 99.5118 55.4547 143.235 102.276 56.9951 147.106 105.04 58.5355 150.977 107.804 60.0759 154.848 110.569 61.6164 72.6043 61.4775 30.8082 76.2345 64.5513 32.3486 79.8647 67.6252 33.889 83.4949 70.6991 35.4294 87.1251 73.773 36.9698 90.7553 76.8468 38.5102 94.3855 79.9207 40.0506 98.0157 82.9946 41.591 101.646 86.0685 43.1314 105.276 89.1423 44.6719 108.906 92.2162 46.2123 112.537 95.2901 47.7527 116.167 98.3639 49.2931 119.797 101.438 50.8335 123.427 104.512 52.3739 127.057 107.586 53.9143 130.688 110.659 55.4547 134.318 113.733 56.9951 137.948 116.807 58.5355 141.578 119.881 60.0759 145.209 122.955 61.6164 67.2713 67.2713 30.8082 70.6349 70.6349 32.3486 73.9984 73.9984 33.889 77.362 77.362 35.4294 80.7256 80.7256 36.9698 84.0891 84.0891 38.5102 87.4527 87.4527 40.0506 90.8163 90.8163 41.591 94.1798 94.1798 43.1314 97.5434 97.5434 44.6719 100.907 100.907 46.2123 104.271 104.271 47.7527 107.634 107.634 49.2931 110.998 110.998 50.8335 114.361 114.361 52.3739 117.725 117.725 53.9143 121.088 121.088 55.4547 124.452 124.452 56.9951 127.815 127.815 58.5355 131.179 131.179 60.0759 134.543 134.543 61.6164 61.4775 72.6043 30.8082 64.5513 76.2345 32.3486 67.6252 79.8647 33.889 70.6991 83.4949 35.4294 73.773 87.1251 36.9698 76.8468 90.7553 38.5102 79.9207 94.3855 40.0506 82.9946 98.0157 41.591 86.0685 101.646 43.1314 89.1423 105.276 44.6719 92.2162 108.906 46.2123 95.2901 112.537 47.7527 98.3639 116.167 49.2931 101.438 119.797 50.8335 104.512 123.427 52.3739 107.586 127.057 53.9143 110.659 130.688 55.4547 113.733 134.318 56.9951 116.807 137.948 58.5355 119.881 141.578 60.0759 122.955 145.209 61.6164 55.2843 77.4241 30.8082 58.0486 81.2954 32.3486 60.8128 85.1666 33.889 63.577 89.0378 35.4294 66.3412 92.909 36.9698 69.1054 96.7802 38.5102 71.8696 100.651 40.0506 74.6339 104.523 41.591 77.3981 108.394 43.1314 80.1623 112.265 44.6719 82.9265 116.136 46.2123 85.6907 120.007 47.7527 88.4549 123.879 49.2931 91.2192 127.75 50.8335 93.9834 131.621 52.3739 96.7476 135.492 53.9143 99.5118 139.363 55.4547 102.276 143.235 56.9951 105.04 147.106 58.5355 107.804 150.977 60.0759 110.569 154.848 61.6164 48.7608 81.6899 30.8082 51.1988 85.7744 32.3486 53.6369 89.8589 33.889 56.0749 93.9434 35.4294 58.5129 98.0279 36.9698 60.951 102.112 38.5102 63.389 106.197 40.0506 65.827 110.281 41.591 68.2651 114.366 43.1314 70.7031 118.45 44.6719 73.1412 122.535 46.2123 75.5792 126.619 47.7527 78.0172 130.704 49.2931 80.4553 134.788 50.8335 82.8933 138.873 52.3739 85.3314 142.957 53.9143 87.7694 147.042 55.4547 90.2074 151.126 56.9951 92.6455 155.211 58.5355 95.0835 159.295 60.0759 97.5215 163.38 61.6164 41.9804 85.3727 30.8082 44.0794 89.6414 32.3486 46.1785 93.91 33.889 48.2775 98.1786 35.4294 50.3765 102.447 36.9698 52.4755 106.716 38.5102 54.5745 110.985 40.0506 56.6736 115.253 41.591 58.7726 119.522 43.1314 60.8716 123.79 44.6719 62.9706 128.059 46.2123 65.0696 132.328 47.7527 67.1687 136.596 49.2931 69.2677 140.865 50.8335 71.3667 145.134 52.3739 73.4657 149.402 53.9143 75.5647 153.671 55.4547 77.6638 157.94 56.9951 79.7628 162.208 58.5355 81.8618 166.477 60.0759 83.9608 170.745 61.6164 35.0191 88.4563 30.8082 36.77 92.8791 32.3486 38.521 97.302 33.889 40.2719 101.725 35.4294 42.0229 106.148 36.9698 43.7738 110.57 38.5102 45.5248 114.993 40.0506 47.2757 119.416 41.591 49.0267 123.839 43.1314 50.7776 128.262 44.6719 52.5286 132.684 46.2123 54.2795 137.107 47.7527 56.0305 141.53 49.2931 57.7814 145.953 50.8335 59.5324 150.376 52.3739 61.2833 154.799 53.9143 63.0343 159.221 55.4547 64.7852 163.644 56.9951 66.5362 168.067 58.5355 68.2872 172.49 60.0759 70.0381 176.913 61.6164 27.9521 90.937 30.8082 29.3497 95.4838 32.3486 30.7473 100.031 33.889 32.1449 104.578 35.4294 33.5425 109.124 36.9698 34.9401 113.671 38.5102 36.3377 118.218 40.0506 37.7353 122.765 41.591 39.1329 127.312 43.1314 40.5305 131.859 44.6719 41.9281 136.405 46.2123 43.3257 140.952 47.7527 44.7233 145.499 49.2931 46.1209 150.046 50.8335 47.5186 154.593 52.3739 48.9162 159.14 53.9143 50.3138 163.687 55.4547 51.7114 168.233 56.9951 53.109 172.78 58.5355 54.5066 177.327 60.0759 55.9042 181.874 61.6164 20.8521 92.8227 30.8082 21.8947 97.4638 32.3486 22.9374 102.105 33.889 23.98 106.746 35.4294 25.0226 111.387 36.9698 26.0652 116.028 38.5102 27.1078 120.669 40.0506 28.1504 125.311 41.591 29.193 129.952 43.1314 30.2356 134.593 44.6719 31.2782 139.234 46.2123 32.3208 143.875 47.7527 33.3634 148.516 49.2931 34.406 153.157 50.8335 35.4486 157.799 52.3739 36.4912 162.44 53.9143 37.5339 167.081 55.4547 38.5765 171.722 56.9951 39.6191 176.363 58.5355 40.6617 181.004 60.0759 41.7043 185.645 61.6164 13.7871 94.1317 30.8082 14.4764 98.8383 32.3486 15.1658 103.545 33.889 15.8551 108.251 35.4294 16.5445 112.958 36.9698 17.2338 117.665 38.5102 17.9232 122.371 40.0506 18.6125 127.078 41.591 19.3019 131.784 43.1314 19.9912 136.491 44.6719 20.6806 141.198 46.2123 21.3699 145.904 47.7527 22.0593 150.611 49.2931 22.7486 155.317 50.8335 23.438 160.024 52.3739 24.1274 164.73 53.9143 24.8167 169.437 55.4547 25.5061 174.144 56.9951 26.1954 178.85 58.5355 26.8848 183.557 60.0759 27.5741 188.263 61.6164 6.81833 94.8913 30.8082 7.15925 99.6359 32.3486 7.50017 104.38 33.889 7.84108 109.125 35.4294 8.182 113.87 36.9698 8.52292 118.614 38.5102 8.86383 123.359 40.0506 9.20475 128.103 41.591 9.54567 132.848 43.1314 9.88658 137.592 44.6719 10.2275 142.337 46.2123 10.5684 147.082 47.7527 10.9093 151.826 49.2931 11.2502 156.571 50.8335 11.5912 161.315 52.3739 11.9321 166.06 53.9143 12.273 170.804 55.4547 12.6139 175.549 56.9951 12.9548 180.294 58.5355 13.2957 185.038 60.0759 13.6367 189.783 61.6164 0 95.136 30.8082 0 99.8928 32.3486 0 104.65 33.889 0 109.406 35.4294 0 114.163 36.9698 0 118.92 38.5102 0 123.677 40.0506 0 128.434 41.591 0 133.19 43.1314 0 137.947 44.6719 0 142.704 46.2123 0 147.461 47.7527 0 152.218 49.2931 0 156.974 50.8335 0 161.731 52.3739 0 166.488 53.9143 0 171.245 55.4547 0 176.002 56.9951 0 180.758 58.5355 0 185.515 60.0759 0 190.272 61.6164 93.8367 0 34.5641 98.5285 0 36.2923 103.22 0 38.0205 107.912 0 39.7487 112.604 0 41.4769 117.296 0 43.2051 121.988 0 44.9333 126.68 0 46.6615 131.371 0 48.3897 136.063 0 50.118 140.755 0 51.8462 145.447 0 53.5744 150.139 0 55.3026 154.831 0 57.0308 159.522 0 58.759 164.214 0 60.4872 168.906 0 62.2154 173.598 0 63.9436 178.29 0 65.6718 182.982 0 67.4 187.673 0 69.1282 93.5954 6.72521 34.5641 98.2751 7.06147 36.2923 102.955 7.39773 38.0205 107.635 7.73399 39.7487 112.314 8.07025 41.4769 116.994 8.40652 43.2051 121.674 8.74278 44.9333 126.354 9.07904 46.6615 131.034 9.4153 48.3897 135.713 9.75156 50.118 140.393 10.0878 51.8462 145.073 10.4241 53.5744 149.753 10.7603 55.3026 154.432 11.0966 57.0308 159.112 11.4329 58.759 163.792 11.7691 60.4872 168.472 12.1054 62.2154 173.151 12.4416 63.9436 177.831 12.7779 65.6718 182.511 13.1142 67.4 187.191 13.4504 69.1282 92.8461 13.5988 34.5641 97.4884 14.2787 36.2923 102.131 14.9586 38.0205 106.773 15.6386 39.7487 111.415 16.3185 41.4769 116.058 16.9985 43.2051 120.7 17.6784 44.9333 125.342 18.3583 46.6615 129.985 19.0383 48.3897 134.627 19.7182 50.118 139.269 20.3981 51.8462 143.911 21.0781 53.5744 148.554 21.758 55.3026 153.196 22.438 57.0308 157.838 23.1179 58.759 162.481 23.7978 60.4872 167.123 24.4778 62.2154 171.765 25.1577 63.9436 176.408 25.8377 65.6718 181.05 26.5176 67.4 185.692 27.1975 69.1282 91.5549 20.5674 34.5641 96.1327 21.5957 36.2923 100.71 22.6241 38.0205 105.288 23.6525 39.7487 109.866 24.6808 41.4769 114.444 25.7092 43.2051 119.021 26.7376 44.9333 123.599 27.7659 46.6615 128.177 28.7943 48.3897 132.755 29.8227 50.118 137.332 30.851 51.8462 141.91 31.8794 53.5744 146.488 32.9078 55.3026 151.066 33.9361 57.0308 155.643 34.9645 58.759 160.221 35.9929 60.4872 164.799 37.0212 62.2154 169.377 38.0496 63.9436 173.954 39.078 65.6718 178.532 40.1063 67.4 183.11 41.1347 69.1282 89.695 27.5703 34.5641 94.1798 28.9489 36.2923 98.6645 30.3274 38.0205 103.149 31.7059 39.7487 107.634 33.0844 41.4769 112.119 34.4629 43.2051 116.604 35.8414 44.9333 121.088 37.22 46.6615 125.573 38.5985 48.3897 130.058 39.977 50.118 134.543 41.3555 51.8462 139.027 42.734 53.5744 143.512 44.1125 55.3026 147.997 45.4911 57.0308 152.482 46.8696 58.759 156.966 48.2481 60.4872 161.451 49.6266 62.2154 165.936 51.0051 63.9436 170.421 52.3836 65.6718 174.905 53.7622 67.4 179.39 55.1407 69.1282 87.2482 34.5408 34.5641 91.6107 36.2678 36.2923 95.9731 37.9949 38.0205 100.335 39.7219 39.7487 104.698 41.4489 41.4769 109.06 43.176 43.2051 113.423 44.903 44.9333 117.785 46.6301 46.6615 122.148 48.3571 48.3897 126.51 50.0841 50.118 130.872 51.8112 51.8462 135.235 53.5382 53.5744 139.597 55.2653 55.3026 143.96 56.9923 57.0308 148.322 58.7193 58.759 152.684 60.4464 60.4872 157.047 62.1734 62.2154 161.409 63.9005 63.9436 165.772 65.6275 65.6718 170.134 67.3545 67.4 174.496 69.0816 69.1282 84.2068 41.4071 34.5641 88.4171 43.4774 36.2923 92.6274 45.5478 38.0205 96.8378 47.6181 39.7487 101.048 49.6885 41.4769 105.258 51.7588 43.2051 109.469 53.8292 44.9333 113.679 55.8995 46.6615 117.889 57.9699 48.3897 122.1 60.0403 50.118 126.31 62.1106 51.8462 130.52 64.181 53.5744 134.731 66.2513 55.3026 138.941 68.3217 57.0308 143.151 70.392 58.759 147.362 72.4624 60.4872 151.572 74.5327 62.2154 155.782 76.6031 63.9436 159.993 78.6734 65.6718 164.203 80.7438 67.4 168.414 82.8141 69.1282 80.5743 48.0948 34.5641 84.603 50.4996 36.2923 88.6317 52.9043 38.0205 92.6604 55.3091 39.7487 96.6891 57.7138 41.4769 100.718 60.1185 43.2051 104.747 62.5233 44.9333 108.775 64.928 46.6615 112.804 67.3328 48.3897 116.833 69.7375 50.118 120.861 72.1422 51.8462 124.89 74.547 53.5744 128.919 76.9517 55.3026 132.948 79.3565 57.0308 136.976 81.7612 58.759 141.005 84.166 60.4872 145.034 86.5707 62.2154 149.062 88.9754 63.9436 153.091 91.3802 65.6718 157.12 93.7849 67.4 161.149 96.1897 69.1282 76.3667 54.5293 34.5641 80.1851 57.2558 36.2923 84.0034 59.9822 38.0205 87.8217 62.7087 39.7487 91.6401 65.4352 41.4769 95.4584 68.1616 43.2051 99.2768 70.8881 44.9333 103.095 73.6146 46.6615 106.913 76.341 48.3897 110.732 79.0675 50.118 114.55 81.794 51.8462 118.368 84.5204 53.5744 122.187 87.2469 55.3026 126.005 89.9733 57.0308 129.823 92.6998 58.759 133.642 95.4263 60.4872 137.46 98.1527 62.2154 141.278 100.879 63.9436 145.097 103.606 65.6718 148.915 106.332 67.4 152.733 109.059 69.1282 71.6127 60.6378 34.5641 75.1933 63.6697 36.2923 78.7739 66.7016 38.0205 82.3546 69.7335 39.7487 85.9352 72.7654 41.4769 89.5158 75.7973 43.2051 93.0965 78.8292 44.9333 96.6771 81.8611 46.6615 100.258 84.893 48.3897 103.838 87.9249 50.118 107.419 90.9568 51.8462 111 93.9887 53.5744 114.58 97.0206 55.3026 118.161 100.052 57.0308 121.742 103.084 58.759 125.322 106.116 60.4872 128.903 109.148 62.2154 132.483 112.18 63.9436 136.064 115.212 65.6718 139.645 118.244 67.4 143.225 121.276 69.1282 66.3526 66.3526 34.5641 69.6702 69.6702 36.2923 72.9878 72.9878 38.0205 76.3054 76.3054 39.7487 79.6231 79.6231 41.4769 82.9407 82.9407 43.2051 86.2583 86.2583 44.9333 89.5759 89.5759 46.6615 92.8936 92.8936 48.3897 96.2112 96.2112 50.118 99.5288 99.5288 51.8462 102.846 102.846 53.5744 106.164 106.164 55.3026 109.482 109.482 57.0308 112.799 112.799 58.759 116.117 116.117 60.4872 119.435 119.435 62.2154 122.752 122.752 63.9436 126.07 126.07 65.6718 129.387 129.387 67.4 132.705 132.705 69.1282 60.6378 71.6127 34.5641 63.6697 75.1933 36.2923 66.7016 78.7739 38.0205 69.7335 82.3546 39.7487 72.7654 85.9352 41.4769 75.7973 89.5158 43.2051 78.8292 93.0965 44.9333 81.8611 96.6771 46.6615 84.893 100.258 48.3897 87.9249 103.838 50.118 90.9568 107.419 51.8462 93.9887 111 53.5744 97.0206 114.58 55.3026 100.052 118.161 57.0308 103.084 121.742 58.759 106.116 125.322 60.4872 109.148 128.903 62.2154 112.18 132.483 63.9436 115.212 136.064 65.6718 118.244 139.645 67.4 121.276 143.225 69.1282 54.5293 76.3667 34.5641 57.2558 80.1851 36.2923 59.9822 84.0034 38.0205 62.7087 87.8217 39.7487 65.4352 91.6401 41.4769 68.1616 95.4584 43.2051 70.8881 99.2768 44.9333 73.6146 103.095 46.6615 76.341 106.913 48.3897 79.0675 110.732 50.118 81.794 114.55 51.8462 84.5204 118.368 53.5744 87.2469 122.187 55.3026 89.9733 126.005 57.0308 92.6998 129.823 58.759 95.4263 133.642 60.4872 98.1527 137.46 62.2154 100.879 141.278 63.9436 103.606 145.097 65.6718 106.332 148.915 67.4 109.059 152.733 69.1282 48.0948 80.5743 34.5641 50.4996 84.603 36.2923 52.9043 88.6317 38.0205 55.3091 92.6604 39.7487 57.7138 96.6891 41.4769 60.1185 100.718 43.2051 62.5233 104.747 44.9333 64.928 108.775 46.6615 67.3328 112.804 48.3897 69.7375 116.833 50.118 72.1422 120.861 51.8462 74.547 124.89 53.5744 76.9517 128.919 55.3026 79.3565 132.948 57.0308 81.7612 136.976 58.759 84.166 141.005 60.4872 86.5707 145.034 62.2154 88.9754 149.062 63.9436 91.3802 153.091 65.6718 93.7849 157.12 67.4 96.1897 161.149 69.1282 41.4071 84.2068 34.5641 43.4774 88.4171 36.2923 45.5478 92.6274 38.0205 47.6181 96.8378 39.7487 49.6885 101.048 41.4769 51.7588 105.258 43.2051 53.8292 109.469 44.9333 55.8995 113.679 46.6615 57.9699 117.889 48.3897 60.0403 122.1 50.118 62.1106 126.31 51.8462 64.181 130.52 53.5744 66.2513 134.731 55.3026 68.3217 138.941 57.0308 70.392 143.151 58.759 72.4624 147.362 60.4872 74.5327 151.572 62.2154 76.6031 155.782 63.9436 78.6734 159.993 65.6718 80.7438 164.203 67.4 82.8141 168.414 69.1282 34.5408 87.2482 34.5641 36.2678 91.6107 36.2923 37.9949 95.9731 38.0205 39.7219 100.335 39.7487 41.4489 104.698 41.4769 43.176 109.06 43.2051 44.903 113.423 44.9333 46.6301 117.785 46.6615 48.3571 122.148 48.3897 50.0841 126.51 50.118 51.8112 130.872 51.8462 53.5382 135.235 53.5744 55.2653 139.597 55.3026 56.9923 143.96 57.0308 58.7193 148.322 58.759 60.4464 152.684 60.4872 62.1734 157.047 62.2154 63.9005 161.409 63.9436 65.6275 165.772 65.6718 67.3545 170.134 67.4 69.0816 174.496 69.1282 27.5703 89.695 34.5641 28.9489 94.1798 36.2923 30.3274 98.6645 38.0205 31.7059 103.149 39.7487 33.0844 107.634 41.4769 34.4629 112.119 43.2051 35.8414 116.604 44.9333 37.22 121.088 46.6615 38.5985 125.573 48.3897 39.977 130.058 50.118 41.3555 134.543 51.8462 42.734 139.027 53.5744 44.1125 143.512 55.3026 45.4911 147.997 57.0308 46.8696 152.482 58.759 48.2481 156.966 60.4872 49.6266 161.451 62.2154 51.0051 165.936 63.9436 52.3836 170.421 65.6718 53.7622 174.905 67.4 55.1407 179.39 69.1282 20.5674 91.5549 34.5641 21.5957 96.1327 36.2923 22.6241 100.71 38.0205 23.6525 105.288 39.7487 24.6808 109.866 41.4769 25.7092 114.444 43.2051 26.7376 119.021 44.9333 27.7659 123.599 46.6615 28.7943 128.177 48.3897 29.8227 132.755 50.118 30.851 137.332 51.8462 31.8794 141.91 53.5744 32.9078 146.488 55.3026 33.9361 151.066 57.0308 34.9645 155.643 58.759 35.9929 160.221 60.4872 37.0212 164.799 62.2154 38.0496 169.377 63.9436 39.078 173.954 65.6718 40.1063 178.532 67.4 41.1347 183.11 69.1282 13.5988 92.8461 34.5641 14.2787 97.4884 36.2923 14.9586 102.131 38.0205 15.6386 106.773 39.7487 16.3185 111.415 41.4769 16.9985 116.058 43.2051 17.6784 120.7 44.9333 18.3583 125.342 46.6615 19.0383 129.985 48.3897 19.7182 134.627 50.118 20.3981 139.269 51.8462 21.0781 143.911 53.5744 21.758 148.554 55.3026 22.438 153.196 57.0308 23.1179 157.838 58.759 23.7978 162.481 60.4872 24.4778 167.123 62.2154 25.1577 171.765 63.9436 25.8377 176.408 65.6718 26.5176 181.05 67.4 27.1975 185.692 69.1282 6.72521 93.5954 34.5641 7.06147 98.2751 36.2923 7.39773 102.955 38.0205 7.73399 107.635 39.7487 8.07025 112.314 41.4769 8.40652 116.994 43.2051 8.74278 121.674 44.9333 9.07904 126.354 46.6615 9.4153 131.034 48.3897 9.75156 135.713 50.118 10.0878 140.393 51.8462 10.4241 145.073 53.5744 10.7603 149.753 55.3026 11.0966 154.432 57.0308 11.4329 159.112 58.759 11.7691 163.792 60.4872 12.1054 168.472 62.2154 12.4416 173.151 63.9436 12.7779 177.831 65.6718 13.1142 182.511 67.4 13.4504 187.191 69.1282 0 93.8367 34.5641 0 98.5285 36.2923 0 103.22 38.0205 0 107.912 39.7487 0 112.604 41.4769 0 117.296 43.2051 0 121.988 44.9333 0 126.68 46.6615 0 131.371 48.3897 0 136.063 50.118 0 140.755 51.8462 0 145.447 53.5744 0 150.139 55.3026 0 154.831 57.0308 0 159.522 58.759 0 164.214 60.4872 0 168.906 62.2154 0 173.598 63.9436 0 178.29 65.6718 0 182.982 67.4 0 187.673 69.1282 92.388 0 38.2683 97.0074 0 40.1818 101.627 0 42.0952 106.246 0 44.0086 110.866 0 45.922 115.485 0 47.8354 120.104 0 49.7488 124.724 0 51.6623 129.343 0 53.5757 133.963 0 55.4891 138.582 0 57.4025 143.201 0 59.3159 147.821 0 61.2294 152.44 0 63.1428 157.06 0 65.0562 161.679 0 66.9696 166.298 0 68.883 170.918 0 70.7964 175.537 0 72.7099 180.157 0 74.6233 184.776 0 76.5367 92.1504 6.62138 38.2683 96.7579 6.95245 40.1818 101.365 7.28352 42.0952 105.973 7.61459 44.0086 110.58 7.94566 45.922 115.188 8.27673 47.8354 119.795 8.6078 49.7488 124.403 8.93887 51.6623 129.011 9.26994 53.5757 133.618 9.60101 55.4891 138.226 9.93207 57.4025 142.833 10.2631 59.3159 147.441 10.5942 61.2294 152.048 10.9253 63.1428 156.656 11.2564 65.0562 161.263 11.5874 66.9696 165.871 11.9185 68.883 170.478 12.2496 70.7964 175.086 12.5806 72.7099 179.693 12.9117 74.6233 184.301 13.2428 76.5367 91.4127 13.3888 38.2683 95.9833 14.0583 40.1818 100.554 14.7277 42.0952 105.125 15.3971 44.0086 109.695 16.0666 45.922 114.266 16.736 47.8354 118.836 17.4055 49.7488 123.407 18.0749 51.6623 127.978 18.7443 53.5757 132.548 19.4138 55.4891 137.119 20.0832 57.4025 141.69 20.7527 59.3159 146.26 21.4221 61.2293 150.831 22.0915 63.1428 155.402 22.761 65.0562 159.972 23.4304 66.9696 164.543 24.0999 68.883 169.113 24.7693 70.7964 173.684 25.4387 72.7099 178.255 26.1082 74.6233 182.825 26.7776 76.5367 90.1414 20.2498 38.2683 94.6485 21.2623 40.1818 99.1556 22.2748 42.0952 103.663 23.2873 44.0086 108.17 24.2998 45.922 112.677 25.3123 47.8354 117.184 26.3248 49.7488 121.691 27.3373 51.6623 126.198 28.3497 53.5757 130.705 29.3622 55.4891 135.212 30.3747 57.4025 139.719 31.3872 59.3159 144.226 32.3997 61.2293 148.733 33.4122 63.1428 153.24 34.4247 65.0562 157.748 35.4372 66.9696 162.255 36.4497 68.883 166.762 37.4622 70.7964 171.269 38.4747 72.7099 175.776 39.4872 74.6233 180.283 40.4996 76.5367 88.3102 27.1447 38.2683 92.7258 28.5019 40.1818 97.1413 29.8592 42.0952 101.557 31.2164 44.0086 105.972 32.5736 45.922 110.388 33.9309 47.8354 114.803 35.2881 49.7488 119.219 36.6453 51.6623 123.634 38.0026 53.5757 128.05 39.3598 55.4891 132.465 40.717 57.4025 136.881 42.0743 59.3159 141.296 43.4315 61.2293 145.712 44.7887 63.1428 150.127 46.146 65.0562 154.543 47.5032 66.9696 158.958 48.8604 68.883 163.374 50.2177 70.7964 167.789 51.5749 72.7099 172.205 52.9321 74.6233 176.62 54.2894 76.5367 85.9012 34.0075 38.2683 90.1963 35.7079 40.1818 94.4914 37.4083 42.0952 98.7864 39.1086 44.0086 103.081 40.809 45.922 107.377 42.5094 47.8354 111.672 44.2098 49.7488 115.967 45.9101 51.6623 120.262 47.6105 53.5757 124.557 49.3109 55.4891 128.852 51.0113 57.4025 133.147 52.7117 59.3159 137.442 54.412 61.2293 141.737 56.1124 63.1428 146.032 57.8128 65.0562 150.327 59.5132 66.9696 154.622 61.2135 68.883 158.917 62.9139 70.7964 163.212 64.6143 72.7099 167.507 66.3147 74.6233 171.802 68.015 76.5367 82.9067 40.7678 38.2683 87.052 42.8062 40.1818 91.1974 44.8446 42.0952 95.3427 46.883 44.0086 99.488 48.9214 45.922 103.633 50.9597 47.8354 107.779 52.9981 49.7488 111.924 55.0365 51.6623 116.069 57.0749 53.5757 120.215 59.1133 55.4891 124.36 61.1517 57.4025 128.505 63.1901 59.3159 132.651 65.2285 61.2293 136.796 67.2669 63.1428 140.941 69.3053 65.0562 145.087 71.3436 66.9696 149.232 73.382 68.883 153.377 75.4204 70.7964 157.523 77.4588 72.7099 161.668 79.4972 74.6233 165.813 81.5356 76.5367 79.3303 47.3523 38.2683 83.2968 49.7199 40.1818 87.2633 52.0875 42.0952 91.2298 54.4551 44.0086 95.1963 56.8228 45.922 99.1628 59.1904 47.8354 103.129 61.558 49.7488 107.096 63.9256 51.6623 111.062 66.2932 53.5757 115.029 68.6608 55.4891 118.995 71.0285 57.4025 122.962 73.3961 59.3159 126.928 75.7637 61.2293 130.895 78.1313 63.1428 134.861 80.4989 65.0562 138.828 82.8665 66.9696 142.795 85.2341 68.883 146.761 87.6018 70.7964 150.728 89.9694 72.7099 154.694 92.337 74.6233 158.661 94.7046 76.5367 75.1877 53.6874 38.2683 78.9471 56.3718 40.1818 82.7065 59.0562 42.0952 86.4659 61.7405 44.0086 90.2253 64.4249 45.922 93.9847 67.1093 47.8354 97.744 69.7937 49.7488 101.503 72.478 51.6623 105.263 75.1624 53.5757 109.022 77.8468 55.4891 112.782 80.5311 57.4025 116.541 83.2155 59.3159 120.3 85.8999 61.2293 124.06 88.5843 63.1428 127.819 91.2686 65.0562 131.579 93.953 66.9696 135.338 96.6374 68.883 139.097 99.3217 70.7964 142.857 102.006 72.7099 146.616 104.69 74.6233 150.375 107.375 76.5367 70.5071 59.7017 38.2683 74.0324 62.6868 40.1818 77.5578 65.6718 42.0952 81.0831 68.6569 44.0086 84.6085 71.642 45.922 88.1338 74.6271 47.8354 91.6592 77.6122 49.7488 95.1845 80.5973 51.6623 98.7099 83.5823 53.5757 102.235 86.5674 55.4891 105.761 89.5525 57.4025 109.286 92.5376 59.3159 112.811 95.5227 61.2293 116.337 98.5078 63.1428 119.862 101.493 65.0562 123.387 104.478 66.9696 126.913 107.463 68.883 130.438 110.448 70.7964 133.963 113.433 72.7099 137.489 116.418 74.6233 141.014 119.403 76.5367 65.3281 65.3281 38.2683 68.5946 68.5946 40.1818 71.861 71.861 42.0952 75.1274 75.1274 44.0086 78.3938 78.3938 45.922 81.6602 81.6602 47.8354 84.9266 84.9266 49.7488 88.193 88.193 51.6623 91.4594 91.4594 53.5757 94.7258 94.7258 55.4891 97.9922 97.9922 57.4025 101.259 101.259 59.3159 104.525 104.525 61.2293 107.791 107.791 63.1428 111.058 111.058 65.0562 114.324 114.324 66.9696 117.591 117.591 68.883 120.857 120.857 70.7964 124.123 124.123 72.7099 127.39 127.39 74.6233 130.656 130.656 76.5367 59.7017 70.5071 38.2683 62.6868 74.0324 40.1818 65.6718 77.5578 42.0952 68.6569 81.0831 44.0086 71.642 84.6085 45.922 74.6271 88.1338 47.8354 77.6122 91.6592 49.7488 80.5973 95.1845 51.6623 83.5823 98.7099 53.5757 86.5674 102.235 55.4891 89.5525 105.761 57.4025 92.5376 109.286 59.3159 95.5227 112.811 61.2293 98.5078 116.337 63.1428 101.493 119.862 65.0562 104.478 123.387 66.9696 107.463 126.913 68.883 110.448 130.438 70.7964 113.433 133.963 72.7099 116.418 137.489 74.6233 119.403 141.014 76.5367 53.6874 75.1877 38.2683 56.3718 78.9471 40.1818 59.0562 82.7065 42.0952 61.7405 86.4659 44.0086 64.4249 90.2253 45.922 67.1093 93.9847 47.8354 69.7937 97.744 49.7488 72.478 101.503 51.6623 75.1624 105.263 53.5757 77.8468 109.022 55.4891 80.5311 112.782 57.4025 83.2155 116.541 59.3159 85.8999 120.3 61.2293 88.5843 124.06 63.1428 91.2686 127.819 65.0562 93.953 131.579 66.9696 96.6374 135.338 68.883 99.3217 139.097 70.7964 102.006 142.857 72.7099 104.69 146.616 74.6233 107.375 150.375 76.5367 47.3523 79.3303 38.2683 49.7199 83.2968 40.1818 52.0875 87.2633 42.0952 54.4551 91.2298 44.0086 56.8228 95.1963 45.922 59.1904 99.1628 47.8354 61.558 103.129 49.7488 63.9256 107.096 51.6623 66.2932 111.062 53.5757 68.6608 115.029 55.4891 71.0285 118.995 57.4025 73.3961 122.962 59.3159 75.7637 126.928 61.2293 78.1313 130.895 63.1428 80.4989 134.861 65.0562 82.8665 138.828 66.9696 85.2341 142.795 68.883 87.6018 146.761 70.7964 89.9694 150.728 72.7099 92.337 154.694 74.6233 94.7046 158.661 76.5367 40.7678 82.9067 38.2683 42.8062 87.052 40.1818 44.8446 91.1974 42.0952 46.883 95.3427 44.0086 48.9214 99.488 45.922 50.9597 103.633 47.8354 52.9981 107.779 49.7488 55.0365 111.924 51.6623 57.0749 116.069 53.5757 59.1133 120.215 55.4891 61.1517 124.36 57.4025 63.1901 128.505 59.3159 65.2285 132.651 61.2293 67.2669 136.796 63.1428 69.3053 140.941 65.0562 71.3436 145.087 66.9696 73.382 149.232 68.883 75.4204 153.377 70.7964 77.4588 157.523 72.7099 79.4972 161.668 74.6233 81.5356 165.813 76.5367 34.0075 85.9012 38.2683 35.7079 90.1963 40.1818 37.4083 94.4914 42.0952 39.1086 98.7864 44.0086 40.809 103.081 45.922 42.5094 107.377 47.8354 44.2098 111.672 49.7488 45.9101 115.967 51.6623 47.6105 120.262 53.5757 49.3109 124.557 55.4891 51.0113 128.852 57.4025 52.7117 133.147 59.3159 54.412 137.442 61.2293 56.1124 141.737 63.1428 57.8128 146.032 65.0562 59.5132 150.327 66.9696 61.2135 154.622 68.883 62.9139 158.917 70.7964 64.6143 163.212 72.7099 66.3147 167.507 74.6233 68.015 171.802 76.5367 27.1447 88.3102 38.2683 28.5019 92.7258 40.1818 29.8592 97.1413 42.0952 31.2164 101.557 44.0086 32.5736 105.972 45.922 33.9309 110.388 47.8354 35.2881 114.803 49.7488 36.6453 119.219 51.6623 38.0026 123.634 53.5757 39.3598 128.05 55.4891 40.717 132.465 57.4025 42.0743 136.881 59.3159 43.4315 141.296 61.2293 44.7887 145.712 63.1428 46.146 150.127 65.0562 47.5032 154.543 66.9696 48.8604 158.958 68.883 50.2177 163.374 70.7964 51.5749 167.789 72.7099 52.9321 172.205 74.6233 54.2894 176.62 76.5367 20.2498 90.1414 38.2683 21.2623 94.6485 40.1818 22.2748 99.1556 42.0952 23.2873 103.663 44.0086 24.2998 108.17 45.922 25.3123 112.677 47.8354 26.3248 117.184 49.7488 27.3373 121.691 51.6623 28.3497 126.198 53.5757 29.3622 130.705 55.4891 30.3747 135.212 57.4025 31.3872 139.719 59.3159 32.3997 144.226 61.2293 33.4122 148.733 63.1428 34.4247 153.24 65.0562 35.4372 157.748 66.9696 36.4497 162.255 68.883 37.4622 166.762 70.7964 38.4747 171.269 72.7099 39.4872 175.776 74.6233 40.4996 180.283 76.5367 13.3888 91.4127 38.2683 14.0583 95.9833 40.1818 14.7277 100.554 42.0952 15.3971 105.125 44.0086 16.0666 109.695 45.922 16.736 114.266 47.8354 17.4055 118.836 49.7488 18.0749 123.407 51.6623 18.7443 127.978 53.5757 19.4138 132.548 55.4891 20.0832 137.119 57.4025 20.7527 141.69 59.3159 21.4221 146.26 61.2293 22.0915 150.831 63.1428 22.761 155.402 65.0562 23.4304 159.972 66.9696 24.0999 164.543 68.883 24.7693 169.113 70.7964 25.4387 173.684 72.7099 26.1082 178.255 74.6233 26.7776 182.825 76.5367 6.62138 92.1504 38.2683 6.95245 96.7579 40.1818 7.28352 101.365 42.0952 7.61459 105.973 44.0086 7.94566 110.58 45.922 8.27673 115.188 47.8354 8.6078 119.795 49.7488 8.93887 124.403 51.6623 9.26994 129.011 53.5757 9.60101 133.618 55.4891 9.93207 138.226 57.4025 10.2631 142.833 59.3159 10.5942 147.441 61.2294 10.9253 152.048 63.1428 11.2564 156.656 65.0562 11.5874 161.263 66.9696 11.9185 165.871 68.883 12.2496 170.478 70.7964 12.5806 175.086 72.7099 12.9117 179.693 74.6233 13.2428 184.301 76.5367 0 92.388 38.2683 0 97.0074 40.1818 0 101.627 42.0952 0 106.246 44.0086 0 110.866 45.922 0 115.485 47.8354 0 120.104 49.7488 0 124.724 51.6623 0 129.343 53.5757 0 133.963 55.4891 0 138.582 57.4025 0 143.201 59.3159 0 147.821 61.2294 0 152.44 63.1428 0 157.06 65.0562 0 161.679 66.9696 0 166.298 68.883 0 170.918 70.7964 0 175.537 72.7099 0 180.157 74.6233 0 184.776 76.5367 90.7931 0 41.912 95.3327 0 44.0076 99.8724 0 46.1032 104.412 0 48.1988 108.952 0 50.2944 113.491 0 52.3901 118.031 0 54.4857 122.571 0 56.5813 127.11 0 58.6769 131.65 0 60.7725 136.19 0 62.8681 140.729 0 64.9637 145.269 0 67.0593 149.809 0 69.1549 154.348 0 71.2505 158.888 0 73.3461 163.428 0 75.4417 167.967 0 77.5373 172.507 0 79.6329 177.046 0 81.7285 181.586 0 83.8241 90.5596 6.50708 41.912 95.0876 6.83243 44.0076 99.6155 7.15779 46.1032 104.144 7.48314 48.1988 108.672 7.80849 50.2944 113.199 8.13385 52.3901 117.727 8.4592 54.4857 122.255 8.78456 56.5813 126.783 9.10991 58.6769 131.311 9.43526 60.7725 135.839 9.76062 62.8681 140.367 10.086 64.9637 144.895 10.4113 67.0593 149.423 10.7367 69.1549 153.951 11.062 71.2505 158.479 11.3874 73.3461 163.007 11.7127 75.4417 167.535 12.0381 77.5373 172.063 12.3634 79.6329 176.591 12.6888 81.7285 181.119 13.0142 83.8241 89.8346 13.1577 41.912 94.3263 13.8156 44.0076 98.8181 14.4735 46.1032 103.31 15.1313 48.1988 107.802 15.7892 50.2944 112.293 16.4471 52.3901 116.785 17.105 54.4857 121.277 17.7629 56.5813 125.768 18.4208 58.6769 130.26 19.0786 60.7725 134.752 19.7365 62.8681 139.244 20.3944 64.9637 143.735 21.0523 67.0593 148.227 21.7102 69.1549 152.719 22.3681 71.2505 157.211 23.0259 73.3461 161.702 23.6838 75.4417 166.194 24.3417 77.5373 170.686 24.9996 79.6329 175.177 25.6575 81.7285 179.669 26.3154 83.8241 88.5853 19.9002 41.912 93.0146 20.8953 44.0076 97.4439 21.8903 46.1032 101.873 22.8853 48.1988 106.302 23.8803 50.2944 110.732 24.8753 52.3901 115.161 25.8703 54.4857 119.59 26.8653 56.5813 124.019 27.8603 58.6769 128.449 28.8554 60.7725 132.878 29.8504 62.8681 137.307 30.8454 64.9637 141.737 31.8404 67.0593 146.166 32.8354 69.1549 150.595 33.8304 71.2505 155.024 34.8254 73.3461 159.454 35.8204 75.4417 163.883 36.8155 77.5373 168.312 37.8105 79.6329 172.741 38.8055 81.7285 177.171 39.8005 83.8241 86.7858 26.6761 41.912 91.125 28.0099 44.0076 95.4643 29.3437 46.1032 99.8036 30.6775 48.1988 104.143 32.0113 50.2944 108.482 33.3451 52.3901 112.821 34.6789 54.4857 117.161 36.0127 56.5813 121.5 37.3465 58.6769 125.839 38.6803 60.7725 130.179 40.0141 62.8681 134.518 41.3479 64.9637 138.857 42.6817 67.0593 143.196 44.0155 69.1549 147.536 45.3493 71.2505 151.875 46.6832 73.3461 156.214 48.017 75.4417 160.554 49.3508 77.5373 164.893 50.6846 79.6329 169.232 52.0184 81.7285 173.572 53.3522 83.8241 84.4183 33.4204 41.912 88.6392 35.0915 44.0076 92.8602 36.7625 46.1032 97.0811 38.4335 48.1988 101.302 40.1045 50.2944 105.523 41.7756 52.3901 109.744 43.4466 54.4857 113.965 45.1176 56.5813 118.186 46.7886 58.6769 122.407 48.4596 60.7725 126.627 50.1307 62.8681 130.848 51.8017 64.9637 135.069 53.4727 67.0593 139.29 55.1437 69.1549 143.511 56.8148 71.2505 147.732 58.4858 73.3461 151.953 60.1568 75.4417 156.174 61.8278 77.5373 160.395 63.4989 79.6329 164.616 65.1699 81.7285 168.837 66.8409 83.8241 81.4755 40.064 41.912 85.5493 42.0672 44.0076 89.623 44.0704 46.1032 93.6968 46.0736 48.1988 97.7706 48.0768 50.2944 101.844 50.08 52.3901 105.918 52.0832 54.4857 109.992 54.0864 56.5813 114.066 56.0896 58.6769 118.139 58.0928 60.7725 122.213 60.096 62.8681 126.287 62.0992 64.9637 130.361 64.1024 67.0593 134.435 66.1056 69.1549 138.508 68.1088 71.2505 142.582 70.112 73.3461 146.656 72.1152 75.4417 150.73 74.1184 77.5373 154.803 76.1216 79.6329 158.877 78.1248 81.7285 162.951 80.128 83.8241 77.9608 46.5349 41.912 81.8588 48.8616 44.0076 85.7569 51.1884 46.1032 89.6549 53.5151 48.1988 93.553 55.8418 50.2944 97.451 58.1686 52.3901 101.349 60.4953 54.4857 105.247 62.8221 56.5813 109.145 65.1488 58.6769 113.043 67.4756 60.7725 116.941 69.8023 62.8681 120.839 72.129 64.9637 124.737 74.4558 67.0593 128.635 76.7825 69.1549 132.533 79.1093 71.2505 136.431 81.436 73.3461 140.329 83.7628 75.4417 144.227 86.0895 77.5373 148.126 88.4162 79.6329 152.024 90.743 81.7285 155.922 93.0697 83.8241 73.8898 52.7606 41.912 77.5842 55.3987 44.0076 81.2787 58.0367 46.1032 84.9732 60.6747 48.1988 88.6677 63.3128 50.2944 92.3622 65.9508 52.3901 96.0567 68.5888 54.4857 99.7512 71.2269 56.5813 103.446 73.8649 58.6769 107.14 76.5029 60.7725 110.835 79.1409 62.8681 114.529 81.779 64.9637 118.224 84.417 67.0593 121.918 87.055 69.1549 125.613 89.6931 71.2505 129.307 92.3311 73.3461 133.002 94.9691 75.4417 136.696 97.6072 77.5373 140.391 100.245 79.6329 144.085 102.883 81.7285 147.78 105.521 83.8241 69.2899 58.671 41.912 72.7544 61.6046 44.0076 76.2189 64.5381 46.1032 79.6834 67.4717 48.1988 83.1479 70.4053 50.2944 86.6124 73.3388 52.3901 90.0769 76.2724 54.4857 93.5414 79.2059 56.5813 97.0059 82.1395 58.6769 100.47 85.073 60.7725 103.935 88.0066 62.8681 107.399 90.9401 64.9637 110.864 93.8737 67.0593 114.328 96.8072 69.1549 117.793 99.7408 71.2505 121.257 102.674 73.3461 124.722 105.608 75.4417 128.186 108.541 77.5373 131.651 111.475 79.6329 135.115 114.409 81.7285 138.58 117.342 83.8241 64.2004 64.2004 41.912 67.4104 67.4104 44.0076 70.6204 70.6204 46.1032 73.8305 73.8305 48.1988 77.0405 77.0405 50.2944 80.2505 80.2505 52.3901 83.4605 83.4605 54.4857 86.6705 86.6705 56.5813 89.8805 89.8805 58.6769 93.0906 93.0906 60.7725 96.3006 96.3006 62.8681 99.5106 99.5106 64.9637 102.721 102.721 67.0593 105.931 105.931 69.1549 109.141 109.141 71.2505 112.351 112.351 73.3461 115.561 115.561 75.4417 118.771 118.771 77.5373 121.981 121.981 79.6329 125.191 125.191 81.7285 128.401 128.401 83.8241 58.671 69.2899 41.912 61.6046 72.7544 44.0076 64.5381 76.2189 46.1032 67.4717 79.6834 48.1988 70.4053 83.1479 50.2944 73.3388 86.6124 52.3901 76.2724 90.0769 54.4857 79.2059 93.5414 56.5813 82.1395 97.0059 58.6769 85.073 100.47 60.7725 88.0066 103.935 62.8681 90.9401 107.399 64.9637 93.8737 110.864 67.0593 96.8072 114.328 69.1549 99.7408 117.793 71.2505 102.674 121.257 73.3461 105.608 124.722 75.4417 108.541 128.186 77.5373 111.475 131.651 79.6329 114.409 135.115 81.7285 117.342 138.58 83.8241 52.7606 73.8898 41.912 55.3987 77.5842 44.0076 58.0367 81.2787 46.1032 60.6747 84.9732 48.1988 63.3128 88.6677 50.2944 65.9508 92.3622 52.3901 68.5888 96.0567 54.4857 71.2269 99.7512 56.5813 73.8649 103.446 58.6769 76.5029 107.14 60.7725 79.1409 110.835 62.8681 81.779 114.529 64.9637 84.417 118.224 67.0593 87.055 121.918 69.1549 89.6931 125.613 71.2505 92.3311 129.307 73.3461 94.9691 133.002 75.4417 97.6072 136.696 77.5373 100.245 140.391 79.6329 102.883 144.085 81.7285 105.521 147.78 83.8241 46.5349 77.9608 41.912 48.8616 81.8588 44.0076 51.1884 85.7569 46.1032 53.5151 89.6549 48.1988 55.8418 93.553 50.2944 58.1686 97.451 52.3901 60.4953 101.349 54.4857 62.8221 105.247 56.5813 65.1488 109.145 58.6769 67.4756 113.043 60.7725 69.8023 116.941 62.8681 72.129 120.839 64.9637 74.4558 124.737 67.0593 76.7825 128.635 69.1549 79.1093 132.533 71.2505 81.436 136.431 73.3461 83.7628 140.329 75.4417 86.0895 144.227 77.5373 88.4162 148.126 79.6329 90.743 152.024 81.7285 93.0697 155.922 83.8241 40.064 81.4755 41.912 42.0672 85.5493 44.0076 44.0704 89.623 46.1032 46.0736 93.6968 48.1988 48.0768 97.7706 50.2944 50.08 101.844 52.3901 52.0832 105.918 54.4857 54.0864 109.992 56.5813 56.0896 114.066 58.6769 58.0928 118.139 60.7725 60.096 122.213 62.8681 62.0992 126.287 64.9637 64.1024 130.361 67.0593 66.1056 134.435 69.1549 68.1088 138.508 71.2505 70.112 142.582 73.3461 72.1152 146.656 75.4417 74.1184 150.73 77.5373 76.1216 154.803 79.6329 78.1248 158.877 81.7285 80.128 162.951 83.8241 33.4204 84.4183 41.912 35.0915 88.6392 44.0076 36.7625 92.8602 46.1032 38.4335 97.0811 48.1988 40.1045 101.302 50.2944 41.7756 105.523 52.3901 43.4466 109.744 54.4857 45.1176 113.965 56.5813 46.7886 118.186 58.6769 48.4596 122.407 60.7725 50.1307 126.627 62.8681 51.8017 130.848 64.9637 53.4727 135.069 67.0593 55.1437 139.29 69.1549 56.8148 143.511 71.2505 58.4858 147.732 73.3461 60.1568 151.953 75.4417 61.8278 156.174 77.5373 63.4989 160.395 79.6329 65.1699 164.616 81.7285 66.8409 168.837 83.8241 26.6761 86.7858 41.912 28.0099 91.125 44.0076 29.3437 95.4643 46.1032 30.6775 99.8036 48.1988 32.0113 104.143 50.2944 33.3451 108.482 52.3901 34.6789 112.821 54.4857 36.0127 117.161 56.5813 37.3465 121.5 58.6769 38.6803 125.839 60.7725 40.0141 130.179 62.8681 41.3479 134.518 64.9637 42.6817 138.857 67.0593 44.0155 143.196 69.1549 45.3493 147.536 71.2505 46.6832 151.875 73.3461 48.017 156.214 75.4417 49.3508 160.554 77.5373 50.6846 164.893 79.6329 52.0184 169.232 81.7285 53.3522 173.572 83.8241 19.9002 88.5853 41.912 20.8953 93.0146 44.0076 21.8903 97.4439 46.1032 22.8853 101.873 48.1988 23.8803 106.302 50.2944 24.8753 110.732 52.3901 25.8703 115.161 54.4857 26.8653 119.59 56.5813 27.8603 124.019 58.6769 28.8554 128.449 60.7725 29.8504 132.878 62.8681 30.8454 137.307 64.9637 31.8404 141.737 67.0593 32.8354 146.166 69.1549 33.8304 150.595 71.2505 34.8254 155.024 73.3461 35.8204 159.454 75.4417 36.8155 163.883 77.5373 37.8105 168.312 79.6329 38.8055 172.741 81.7285 39.8005 177.171 83.8241 13.1577 89.8346 41.912 13.8156 94.3263 44.0076 14.4735 98.8181 46.1032 15.1313 103.31 48.1988 15.7892 107.802 50.2944 16.4471 112.293 52.3901 17.105 116.785 54.4857 17.7629 121.277 56.5813 18.4208 125.768 58.6769 19.0786 130.26 60.7725 19.7365 134.752 62.8681 20.3944 139.244 64.9637 21.0523 143.735 67.0593 21.7102 148.227 69.1549 22.3681 152.719 71.2505 23.0259 157.211 73.3461 23.6838 161.702 75.4417 24.3417 166.194 77.5373 24.9996 170.686 79.6329 25.6575 175.177 81.7285 26.3154 179.669 83.8241 6.50708 90.5596 41.912 6.83243 95.0876 44.0076 7.15779 99.6155 46.1032 7.48314 104.144 48.1988 7.80849 108.672 50.2944 8.13385 113.199 52.3901 8.4592 117.727 54.4857 8.78456 122.255 56.5813 9.10991 126.783 58.6769 9.43526 131.311 60.7725 9.76062 135.839 62.8681 10.086 140.367 64.9637 10.4113 144.895 67.0593 10.7367 149.423 69.1549 11.062 153.951 71.2505 11.3874 158.479 73.3461 11.7127 163.007 75.4417 12.0381 167.535 77.5373 12.3634 172.063 79.6329 12.6888 176.591 81.7285 13.0142 181.119 83.8241 0 90.7931 41.912 0 95.3327 44.0076 0 99.8724 46.1032 0 104.412 48.1988 0 108.952 50.2944 0 113.491 52.3901 0 118.031 54.4857 0 122.571 56.5813 0 127.11 58.6769 0 131.65 60.7725 0 136.19 62.8681 0 140.729 64.9637 0 145.269 67.0593 0 149.809 69.1549 0 154.348 71.2505 0 158.888 73.3461 0 163.428 75.4417 0 167.967 77.5373 0 172.507 79.6329 0 177.046 81.7285 0 181.586 83.8241 89.056 0 45.4866 93.5088 0 47.761 97.9616 0 50.0353 102.414 0 52.3096 106.867 0 54.584 111.32 0 56.8583 115.773 0 59.1326 120.226 0 61.407 124.678 0 63.6813 129.131 0 65.9556 133.584 0 68.2299 138.037 0 70.5043 142.49 0 72.7786 146.942 0 75.0529 151.395 0 77.3273 155.848 0 79.6016 160.301 0 81.8759 164.754 0 84.1503 169.206 0 86.4246 173.659 0 88.6989 178.112 0 90.9733 88.827 6.38258 45.4866 93.2683 6.70171 47.761 97.7097 7.02084 50.0353 102.151 7.33997 52.3096 106.592 7.6591 54.584 111.034 7.97823 56.8583 115.475 8.29736 59.1326 119.916 8.61649 61.407 124.358 8.93562 63.6813 128.799 9.25474 65.9556 133.24 9.57387 68.2299 137.682 9.893 70.5043 142.123 10.2121 72.7786 146.564 10.5313 75.0529 151.006 10.8504 77.3273 155.447 11.1695 79.6016 159.889 11.4886 81.8759 164.33 11.8078 84.1503 168.771 12.1269 86.4246 173.213 12.446 88.6989 177.654 12.7652 90.9733 88.1159 12.9059 45.4866 92.5216 13.5512 47.761 96.9274 14.1965 50.0353 101.333 14.8418 52.3096 105.739 15.4871 54.584 110.145 16.1324 56.8583 114.551 16.7777 59.1326 118.956 17.423 61.407 123.362 18.0683 63.6813 127.768 18.7136 65.9556 132.174 19.3589 68.2299 136.58 20.0042 70.5043 140.985 20.6495 72.7786 145.391 21.2948 75.0529 149.797 21.9401 77.3273 154.203 22.5854 79.6016 158.609 23.2307 81.8759 163.014 23.876 84.1503 167.42 24.5213 86.4246 171.826 25.1666 88.6989 176.232 25.8119 90.9733 86.8905 19.5195 45.4866 91.235 20.4955 47.761 95.5795 21.4715 50.0353 99.9241 22.4474 52.3096 104.269 23.4234 54.584 108.613 24.3994 56.8583 112.958 25.3754 59.1326 117.302 26.3513 61.407 121.647 27.3273 63.6813 125.991 28.3033 65.9556 130.336 29.2793 68.2299 134.68 30.2552 70.5043 139.025 31.2312 72.7786 143.369 32.2072 75.0529 147.714 33.1832 77.3273 152.058 34.1591 79.6016 156.403 35.1351 81.8759 160.747 36.1111 84.1503 165.092 37.0871 86.4246 169.436 38.063 88.6989 173.781 39.039 90.9733 85.1253 26.1657 45.4866 89.3816 27.474 47.761 93.6379 28.7823 50.0353 97.8941 30.0906 52.3096 102.15 31.3988 54.584 106.407 32.7071 56.8583 110.663 34.0154 59.1326 114.919 35.3237 61.407 119.175 36.632 63.6813 123.432 37.9403 65.9556 127.688 39.2486 68.2299 131.944 40.5568 70.5043 136.201 41.8651 72.7786 140.457 43.1734 75.0529 144.713 44.4817 77.3273 148.969 45.79 79.6016 153.226 47.0983 81.8759 157.482 48.4066 84.1503 161.738 49.7148 86.4246 165.994 51.0231 88.6989 170.251 52.3314 90.9733 82.8032 32.781 45.4866 86.9434 34.4201 47.761 91.0835 36.0591 50.0353 95.2237 37.6982 52.3096 99.3638 39.3372 54.584 103.504 40.9763 56.8583 107.644 42.6153 59.1326 111.784 44.2544 61.407 115.924 45.8934 63.6813 120.065 47.5325 65.9556 124.205 49.1715 68.2299 128.345 50.8106 70.5043 132.485 52.4497 72.7786 136.625 54.0887 75.0529 140.765 55.7278 77.3273 144.906 57.3668 79.6016 149.046 59.0059 81.8759 153.186 60.6449 84.1503 157.326 62.284 86.4246 161.466 63.923 88.6989 165.606 65.5621 90.9733 79.9167 39.2975 45.4866 83.9125 41.2624 47.761 87.9083 43.2273 50.0353 91.9042 45.1921 52.3096 95.9 47.157 54.584 99.8958 49.1219 56.8583 103.892 51.0868 59.1326 107.887 53.0516 61.407 111.883 55.0165 63.6813 115.879 56.9814 65.9556 119.875 58.9463 68.2299 123.871 60.9111 70.5043 127.867 62.876 72.7786 131.862 64.8409 75.0529 135.858 66.8058 77.3273 139.854 68.7706 79.6016 143.85 70.7355 81.8759 147.846 72.7004 84.1503 151.842 74.6653 86.4246 155.837 76.6301 88.6989 159.833 78.595 90.9733 76.4692 45.6445 45.4866 80.2927 47.9268 47.761 84.1161 50.209 50.0353 87.9396 52.4912 52.3096 91.7631 54.7734 54.584 95.5865 57.0557 56.8583 99.41 59.3379 59.1326 103.233 61.6201 61.407 107.057 63.9024 63.6813 110.88 66.1846 65.9556 114.704 68.4668 68.2299 118.527 70.749 70.5043 122.351 73.0313 72.7786 126.174 75.3135 75.0529 129.998 77.5957 77.3273 133.821 79.8779 79.6016 137.645 82.1602 81.8759 141.468 84.4424 84.1503 145.292 86.7246 86.4246 149.115 89.0068 88.6989 152.938 91.2891 90.9733 72.4761 51.7512 45.4866 76.0999 54.3387 47.761 79.7237 56.9263 50.0353 83.3475 59.5139 52.3096 86.9713 62.1014 54.584 90.5951 64.689 56.8583 94.2189 67.2765 59.1326 97.8427 69.8641 61.407 101.466 72.4517 63.6813 105.09 75.0392 65.9556 108.714 77.6268 68.2299 112.338 80.2143 70.5043 115.962 82.8019 72.7786 119.586 85.3895 75.0529 123.209 87.977 77.3273 126.833 90.5646 79.6016 130.457 93.1521 81.8759 134.081 95.7397 84.1503 137.705 98.3273 86.4246 141.328 100.915 88.6989 144.952 103.502 90.9733 67.9642 57.5485 45.4866 71.3624 60.4259 47.761 74.7606 63.3034 50.0353 78.1588 66.1808 52.3096 81.5571 69.0582 54.584 84.9553 71.9357 56.8583 88.3535 74.8131 59.1326 91.7517 77.6905 61.407 95.1499 80.5679 63.6813 98.5481 83.4454 65.9556 101.946 86.3228 68.2299 105.345 89.2002 70.5043 108.743 92.0776 72.7786 112.141 94.9551 75.0529 115.539 97.8325 77.3273 118.937 100.71 79.6016 122.336 103.587 81.8759 125.734 106.465 84.1503 129.132 109.342 86.4246 132.53 112.22 88.6989 135.928 115.097 90.9733 62.9721 62.9721 45.4866 66.1207 66.1207 47.761 69.2693 69.2693 50.0353 72.4179 72.4179 52.3096 75.5665 75.5665 54.584 78.7151 78.7151 56.8583 81.8637 81.8637 59.1326 85.0123 85.0123 61.407 88.1609 88.1609 63.6813 91.3095 91.3095 65.9556 94.4581 94.4581 68.2299 97.6067 97.6067 70.5043 100.755 100.755 72.7786 103.904 103.904 75.0529 107.053 107.053 77.3273 110.201 110.201 79.6016 113.35 113.35 81.8759 116.498 116.498 84.1503 119.647 119.647 86.4246 122.796 122.796 88.6989 125.944 125.944 90.9733 57.5485 67.9642 45.4866 60.4259 71.3624 47.761 63.3034 74.7606 50.0353 66.1808 78.1588 52.3096 69.0582 81.5571 54.584 71.9357 84.9553 56.8583 74.8131 88.3535 59.1326 77.6905 91.7517 61.407 80.5679 95.1499 63.6813 83.4454 98.5481 65.9556 86.3228 101.946 68.2299 89.2002 105.345 70.5043 92.0776 108.743 72.7786 94.9551 112.141 75.0529 97.8325 115.539 77.3273 100.71 118.937 79.6016 103.587 122.336 81.8759 106.465 125.734 84.1503 109.342 129.132 86.4246 112.22 132.53 88.6989 115.097 135.928 90.9733 51.7512 72.4761 45.4866 54.3387 76.0999 47.761 56.9263 79.7237 50.0353 59.5139 83.3475 52.3096 62.1014 86.9713 54.584 64.689 90.5951 56.8583 67.2765 94.2189 59.1326 69.8641 97.8427 61.407 72.4517 101.466 63.6813 75.0392 105.09 65.9556 77.6268 108.714 68.2299 80.2143 112.338 70.5043 82.8019 115.962 72.7786 85.3895 119.586 75.0529 87.977 123.209 77.3273 90.5646 126.833 79.6016 93.1521 130.457 81.8759 95.7397 134.081 84.1503 98.3273 137.705 86.4246 100.915 141.328 88.6989 103.502 144.952 90.9733 45.6445 76.4692 45.4866 47.9268 80.2927 47.761 50.209 84.1161 50.0353 52.4912 87.9396 52.3096 54.7734 91.7631 54.584 57.0557 95.5865 56.8583 59.3379 99.41 59.1326 61.6201 103.233 61.407 63.9024 107.057 63.6813 66.1846 110.88 65.9556 68.4668 114.704 68.2299 70.749 118.527 70.5043 73.0313 122.351 72.7786 75.3135 126.174 75.0529 77.5957 129.998 77.3273 79.8779 133.821 79.6016 82.1602 137.645 81.8759 84.4424 141.468 84.1503 86.7246 145.292 86.4246 89.0068 149.115 88.6989 91.2891 152.938 90.9733 39.2975 79.9167 45.4866 41.2624 83.9125 47.761 43.2273 87.9083 50.0353 45.1921 91.9042 52.3096 47.157 95.9 54.584 49.1219 99.8958 56.8583 51.0868 103.892 59.1326 53.0516 107.887 61.407 55.0165 111.883 63.6813 56.9814 115.879 65.9556 58.9463 119.875 68.2299 60.9111 123.871 70.5043 62.876 127.867 72.7786 64.8409 131.862 75.0529 66.8058 135.858 77.3273 68.7706 139.854 79.6016 70.7355 143.85 81.8759 72.7004 147.846 84.1503 74.6653 151.842 86.4246 76.6301 155.837 88.6989 78.595 159.833 90.9733 32.781 82.8032 45.4866 34.4201 86.9434 47.761 36.0591 91.0835 50.0353 37.6982 95.2237 52.3096 39.3372 99.3638 54.584 40.9763 103.504 56.8583 42.6153 107.644 59.1326 44.2544 111.784 61.407 45.8934 115.924 63.6813 47.5325 120.065 65.9556 49.1715 124.205 68.2299 50.8106 128.345 70.5043 52.4497 132.485 72.7786 54.0887 136.625 75.0529 55.7278 140.765 77.3273 57.3668 144.906 79.6016 59.0059 149.046 81.8759 60.6449 153.186 84.1503 62.284 157.326 86.4246 63.923 161.466 88.6989 65.5621 165.606 90.9733 26.1657 85.1253 45.4866 27.474 89.3816 47.761 28.7823 93.6379 50.0353 30.0906 97.8941 52.3096 31.3988 102.15 54.584 32.7071 106.407 56.8583 34.0154 110.663 59.1326 35.3237 114.919 61.407 36.632 119.175 63.6813 37.9403 123.432 65.9556 39.2486 127.688 68.2299 40.5568 131.944 70.5043 41.8651 136.201 72.7786 43.1734 140.457 75.0529 44.4817 144.713 77.3273 45.79 148.969 79.6016 47.0983 153.226 81.8759 48.4066 157.482 84.1503 49.7148 161.738 86.4246 51.0231 165.994 88.6989 52.3314 170.251 90.9733 19.5195 86.8905 45.4866 20.4955 91.235 47.761 21.4715 95.5795 50.0353 22.4474 99.9241 52.3096 23.4234 104.269 54.584 24.3994 108.613 56.8583 25.3754 112.958 59.1326 26.3513 117.302 61.407 27.3273 121.647 63.6813 28.3033 125.991 65.9556 29.2793 130.336 68.2299 30.2552 134.68 70.5043 31.2312 139.025 72.7786 32.2072 143.369 75.0529 33.1832 147.714 77.3273 34.1591 152.058 79.6016 35.1351 156.403 81.8759 36.1111 160.747 84.1503 37.0871 165.092 86.4246 38.063 169.436 88.6989 39.039 173.781 90.9733 12.9059 88.1159 45.4866 13.5512 92.5216 47.761 14.1965 96.9274 50.0353 14.8418 101.333 52.3096 15.4871 105.739 54.584 16.1324 110.145 56.8583 16.7777 114.551 59.1326 17.423 118.956 61.407 18.0683 123.362 63.6813 18.7136 127.768 65.9556 19.3589 132.174 68.2299 20.0042 136.58 70.5043 20.6495 140.985 72.7786 21.2948 145.391 75.0529 21.9401 149.797 77.3273 22.5854 154.203 79.6016 23.2307 158.609 81.8759 23.876 163.014 84.1503 24.5213 167.42 86.4246 25.1666 171.826 88.6989 25.8119 176.232 90.9733 6.38258 88.827 45.4866 6.70171 93.2683 47.761 7.02084 97.7097 50.0353 7.33997 102.151 52.3096 7.6591 106.592 54.584 7.97823 111.034 56.8583 8.29736 115.475 59.1326 8.61649 119.916 61.407 8.93562 124.358 63.6813 9.25474 128.799 65.9556 9.57387 133.24 68.2299 9.893 137.682 70.5043 10.2121 142.123 72.7786 10.5313 146.564 75.0529 10.8504 151.006 77.3273 11.1695 155.447 79.6016 11.4886 159.889 81.8759 11.8078 164.33 84.1503 12.1269 168.771 86.4246 12.446 173.213 88.6989 12.7652 177.654 90.9733 0 89.056 45.4866 0 93.5088 47.761 0 97.9616 50.0353 0 102.414 52.3096 0 106.867 54.584 0 111.32 56.8583 0 115.773 59.1326 0 120.226 61.407 0 124.678 63.6813 0 129.131 65.9556 0 133.584 68.2299 0 138.037 70.5043 0 142.49 72.7786 0 146.942 75.0529 0 151.395 77.3273 0 155.848 79.6016 0 160.301 81.8759 0 164.754 84.1503 0 169.206 86.4246 0 173.659 88.6989 0 178.112 90.9733 87.1813 0 48.9839 91.5404 0 51.4331 95.8994 0 53.8823 100.258 0 56.3315 104.618 0 58.7807 108.977 0 61.2299 113.336 0 63.6791 117.695 0 66.1283 122.054 0 68.5775 126.413 0 71.0267 130.772 0 73.4759 135.131 0 75.9251 139.49 0 78.3743 143.849 0 80.8234 148.208 0 83.2726 152.567 0 85.7218 156.926 0 88.171 161.285 0 90.6202 165.644 0 93.0694 170.004 0 95.5186 174.363 0 97.9678 86.9571 6.24822 48.9839 91.305 6.56064 51.4331 95.6528 6.87305 53.8823 100.001 7.18546 56.3315 104.349 7.49787 58.7807 108.696 7.81028 61.2299 113.044 8.12269 63.6791 117.392 8.4351 66.1283 121.74 8.74751 68.5775 126.088 9.05993 71.0267 130.436 9.37234 73.4759 134.784 9.68475 75.9251 139.131 9.99716 78.3743 143.479 10.3096 80.8234 147.827 10.622 83.2726 152.175 10.9344 85.7218 156.523 11.2468 88.171 160.871 11.5592 90.6202 165.218 11.8716 93.0694 169.566 12.184 95.5186 173.914 12.4964 97.9678 86.261 12.6343 48.9839 90.574 13.266 51.4331 94.8871 13.8977 53.8823 99.2001 14.5294 56.3315 103.513 15.1611 58.7807 107.826 15.7928 61.2299 112.139 16.4245 63.6791 116.452 17.0563 66.1283 120.765 17.688 68.5775 125.078 18.3197 71.0267 129.391 18.9514 73.4759 133.704 19.5831 75.9251 138.018 20.2148 78.3743 142.331 20.8465 80.8234 146.644 21.4783 83.2726 150.957 22.11 85.7218 155.27 22.7417 88.171 159.583 23.3734 90.6202 163.896 24.0051 93.0694 168.209 24.6368 95.5186 172.522 25.2685 97.9678 85.0614 19.1086 48.9839 89.3144 20.064 51.4331 93.5675 21.0195 53.8823 97.8206 21.9749 56.3315 102.074 22.9303 58.7807 106.327 23.8858 61.2299 110.58 24.8412 63.6791 114.833 25.7966 66.1283 119.086 26.7521 68.5775 123.339 27.7075 71.0267 127.592 28.6629 73.4759 131.845 29.6183 75.9251 136.098 30.5738 78.3743 140.351 31.5292 80.8234 144.604 32.4846 83.2726 148.857 33.4401 85.7218 153.11 34.3955 88.171 157.364 35.3509 90.6202 161.617 36.3064 93.0694 165.87 37.2618 95.5186 170.123 38.2172 97.9678 83.3334 25.6149 48.9839 87.5001 26.8956 51.4331 91.6667 28.1764 53.8823 95.8334 29.4571 56.3315 100 30.7379 58.7807 104.167 32.0186 61.2299 108.333 33.2994 63.6791 112.5 34.5801 66.1283 116.667 35.8609 68.5775 120.833 37.1416 71.0267 125 38.4224 73.4759 129.167 39.7031 75.9251 133.333 40.9838 78.3743 137.5 42.2646 80.8234 141.667 43.5453 83.2726 145.833 44.8261 85.7218 150 46.1068 88.171 154.167 47.3876 90.6202 158.333 48.6683 93.0694 162.5 49.9491 95.5186 166.667 51.2298 97.9678 81.0601 32.091 48.9839 85.1131 33.6955 51.4331 89.1662 35.3001 53.8823 93.2192 36.9046 56.3315 97.2722 38.5092 58.7807 101.325 40.1137 61.2299 105.378 41.7183 63.6791 109.431 43.3228 66.1283 113.484 44.9274 68.5775 117.537 46.5319 71.0267 121.59 48.1365 73.4759 125.643 49.741 75.9251 129.696 51.3456 78.3742 133.749 52.9501 80.8234 137.802 54.5547 83.2726 141.855 56.1592 85.7218 145.908 57.7637 88.171 149.961 59.3683 90.6202 154.014 60.9728 93.0694 158.067 62.5774 95.5186 162.12 64.1819 97.9678 78.2344 38.4703 48.9839 82.1461 40.3938 51.4331 86.0578 42.3173 53.8823 89.9695 44.2408 56.3315 93.8812 46.1643 58.7807 97.793 48.0878 61.2299 101.705 50.0113 63.6791 105.616 51.9349 66.1283 109.528 53.8584 68.5775 113.44 55.7819 71.0267 117.352 57.7054 73.4759 121.263 59.6289 75.9251 125.175 61.5524 78.3742 129.087 63.4759 80.8234 132.998 65.3994 83.2726 136.91 67.323 85.7218 140.822 69.2465 88.171 144.734 71.17 90.6202 148.645 73.0935 93.0694 152.557 75.017 95.5186 156.469 76.9405 97.9678 74.8595 44.6837 48.9839 78.6025 46.9179 51.4331 82.3454 49.1521 53.8823 86.0884 51.3862 56.3315 89.8314 53.6204 58.7807 93.5744 55.8546 61.2299 97.3173 58.0888 63.6791 101.06 60.323 66.1283 104.803 62.5572 68.5775 108.546 64.7914 71.0267 112.289 67.0255 73.4759 116.032 69.2597 75.9251 119.775 71.4939 78.3742 123.518 73.7281 80.8234 127.261 75.9623 83.2726 131.004 78.1965 85.7218 134.747 80.4306 88.171 138.49 82.6648 90.6202 142.233 84.899 93.0694 145.976 87.1332 95.5186 149.719 89.3674 97.9678 70.9504 50.6618 48.9839 74.4979 53.1949 51.4331 78.0454 55.728 53.8823 81.593 58.2611 56.3315 85.1405 60.7942 58.7807 88.688 63.3272 61.2299 92.2355 65.8603 63.6791 95.783 68.3934 66.1283 99.3306 70.9265 68.5775 102.878 73.4596 71.0267 106.426 75.9927 73.4759 109.973 78.5258 75.9251 113.521 81.0589 78.3742 117.068 83.592 80.8234 120.616 86.1251 83.2726 124.163 88.6581 85.7218 127.711 91.1912 88.171 131.258 93.7243 90.6202 134.806 96.2574 93.0694 138.353 98.7905 95.5186 141.901 101.324 97.9678 66.5335 56.3371 48.9839 69.8602 59.1539 51.4331 73.1869 61.9708 53.8823 76.5135 64.7877 56.3315 79.8402 67.6045 58.7807 83.1669 70.4214 61.2299 86.4936 73.2382 63.6791 89.8203 76.0551 66.1283 93.1469 78.8719 68.5775 96.4736 81.6888 71.0267 99.8003 84.5056 73.4759 103.127 87.3225 75.9251 106.454 90.1393 78.3742 109.78 92.9562 80.8234 113.107 95.7731 83.2726 116.434 98.5899 85.7218 119.76 101.407 88.171 123.087 104.224 90.6202 126.414 107.04 93.0694 129.74 109.857 95.5186 133.067 112.674 97.9678 61.6465 61.6465 48.9839 64.7288 64.7288 51.4331 67.8111 67.8111 53.8823 70.8935 70.8935 56.3315 73.9758 73.9758 58.7807 77.0581 77.0581 61.2299 80.1404 80.1404 63.6791 83.2227 83.2227 66.1283 86.3051 86.3051 68.5775 89.3874 89.3874 71.0267 92.4697 92.4697 73.4759 95.552 95.552 75.9251 98.6344 98.6344 78.3742 101.717 101.717 80.8234 104.799 104.799 83.2726 107.881 107.881 85.7218 110.964 110.964 88.171 114.046 114.046 90.6202 117.128 117.128 93.0694 120.211 120.211 95.5186 123.293 123.293 97.9678 56.3371 66.5335 48.9839 59.1539 69.8602 51.4331 61.9708 73.1869 53.8823 64.7877 76.5135 56.3315 67.6045 79.8402 58.7807 70.4214 83.1669 61.2299 73.2382 86.4936 63.6791 76.0551 89.8203 66.1283 78.8719 93.1469 68.5775 81.6888 96.4736 71.0267 84.5056 99.8003 73.4759 87.3225 103.127 75.9251 90.1393 106.454 78.3742 92.9562 109.78 80.8234 95.7731 113.107 83.2726 98.5899 116.434 85.7218 101.407 119.76 88.171 104.224 123.087 90.6202 107.04 126.414 93.0694 109.857 129.74 95.5186 112.674 133.067 97.9678 50.6618 70.9504 48.9839 53.1949 74.4979 51.4331 55.728 78.0454 53.8823 58.2611 81.593 56.3315 60.7942 85.1405 58.7807 63.3272 88.688 61.2299 65.8603 92.2355 63.6791 68.3934 95.783 66.1283 70.9265 99.3306 68.5775 73.4596 102.878 71.0267 75.9927 106.426 73.4759 78.5258 109.973 75.9251 81.0589 113.521 78.3742 83.592 117.068 80.8234 86.1251 120.616 83.2726 88.6581 124.163 85.7218 91.1912 127.711 88.171 93.7243 131.258 90.6202 96.2574 134.806 93.0694 98.7905 138.353 95.5186 101.324 141.901 97.9678 44.6837 74.8595 48.9839 46.9179 78.6025 51.4331 49.1521 82.3454 53.8823 51.3862 86.0884 56.3315 53.6204 89.8314 58.7807 55.8546 93.5744 61.2299 58.0888 97.3173 63.6791 60.323 101.06 66.1283 62.5572 104.803 68.5775 64.7914 108.546 71.0267 67.0255 112.289 73.4759 69.2597 116.032 75.9251 71.4939 119.775 78.3742 73.7281 123.518 80.8234 75.9623 127.261 83.2726 78.1965 131.004 85.7218 80.4306 134.747 88.171 82.6648 138.49 90.6202 84.899 142.233 93.0694 87.1332 145.976 95.5186 89.3674 149.719 97.9678 38.4703 78.2344 48.9839 40.3938 82.1461 51.4331 42.3173 86.0578 53.8823 44.2408 89.9695 56.3315 46.1643 93.8812 58.7807 48.0878 97.793 61.2299 50.0113 101.705 63.6791 51.9349 105.616 66.1283 53.8584 109.528 68.5775 55.7819 113.44 71.0267 57.7054 117.352 73.4759 59.6289 121.263 75.9251 61.5524 125.175 78.3742 63.4759 129.087 80.8234 65.3994 132.998 83.2726 67.323 136.91 85.7218 69.2465 140.822 88.171 71.17 144.734 90.6202 73.0935 148.645 93.0694 75.017 152.557 95.5186 76.9405 156.469 97.9678 32.091 81.0601 48.9839 33.6955 85.1131 51.4331 35.3001 89.1662 53.8823 36.9046 93.2192 56.3315 38.5092 97.2722 58.7807 40.1137 101.325 61.2299 41.7183 105.378 63.6791 43.3228 109.431 66.1283 44.9274 113.484 68.5775 46.5319 117.537 71.0267 48.1365 121.59 73.4759 49.741 125.643 75.9251 51.3456 129.696 78.3742 52.9501 133.749 80.8234 54.5547 137.802 83.2726 56.1592 141.855 85.7218 57.7637 145.908 88.171 59.3683 149.961 90.6202 60.9728 154.014 93.0694 62.5774 158.067 95.5186 64.1819 162.12 97.9678 25.6149 83.3334 48.9839 26.8956 87.5001 51.4331 28.1764 91.6667 53.8823 29.4571 95.8334 56.3315 30.7379 100 58.7807 32.0186 104.167 61.2299 33.2994 108.333 63.6791 34.5801 112.5 66.1283 35.8609 116.667 68.5775 37.1416 120.833 71.0267 38.4224 125 73.4759 39.7031 129.167 75.9251 40.9838 133.333 78.3743 42.2646 137.5 80.8234 43.5453 141.667 83.2726 44.8261 145.833 85.7218 46.1068 150 88.171 47.3876 154.167 90.6202 48.6683 158.333 93.0694 49.9491 162.5 95.5186 51.2298 166.667 97.9678 19.1086 85.0614 48.9839 20.064 89.3144 51.4331 21.0195 93.5675 53.8823 21.9749 97.8206 56.3315 22.9303 102.074 58.7807 23.8858 106.327 61.2299 24.8412 110.58 63.6791 25.7966 114.833 66.1283 26.7521 119.086 68.5775 27.7075 123.339 71.0267 28.6629 127.592 73.4759 29.6183 131.845 75.9251 30.5738 136.098 78.3743 31.5292 140.351 80.8234 32.4846 144.604 83.2726 33.4401 148.857 85.7218 34.3955 153.11 88.171 35.3509 157.364 90.6202 36.3064 161.617 93.0694 37.2618 165.87 95.5186 38.2172 170.123 97.9678 12.6343 86.261 48.9839 13.266 90.574 51.4331 13.8977 94.8871 53.8823 14.5294 99.2001 56.3315 15.1611 103.513 58.7807 15.7928 107.826 61.2299 16.4245 112.139 63.6791 17.0563 116.452 66.1283 17.688 120.765 68.5775 18.3197 125.078 71.0267 18.9514 129.391 73.4759 19.5831 133.704 75.9251 20.2148 138.018 78.3743 20.8465 142.331 80.8234 21.4783 146.644 83.2726 22.11 150.957 85.7218 22.7417 155.27 88.171 23.3734 159.583 90.6202 24.0051 163.896 93.0694 24.6368 168.209 95.5186 25.2685 172.522 97.9678 6.24822 86.9571 48.9839 6.56064 91.305 51.4331 6.87305 95.6528 53.8823 7.18546 100.001 56.3315 7.49787 104.349 58.7807 7.81028 108.696 61.2299 8.12269 113.044 63.6791 8.4351 117.392 66.1283 8.74751 121.74 68.5775 9.05993 126.088 71.0267 9.37234 130.436 73.4759 9.68475 134.784 75.9251 9.99716 139.131 78.3743 10.3096 143.479 80.8234 10.622 147.827 83.2726 10.9344 152.175 85.7218 11.2468 156.523 88.171 11.5592 160.871 90.6202 11.8716 165.218 93.0694 12.184 169.566 95.5186 12.4964 173.914 97.9678 0 87.1813 48.9839 0 91.5404 51.4331 0 95.8994 53.8823 0 100.258 56.3315 0 104.618 58.7807 0 108.977 61.2299 0 113.336 63.6791 0 117.695 66.1283 0 122.054 68.5775 0 126.413 71.0267 0 130.772 73.4759 0 135.131 75.9251 0 139.49 78.3743 0 143.849 80.8234 0 148.208 83.2726 0 152.567 85.7218 0 156.926 88.171 0 161.285 90.6202 0 165.644 93.0694 0 170.004 95.5186 0 174.363 97.9678 85.1742 0 52.3961 89.433 0 55.0159 93.6917 0 57.6357 97.9504 0 60.2555 102.209 0 62.8753 106.468 0 65.4951 110.727 0 68.1149 114.985 0 70.7347 119.244 0 73.3545 123.503 0 75.9743 127.761 0 78.5941 132.02 0 81.2139 136.279 0 83.8337 140.538 0 86.4535 144.796 0 89.0733 149.055 0 91.6931 153.314 0 94.3129 157.572 0 96.9327 161.831 0 99.5525 166.09 0 102.172 170.348 0 104.792 84.9552 6.10438 52.3961 89.203 6.4096 55.0159 93.4507 6.71482 57.6357 97.6985 7.02004 60.2555 101.946 7.32526 62.8753 106.194 7.63048 65.4951 110.442 7.9357 68.1149 114.69 8.24091 70.7347 118.937 8.54613 73.3545 123.185 8.85135 75.9743 127.433 9.15657 78.5941 131.681 9.46179 81.2139 135.928 9.76701 83.8337 140.176 10.0722 86.4535 144.424 10.3774 89.0733 148.672 10.6827 91.6931 152.919 10.9879 94.3129 157.167 11.2931 96.9327 161.415 11.5983 99.5525 165.663 11.9035 102.172 169.91 12.2088 104.792 84.2751 12.3434 52.3961 88.4889 12.9606 55.0159 92.7026 13.5777 57.6357 96.9164 14.1949 60.2555 101.13 14.8121 62.8753 105.344 15.4293 65.4951 109.558 16.0464 68.1149 113.771 16.6636 70.7347 117.985 17.2808 73.3545 122.199 17.8979 75.9743 126.413 18.5151 78.5941 130.626 19.1323 81.2139 134.84 19.7495 83.8337 139.054 20.3666 86.4535 143.268 20.9838 89.0733 147.481 21.601 91.6931 151.695 22.2181 94.3129 155.909 22.8353 96.9327 160.123 23.4525 99.5525 164.336 24.0696 102.172 168.55 24.6868 104.792 83.1031 18.6687 52.3961 87.2583 19.6021 55.0159 91.4135 20.5356 57.6357 95.5686 21.469 60.2555 99.7238 22.4024 62.8753 103.879 23.3359 65.4951 108.034 24.2693 68.1149 112.189 25.2027 70.7347 116.344 26.1362 73.3545 120.5 27.0696 75.9743 124.655 28.0031 78.5941 128.81 28.9365 81.2139 132.965 29.8699 83.8337 137.12 30.8034 86.4535 141.275 31.7368 89.0733 145.43 32.6702 91.6931 149.586 33.6037 94.3129 153.741 34.5371 96.9327 157.896 35.4705 99.5525 162.051 36.404 102.172 166.206 37.3374 104.792 81.4149 25.0252 52.3961 85.4857 26.2765 55.0159 89.5564 27.5277 57.6357 93.6272 28.779 60.2555 97.6979 30.0303 62.8753 101.769 31.2815 65.4951 105.839 32.5328 68.1149 109.91 33.784 70.7347 113.981 35.0353 73.3545 118.052 36.2866 75.9743 122.122 37.5378 78.5941 126.193 38.7891 81.2139 130.264 40.0403 83.8337 134.335 41.2916 86.4535 138.405 42.5429 89.0733 142.476 43.7941 91.6931 146.547 45.0454 94.3129 150.618 46.2966 96.9327 154.688 47.5479 99.5525 158.759 48.7992 102.172 162.83 50.0504 104.792 79.194 31.3522 52.3961 83.1537 32.9198 55.0159 87.1134 34.4874 57.6357 91.0731 36.055 60.2555 95.0328 37.6226 62.8753 98.9925 39.1902 65.4951 102.952 40.7578 68.1149 106.912 42.3255 70.7347 110.872 43.8931 73.3545 114.831 45.4607 75.9743 118.791 47.0283 78.5941 122.751 48.5959 81.2139 126.71 50.1635 83.8337 130.67 51.7311 86.4535 134.63 53.2987 89.0733 138.59 54.8663 91.6931 142.549 56.4339 94.3129 146.509 58.0015 96.9327 150.469 59.5692 99.5525 154.428 61.1368 102.172 158.388 62.7044 104.792 76.4333 37.5846 52.3961 80.255 39.4639 55.0159 84.0766 41.3431 57.6357 87.8983 43.2223 60.2555 91.72 45.1015 62.8753 95.5416 46.9808 65.4951 99.3633 48.86 68.1149 103.185 50.7392 70.7347 107.007 52.6185 73.3545 110.828 54.4977 75.9743 114.65 56.3769 78.5941 118.472 58.2562 81.2139 122.293 60.1354 83.8337 126.115 62.0146 86.4535 129.937 63.8939 89.0733 133.758 65.7731 91.6931 137.58 67.6523 94.3129 141.402 69.5315 96.9327 145.223 71.4108 99.5525 149.045 73.29 102.172 152.867 75.1692 104.792 73.1361 43.655 52.3961 76.7929 45.8378 55.0159 80.4497 48.0205 57.6357 84.1065 50.2033 60.2555 87.7633 52.386 62.8753 91.4202 54.5688 65.4951 95.077 56.7515 68.1149 98.7338 58.9343 70.7347 102.391 61.117 73.3545 106.047 63.2998 75.9743 109.704 65.4825 78.5941 113.361 67.6653 81.2139 117.018 69.848 83.8337 120.675 72.0308 86.4535 124.331 74.2135 89.0733 127.988 76.3963 91.6931 131.645 78.579 94.3129 135.302 80.7618 96.9327 138.959 82.9445 99.5525 142.615 85.1273 102.172 146.272 87.31 104.792 69.317 49.4955 52.3961 72.7829 51.9703 55.0159 76.2487 54.445 57.6357 79.7146 56.9198 60.2555 83.1804 59.3946 62.8753 86.6463 61.8694 65.4951 90.1121 64.3441 68.1149 93.578 66.8189 70.7347 97.0438 69.2937 73.3545 100.51 71.7685 75.9743 103.976 74.2432 78.5941 107.441 76.718 81.2139 110.907 79.1928 83.8337 114.373 81.6675 86.4535 117.839 84.1423 89.0733 121.305 86.6171 91.6931 124.771 89.0919 94.3129 128.236 91.5666 96.9327 131.702 94.0414 99.5525 135.168 96.5162 102.172 138.634 98.991 104.792 65.0018 55.0401 52.3961 68.2519 57.7921 55.0159 71.502 60.5441 57.6357 74.7521 63.2961 60.2555 78.0022 66.0482 62.8753 81.2523 68.8002 65.4951 84.5024 71.5522 68.1149 87.7525 74.3042 70.7347 91.0025 77.0562 73.3545 94.2526 79.8082 75.9743 97.5027 82.5602 78.5941 100.753 85.3122 81.2139 104.003 88.0642 83.8337 107.253 90.8162 86.4535 110.503 93.5682 89.0733 113.753 96.3202 91.6931 117.003 99.0722 94.3129 120.253 101.824 96.9327 123.503 104.576 99.5525 126.754 107.328 102.172 130.004 110.08 104.792 60.2273 60.2273 52.3961 63.2386 63.2386 55.0159 66.25 66.25 57.6357 69.2614 69.2614 60.2555 72.2727 72.2727 62.8753 75.2841 75.2841 65.4951 78.2955 78.2955 68.1149 81.3068 81.3068 70.7347 84.3182 84.3182 73.3545 87.3296 87.3296 75.9743 90.3409 90.3409 78.5941 93.3523 93.3523 81.2139 96.3637 96.3637 83.8337 99.375 99.375 86.4535 102.386 102.386 89.0733 105.398 105.398 91.6931 108.409 108.409 94.3129 111.42 111.42 96.9327 114.432 114.432 99.5525 117.443 117.443 102.172 120.455 120.455 104.792 55.0401 65.0018 52.3961 57.7921 68.2519 55.0159 60.5441 71.502 57.6357 63.2961 74.7521 60.2555 66.0482 78.0022 62.8753 68.8002 81.2523 65.4951 71.5522 84.5024 68.1149 74.3042 87.7525 70.7347 77.0562 91.0025 73.3545 79.8082 94.2526 75.9743 82.5602 97.5027 78.5941 85.3122 100.753 81.2139 88.0642 104.003 83.8337 90.8162 107.253 86.4535 93.5682 110.503 89.0733 96.3202 113.753 91.6931 99.0722 117.003 94.3129 101.824 120.253 96.9327 104.576 123.503 99.5525 107.328 126.754 102.172 110.08 130.004 104.792 49.4955 69.317 52.3961 51.9703 72.7829 55.0159 54.445 76.2487 57.6357 56.9198 79.7146 60.2555 59.3946 83.1804 62.8753 61.8694 86.6463 65.4951 64.3441 90.1121 68.1149 66.8189 93.578 70.7347 69.2937 97.0438 73.3545 71.7685 100.51 75.9743 74.2432 103.976 78.5941 76.718 107.441 81.2139 79.1928 110.907 83.8337 81.6675 114.373 86.4535 84.1423 117.839 89.0733 86.6171 121.305 91.6931 89.0919 124.771 94.3129 91.5666 128.236 96.9327 94.0414 131.702 99.5525 96.5162 135.168 102.172 98.991 138.634 104.792 43.655 73.1361 52.3961 45.8378 76.7929 55.0159 48.0205 80.4497 57.6357 50.2033 84.1065 60.2555 52.386 87.7633 62.8753 54.5688 91.4202 65.4951 56.7515 95.077 68.1149 58.9343 98.7338 70.7347 61.117 102.391 73.3545 63.2998 106.047 75.9743 65.4825 109.704 78.5941 67.6653 113.361 81.2139 69.848 117.018 83.8337 72.0308 120.675 86.4535 74.2135 124.331 89.0733 76.3963 127.988 91.6931 78.579 131.645 94.3129 80.7618 135.302 96.9327 82.9445 138.959 99.5525 85.1273 142.615 102.172 87.31 146.272 104.792 37.5846 76.4333 52.3961 39.4639 80.255 55.0159 41.3431 84.0766 57.6357 43.2223 87.8983 60.2555 45.1015 91.72 62.8753 46.9808 95.5416 65.4951 48.86 99.3633 68.1149 50.7392 103.185 70.7347 52.6185 107.007 73.3545 54.4977 110.828 75.9743 56.3769 114.65 78.5941 58.2562 118.472 81.2139 60.1354 122.293 83.8337 62.0146 126.115 86.4535 63.8939 129.937 89.0733 65.7731 133.758 91.6931 67.6523 137.58 94.3129 69.5315 141.402 96.9327 71.4108 145.223 99.5525 73.29 149.045 102.172 75.1692 152.867 104.792 31.3522 79.194 52.3961 32.9198 83.1537 55.0159 34.4874 87.1134 57.6357 36.055 91.0731 60.2555 37.6226 95.0328 62.8753 39.1902 98.9925 65.4951 40.7578 102.952 68.1149 42.3255 106.912 70.7347 43.8931 110.872 73.3545 45.4607 114.831 75.9743 47.0283 118.791 78.5941 48.5959 122.751 81.2139 50.1635 126.71 83.8337 51.7311 130.67 86.4535 53.2987 134.63 89.0733 54.8663 138.59 91.6931 56.4339 142.549 94.3129 58.0015 146.509 96.9327 59.5692 150.469 99.5525 61.1368 154.428 102.172 62.7044 158.388 104.792 25.0252 81.4149 52.3961 26.2765 85.4857 55.0159 27.5277 89.5564 57.6357 28.779 93.6272 60.2555 30.0303 97.6979 62.8753 31.2815 101.769 65.4951 32.5328 105.839 68.1149 33.784 109.91 70.7347 35.0353 113.981 73.3545 36.2866 118.052 75.9743 37.5378 122.122 78.5941 38.7891 126.193 81.2139 40.0403 130.264 83.8337 41.2916 134.335 86.4535 42.5429 138.405 89.0733 43.7941 142.476 91.6931 45.0454 146.547 94.3129 46.2966 150.618 96.9327 47.5479 154.688 99.5525 48.7992 158.759 102.172 50.0504 162.83 104.792 18.6687 83.1031 52.3961 19.6021 87.2583 55.0159 20.5356 91.4135 57.6357 21.469 95.5686 60.2555 22.4024 99.7238 62.8753 23.3359 103.879 65.4951 24.2693 108.034 68.1149 25.2027 112.189 70.7347 26.1362 116.344 73.3545 27.0696 120.5 75.9743 28.0031 124.655 78.5941 28.9365 128.81 81.2139 29.8699 132.965 83.8337 30.8034 137.12 86.4535 31.7368 141.275 89.0733 32.6702 145.43 91.6931 33.6037 149.586 94.3129 34.5371 153.741 96.9327 35.4705 157.896 99.5525 36.404 162.051 102.172 37.3374 166.206 104.792 12.3434 84.2751 52.3961 12.9606 88.4889 55.0159 13.5777 92.7026 57.6357 14.1949 96.9164 60.2555 14.8121 101.13 62.8753 15.4293 105.344 65.4951 16.0464 109.558 68.1149 16.6636 113.771 70.7347 17.2808 117.985 73.3545 17.8979 122.199 75.9743 18.5151 126.413 78.5941 19.1323 130.626 81.2139 19.7495 134.84 83.8337 20.3666 139.054 86.4535 20.9838 143.268 89.0733 21.601 147.481 91.6931 22.2181 151.695 94.3129 22.8353 155.909 96.9327 23.4525 160.123 99.5525 24.0696 164.336 102.172 24.6868 168.55 104.792 6.10438 84.9552 52.3961 6.4096 89.203 55.0159 6.71482 93.4507 57.6357 7.02004 97.6985 60.2555 7.32526 101.946 62.8753 7.63048 106.194 65.4951 7.9357 110.442 68.1149 8.24091 114.69 70.7347 8.54613 118.937 73.3545 8.85135 123.185 75.9743 9.15657 127.433 78.5941 9.46179 131.681 81.2139 9.76701 135.928 83.8337 10.0722 140.176 86.4535 10.3774 144.424 89.0733 10.6827 148.672 91.6931 10.9879 152.919 94.3129 11.2931 157.167 96.9327 11.5983 161.415 99.5525 11.9035 165.663 102.172 12.2088 169.91 104.792 0 85.1742 52.3961 0 89.433 55.0159 0 93.6917 57.6357 0 97.9504 60.2555 0 102.209 62.8753 0 106.468 65.4951 0 110.727 68.1149 0 114.985 70.7347 0 119.244 73.3545 0 123.503 75.9743 0 127.761 78.5941 0 132.02 81.2139 0 136.279 83.8337 0 140.538 86.4535 0 144.796 89.0733 0 149.055 91.6931 0 153.314 94.3129 0 157.572 96.9327 0 161.831 99.5525 0 166.09 102.172 0 170.348 104.792 83.0406 0 55.7158 87.1927 0 58.5016 91.3447 0 61.2874 95.4967 0 64.0732 99.6488 0 66.859 103.801 0 69.6448 107.953 0 72.4305 112.105 0 75.2163 116.257 0 78.0021 120.409 0 80.7879 124.561 0 83.5737 128.713 0 86.3595 132.865 0 89.1453 137.017 0 91.9311 141.169 0 94.7169 145.321 0 97.5027 149.473 0 100.288 153.625 0 103.074 157.777 0 105.86 161.929 0 108.646 166.081 0 111.432 82.8271 5.95147 55.7158 86.9685 6.24904 58.5016 91.1098 6.54661 61.2874 95.2512 6.84419 64.0732 99.3925 7.14176 66.859 103.534 7.43933 69.6448 107.675 7.73691 72.4305 111.817 8.03448 75.2163 115.958 8.33206 78.0021 120.099 8.62963 80.7879 124.241 8.9272 83.5737 128.382 9.22478 86.3595 132.523 9.52235 89.1453 136.665 9.81992 91.9311 140.806 10.1175 94.7169 144.947 10.4151 97.5027 149.089 10.7126 100.288 153.23 11.0102 103.074 157.372 11.3078 105.86 161.513 11.6054 108.646 165.654 11.9029 111.432 82.164 12.0342 55.7158 86.2722 12.6359 58.5016 90.3804 13.2376 61.2874 94.4886 13.8393 64.0732 98.5968 14.4411 66.859 102.705 15.0428 69.6448 106.813 15.6445 72.4305 110.921 16.2462 75.2163 115.03 16.8479 78.0021 119.138 17.4496 80.7879 123.246 18.0513 83.5737 127.354 18.653 86.3595 131.462 19.2547 89.1453 135.571 19.8564 91.9311 139.679 20.4582 94.7169 143.787 21.0599 97.5027 147.895 21.6616 100.288 152.003 22.2633 103.074 156.112 22.865 105.86 160.22 23.4667 108.646 164.328 24.0684 111.432 81.0214 18.2011 55.7158 85.0725 19.1111 58.5016 89.1236 20.0212 61.2874 93.1746 20.9312 64.0732 97.2257 21.8413 66.859 101.277 22.7513 69.6448 105.328 23.6614 72.4305 109.379 24.5714 75.2163 113.43 25.4815 78.0021 117.481 26.3915 80.7879 121.532 27.3016 83.5737 125.583 28.2116 86.3595 129.634 29.1217 89.1453 133.685 30.0317 91.9311 137.736 30.9418 94.7169 141.787 31.8518 97.5027 145.839 32.7619 100.288 149.89 33.672 103.074 153.941 34.582 105.86 157.992 35.4921 108.646 162.043 36.4021 111.432 79.3755 24.3983 55.7158 83.3443 25.6183 58.5016 87.3131 26.8382 61.2874 91.2818 28.0581 64.0732 95.2506 29.278 66.859 99.2194 30.4979 69.6448 103.188 31.7178 72.4305 107.157 32.9378 75.2163 111.126 34.1577 78.0021 115.094 35.3776 80.7879 119.063 36.5975 83.5737 123.032 37.8174 86.3595 127.001 39.0373 89.1453 130.97 40.2573 91.9311 134.938 41.4772 94.7169 138.907 42.6971 97.5027 142.876 43.917 100.288 146.845 45.1369 103.074 150.813 46.3568 105.86 154.782 47.5768 108.646 158.751 48.7967 111.432 77.2102 30.5668 55.7158 81.0707 32.0952 58.5016 84.9312 33.6235 61.2874 88.7918 35.1518 64.0732 92.6523 36.6802 66.859 96.5128 38.2085 69.6448 100.373 39.7369 72.4305 104.234 41.2652 75.2163 108.094 42.7936 78.0021 111.955 44.3219 80.7879 115.815 45.8502 83.5737 119.676 47.3786 86.3595 123.536 48.9069 89.1453 127.397 50.4353 91.9311 131.257 51.9636 94.7169 135.118 53.4919 97.5027 138.978 55.0203 100.288 142.839 56.5486 103.074 146.699 58.077 105.86 150.56 59.6053 108.646 154.42 61.1336 111.432 74.5187 36.6431 55.7158 78.2446 38.4753 58.5016 81.9705 40.3074 61.2874 85.6965 42.1396 64.0732 89.4224 43.9718 66.859 93.1483 45.8039 69.6448 96.8743 47.6361 72.4305 100.6 49.4682 75.2163 104.326 51.3004 78.0021 108.052 53.1325 80.7879 111.778 54.9647 83.5737 115.504 56.7969 86.3595 119.23 58.629 89.1453 122.956 60.4612 91.9311 126.682 62.2933 94.7169 130.408 64.1255 97.5027 134.134 65.9576 100.288 137.86 67.7898 103.074 141.585 69.622 105.86 145.311 71.4541 108.646 149.037 73.2863 111.432 71.3041 42.5615 55.7158 74.8693 44.6895 58.5016 78.4345 46.8176 61.2874 81.9997 48.9457 64.0732 85.5649 51.0737 66.859 89.1301 53.2018 69.6448 92.6953 55.3299 72.4305 96.2605 57.458 75.2163 99.8257 59.586 78.0021 103.391 61.7141 80.7879 106.956 63.8422 83.5737 110.521 65.9703 86.3595 114.087 68.0983 89.1453 117.652 70.2264 91.9311 121.217 72.3545 94.7169 124.782 74.4826 97.5027 128.347 76.6106 100.288 131.913 78.7387 103.074 135.478 80.8668 105.86 139.043 82.9948 108.646 142.608 85.1229 111.432 67.5806 48.2556 55.7158 70.9597 50.6684 58.5016 74.3387 53.0812 61.2874 77.7177 55.494 64.0732 81.0968 57.9068 66.859 84.4758 60.3195 69.6448 87.8548 62.7323 72.4305 91.2339 65.1451 75.2163 94.6129 67.5579 78.0021 97.9919 69.9707 80.7879 101.371 72.3835 83.5737 104.75 74.7962 86.3595 108.129 77.209 89.1453 111.508 79.6218 91.9311 114.887 82.0346 94.7169 118.266 84.4474 97.5027 121.645 86.8601 100.288 125.024 89.2729 103.074 128.403 91.6857 105.86 131.782 94.0985 108.646 135.161 96.5113 111.432 63.3735 53.6614 55.7158 66.5422 56.3445 58.5016 69.7109 59.0275 61.2874 72.8796 61.7106 64.0732 76.0482 64.3937 66.859 79.2169 67.0767 69.6448 82.3856 69.7598 72.4305 85.5543 72.4429 75.2163 88.723 75.1259 78.0021 91.8916 77.809 80.7879 95.0603 80.4921 83.5737 98.229 83.1751 86.3595 101.398 85.8582 89.1453 104.566 88.5413 91.9311 107.735 91.2244 94.7169 110.904 93.9074 97.5027 114.072 96.5905 100.288 117.241 99.2736 103.074 120.41 101.957 105.86 123.578 104.64 108.646 126.747 107.323 111.432 58.7186 58.7186 55.7158 61.6545 61.6545 58.5016 64.5905 64.5905 61.2874 67.5264 67.5264 64.0732 70.4623 70.4623 66.859 73.3983 73.3983 69.6448 76.3342 76.3342 72.4305 79.2701 79.2701 75.2163 82.206 82.206 78.0021 85.142 85.142 80.7879 88.0779 88.0779 83.5737 91.0138 91.0138 86.3595 93.9498 93.9498 89.1453 96.8857 96.8857 91.9311 99.8216 99.8216 94.7169 102.758 102.758 97.5027 105.693 105.693 100.288 108.629 108.629 103.074 111.565 111.565 105.86 114.501 114.501 108.646 117.437 117.437 111.432 53.6614 63.3735 55.7158 56.3445 66.5422 58.5016 59.0275 69.7109 61.2874 61.7106 72.8796 64.0732 64.3937 76.0482 66.859 67.0767 79.2169 69.6448 69.7598 82.3856 72.4305 72.4429 85.5543 75.2163 75.1259 88.723 78.0021 77.809 91.8916 80.7879 80.4921 95.0603 83.5737 83.1751 98.229 86.3595 85.8582 101.398 89.1453 88.5413 104.566 91.9311 91.2244 107.735 94.7169 93.9074 110.904 97.5027 96.5905 114.072 100.288 99.2736 117.241 103.074 101.957 120.41 105.86 104.64 123.578 108.646 107.323 126.747 111.432 48.2556 67.5806 55.7158 50.6684 70.9597 58.5016 53.0812 74.3387 61.2874 55.494 77.7177 64.0732 57.9068 81.0968 66.859 60.3195 84.4758 69.6448 62.7323 87.8548 72.4305 65.1451 91.2339 75.2163 67.5579 94.6129 78.0021 69.9707 97.9919 80.7879 72.3835 101.371 83.5737 74.7962 104.75 86.3595 77.209 108.129 89.1453 79.6218 111.508 91.9311 82.0346 114.887 94.7169 84.4474 118.266 97.5027 86.8601 121.645 100.288 89.2729 125.024 103.074 91.6857 128.403 105.86 94.0985 131.782 108.646 96.5113 135.161 111.432 42.5615 71.3041 55.7158 44.6895 74.8693 58.5016 46.8176 78.4345 61.2874 48.9457 81.9997 64.0732 51.0737 85.5649 66.859 53.2018 89.1301 69.6448 55.3299 92.6953 72.4305 57.458 96.2605 75.2163 59.586 99.8257 78.0021 61.7141 103.391 80.7879 63.8422 106.956 83.5737 65.9703 110.521 86.3595 68.0983 114.087 89.1453 70.2264 117.652 91.9311 72.3545 121.217 94.7169 74.4826 124.782 97.5027 76.6106 128.347 100.288 78.7387 131.913 103.074 80.8668 135.478 105.86 82.9948 139.043 108.646 85.1229 142.608 111.432 36.6431 74.5187 55.7158 38.4753 78.2446 58.5016 40.3074 81.9705 61.2874 42.1396 85.6965 64.0732 43.9718 89.4224 66.859 45.8039 93.1483 69.6448 47.6361 96.8743 72.4305 49.4682 100.6 75.2163 51.3004 104.326 78.0021 53.1325 108.052 80.7879 54.9647 111.778 83.5737 56.7969 115.504 86.3595 58.629 119.23 89.1453 60.4612 122.956 91.9311 62.2933 126.682 94.7169 64.1255 130.408 97.5027 65.9576 134.134 100.288 67.7898 137.86 103.074 69.622 141.585 105.86 71.4541 145.311 108.646 73.2863 149.037 111.432 30.5668 77.2102 55.7158 32.0952 81.0707 58.5016 33.6235 84.9312 61.2874 35.1518 88.7918 64.0732 36.6802 92.6523 66.859 38.2085 96.5128 69.6448 39.7369 100.373 72.4305 41.2652 104.234 75.2163 42.7936 108.094 78.0021 44.3219 111.955 80.7879 45.8502 115.815 83.5737 47.3786 119.676 86.3595 48.9069 123.536 89.1453 50.4353 127.397 91.9311 51.9636 131.257 94.7169 53.4919 135.118 97.5027 55.0203 138.978 100.288 56.5486 142.839 103.074 58.077 146.699 105.86 59.6053 150.56 108.646 61.1336 154.42 111.432 24.3983 79.3755 55.7158 25.6183 83.3443 58.5016 26.8382 87.3131 61.2874 28.0581 91.2818 64.0732 29.278 95.2506 66.859 30.4979 99.2194 69.6448 31.7178 103.188 72.4305 32.9378 107.157 75.2163 34.1577 111.126 78.0021 35.3776 115.094 80.7879 36.5975 119.063 83.5737 37.8174 123.032 86.3595 39.0373 127.001 89.1453 40.2573 130.97 91.9311 41.4772 134.938 94.7169 42.6971 138.907 97.5027 43.917 142.876 100.288 45.1369 146.845 103.074 46.3568 150.813 105.86 47.5768 154.782 108.646 48.7967 158.751 111.432 18.2011 81.0214 55.7158 19.1111 85.0725 58.5016 20.0212 89.1236 61.2874 20.9312 93.1746 64.0732 21.8413 97.2257 66.859 22.7513 101.277 69.6448 23.6614 105.328 72.4305 24.5714 109.379 75.2163 25.4815 113.43 78.0021 26.3915 117.481 80.7879 27.3016 121.532 83.5737 28.2116 125.583 86.3595 29.1217 129.634 89.1453 30.0317 133.685 91.9311 30.9418 137.736 94.7169 31.8518 141.787 97.5027 32.7619 145.839 100.288 33.672 149.89 103.074 34.582 153.941 105.86 35.4921 157.992 108.646 36.4021 162.043 111.432 12.0342 82.164 55.7158 12.6359 86.2722 58.5016 13.2376 90.3804 61.2874 13.8393 94.4886 64.0732 14.4411 98.5968 66.859 15.0428 102.705 69.6448 15.6445 106.813 72.4305 16.2462 110.921 75.2163 16.8479 115.03 78.0021 17.4496 119.138 80.7879 18.0513 123.246 83.5737 18.653 127.354 86.3595 19.2547 131.462 89.1453 19.8564 135.571 91.9311 20.4582 139.679 94.7169 21.0599 143.787 97.5027 21.6616 147.895 100.288 22.2633 152.003 103.074 22.865 156.112 105.86 23.4667 160.22 108.646 24.0684 164.328 111.432 5.95147 82.8271 55.7158 6.24904 86.9685 58.5016 6.54661 91.1098 61.2874 6.84419 95.2512 64.0732 7.14176 99.3925 66.859 7.43933 103.534 69.6448 7.73691 107.675 72.4305 8.03448 111.817 75.2163 8.33206 115.958 78.0021 8.62963 120.099 80.7879 8.9272 124.241 83.5737 9.22478 128.382 86.3595 9.52235 132.523 89.1453 9.81992 136.665 91.9311 10.1175 140.806 94.7169 10.4151 144.947 97.5027 10.7126 149.089 100.288 11.0102 153.23 103.074 11.3078 157.372 105.86 11.6054 161.513 108.646 11.9029 165.654 111.432 0 83.0406 55.7158 0 87.1927 58.5016 0 91.3447 61.2874 0 95.4967 64.0732 0 99.6488 66.859 0 103.801 69.6448 0 107.953 72.4305 0 112.105 75.2163 0 116.257 78.0021 0 120.409 80.7879 0 124.561 83.5737 0 128.713 86.3595 0 132.865 89.1453 0 137.017 91.9311 0 141.169 94.7169 0 145.321 97.5027 0 149.473 100.288 0 153.625 103.074 0 157.777 105.86 0 161.929 108.646 0 166.081 111.432 80.7868 0 58.9363 84.8262 0 61.8831 88.8655 0 64.8299 92.9049 0 67.7768 96.9442 0 70.7236 100.984 0 73.6704 105.023 0 76.6172 109.062 0 79.564 113.102 0 82.5108 117.141 0 85.4576 121.18 0 88.4045 125.22 0 91.3513 129.259 0 94.2981 133.298 0 97.2449 137.338 0 100.192 141.377 0 103.139 145.416 0 106.085 149.456 0 109.032 153.495 0 111.979 157.534 0 114.926 161.574 0 117.873 80.5791 5.78994 58.9363 84.608 6.07944 61.8831 88.637 6.36893 64.8299 92.6659 6.65843 67.7768 96.6949 6.94793 70.7236 100.724 7.23742 73.6704 104.753 7.52692 76.6172 108.782 7.81642 79.564 112.811 8.10591 82.5108 116.84 8.39541 85.4576 120.869 8.68491 88.4045 124.898 8.9744 91.3513 128.927 9.2639 94.2981 132.955 9.5534 97.2449 136.984 9.84289 100.192 141.013 10.1324 103.139 145.042 10.4219 106.085 149.071 10.7114 109.032 153.1 11.0009 111.979 157.129 11.2904 114.926 161.158 11.5799 117.873 79.934 11.7076 58.9363 83.9307 12.293 61.8831 87.9274 12.8783 64.8299 91.9241 13.4637 67.7768 95.9208 14.0491 70.7236 99.9175 14.6345 73.6704 103.914 15.2199 76.6172 107.911 15.8052 79.564 111.908 16.3906 82.5108 115.904 16.976 85.4576 119.901 17.5614 88.4045 123.898 18.1468 91.3513 127.894 18.7321 94.2981 131.891 19.3175 97.2449 135.888 19.9029 100.192 139.884 20.4883 103.139 143.881 21.0737 106.085 147.878 21.659 109.032 151.875 22.2444 111.979 155.871 22.8298 114.926 159.868 23.4152 117.873 78.8224 17.7071 58.9363 82.7635 18.5924 61.8831 86.7046 19.4778 64.8299 90.6458 20.3631 67.7768 94.5869 21.2485 70.7236 98.528 22.1338 73.6704 102.469 23.0192 76.6172 106.41 23.9045 79.564 110.351 24.7899 82.5108 114.292 25.6752 85.4576 118.234 26.5606 88.4045 122.175 27.4459 91.3513 126.116 28.3313 94.2981 130.057 29.2166 97.2449 133.998 30.102 100.192 137.939 30.9874 103.139 141.88 31.8727 106.085 145.821 32.7581 109.032 149.763 33.6434 111.979 153.704 34.5288 114.926 157.645 35.4141 117.873 77.2212 23.7361 58.9363 81.0822 24.9229 61.8831 84.9433 26.1097 64.8299 88.8043 27.2966 67.7768 92.6654 28.4834 70.7236 96.5265 29.6702 73.6704 100.388 30.857 76.6172 104.249 32.0438 79.564 108.11 33.2306 82.5108 111.971 34.4174 85.4576 115.832 35.6042 88.4045 119.693 36.791 91.3513 123.554 37.9778 94.2981 127.415 39.1646 97.2449 131.276 40.3514 100.192 135.137 41.5382 103.139 138.998 42.725 106.085 142.859 43.9118 109.032 146.72 45.0987 111.979 150.581 46.2855 114.926 154.442 47.4723 117.873 75.1146 29.7372 58.9363 78.8704 31.2241 61.8831 82.6261 32.7109 64.8299 86.3818 34.1978 67.7768 90.1376 35.6846 70.7236 93.8933 37.1715 73.6704 97.649 38.6584 76.6172 101.405 40.1452 79.564 105.161 41.6321 82.5108 108.916 43.1189 85.4576 112.672 44.6058 88.4045 116.428 46.0927 91.3513 120.183 47.5795 94.2981 123.939 49.0664 97.2449 127.695 50.5532 100.192 131.451 52.0401 103.139 135.206 53.527 106.085 138.962 55.0138 109.032 142.718 56.5007 111.979 146.474 57.9875 114.926 150.229 59.4744 117.873 72.4961 35.6486 58.9363 76.1209 37.431 61.8831 79.7457 39.2135 64.8299 83.3706 40.9959 67.7768 86.9954 42.7783 70.7236 90.6202 44.5607 73.6704 94.245 46.3432 76.6172 97.8698 48.1256 79.564 101.495 49.908 82.5108 105.119 51.6905 85.4576 108.744 53.4729 88.4045 112.369 55.2553 91.3513 115.994 57.0378 94.2981 119.619 58.8202 97.2449 123.243 60.6026 100.192 126.868 62.385 103.139 130.493 64.1675 106.085 134.118 65.9499 109.032 137.743 67.7323 111.979 141.367 69.5148 114.926 144.992 71.2972 117.873 69.3688 41.4063 58.9363 72.8372 43.4766 61.8831 76.3057 45.5469 64.8299 79.7741 47.6172 67.7768 83.2426 49.6875 70.7236 86.711 51.7579 73.6704 90.1794 53.8282 76.6172 93.6479 55.8985 79.564 97.1163 57.9688 82.5108 100.585 60.0391 85.4576 104.053 62.1094 88.4045 107.522 64.1798 91.3513 110.99 66.2501 94.2981 114.459 68.3204 97.2449 117.927 70.3907 100.192 121.395 72.461 103.139 124.864 74.5313 106.085 128.332 76.6016 109.032 131.801 78.672 111.979 135.269 80.7423 114.926 138.738 82.8126 117.873 65.7464 46.9459 58.9363 69.0337 49.2932 61.8831 72.3211 51.6405 64.8299 75.6084 53.9878 67.7768 78.8957 56.3351 70.7236 82.183 58.6824 73.6704 85.4704 61.0297 76.6172 88.7577 63.377 79.564 92.045 65.7243 82.5108 95.3323 68.0716 85.4576 98.6196 70.4189 88.4045 101.907 72.7662 91.3513 105.194 75.1135 94.2981 108.482 77.4608 97.2449 111.769 79.8081 100.192 115.056 82.1554 103.139 118.344 84.5027 106.085 121.631 86.85 109.032 124.918 89.1972 111.979 128.206 91.5445 114.926 131.493 93.8918 117.873 61.6535 52.205 58.9363 64.7362 54.8152 61.8831 67.8189 57.4254 64.8299 70.9015 60.0357 67.7768 73.9842 62.6459 70.7236 77.0669 65.2562 73.6704 80.1496 67.8664 76.6172 83.2322 70.4767 79.564 86.3149 73.0869 82.5108 89.3976 75.6972 85.4576 92.4803 78.3074 88.4045 95.5629 80.9177 91.3513 98.6456 83.5279 94.2981 101.728 86.1382 97.2449 104.811 88.7484 100.192 107.894 91.3587 103.139 110.976 93.9689 106.085 114.059 96.5792 109.032 117.142 99.1894 111.979 120.224 101.8 114.926 123.307 104.41 117.873 57.1249 57.1249 58.9363 59.9812 59.9812 61.8831 62.8374 62.8374 64.8299 65.6937 65.6937 67.7768 68.5499 68.5499 70.7236 71.4061 71.4061 73.6704 74.2624 74.2624 76.6172 77.1186 77.1186 79.564 79.9749 79.9749 82.5108 82.8311 82.8311 85.4576 85.6874 85.6874 88.4045 88.5436 88.5436 91.3513 91.3999 91.3999 94.2981 94.2561 94.2561 97.2449 97.1124 97.1124 100.192 99.9686 99.9686 103.139 102.825 102.825 106.085 105.681 105.681 109.032 108.537 108.537 111.979 111.394 111.394 114.926 114.25 114.25 117.873 52.205 61.6535 58.9363 54.8152 64.7362 61.8831 57.4254 67.8189 64.8299 60.0357 70.9015 67.7768 62.6459 73.9842 70.7236 65.2562 77.0669 73.6704 67.8664 80.1496 76.6172 70.4767 83.2322 79.564 73.0869 86.3149 82.5108 75.6972 89.3976 85.4576 78.3074 92.4803 88.4045 80.9177 95.5629 91.3513 83.5279 98.6456 94.2981 86.1382 101.728 97.2449 88.7484 104.811 100.192 91.3587 107.894 103.139 93.9689 110.976 106.085 96.5792 114.059 109.032 99.1894 117.142 111.979 101.8 120.224 114.926 104.41 123.307 117.873 46.9459 65.7464 58.9363 49.2932 69.0337 61.8831 51.6405 72.3211 64.8299 53.9878 75.6084 67.7768 56.3351 78.8957 70.7236 58.6824 82.183 73.6704 61.0297 85.4704 76.6172 63.377 88.7577 79.564 65.7243 92.045 82.5108 68.0716 95.3323 85.4576 70.4189 98.6196 88.4045 72.7662 101.907 91.3513 75.1135 105.194 94.2981 77.4608 108.482 97.2449 79.8081 111.769 100.192 82.1554 115.056 103.139 84.5027 118.344 106.085 86.85 121.631 109.032 89.1972 124.918 111.979 91.5445 128.206 114.926 93.8918 131.493 117.873 41.4063 69.3688 58.9363 43.4766 72.8372 61.8831 45.5469 76.3057 64.8299 47.6172 79.7741 67.7768 49.6875 83.2426 70.7236 51.7579 86.711 73.6704 53.8282 90.1794 76.6172 55.8985 93.6479 79.564 57.9688 97.1163 82.5108 60.0391 100.585 85.4576 62.1094 104.053 88.4045 64.1798 107.522 91.3513 66.2501 110.99 94.2981 68.3204 114.459 97.2449 70.3907 117.927 100.192 72.461 121.395 103.139 74.5313 124.864 106.085 76.6016 128.332 109.032 78.672 131.801 111.979 80.7423 135.269 114.926 82.8126 138.738 117.873 35.6486 72.4961 58.9363 37.431 76.1209 61.8831 39.2135 79.7457 64.8299 40.9959 83.3706 67.7768 42.7783 86.9954 70.7236 44.5607 90.6202 73.6704 46.3432 94.245 76.6172 48.1256 97.8698 79.564 49.908 101.495 82.5108 51.6905 105.119 85.4576 53.4729 108.744 88.4045 55.2553 112.369 91.3513 57.0378 115.994 94.2981 58.8202 119.619 97.2449 60.6026 123.243 100.192 62.385 126.868 103.139 64.1675 130.493 106.085 65.9499 134.118 109.032 67.7323 137.743 111.979 69.5148 141.367 114.926 71.2972 144.992 117.873 29.7372 75.1146 58.9363 31.2241 78.8704 61.8831 32.7109 82.6261 64.8299 34.1978 86.3818 67.7768 35.6846 90.1376 70.7236 37.1715 93.8933 73.6704 38.6584 97.649 76.6172 40.1452 101.405 79.564 41.6321 105.161 82.5108 43.1189 108.916 85.4576 44.6058 112.672 88.4045 46.0927 116.428 91.3513 47.5795 120.183 94.2981 49.0664 123.939 97.2449 50.5532 127.695 100.192 52.0401 131.451 103.139 53.527 135.206 106.085 55.0138 138.962 109.032 56.5007 142.718 111.979 57.9875 146.474 114.926 59.4744 150.229 117.873 23.7361 77.2212 58.9363 24.9229 81.0822 61.8831 26.1097 84.9433 64.8299 27.2966 88.8043 67.7768 28.4834 92.6654 70.7236 29.6702 96.5265 73.6704 30.857 100.388 76.6172 32.0438 104.249 79.564 33.2306 108.11 82.5108 34.4174 111.971 85.4576 35.6042 115.832 88.4045 36.791 119.693 91.3513 37.9778 123.554 94.2981 39.1646 127.415 97.2449 40.3514 131.276 100.192 41.5382 135.137 103.139 42.725 138.998 106.085 43.9118 142.859 109.032 45.0987 146.72 111.979 46.2855 150.581 114.926 47.4723 154.442 117.873 17.7071 78.8224 58.9363 18.5924 82.7635 61.8831 19.4778 86.7046 64.8299 20.3631 90.6458 67.7768 21.2485 94.5869 70.7236 22.1338 98.528 73.6704 23.0192 102.469 76.6172 23.9045 106.41 79.564 24.7899 110.351 82.5108 25.6752 114.292 85.4576 26.5606 118.234 88.4045 27.4459 122.175 91.3513 28.3313 126.116 94.2981 29.2166 130.057 97.2449 30.102 133.998 100.192 30.9874 137.939 103.139 31.8727 141.88 106.085 32.7581 145.821 109.032 33.6434 149.763 111.979 34.5288 153.704 114.926 35.4141 157.645 117.873 11.7076 79.934 58.9363 12.293 83.9307 61.8831 12.8783 87.9274 64.8299 13.4637 91.9241 67.7768 14.0491 95.9208 70.7236 14.6345 99.9175 73.6704 15.2199 103.914 76.6172 15.8052 107.911 79.564 16.3906 111.908 82.5108 16.976 115.904 85.4576 17.5614 119.901 88.4045 18.1468 123.898 91.3513 18.7321 127.894 94.2981 19.3175 131.891 97.2449 19.9029 135.888 100.192 20.4883 139.884 103.139 21.0737 143.881 106.085 21.659 147.878 109.032 22.2444 151.875 111.979 22.8298 155.871 114.926 23.4152 159.868 117.873 5.78994 80.5791 58.9363 6.07944 84.608 61.8831 6.36893 88.637 64.8299 6.65843 92.6659 67.7768 6.94793 96.6949 70.7236 7.23742 100.724 73.6704 7.52692 104.753 76.6172 7.81642 108.782 79.564 8.10591 112.811 82.5108 8.39541 116.84 85.4576 8.68491 120.869 88.4045 8.9744 124.898 91.3513 9.2639 128.927 94.2981 9.5534 132.955 97.2449 9.84289 136.984 100.192 10.1324 141.013 103.139 10.4219 145.042 106.085 10.7114 149.071 109.032 11.0009 153.1 111.979 11.2904 157.129 114.926 11.5799 161.158 117.873 0 80.7868 58.9363 0 84.8262 61.8831 0 88.8655 64.8299 0 92.9049 67.7768 0 96.9442 70.7236 0 100.984 73.6704 0 105.023 76.6172 0 109.062 79.564 0 113.102 82.5108 0 117.141 85.4576 0 121.18 88.4045 0 125.22 91.3513 0 129.259 94.2981 0 133.298 97.2449 0 137.338 100.192 0 141.377 103.139 0 145.416 106.085 0 149.456 109.032 0 153.495 111.979 0 157.534 114.926 0 161.574 117.873 78.4196 0 62.0514 82.3406 0 65.1539 86.2615 0 68.2565 90.1825 0 71.3591 94.1035 0 74.4616 98.0245 0 77.5642 101.945 0 80.6668 105.866 0 83.7693 109.787 0 86.8719 113.708 0 89.9745 117.629 0 93.077 121.55 0 96.1796 125.471 0 99.2822 129.392 0 102.385 133.313 0 105.487 137.234 0 108.59 141.155 0 111.692 145.076 0 114.795 148.997 0 117.898 152.918 0 121 156.839 0 124.103 78.2179 5.62028 62.0514 82.1288 5.90129 65.1539 86.0397 6.18231 68.2565 89.9506 6.46332 71.3591 93.8615 6.74433 74.4616 97.7724 7.02535 77.5642 101.683 7.30636 80.6668 105.594 7.58738 83.7693 109.505 7.86839 86.8719 113.416 8.1494 89.9745 117.327 8.43042 93.077 121.238 8.71143 96.1796 125.149 8.99245 99.2822 129.06 9.27346 102.385 132.97 9.55447 105.487 136.881 9.83549 108.59 140.792 10.1165 111.692 144.703 10.3975 114.795 148.614 10.6785 117.898 152.525 10.9595 121 156.436 11.2406 124.103 77.5917 11.3645 62.0514 81.4713 11.9328 65.1539 85.3509 12.501 68.2565 89.2305 13.0692 71.3591 93.1101 13.6374 74.4616 96.9897 14.2057 77.5642 100.869 14.7739 80.6668 104.749 15.3421 83.7693 108.628 15.9103 86.8719 112.508 16.4786 89.9745 116.388 17.0468 93.077 120.267 17.615 96.1796 124.147 18.1832 99.2822 128.026 18.7515 102.385 131.906 19.3197 105.487 135.786 19.8879 108.59 139.665 20.4561 111.692 143.545 21.0244 114.795 147.424 21.5926 117.898 151.304 22.1608 121 155.183 22.729 124.103 76.5127 17.1882 62.0514 80.3383 18.0476 65.1539 84.164 18.907 68.2565 87.9896 19.7664 71.3591 91.8153 20.6258 74.4616 95.6409 21.4852 77.5642 99.4665 22.3447 80.6668 103.292 23.2041 83.7693 107.118 24.0635 86.8719 110.943 24.9229 89.9745 114.769 25.7823 93.077 118.595 26.6417 96.1796 122.42 27.5011 99.2822 126.246 28.3605 102.385 130.072 29.2199 105.487 133.897 30.0793 108.59 137.723 30.9388 111.692 141.549 31.7982 114.795 145.374 32.6576 117.898 149.2 33.517 121 153.025 34.3764 124.103 74.9584 23.0406 62.0514 78.7063 24.1926 65.1539 82.4542 25.3447 68.2565 86.2021 26.4967 71.3591 89.9501 27.6487 74.4616 93.698 28.8008 77.5642 97.4459 29.9528 80.6668 101.194 31.1048 83.7693 104.942 32.2568 86.8719 108.69 33.4089 89.9745 112.438 34.5609 93.077 116.186 35.7129 96.1796 119.933 36.865 99.2822 123.681 38.017 102.385 127.429 39.169 105.487 131.177 40.3211 108.59 134.925 41.4731 111.692 138.673 42.6251 114.795 142.421 43.7772 117.898 146.169 44.9292 121 149.917 46.0812 124.103 72.9136 28.8658 62.0514 76.5593 30.3091 65.1539 80.205 31.7524 68.2565 83.8506 33.1957 71.3591 87.4963 34.639 74.4616 91.142 36.0823 77.5642 94.7877 37.5256 80.6668 98.4334 38.9689 83.7693 102.079 40.4122 86.8719 105.725 41.8555 89.9745 109.37 43.2987 93.077 113.016 44.742 96.1796 116.662 46.1853 99.2822 120.307 47.6286 102.385 123.953 49.0719 105.487 127.599 50.5152 108.59 131.244 51.9585 111.692 134.89 53.4018 114.795 138.536 54.8451 117.898 142.182 56.2884 121 145.827 57.7317 124.103 70.3718 34.604 62.0514 73.8904 36.3342 65.1539 77.409 38.0644 68.2565 80.9276 39.7946 71.3591 84.4462 41.5248 74.4616 87.9648 43.255 77.5642 91.4834 44.9852 80.6668 95.002 46.7154 83.7693 98.5205 48.4456 86.8719 102.039 50.1758 89.9745 105.558 51.906 93.077 109.076 53.6362 96.1796 112.595 55.3664 99.2822 116.113 57.0966 102.385 119.632 58.8268 105.487 123.151 60.557 108.59 126.669 62.2872 111.692 130.188 64.0174 114.795 133.706 65.7476 117.898 137.225 67.4778 121 140.744 69.208 124.103 67.3361 40.193 62.0514 70.7029 42.2026 65.1539 74.0697 44.2123 68.2565 77.4365 46.2219 71.3591 80.8033 48.2316 74.4616 84.1702 50.2412 77.5642 87.537 52.2509 80.6668 90.9038 54.2605 83.7693 94.2706 56.2702 86.8719 97.6374 58.2798 89.9745 101.004 60.2895 93.077 104.371 62.2991 96.1796 107.738 64.3088 99.2822 111.105 66.3184 102.385 114.471 68.3281 105.487 117.838 70.3377 108.59 121.205 72.3474 111.692 124.572 74.357 114.795 127.939 76.3667 117.898 131.305 78.3763 121 134.672 80.386 124.103 63.8199 45.5703 62.0514 67.0109 47.8488 65.1539 70.2019 50.1273 68.2565 73.3929 52.4058 71.3591 76.5839 54.6843 74.4616 79.7749 56.9629 77.5642 82.9659 59.2414 80.6668 86.1569 61.5199 83.7693 89.3478 63.7984 86.8719 92.5388 66.0769 89.9745 95.7298 68.3554 93.077 98.9208 70.6339 96.1796 102.112 72.9125 99.2822 105.303 75.191 102.385 108.494 77.4695 105.487 111.685 79.748 108.59 114.876 82.0265 111.692 118.067 84.305 114.795 121.258 86.5835 117.898 124.449 88.8621 121 127.64 91.1406 124.103 59.8469 50.6752 62.0514 62.8392 53.209 65.1539 65.8316 55.7427 68.2565 68.8239 58.2765 71.3591 71.8163 60.8103 74.4616 74.8086 63.344 77.5642 77.801 65.8778 80.6668 80.7933 68.4115 83.7693 83.7857 70.9453 86.8719 86.778 73.4791 89.9745 89.7704 76.0128 93.077 92.7627 78.5466 96.1796 95.755 81.0803 99.2822 98.7474 83.6141 102.385 101.74 86.1479 105.487 104.732 88.6816 108.59 107.724 91.2154 111.692 110.717 93.7491 114.795 113.709 96.2829 117.898 116.701 98.8167 121 119.694 101.35 124.103 55.451 55.451 62.0514 58.2236 58.2236 65.1539 60.9961 60.9961 68.2565 63.7687 63.7687 71.3591 66.5412 66.5412 74.4616 69.3138 69.3138 77.5642 72.0863 72.0863 80.6668 74.8589 74.8589 83.7693 77.6314 77.6314 86.8719 80.404 80.404 89.9745 83.1765 83.1765 93.077 85.9491 85.9491 96.1796 88.7216 88.7216 99.2822 91.4942 91.4942 102.385 94.2667 94.2667 105.487 97.0393 97.0393 108.59 99.8118 99.8118 111.692 102.584 102.584 114.795 105.357 105.357 117.898 108.129 108.129 121 110.902 110.902 124.103 50.6752 59.8469 62.0514 53.209 62.8392 65.1539 55.7427 65.8316 68.2565 58.2765 68.8239 71.3591 60.8103 71.8163 74.4616 63.344 74.8086 77.5642 65.8778 77.801 80.6668 68.4115 80.7933 83.7693 70.9453 83.7857 86.8719 73.4791 86.778 89.9745 76.0128 89.7704 93.077 78.5466 92.7627 96.1796 81.0803 95.755 99.2822 83.6141 98.7474 102.385 86.1479 101.74 105.487 88.6816 104.732 108.59 91.2154 107.724 111.692 93.7491 110.717 114.795 96.2829 113.709 117.898 98.8167 116.701 121 101.35 119.694 124.103 45.5703 63.8199 62.0514 47.8488 67.0109 65.1539 50.1273 70.2019 68.2565 52.4058 73.3929 71.3591 54.6843 76.5839 74.4616 56.9629 79.7749 77.5642 59.2414 82.9659 80.6668 61.5199 86.1569 83.7693 63.7984 89.3478 86.8719 66.0769 92.5388 89.9745 68.3554 95.7298 93.077 70.6339 98.9208 96.1796 72.9125 102.112 99.2822 75.191 105.303 102.385 77.4695 108.494 105.487 79.748 111.685 108.59 82.0265 114.876 111.692 84.305 118.067 114.795 86.5835 121.258 117.898 88.8621 124.449 121 91.1406 127.64 124.103 40.193 67.3361 62.0514 42.2026 70.7029 65.1539 44.2123 74.0697 68.2565 46.2219 77.4365 71.3591 48.2316 80.8033 74.4616 50.2412 84.1702 77.5642 52.2509 87.537 80.6668 54.2605 90.9038 83.7693 56.2702 94.2706 86.8719 58.2798 97.6374 89.9745 60.2895 101.004 93.077 62.2991 104.371 96.1796 64.3088 107.738 99.2822 66.3184 111.105 102.385 68.3281 114.471 105.487 70.3377 117.838 108.59 72.3474 121.205 111.692 74.357 124.572 114.795 76.3667 127.939 117.898 78.3763 131.305 121 80.386 134.672 124.103 34.604 70.3718 62.0514 36.3342 73.8904 65.1539 38.0644 77.409 68.2565 39.7946 80.9276 71.3591 41.5248 84.4462 74.4616 43.255 87.9648 77.5642 44.9852 91.4834 80.6668 46.7154 95.002 83.7693 48.4456 98.5205 86.8719 50.1758 102.039 89.9745 51.906 105.558 93.077 53.6362 109.076 96.1796 55.3664 112.595 99.2822 57.0966 116.113 102.385 58.8268 119.632 105.487 60.557 123.151 108.59 62.2872 126.669 111.692 64.0174 130.188 114.795 65.7476 133.706 117.898 67.4778 137.225 121 69.208 140.744 124.103 28.8658 72.9136 62.0514 30.3091 76.5593 65.1539 31.7524 80.205 68.2565 33.1957 83.8506 71.3591 34.639 87.4963 74.4616 36.0823 91.142 77.5642 37.5256 94.7877 80.6668 38.9689 98.4334 83.7693 40.4122 102.079 86.8719 41.8555 105.725 89.9745 43.2987 109.37 93.077 44.742 113.016 96.1796 46.1853 116.662 99.2822 47.6286 120.307 102.385 49.0719 123.953 105.487 50.5152 127.599 108.59 51.9585 131.244 111.692 53.4018 134.89 114.795 54.8451 138.536 117.898 56.2884 142.182 121 57.7317 145.827 124.103 23.0406 74.9584 62.0514 24.1926 78.7063 65.1539 25.3447 82.4542 68.2565 26.4967 86.2021 71.3591 27.6487 89.9501 74.4616 28.8008 93.698 77.5642 29.9528 97.4459 80.6668 31.1048 101.194 83.7693 32.2568 104.942 86.8719 33.4089 108.69 89.9745 34.5609 112.438 93.077 35.7129 116.186 96.1796 36.865 119.933 99.2822 38.017 123.681 102.385 39.169 127.429 105.487 40.3211 131.177 108.59 41.4731 134.925 111.692 42.6251 138.673 114.795 43.7772 142.421 117.898 44.9292 146.169 121 46.0812 149.917 124.103 17.1882 76.5127 62.0514 18.0476 80.3383 65.1539 18.907 84.164 68.2565 19.7664 87.9896 71.3591 20.6258 91.8153 74.4616 21.4852 95.6409 77.5642 22.3447 99.4665 80.6668 23.2041 103.292 83.7693 24.0635 107.118 86.8719 24.9229 110.943 89.9745 25.7823 114.769 93.077 26.6417 118.595 96.1796 27.5011 122.42 99.2822 28.3605 126.246 102.385 29.2199 130.072 105.487 30.0793 133.897 108.59 30.9388 137.723 111.692 31.7982 141.549 114.795 32.6576 145.374 117.898 33.517 149.2 121 34.3764 153.025 124.103 11.3645 77.5917 62.0514 11.9328 81.4713 65.1539 12.501 85.3509 68.2565 13.0692 89.2305 71.3591 13.6374 93.1101 74.4616 14.2057 96.9897 77.5642 14.7739 100.869 80.6668 15.3421 104.749 83.7693 15.9103 108.628 86.8719 16.4786 112.508 89.9745 17.0468 116.388 93.077 17.615 120.267 96.1796 18.1832 124.147 99.2822 18.7515 128.026 102.385 19.3197 131.906 105.487 19.8879 135.786 108.59 20.4561 139.665 111.692 21.0244 143.545 114.795 21.5926 147.424 117.898 22.1608 151.304 121 22.729 155.183 124.103 5.62028 78.2179 62.0514 5.90129 82.1288 65.1539 6.18231 86.0397 68.2565 6.46332 89.9506 71.3591 6.74433 93.8615 74.4616 7.02535 97.7724 77.5642 7.30636 101.683 80.6668 7.58738 105.594 83.7693 7.86839 109.505 86.8719 8.1494 113.416 89.9745 8.43042 117.327 93.077 8.71143 121.238 96.1796 8.99245 125.149 99.2822 9.27346 129.06 102.385 9.55447 132.97 105.487 9.83549 136.881 108.59 10.1165 140.792 111.692 10.3975 144.703 114.795 10.6785 148.614 117.898 10.9595 152.525 121 11.2406 156.436 124.103 0 78.4196 62.0514 0 82.3406 65.1539 0 86.2615 68.2565 0 90.1825 71.3591 0 94.1035 74.4616 0 98.0245 77.5642 0 101.945 80.6668 0 105.866 83.7693 0 109.787 86.8719 0 113.708 89.9745 0 117.629 93.077 0 121.55 96.1796 0 125.471 99.2822 0 129.392 102.385 0 133.313 105.487 0 137.234 108.59 0 141.155 111.692 0 145.076 114.795 0 148.997 117.898 0 152.918 121 0 156.839 124.103 75.9461 0 65.0553 79.7434 0 68.3081 83.5407 0 71.5609 87.338 0 74.8136 91.1353 0 78.0664 94.9326 0 81.3191 98.7299 0 84.5719 102.527 0 87.8247 106.324 0 91.0774 110.122 0 94.3302 113.919 0 97.583 117.716 0 100.836 121.514 0 104.089 125.311 0 107.341 129.108 0 110.594 132.906 0 113.847 136.703 0 117.1 140.5 0 120.352 144.298 0 123.605 148.095 0 126.858 151.892 0 130.111 75.7508 5.443 65.0553 79.5383 5.71515 68.3081 83.3258 5.9873 71.5609 87.1134 6.25945 74.8136 90.9009 6.53161 78.0664 94.6885 6.80376 81.3191 98.476 7.07591 84.5719 102.264 7.34806 87.8247 106.051 7.62021 91.0774 109.839 7.89236 94.3302 113.626 8.16451 97.583 117.414 8.43666 100.836 121.201 8.70881 104.089 124.989 8.98096 107.341 128.776 9.25311 110.594 132.564 9.52526 113.847 136.351 9.79741 117.1 140.139 10.0696 120.352 143.926 10.3417 123.605 147.714 10.6139 126.858 151.502 10.886 130.111 75.1443 11.0061 65.0553 78.9016 11.5564 68.3081 82.6588 12.1067 71.5609 86.416 12.657 74.8136 90.1732 13.2073 78.0664 93.9304 13.7576 81.3191 97.6876 14.3079 84.5719 101.445 14.8582 87.8247 105.202 15.4085 91.0774 108.959 15.9588 94.3302 112.717 16.5091 97.583 116.474 17.0594 100.836 120.231 17.6097 104.089 123.988 18.16 107.341 127.745 18.7103 110.594 131.503 19.2606 113.847 135.26 19.8109 117.1 139.017 20.3612 120.352 142.774 20.9115 123.605 146.531 21.4618 126.858 150.289 22.0121 130.111 74.0994 16.646 65.0553 77.8043 17.4784 68.3081 81.5093 18.3107 71.5609 85.2143 19.143 74.8136 88.9192 19.9753 78.0664 92.6242 20.8076 81.3191 96.3292 21.6399 84.5719 100.034 22.4722 87.8247 103.739 23.3045 91.0774 107.444 24.1368 94.3302 111.149 24.9691 97.583 114.854 25.8014 100.836 118.559 26.6337 104.089 122.264 27.466 107.341 125.969 28.2983 110.594 129.674 29.1306 113.847 133.379 29.9629 117.1 137.084 30.7952 120.352 140.789 31.6275 123.605 144.494 32.4598 126.858 148.199 33.2921 130.111 72.5941 22.3139 65.0553 76.2238 23.4296 68.3081 79.8535 24.5452 71.5609 83.4832 25.6609 74.8136 87.1129 26.7766 78.0664 90.7426 27.8923 81.3191 94.3723 29.008 84.5719 98.002 30.1237 87.8247 101.632 31.2394 91.0774 105.261 32.3551 94.3302 108.891 33.4708 97.583 112.521 34.5865 100.836 116.15 35.7022 104.089 119.78 36.8179 107.341 123.41 37.9336 110.594 127.04 39.0493 113.847 130.669 40.165 117.1 134.299 41.2806 120.352 137.929 42.3963 123.605 141.558 43.512 126.858 145.188 44.6277 130.111 70.6138 27.9553 65.0553 74.1445 29.3531 68.3081 77.6751 30.7509 71.5609 81.2058 32.1486 74.8136 84.7365 33.5464 78.0664 88.2672 34.9442 81.3191 91.7979 36.342 84.5719 95.3286 37.7397 87.8247 98.8593 39.1375 91.0774 102.39 40.5353 94.3302 105.921 41.933 97.583 109.451 43.3308 100.836 112.982 44.7286 104.089 116.513 46.1263 107.341 120.043 47.5241 110.594 123.574 48.9219 113.847 127.105 50.3196 117.1 130.635 51.7174 120.352 134.166 53.1152 123.605 137.697 54.5129 126.858 141.228 55.9107 130.111 68.1522 33.5125 65.0553 71.5598 35.1882 68.3081 74.9674 36.8638 71.5608 78.375 38.5394 74.8136 81.7826 40.215 78.0664 85.1902 41.8907 81.3191 88.5978 43.5663 84.5719 92.0054 45.2419 87.8247 95.413 46.9175 91.0774 98.8206 48.5932 94.3302 102.228 50.2688 97.583 105.636 51.9444 100.836 109.043 53.62 104.089 112.451 55.2957 107.341 115.859 56.9713 110.594 119.266 58.6469 113.847 122.674 60.3225 117.1 126.081 61.9982 120.352 129.489 63.6738 123.605 132.897 65.3494 126.858 136.304 67.0251 130.111 65.2122 38.9252 65.0553 68.4728 40.8715 68.3081 71.7334 42.8177 71.5608 74.994 44.764 74.8136 78.2547 46.7103 78.0664 81.5153 48.6565 81.3191 84.7759 50.6028 84.5719 88.0365 52.549 87.8247 91.2971 54.4953 91.0774 94.5577 56.4416 94.3302 97.8183 58.3878 97.583 101.079 60.3341 100.836 104.34 62.2804 104.089 107.6 64.2266 107.341 110.861 66.1729 110.594 114.121 68.1191 113.847 117.382 70.0654 117.1 120.643 72.0117 120.352 123.903 73.9579 123.605 127.164 75.9042 126.858 130.424 77.8504 130.111 61.8069 44.1329 65.0553 64.8972 46.3396 68.3081 67.9876 48.5462 71.5608 71.0779 50.7528 74.8136 74.1683 52.9595 78.0664 77.2586 55.1661 81.3191 80.349 57.3728 84.5719 83.4393 59.5794 87.8247 86.5296 61.7861 91.0774 89.62 63.9927 94.3302 92.7103 66.1994 97.583 95.8007 68.406 100.836 98.891 70.6127 104.089 101.981 72.8193 107.341 105.072 75.026 110.594 108.162 77.2326 113.847 111.252 79.4392 117.1 114.343 81.6459 120.352 117.433 83.8525 123.605 120.523 86.0592 126.858 123.614 88.2658 130.111 57.9592 49.0768 65.0553 60.8572 51.5307 68.3081 63.7551 53.9845 71.5608 66.6531 56.4383 74.8136 69.5511 58.8922 78.0664 72.449 61.346 81.3191 75.347 63.7999 84.5719 78.2449 66.2537 87.8247 81.1429 68.7076 91.0774 84.0409 71.1614 94.3302 86.9388 73.6152 97.583 89.8368 76.0691 100.836 92.7347 78.5229 104.089 95.6327 80.9768 107.341 98.5307 83.4306 110.594 101.429 85.8844 113.847 104.327 88.3383 117.1 107.225 90.7921 120.352 110.123 93.246 123.605 113.02 95.6998 126.858 115.918 98.1536 130.111 53.702 53.702 65.0553 56.3871 56.3871 68.3081 59.0722 59.0722 71.5608 61.7573 61.7573 74.8136 64.4424 64.4424 78.0664 67.1275 67.1275 81.3191 69.8126 69.8126 84.5719 72.4977 72.4977 87.8247 75.1828 75.1828 91.0774 77.8679 77.8679 94.3302 80.553 80.553 97.583 83.2381 83.2381 100.836 85.9232 85.9232 104.089 88.6083 88.6083 107.341 91.2934 91.2934 110.594 93.9785 93.9785 113.847 96.6636 96.6636 117.1 99.3487 99.3487 120.352 102.034 102.034 123.605 104.719 104.719 126.858 107.404 107.404 130.111 49.0768 57.9592 65.0553 51.5307 60.8572 68.3081 53.9845 63.7551 71.5608 56.4383 66.6531 74.8136 58.8922 69.5511 78.0664 61.346 72.449 81.3191 63.7999 75.347 84.5719 66.2537 78.2449 87.8247 68.7076 81.1429 91.0774 71.1614 84.0409 94.3302 73.6152 86.9388 97.583 76.0691 89.8368 100.836 78.5229 92.7347 104.089 80.9768 95.6327 107.341 83.4306 98.5307 110.594 85.8844 101.429 113.847 88.3383 104.327 117.1 90.7921 107.225 120.352 93.246 110.123 123.605 95.6998 113.02 126.858 98.1536 115.918 130.111 44.1329 61.8069 65.0553 46.3396 64.8972 68.3081 48.5462 67.9876 71.5608 50.7528 71.0779 74.8136 52.9595 74.1683 78.0664 55.1661 77.2586 81.3191 57.3728 80.349 84.5719 59.5794 83.4393 87.8247 61.7861 86.5296 91.0774 63.9927 89.62 94.3302 66.1994 92.7103 97.583 68.406 95.8007 100.836 70.6127 98.891 104.089 72.8193 101.981 107.341 75.026 105.072 110.594 77.2326 108.162 113.847 79.4392 111.252 117.1 81.6459 114.343 120.352 83.8525 117.433 123.605 86.0592 120.523 126.858 88.2658 123.614 130.111 38.9252 65.2122 65.0553 40.8715 68.4728 68.3081 42.8177 71.7334 71.5608 44.764 74.994 74.8136 46.7103 78.2547 78.0664 48.6565 81.5153 81.3191 50.6028 84.7759 84.5719 52.549 88.0365 87.8247 54.4953 91.2971 91.0774 56.4416 94.5577 94.3302 58.3878 97.8183 97.583 60.3341 101.079 100.836 62.2804 104.34 104.089 64.2266 107.6 107.341 66.1729 110.861 110.594 68.1191 114.121 113.847 70.0654 117.382 117.1 72.0117 120.643 120.352 73.9579 123.903 123.605 75.9042 127.164 126.858 77.8504 130.424 130.111 33.5125 68.1522 65.0553 35.1882 71.5598 68.3081 36.8638 74.9674 71.5608 38.5394 78.375 74.8136 40.215 81.7826 78.0664 41.8907 85.1902 81.3191 43.5663 88.5978 84.5719 45.2419 92.0054 87.8247 46.9175 95.413 91.0774 48.5932 98.8206 94.3302 50.2688 102.228 97.583 51.9444 105.636 100.836 53.62 109.043 104.089 55.2957 112.451 107.341 56.9713 115.859 110.594 58.6469 119.266 113.847 60.3225 122.674 117.1 61.9982 126.081 120.352 63.6738 129.489 123.605 65.3494 132.897 126.858 67.0251 136.304 130.111 27.9553 70.6138 65.0553 29.3531 74.1445 68.3081 30.7509 77.6751 71.5609 32.1486 81.2058 74.8136 33.5464 84.7365 78.0664 34.9442 88.2672 81.3191 36.342 91.7979 84.5719 37.7397 95.3286 87.8247 39.1375 98.8593 91.0774 40.5353 102.39 94.3302 41.933 105.921 97.583 43.3308 109.451 100.836 44.7286 112.982 104.089 46.1263 116.513 107.341 47.5241 120.043 110.594 48.9219 123.574 113.847 50.3196 127.105 117.1 51.7174 130.635 120.352 53.1152 134.166 123.605 54.5129 137.697 126.858 55.9107 141.228 130.111 22.3139 72.5941 65.0553 23.4296 76.2238 68.3081 24.5452 79.8535 71.5609 25.6609 83.4832 74.8136 26.7766 87.1129 78.0664 27.8923 90.7426 81.3191 29.008 94.3723 84.5719 30.1237 98.002 87.8247 31.2394 101.632 91.0774 32.3551 105.261 94.3302 33.4708 108.891 97.583 34.5865 112.521 100.836 35.7022 116.15 104.089 36.8179 119.78 107.341 37.9336 123.41 110.594 39.0493 127.04 113.847 40.165 130.669 117.1 41.2806 134.299 120.352 42.3963 137.929 123.605 43.512 141.558 126.858 44.6277 145.188 130.111 16.646 74.0994 65.0553 17.4784 77.8043 68.3081 18.3107 81.5093 71.5609 19.143 85.2143 74.8136 19.9753 88.9192 78.0664 20.8076 92.6242 81.3191 21.6399 96.3292 84.5719 22.4722 100.034 87.8247 23.3045 103.739 91.0774 24.1368 107.444 94.3302 24.9691 111.149 97.583 25.8014 114.854 100.836 26.6337 118.559 104.089 27.466 122.264 107.341 28.2983 125.969 110.594 29.1306 129.674 113.847 29.9629 133.379 117.1 30.7952 137.084 120.352 31.6275 140.789 123.605 32.4598 144.494 126.858 33.2921 148.199 130.111 11.0061 75.1443 65.0553 11.5564 78.9016 68.3081 12.1067 82.6588 71.5609 12.657 86.416 74.8136 13.2073 90.1732 78.0664 13.7576 93.9304 81.3191 14.3079 97.6876 84.5719 14.8582 101.445 87.8247 15.4085 105.202 91.0774 15.9588 108.959 94.3302 16.5091 112.717 97.583 17.0594 116.474 100.836 17.6097 120.231 104.089 18.16 123.988 107.341 18.7103 127.745 110.594 19.2606 131.503 113.847 19.8109 135.26 117.1 20.3612 139.017 120.352 20.9115 142.774 123.605 21.4618 146.531 126.858 22.0121 150.289 130.111 5.443 75.7508 65.0553 5.71515 79.5383 68.3081 5.9873 83.3258 71.5609 6.25945 87.1134 74.8136 6.53161 90.9009 78.0664 6.80376 94.6885 81.3191 7.07591 98.476 84.5719 7.34806 102.264 87.8247 7.62021 106.051 91.0774 7.89236 109.839 94.3302 8.16451 113.626 97.583 8.43666 117.414 100.836 8.70881 121.201 104.089 8.98096 124.989 107.341 9.25311 128.776 110.594 9.52526 132.564 113.847 9.79741 136.351 117.1 10.0696 140.139 120.352 10.3417 143.926 123.605 10.6139 147.714 126.858 10.886 151.502 130.111 0 75.9461 65.0553 0 79.7434 68.3081 0 83.5407 71.5609 0 87.338 74.8136 0 91.1353 78.0664 0 94.9326 81.3191 0 98.7299 84.5719 0 102.527 87.8247 0 106.324 91.0774 0 110.122 94.3302 0 113.919 97.583 0 117.716 100.836 0 121.514 104.089 0 125.311 107.341 0 129.108 110.594 0 132.906 113.847 0 136.703 117.1 0 140.5 120.352 0 144.298 123.605 0 148.095 126.858 0 151.892 130.111 73.3738 0 67.9432 77.0425 0 71.3404 80.7112 0 74.7375 84.3799 0 78.1347 88.0486 0 81.5318 91.7173 0 84.929 95.386 0 88.3262 99.0547 0 91.7233 102.723 0 95.1205 106.392 0 98.5177 110.061 0 101.915 113.729 0 105.312 117.398 0 108.709 121.067 0 112.106 124.736 0 115.503 128.404 0 118.901 132.073 0 122.298 135.742 0 125.695 139.41 0 129.092 143.079 0 132.489 146.748 0 135.886 73.1852 5.25865 67.9432 76.8444 5.52159 71.3404 80.5037 5.78452 74.7375 84.1629 6.04745 78.1347 87.8222 6.31039 81.5318 91.4814 6.57332 84.929 95.1407 6.83625 88.3262 98.8 7.09918 91.7233 102.459 7.36212 95.1205 106.118 7.62505 98.5177 109.778 7.88798 101.915 113.437 8.15091 105.312 117.096 8.41385 108.709 120.756 8.67678 112.106 124.415 8.93971 115.503 128.074 9.20264 118.901 131.733 9.46558 122.298 135.393 9.72851 125.695 139.052 9.99144 129.092 142.711 10.2544 132.489 146.37 10.5173 135.886 72.5993 10.6333 67.9432 76.2292 11.165 71.3404 79.8592 11.6966 74.7375 83.4892 12.2283 78.1347 87.1191 12.76 81.5318 90.7491 13.2916 84.929 94.379 13.8233 88.3262 98.009 14.355 91.7233 101.639 14.8866 95.1205 105.269 15.4183 98.5177 108.899 15.9499 101.915 112.529 16.4816 105.312 116.159 17.0133 108.709 119.789 17.5449 112.106 123.419 18.0766 115.503 127.049 18.6083 118.901 130.679 19.1399 122.298 134.309 19.6716 125.695 137.939 20.2033 129.092 141.569 20.7349 132.489 145.199 21.2666 135.886 71.5897 16.0823 67.9432 75.1692 16.8864 71.3404 78.7486 17.6905 74.7375 82.3281 18.4946 78.1347 85.9076 19.2987 81.5318 89.4871 20.1028 84.929 93.0666 20.9069 88.3262 96.6461 21.7111 91.7233 100.226 22.5152 95.1205 103.805 23.3193 98.5177 107.385 24.1234 101.915 110.964 24.9275 105.312 114.543 25.7316 108.709 118.123 26.5357 112.106 121.702 27.3398 115.503 125.282 28.144 118.901 128.861 28.9481 122.298 132.441 29.7522 125.695 136.02 30.5563 129.092 139.6 31.3604 132.489 143.179 32.1645 135.886 70.1354 21.5581 67.9432 73.6421 22.636 71.3404 77.1489 23.7139 74.7375 80.6557 24.7918 78.1347 84.1624 25.8697 81.5318 87.6692 26.9476 84.929 91.176 28.0255 88.3262 94.6827 29.1034 91.7233 98.1895 30.1814 95.1205 101.696 31.2593 98.5176 105.203 32.3372 101.915 108.71 33.4151 105.312 112.217 34.493 108.709 115.723 35.5709 112.106 119.23 36.6488 115.503 122.737 37.7267 118.901 126.244 38.8046 122.298 129.75 39.8825 125.695 133.257 40.9604 129.092 136.764 42.0383 132.489 140.271 43.1162 135.886 68.2221 27.0085 67.9432 71.6332 28.3589 71.3404 75.0444 29.7094 74.7375 78.4555 31.0598 78.1347 81.8666 32.4102 81.5318 85.2777 33.7607 84.929 88.6888 35.1111 88.3262 92.0999 36.4615 91.7233 95.511 37.8119 95.1205 98.9221 39.1624 98.5176 102.333 40.5128 101.915 105.744 41.8632 105.312 109.155 43.2136 108.709 112.567 44.5641 112.106 115.978 45.9145 115.503 119.389 47.2649 118.901 122.8 48.6153 122.298 126.211 49.9658 125.695 129.622 51.3162 129.092 133.033 52.6666 132.489 136.444 54.017 135.886 65.8439 32.3775 67.9432 69.1361 33.9964 71.3404 72.4283 35.6152 74.7375 75.7205 37.2341 78.1347 79.0127 38.853 81.5318 82.3049 40.4719 84.929 85.5971 42.0907 88.3262 88.8893 43.7096 91.7233 92.1815 45.3285 95.1205 95.4737 46.9474 98.5176 98.7658 48.5662 101.915 102.058 50.1851 105.312 105.35 51.804 108.709 108.642 53.4229 112.106 111.935 55.0417 115.503 115.227 56.6606 118.901 118.519 58.2795 122.298 121.811 59.8983 125.695 125.103 61.5172 129.092 128.396 63.1361 132.489 131.688 64.755 135.886 63.0035 37.6069 67.9432 66.1537 39.4872 71.3404 69.3039 41.3675 74.7375 72.4541 43.2479 78.1347 75.6042 45.1282 81.5318 78.7544 47.0086 84.929 81.9046 48.8889 88.3262 85.0548 50.7693 91.7233 88.2049 52.6496 95.1205 91.3551 54.5299 98.5176 94.5053 56.4103 101.915 97.6555 58.2906 105.312 100.806 60.171 108.709 103.956 62.0513 112.106 107.106 63.9317 115.503 110.256 65.812 118.901 113.406 67.6923 122.298 116.557 69.5727 125.695 119.707 71.453 129.092 122.857 73.3334 132.489 126.007 75.2137 135.886 59.7135 42.6382 67.9432 62.6992 44.7701 71.3404 65.6849 46.902 74.7375 68.6706 49.0339 78.1347 71.6563 51.1658 81.5318 74.6419 53.2977 84.929 77.6276 55.4296 88.3262 80.6133 57.5615 91.7233 83.599 59.6934 95.1205 86.5846 61.8253 98.5176 89.5703 63.9573 101.915 92.556 66.0892 105.312 95.5417 68.2211 108.709 98.5273 70.353 112.106 101.513 72.4849 115.503 104.499 74.6168 118.901 107.484 76.7487 122.298 110.47 78.8806 125.695 113.456 81.0125 129.092 116.441 83.1444 132.489 119.427 85.2763 135.886 55.9962 47.4146 67.9432 58.796 49.7854 71.3404 61.5958 52.1561 74.7375 64.3956 54.5268 78.1347 67.1954 56.8976 81.5318 69.9952 59.2683 84.929 72.795 61.639 88.3262 75.5949 64.0098 91.7233 78.3947 66.3805 95.1205 81.1945 68.7512 98.5176 83.9943 71.1219 101.915 86.7941 73.4927 105.312 89.5939 75.8634 108.709 92.3937 78.2341 112.106 95.1935 80.6049 115.503 97.9933 82.9756 118.901 100.793 85.3463 122.298 103.593 87.7171 125.695 106.393 90.0878 129.092 109.193 92.4585 132.489 111.992 94.8293 135.886 51.8831 51.8831 67.9432 54.4773 54.4773 71.3404 57.0715 57.0715 74.7375 59.6656 59.6656 78.1347 62.2598 62.2598 81.5318 64.8539 64.8539 84.929 67.4481 67.4481 88.3262 70.0422 70.0422 91.7233 72.6364 72.6364 95.1205 75.2306 75.2306 98.5176 77.8247 77.8247 101.915 80.4189 80.4189 105.312 83.013 83.013 108.709 85.6072 85.6072 112.106 88.2013 88.2013 115.503 90.7955 90.7955 118.901 93.3897 93.3897 122.298 95.9838 95.9838 125.695 98.578 98.578 129.092 101.172 101.172 132.489 103.766 103.766 135.886 47.4146 55.9962 67.9432 49.7854 58.796 71.3404 52.1561 61.5958 74.7375 54.5268 64.3956 78.1347 56.8976 67.1954 81.5318 59.2683 69.9952 84.929 61.639 72.795 88.3262 64.0098 75.5949 91.7233 66.3805 78.3947 95.1205 68.7512 81.1945 98.5176 71.1219 83.9943 101.915 73.4927 86.7941 105.312 75.8634 89.5939 108.709 78.2341 92.3937 112.106 80.6049 95.1935 115.503 82.9756 97.9933 118.901 85.3463 100.793 122.298 87.7171 103.593 125.695 90.0878 106.393 129.092 92.4585 109.193 132.489 94.8293 111.992 135.886 42.6382 59.7135 67.9432 44.7701 62.6992 71.3404 46.902 65.6849 74.7375 49.0339 68.6706 78.1347 51.1658 71.6563 81.5318 53.2977 74.6419 84.929 55.4296 77.6276 88.3262 57.5615 80.6133 91.7233 59.6934 83.599 95.1205 61.8253 86.5846 98.5176 63.9573 89.5703 101.915 66.0892 92.556 105.312 68.2211 95.5417 108.709 70.353 98.5273 112.106 72.4849 101.513 115.503 74.6168 104.499 118.901 76.7487 107.484 122.298 78.8806 110.47 125.695 81.0125 113.456 129.092 83.1444 116.441 132.489 85.2763 119.427 135.886 37.6069 63.0035 67.9432 39.4872 66.1537 71.3404 41.3675 69.3039 74.7375 43.2479 72.4541 78.1347 45.1282 75.6042 81.5318 47.0086 78.7544 84.929 48.8889 81.9046 88.3262 50.7693 85.0548 91.7233 52.6496 88.2049 95.1205 54.5299 91.3551 98.5176 56.4103 94.5053 101.915 58.2906 97.6555 105.312 60.171 100.806 108.709 62.0513 103.956 112.106 63.9317 107.106 115.503 65.812 110.256 118.901 67.6923 113.406 122.298 69.5727 116.557 125.695 71.453 119.707 129.092 73.3334 122.857 132.489 75.2137 126.007 135.886 32.3775 65.8439 67.9432 33.9964 69.1361 71.3404 35.6152 72.4283 74.7375 37.2341 75.7205 78.1347 38.853 79.0127 81.5318 40.4719 82.3049 84.929 42.0907 85.5971 88.3262 43.7096 88.8893 91.7233 45.3285 92.1815 95.1205 46.9474 95.4737 98.5176 48.5662 98.7658 101.915 50.1851 102.058 105.312 51.804 105.35 108.709 53.4229 108.642 112.106 55.0417 111.935 115.503 56.6606 115.227 118.901 58.2795 118.519 122.298 59.8983 121.811 125.695 61.5172 125.103 129.092 63.1361 128.396 132.489 64.755 131.688 135.886 27.0085 68.2221 67.9432 28.3589 71.6332 71.3404 29.7094 75.0444 74.7375 31.0598 78.4555 78.1347 32.4102 81.8666 81.5318 33.7607 85.2777 84.929 35.1111 88.6888 88.3262 36.4615 92.0999 91.7233 37.8119 95.511 95.1205 39.1624 98.9221 98.5176 40.5128 102.333 101.915 41.8632 105.744 105.312 43.2136 109.155 108.709 44.5641 112.567 112.106 45.9145 115.978 115.503 47.2649 119.389 118.901 48.6153 122.8 122.298 49.9658 126.211 125.695 51.3162 129.622 129.092 52.6666 133.033 132.489 54.017 136.444 135.886 21.5581 70.1354 67.9432 22.636 73.6421 71.3404 23.7139 77.1489 74.7375 24.7918 80.6557 78.1347 25.8697 84.1624 81.5318 26.9476 87.6692 84.929 28.0255 91.176 88.3262 29.1034 94.6827 91.7233 30.1814 98.1895 95.1205 31.2593 101.696 98.5176 32.3372 105.203 101.915 33.4151 108.71 105.312 34.493 112.217 108.709 35.5709 115.723 112.106 36.6488 119.23 115.503 37.7267 122.737 118.901 38.8046 126.244 122.298 39.8825 129.75 125.695 40.9604 133.257 129.092 42.0383 136.764 132.489 43.1162 140.271 135.886 16.0823 71.5897 67.9432 16.8864 75.1692 71.3404 17.6905 78.7486 74.7375 18.4946 82.3281 78.1347 19.2987 85.9076 81.5318 20.1028 89.4871 84.929 20.9069 93.0666 88.3262 21.7111 96.6461 91.7233 22.5152 100.226 95.1205 23.3193 103.805 98.5177 24.1234 107.385 101.915 24.9275 110.964 105.312 25.7316 114.543 108.709 26.5357 118.123 112.106 27.3398 121.702 115.503 28.144 125.282 118.901 28.9481 128.861 122.298 29.7522 132.441 125.695 30.5563 136.02 129.092 31.3604 139.6 132.489 32.1645 143.179 135.886 10.6333 72.5993 67.9432 11.165 76.2292 71.3404 11.6966 79.8592 74.7375 12.2283 83.4892 78.1347 12.76 87.1191 81.5318 13.2916 90.7491 84.929 13.8233 94.379 88.3262 14.355 98.009 91.7233 14.8866 101.639 95.1205 15.4183 105.269 98.5177 15.9499 108.899 101.915 16.4816 112.529 105.312 17.0133 116.159 108.709 17.5449 119.789 112.106 18.0766 123.419 115.503 18.6083 127.049 118.901 19.1399 130.679 122.298 19.6716 134.309 125.695 20.2033 137.939 129.092 20.7349 141.569 132.489 21.2666 145.199 135.886 5.25865 73.1852 67.9432 5.52159 76.8444 71.3404 5.78452 80.5037 74.7375 6.04745 84.1629 78.1347 6.31039 87.8222 81.5318 6.57332 91.4814 84.929 6.83625 95.1407 88.3262 7.09918 98.8 91.7233 7.36212 102.459 95.1205 7.62505 106.118 98.5177 7.88798 109.778 101.915 8.15091 113.437 105.312 8.41385 117.096 108.709 8.67678 120.756 112.106 8.93971 124.415 115.503 9.20264 128.074 118.901 9.46558 131.733 122.298 9.72851 135.393 125.695 9.99144 139.052 129.092 10.2544 142.711 132.489 10.5173 146.37 135.886 0 73.3738 67.9432 0 77.0425 71.3404 0 80.7112 74.7375 0 84.3799 78.1347 0 88.0486 81.5318 0 91.7173 84.929 0 95.386 88.3262 0 99.0547 91.7233 0 102.723 95.1205 0 106.392 98.5177 0 110.061 101.915 0 113.729 105.312 0 117.398 108.709 0 121.067 112.106 0 124.736 115.503 0 128.404 118.901 0 132.073 122.298 0 135.742 125.695 0 139.41 129.092 0 143.079 132.489 0 146.748 135.886 70.7107 0 70.7107 74.2462 0 74.2462 77.7817 0 77.7817 81.3173 0 81.3173 84.8528 0 84.8528 88.3883 0 88.3883 91.9239 0 91.9239 95.4594 0 95.4594 98.9949 0 98.9949 102.53 0 102.53 106.066 0 106.066 109.602 0 109.602 113.137 0 113.137 116.673 0 116.673 120.208 0 120.208 123.744 0 123.744 127.279 0 127.279 130.815 0 130.815 134.35 0 134.35 137.886 0 137.886 141.421 0 141.421 70.5288 5.06779 70.7107 74.0553 5.32118 74.2462 77.5817 5.57457 77.7817 81.1082 5.82796 81.3173 84.6346 6.08134 84.8528 88.1611 6.33473 88.3883 91.6875 6.58812 91.9239 95.2139 6.84151 95.4594 98.7404 7.0949 98.9949 102.267 7.34829 102.53 105.793 7.60168 106.066 109.32 7.85507 109.602 112.846 8.10846 113.137 116.373 8.36185 116.673 119.899 8.61524 120.208 123.425 8.86863 123.744 126.952 9.12202 127.279 130.478 9.37541 130.815 134.005 9.6288 134.35 137.531 9.88218 137.886 141.058 10.1356 141.421 69.9642 10.2474 70.7107 73.4624 10.7597 74.2462 76.9606 11.2721 77.7817 80.4588 11.7845 81.3173 83.9571 12.2968 84.8528 87.4553 12.8092 88.3883 90.9535 13.3216 91.9239 94.4517 13.8339 95.4594 97.9499 14.3463 98.9949 101.448 14.8587 102.53 104.946 15.371 106.066 108.445 15.8834 109.602 111.943 16.3958 113.137 115.441 16.9081 116.673 118.939 17.4205 120.208 122.437 17.9329 123.744 125.936 18.4452 127.279 129.434 18.9576 130.815 132.932 19.47 134.35 136.43 19.9823 137.886 139.928 20.4947 141.421 68.9913 15.4985 70.7107 72.4408 16.2735 74.2462 75.8904 17.0484 77.7817 79.34 17.8233 81.3173 82.7895 18.5983 84.8528 86.2391 19.3732 88.3883 89.6886 20.1481 91.9239 93.1382 20.923 95.4594 96.5878 21.698 98.9949 100.037 22.4729 102.53 103.487 23.2478 106.066 106.936 24.0227 109.602 110.386 24.7977 113.137 113.836 25.5726 116.673 117.285 26.3475 120.208 120.735 27.1224 123.744 124.184 27.8974 127.279 127.634 28.6723 130.815 131.083 29.4472 134.35 134.533 30.2222 137.886 137.983 30.9971 141.421 67.5897 20.7756 70.7107 70.9692 21.8144 74.2462 74.3487 22.8532 77.7817 77.7282 23.892 81.3173 81.1077 24.9308 84.8528 84.4872 25.9696 88.3883 87.8667 27.0083 91.9239 91.2461 28.0471 95.4594 94.6256 29.0859 98.9949 98.0051 30.1247 102.53 101.385 31.1635 106.066 104.764 32.2022 109.602 108.144 33.241 113.137 111.523 34.2798 116.673 114.903 35.3186 120.208 118.282 36.3574 123.744 121.662 37.3962 127.279 125.041 38.4349 130.815 128.421 39.4737 134.35 131.8 40.5125 137.886 135.179 41.5513 141.421 65.746 26.0282 70.7107 69.0333 27.3296 74.2462 72.3206 28.631 77.7817 75.6079 29.9325 81.3173 78.8952 31.2339 84.8528 82.1825 32.5353 88.3883 85.4697 33.8367 91.9239 88.757 35.1381 95.4594 92.0443 36.4395 98.9949 95.3316 37.7409 102.53 98.6189 39.0423 106.066 101.906 40.3438 109.602 105.194 41.6452 113.137 108.481 42.9466 116.673 111.768 44.248 120.208 115.055 45.5494 123.744 118.343 46.8508 127.279 121.63 48.1522 130.815 124.917 49.4536 134.35 128.205 50.755 137.886 131.492 52.0565 141.421 63.454 31.2023 70.7107 66.6267 32.7624 74.2462 69.7994 34.3226 77.7817 72.9721 35.8827 81.3173 76.1448 37.4428 84.8528 79.3176 39.0029 88.3883 82.4903 40.563 91.9239 85.663 42.1231 95.4594 88.8357 43.6832 98.9949 92.0084 45.2434 102.53 95.1811 46.8035 106.066 98.3538 48.3636 109.602 101.526 49.9237 113.137 104.699 51.4838 116.673 107.872 53.0439 120.208 111.045 54.6041 123.744 114.217 56.1642 127.279 117.39 57.7243 130.815 120.563 59.2844 134.35 123.735 60.8445 137.886 126.908 62.4046 141.421 60.7168 36.2419 70.7107 63.7526 38.054 74.2462 66.7884 39.8661 77.7817 69.8243 41.6782 81.3173 72.8601 43.4903 84.8528 75.896 45.3024 88.3883 78.9318 47.1144 91.9239 81.9676 48.9265 95.4594 85.0035 50.7386 98.9949 88.0393 52.5507 102.53 91.0752 54.3628 106.066 94.111 56.1749 109.602 97.1468 57.987 113.137 100.183 59.7991 116.673 103.219 61.6112 120.208 106.254 63.4233 123.744 109.29 65.2354 127.279 112.326 67.0475 130.815 115.362 68.8596 134.35 118.398 70.6717 137.886 121.434 72.4838 141.421 57.5462 41.0906 70.7107 60.4235 43.1451 74.2462 63.3008 45.1996 77.7817 66.1781 47.2542 81.3173 69.0554 49.3087 84.8528 71.9327 51.3632 88.3883 74.81 53.4178 91.9239 77.6874 55.4723 95.4594 80.5647 57.5268 98.9949 83.442 59.5813 102.53 86.3193 61.6359 106.066 89.1966 63.6904 109.602 92.0739 65.7449 113.137 94.9512 67.7995 116.673 97.8285 69.854 120.208 100.706 71.9085 123.744 103.583 73.963 127.279 106.46 76.0176 130.815 109.338 78.0721 134.35 112.215 80.1266 137.886 115.092 82.1812 141.421 53.9638 45.6937 70.7107 56.6619 47.9784 74.2462 59.3601 50.263 77.7817 62.0583 52.5477 81.3173 64.7565 54.8324 84.8528 67.4547 57.1171 88.3883 70.1529 59.4018 91.9239 72.8511 61.6865 95.4594 75.5493 63.9712 98.9949 78.2475 66.2558 102.53 80.9456 68.5405 106.066 83.6438 70.8252 109.602 86.342 73.1099 113.137 89.0402 75.3946 116.673 91.7384 77.6793 120.208 94.4366 79.9639 123.744 97.1348 82.2486 127.279 99.833 84.5333 130.815 102.531 86.818 134.35 105.229 89.1027 137.886 107.928 91.3874 141.421 50 50 70.7107 52.5 52.5 74.2462 55 55 77.7817 57.5 57.5 81.3173 60 60 84.8528 62.5 62.5 88.3883 65 65 91.9239 67.5 67.5 95.4594 70 70 98.9949 72.5 72.5 102.53 75 75 106.066 77.5 77.5 109.602 80 80 113.137 82.5 82.5 116.673 85 85 120.208 87.5 87.5 123.744 90 90 127.279 92.5 92.5 130.815 95 95 134.35 97.5 97.5 137.886 100 100 141.421 45.6937 53.9638 70.7107 47.9784 56.6619 74.2462 50.263 59.3601 77.7817 52.5477 62.0583 81.3173 54.8324 64.7565 84.8528 57.1171 67.4547 88.3883 59.4018 70.1529 91.9239 61.6865 72.8511 95.4594 63.9712 75.5493 98.9949 66.2558 78.2475 102.53 68.5405 80.9456 106.066 70.8252 83.6438 109.602 73.1099 86.342 113.137 75.3946 89.0402 116.673 77.6793 91.7384 120.208 79.9639 94.4366 123.744 82.2486 97.1348 127.279 84.5333 99.833 130.815 86.818 102.531 134.35 89.1027 105.229 137.886 91.3874 107.928 141.421 41.0906 57.5462 70.7107 43.1451 60.4235 74.2462 45.1996 63.3008 77.7817 47.2542 66.1781 81.3173 49.3087 69.0554 84.8528 51.3632 71.9327 88.3883 53.4178 74.81 91.9239 55.4723 77.6874 95.4594 57.5268 80.5647 98.9949 59.5813 83.442 102.53 61.6359 86.3193 106.066 63.6904 89.1966 109.602 65.7449 92.0739 113.137 67.7995 94.9512 116.673 69.854 97.8285 120.208 71.9085 100.706 123.744 73.963 103.583 127.279 76.0176 106.46 130.815 78.0721 109.338 134.35 80.1266 112.215 137.886 82.1812 115.092 141.421 36.2419 60.7168 70.7107 38.054 63.7526 74.2462 39.8661 66.7884 77.7817 41.6782 69.8243 81.3173 43.4903 72.8601 84.8528 45.3024 75.896 88.3883 47.1144 78.9318 91.9239 48.9265 81.9676 95.4594 50.7386 85.0035 98.9949 52.5507 88.0393 102.53 54.3628 91.0752 106.066 56.1749 94.111 109.602 57.987 97.1468 113.137 59.7991 100.183 116.673 61.6112 103.219 120.208 63.4233 106.254 123.744 65.2354 109.29 127.279 67.0475 112.326 130.815 68.8596 115.362 134.35 70.6717 118.398 137.886 72.4838 121.434 141.421 31.2023 63.454 70.7107 32.7624 66.6267 74.2462 34.3226 69.7994 77.7817 35.8827 72.9721 81.3173 37.4428 76.1448 84.8528 39.0029 79.3176 88.3883 40.563 82.4903 91.9239 42.1231 85.663 95.4594 43.6832 88.8357 98.9949 45.2434 92.0084 102.53 46.8035 95.1811 106.066 48.3636 98.3538 109.602 49.9237 101.526 113.137 51.4838 104.699 116.673 53.0439 107.872 120.208 54.6041 111.045 123.744 56.1642 114.217 127.279 57.7243 117.39 130.815 59.2844 120.563 134.35 60.8445 123.735 137.886 62.4046 126.908 141.421 26.0282 65.746 70.7107 27.3296 69.0333 74.2462 28.631 72.3206 77.7817 29.9325 75.6079 81.3173 31.2339 78.8952 84.8528 32.5353 82.1825 88.3883 33.8367 85.4697 91.9239 35.1381 88.757 95.4594 36.4395 92.0443 98.9949 37.7409 95.3316 102.53 39.0423 98.6189 106.066 40.3438 101.906 109.602 41.6452 105.194 113.137 42.9466 108.481 116.673 44.248 111.768 120.208 45.5494 115.055 123.744 46.8508 118.343 127.279 48.1522 121.63 130.815 49.4536 124.917 134.35 50.755 128.205 137.886 52.0565 131.492 141.421 20.7756 67.5897 70.7107 21.8144 70.9692 74.2462 22.8532 74.3487 77.7817 23.892 77.7282 81.3173 24.9308 81.1077 84.8528 25.9696 84.4872 88.3883 27.0083 87.8667 91.9239 28.0471 91.2461 95.4594 29.0859 94.6256 98.9949 30.1247 98.0051 102.53 31.1635 101.385 106.066 32.2022 104.764 109.602 33.241 108.144 113.137 34.2798 111.523 116.673 35.3186 114.903 120.208 36.3574 118.282 123.744 37.3962 121.662 127.279 38.4349 125.041 130.815 39.4737 128.421 134.35 40.5125 131.8 137.886 41.5513 135.179 141.421 15.4985 68.9913 70.7107 16.2735 72.4408 74.2462 17.0484 75.8904 77.7817 17.8233 79.34 81.3173 18.5983 82.7895 84.8528 19.3732 86.2391 88.3883 20.1481 89.6886 91.9239 20.923 93.1382 95.4594 21.698 96.5878 98.9949 22.4729 100.037 102.53 23.2478 103.487 106.066 24.0227 106.936 109.602 24.7977 110.386 113.137 25.5726 113.836 116.673 26.3475 117.285 120.208 27.1224 120.735 123.744 27.8974 124.184 127.279 28.6723 127.634 130.815 29.4472 131.083 134.35 30.2222 134.533 137.886 30.9971 137.983 141.421 10.2474 69.9642 70.7107 10.7597 73.4624 74.2462 11.2721 76.9606 77.7817 11.7845 80.4588 81.3173 12.2968 83.9571 84.8528 12.8092 87.4553 88.3883 13.3216 90.9535 91.9239 13.8339 94.4517 95.4594 14.3463 97.9499 98.9949 14.8587 101.448 102.53 15.371 104.946 106.066 15.8834 108.445 109.602 16.3958 111.943 113.137 16.9081 115.441 116.673 17.4205 118.939 120.208 17.9329 122.437 123.744 18.4452 125.936 127.279 18.9576 129.434 130.815 19.47 132.932 134.35 19.9823 136.43 137.886 20.4947 139.928 141.421 5.06779 70.5288 70.7107 5.32118 74.0553 74.2462 5.57457 77.5817 77.7817 5.82796 81.1082 81.3173 6.08134 84.6346 84.8528 6.33473 88.1611 88.3883 6.58812 91.6875 91.9239 6.84151 95.2139 95.4594 7.0949 98.7404 98.9949 7.34829 102.267 102.53 7.60168 105.793 106.066 7.85507 109.32 109.602 8.10846 112.846 113.137 8.36185 116.373 116.673 8.61524 119.899 120.208 8.86863 123.425 123.744 9.12202 126.952 127.279 9.37541 130.478 130.815 9.6288 134.005 134.35 9.88218 137.531 137.886 10.1356 141.058 141.421 0 70.7107 70.7107 0 74.2462 74.2462 0 77.7817 77.7817 0 81.3173 81.3173 0 84.8528 84.8528 0 88.3883 88.3883 0 91.9239 91.9239 0 95.4594 95.4594 0 98.9949 98.9949 0 102.53 102.53 0 106.066 106.066 0 109.602 109.602 0 113.137 113.137 0 116.673 116.673 0 120.208 120.208 0 123.744 123.744 0 127.279 127.279 0 130.815 130.815 0 134.35 134.35 0 137.886 137.886 0 141.421 141.421 
</DataArray>
</Points> 
</Piece> 
</StructuredGrid> 
</VTKFile> 
