<?xml version="1.0"?> 
<VTKFile type="StructuredGrid" version="0.1"> 
<StructuredGrid WholeExtent="0 20 0 20 0 0"> 
<Piece Extent="0 20 0 20 0 0"> 
<PointData>
<DataArray type="Float32" Name="displacement" format="ascii" NumberOfComponents="3"> 
0.00200018 0 0 0.00192755 0 0 0.00186258 0 0 0.00180427 0 0 0.00175178 0 0 0.00170442 0 0 0.00166159 0 0 0.00162279 0 0 0.00158759 0 0 0.00155563 0 0 0.00152656 0 0 0.00150011 0 0 0.00147604 0 0 0.00145414 0 0 0.0014342 0 0 0.00141606 0 0 0.00139958 0 0 0.00138461 0 0 0.00137104 0 0 0.00135876 0 0 0.00134768 0 0 0.00199503 0.000143351 0 0.00192259 0.000138146 0 0.00185779 0.00013349 0 0.00179963 0.00012931 0 0.00174727 0.000125549 0 0.00170004 0.000122155 0 0.00165732 0.000119085 0 0.00161862 0.000116305 0 0.00158351 0.000113782 0 0.00155163 0.000111491 0 0.00152263 0.000109407 0 0.00149625 0.000107512 0 0.00147225 0.000105787 0 0.0014504 0.000104217 0 0.00143051 0.000102788 0 0.00141242 0.000101488 0 0.00139598 0.000100307 0 0.00138105 9.92343e-05 0 0.00136752 9.82619e-05 0 0.00135527 9.73818e-05 0 0.00134421 9.65873e-05 0 0.00197906 0.000289864 0 0.0019072 0.000279339 0 0.00184292 0.000269925 0 0.00178522 0.000261473 0 0.00173329 0.000253867 0 0.00168643 0.000247003 0 0.00164405 0.000240797 0 0.00160566 0.000235175 0 0.00157083 0.000230073 0 0.0015392 0.00022544 0 0.00151044 0.000221228 0 0.00148428 0.000217396 0 0.00146046 0.000213907 0 0.00143879 0.000210733 0 0.00141906 0.000207844 0 0.00140112 0.000205215 0 0.00138481 0.000202827 0 0.00137 0.000200657 0 0.00135657 0.000198691 0 0.00134442 0.000196912 0 0.00133345 0.000195305 0 0.00195154 0.000438403 0 0.00188068 0.000422484 0 0.00181729 0.000408246 0 0.00176039 0.000395463 0 0.00170918 0.000383959 0 0.00166297 0.000373579 0 0.00162119 0.000364191 0 0.00158333 0.000355688 0 0.00154899 0.000347973 0 0.0015178 0.000340966 0 0.00148944 0.000334594 0 0.00146364 0.000328798 0 0.00144015 0.000323523 0 0.00141878 0.000318721 0 0.00139933 0.000314352 0 0.00138163 0.000310377 0 0.00136555 0.000306764 0 0.00135094 0.000303483 0 0.00133771 0.000300509 0 0.00132573 0.000297817 0 0.00131491 0.000295388 0 0.00191189 0.000587675 0 0.00184247 0.000566336 0 0.00178037 0.000547249 0 0.00172463 0.000530115 0 0.00167446 0.000514694 0 0.00162919 0.000500779 0 0.00158825 0.000488195 0 0.00155117 0.000476796 0 0.00151752 0.000466454 0 0.00148697 0.000457061 0 0.00145918 0.00044852 0 0.0014339 0.000440751 0 0.0014109 0.000433679 0 0.00138996 0.000427243 0 0.0013709 0.000421385 0 0.00135356 0.000416057 0 0.00133781 0.000411214 0 0.0013235 0.000406816 0 0.00131053 0.000402829 0 0.00129879 0.000399221 0 0.0012882 0.000395964 0 0.00185974 0.000736254 0 0.00179221 0.00070952 0 0.00173181 0.000685607 0 0.00167758 0.00066414 0 0.00162878 0.000644821 0 0.00158475 0.000627387 0 0.00154493 0.000611622 0 0.00150886 0.000597342 0 0.00147613 0.000584385 0 0.0014464 0.000572618 0 0.00141937 0.000561917 0 0.00139479 0.000552184 0 0.00137241 0.000543324 0 0.00135204 0.00053526 0 0.0013335 0.000527922 0 0.00131664 0.000521246 0 0.00130131 0.000515178 0 0.0012874 0.000509669 0 0.00127478 0.000504674 0 0.00126336 0.000500154 0 0.00125306 0.000496074 0 0.00179491 0.000882612 0 0.00172973 0.000850564 0 0.00167144 0.000821897 0 0.0016191 0.000796163 0 0.001572 0.000773003 0 0.0015295 0.000752104 0 0.00149107 0.000733205 0 0.00145626 0.000716086 0 0.00142467 0.000700554 0 0.00139598 0.000686447 0 0.00136989 0.000673619 0 0.00134616 0.000661951 0 0.00132457 0.00065133 0 0.00130491 0.000641663 0 0.00128702 0.000632866 0 0.00127074 0.000624863 0 0.00125595 0.000617589 0 0.00124252 0.000610985 0 0.00123034 0.000604997 0 0.00121932 0.000599579 0 0.00120937 0.000594687 0 0.00171748 0.00102517 0 0.00165512 0.00098794 0 0.00159933 0.000954644 0 0.00154926 0.000924754 0 0.00150419 0.000897853 0 0.00146352 0.000873579 0 0.00142675 0.000851627 0 0.00139344 0.000831743 0 0.00136321 0.000813702 0 0.00133576 0.000797317 0 0.0013108 0.000782417 0 0.00128809 0.000768864 0 0.00126743 0.000756528 0 0.00124862 0.0007453 0 0.0012315 0.000735082 0 0.00121592 0.000725786 0 0.00120177 0.000717338 0 0.00118892 0.000709666 0 0.00117727 0.000702712 0 0.00116672 0.000696418 0 0.0011572 0.000690736 0 0.00162779 0.00116232 0 0.00156869 0.00112011 0 0.00151582 0.00108236 0 0.00146836 0.00104847 0 0.00142564 0.00101797 0 0.0013871 0.000990452 0 0.00135224 0.000965564 0 0.00132067 0.00094302 0 0.00129203 0.000922565 0 0.00126601 0.000903987 0 0.00124235 0.000887095 0 0.00122083 0.000871728 0 0.00120124 0.000857741 0 0.00118341 0.000845012 0 0.00116719 0.000833426 0 0.00115243 0.000822887 0 0.00113902 0.000813308 0 0.00112683 0.000804611 0 0.00111579 0.000796726 0 0.0011058 0.00078959 0 0.00109678 0.000783148 0 0.00152646 0.00129253 0 0.00147103 0.00124559 0 0.00142145 0.00120361 0 0.00137695 0.00116593 0 0.00133689 0.00113201 0 0.00130075 0.00110141 0 0.00126806 0.00107373 0 0.00123846 0.00104866 0 0.00121159 0.00102591 0 0.0011872 0.00100525 0 0.00116501 0.00098647 0 0.00114483 0.000969382 0 0.00112646 0.000953828 0 0.00110974 0.000939673 0 0.00109453 0.000926789 0 0.00108069 0.00091507 0 0.00106811 0.000904418 0 0.00105669 0.000894746 0 0.00104633 0.000885978 0 0.00103696 0.000878042 0 0.0010285 0.000870879 0 0.00141434 0.00141434 0 0.00136298 0.00136298 0 0.00131705 0.00131705 0 0.00127581 0.00127581 0 0.00123869 0.00123869 0 0.00120521 0.00120521 0 0.00117492 0.00117492 0 0.00114749 0.00114749 0 0.0011226 0.0011226 0 0.00109999 0.00109999 0 0.00107944 0.00107944 0 0.00106074 0.00106074 0 0.00104372 0.00104372 0 0.00102823 0.00102823 0 0.00101413 0.00101413 0 0.00100131 0.00100131 0 0.000989653 0.000989653 0 0.000979069 0.000979069 0 0.000969475 0.000969475 0 0.000960792 0.000960792 0 0.000952953 0.000952953 0 0.00129253 0.00152646 0 0.00124559 0.00147103 0 0.00120361 0.00142145 0 0.00116593 0.00137695 0 0.00113201 0.00133689 0 0.00110141 0.00130075 0 0.00107373 0.00126806 0 0.00104866 0.00123846 0 0.00102591 0.00121159 0 0.00100525 0.0011872 0 0.00098647 0.00116501 0 0.000969382 0.00114483 0 0.000953828 0.00112646 0 0.000939673 0.00110974 0 0.000926789 0.00109453 0 0.00091507 0.00108069 0 0.000904418 0.00106811 0 0.000894746 0.00105669 0 0.000885978 0.00104633 0 0.000878042 0.00103696 0 0.000870879 0.0010285 0 0.00116232 0.00162779 0 0.00112011 0.00156869 0 0.00108236 0.00151582 0 0.00104847 0.00146836 0 0.00101797 0.00142564 0 0.000990452 0.0013871 0 0.000965564 0.00135224 0 0.00094302 0.00132067 0 0.000922565 0.00129203 0 0.000903987 0.00126601 0 0.000887095 0.00124235 0 0.000871728 0.00122083 0 0.000857741 0.00120124 0 0.000845012 0.00118341 0 0.000833426 0.00116719 0 0.000822887 0.00115243 0 0.000813308 0.00113902 0 0.000804611 0.00112683 0 0.000796726 0.00111579 0 0.00078959 0.0011058 0 0.000783148 0.00109678 0 0.00102517 0.00171748 0 0.00098794 0.00165512 0 0.000954644 0.00159933 0 0.000924754 0.00154926 0 0.000897853 0.00150419 0 0.000873579 0.00146352 0 0.000851627 0.00142675 0 0.000831743 0.00139344 0 0.000813702 0.00136321 0 0.000797317 0.00133576 0 0.000782417 0.0013108 0 0.000768864 0.00128809 0 0.000756528 0.00126743 0 0.0007453 0.00124862 0 0.000735082 0.0012315 0 0.000725786 0.00121592 0 0.000717338 0.00120177 0 0.000709666 0.00118892 0 0.000702712 0.00117727 0 0.000696418 0.00116672 0 0.000690736 0.0011572 0 0.000882612 0.00179491 0 0.000850564 0.00172973 0 0.000821897 0.00167144 0 0.000796163 0.0016191 0 0.000773003 0.001572 0 0.000752104 0.0015295 0 0.000733205 0.00149107 0 0.000716086 0.00145626 0 0.000700554 0.00142467 0 0.000686447 0.00139598 0 0.000673619 0.00136989 0 0.000661951 0.00134616 0 0.00065133 0.00132457 0 0.000641663 0.00130491 0 0.000632866 0.00128702 0 0.000624863 0.00127074 0 0.000617589 0.00125595 0 0.000610985 0.00124252 0 0.000604997 0.00123034 0 0.000599579 0.00121932 0 0.000594687 0.00120937 0 0.000736254 0.00185974 0 0.00070952 0.00179221 0 0.000685607 0.00173181 0 0.00066414 0.00167758 0 0.000644821 0.00162878 0 0.000627387 0.00158475 0 0.000611622 0.00154493 0 0.000597342 0.00150886 0 0.000584385 0.00147613 0 0.000572618 0.0014464 0 0.000561917 0.00141937 0 0.000552184 0.00139479 0 0.000543324 0.00137241 0 0.00053526 0.00135204 0 0.000527922 0.0013335 0 0.000521246 0.00131664 0 0.000515178 0.00130131 0 0.000509669 0.0012874 0 0.000504674 0.00127478 0 0.000500154 0.00126336 0 0.000496074 0.00125306 0 0.000587675 0.00191189 0 0.000566336 0.00184247 0 0.000547249 0.00178037 0 0.000530115 0.00172463 0 0.000514694 0.00167446 0 0.000500779 0.00162919 0 0.000488195 0.00158825 0 0.000476796 0.00155117 0 0.000466454 0.00151752 0 0.000457061 0.00148697 0 0.00044852 0.00145918 0 0.000440751 0.0014339 0 0.000433679 0.0014109 0 0.000427243 0.00138996 0 0.000421385 0.0013709 0 0.000416057 0.00135356 0 0.000411214 0.00133781 0 0.000406816 0.0013235 0 0.000402829 0.00131053 0 0.000399221 0.00129879 0 0.000395964 0.0012882 0 0.000438403 0.00195154 0 0.000422484 0.00188068 0 0.000408246 0.00181729 0 0.000395463 0.00176039 0 0.000383959 0.00170918 0 0.000373579 0.00166297 0 0.000364191 0.00162119 0 0.000355688 0.00158333 0 0.000347973 0.00154899 0 0.000340966 0.0015178 0 0.000334594 0.00148944 0 0.000328798 0.00146364 0 0.000323523 0.00144015 0 0.000318721 0.00141878 0 0.000314352 0.00139933 0 0.000310377 0.00138163 0 0.000306764 0.00136555 0 0.000303483 0.00135094 0 0.000300509 0.00133771 0 0.000297817 0.00132573 0 0.000295388 0.00131491 0 0.000289864 0.00197906 0 0.000279339 0.0019072 0 0.000269925 0.00184292 0 0.000261473 0.00178522 0 0.000253867 0.00173329 0 0.000247003 0.00168643 0 0.000240797 0.00164405 0 0.000235175 0.00160566 0 0.000230073 0.00157083 0 0.00022544 0.0015392 0 0.000221228 0.00151044 0 0.000217396 0.00148428 0 0.000213907 0.00146046 0 0.000210733 0.00143879 0 0.000207844 0.00141906 0 0.000205215 0.00140112 0 0.000202827 0.00138481 0 0.000200657 0.00137 0 0.000198691 0.00135657 0 0.000196912 0.00134442 0 0.000195305 0.00133345 0 0.000143351 0.00199503 0 0.000138146 0.00192259 0 0.00013349 0.00185779 0 0.00012931 0.00179963 0 0.000125549 0.00174727 0 0.000122155 0.00170004 0 0.000119085 0.00165732 0 0.000116305 0.00161862 0 0.000113782 0.00158351 0 0.000111491 0.00155163 0 0.000109407 0.00152263 0 0.000107512 0.00149625 0 0.000105787 0.00147225 0 0.000104217 0.0014504 0 0.000102788 0.00143051 0 0.000101488 0.00141242 0 0.000100307 0.00139598 0 9.92343e-05 0.00138105 0 9.82619e-05 0.00136752 0 9.73818e-05 0.00135527 0 9.65873e-05 0.00134421 0 0 0.00200018 0 0 0.00192755 0 0 0.00186258 0 0 0.00180427 0 0 0.00175178 0 0 0.00170442 0 0 0.00166159 0 0 0.00162279 0 0 0.00158759 0 0 0.00155563 0 0 0.00152656 0 0 0.00150011 0 0 0.00147604 0 0 0.00145414 0 0 0.0014342 0 0 0.00141606 0 0 0.00139958 0 0 0.00138461 0 0 0.00137104 0 0 0.00135876 0 0 0.00134768 0 </DataArray> 
<DataArray type="Float32" Name="stress" format="ascii" NumberOfComponents="9"> 
-191.943 -6.06789e-07 0 -6.06789e-07 379.318 0 0 0 0 -165.567 -5.36065e-07 0 -5.36065e-07 352.68 0 0 0 0 -142.451 -4.68479e-07 0 -4.68479e-07 329.701 0 0 0 0 -122.48 -4.2518e-07 0 -4.2518e-07 309.569 0 0 0 0 -104.742 -4.00763e-07 0 -4.00763e-07 291.991 0 0 0 0 -89.2889 -3.80612e-07 0 -3.80612e-07 276.395 0 0 0 0 -75.4297 -3.60236e-07 0 -3.60236e-07 262.63 0 0 0 0 -63.189 -3.42397e-07 0 -3.42397e-07 250.32 0 0 0 0 -52.1598 -3.2802e-07 0 -3.2802e-07 239.337 0 0 0 0 -42.295 -3.15423e-07 0 -3.15423e-07 229.453 0 0 0 0 -33.3864 -3.03432e-07 0 -3.03432e-07 220.546 0 0 0 0 -25.3153 -2.92373e-07 0 -2.92373e-07 212.492 0 0 0 0 -18.0162 -2.82651e-07 0 -2.82651e-07 205.17 0 0 0 0 -11.3368 -2.73992e-07 0 -2.73992e-07 198.517 0 0 0 0 -5.27449 -2.65946e-07 0 -2.65946e-07 192.427 0 0 0 0 0.309105 -2.58142e-07 0 -2.58142e-07 186.866 0 0 0 0 5.40477 -2.50243e-07 0 -2.50243e-07 181.75 0 0 0 0 10.117 -2.41235e-07 0 -2.41235e-07 177.053 0 0 0 0 14.4465 -2.294e-07 0 -2.294e-07 172.715 0 0 0 0 18.4553 -2.12135e-07 0 -2.12135e-07 168.71 0 0 0 0 22.1596 -1.85019e-07 0 -1.85019e-07 164.998 0 0 0 0 -189.009 -40.8366 0 -40.8366 376.383 0 0 0 0 -162.905 -37.0468 0 -37.0468 350.018 0 0 0 0 -140.026 -33.7518 0 -33.7518 327.276 0 0 0 0 -120.26 -30.885 0 -30.885 307.349 0 0 0 0 -102.704 -28.3605 0 -28.3605 289.954 0 0 0 0 -87.4106 -26.1409 0 -26.1409 274.517 0 0 0 0 -73.6932 -24.1662 0 -24.1662 260.893 0 0 0 0 -61.5787 -22.4112 0 -22.4112 248.709 0 0 0 0 -50.6625 -20.8377 0 -20.8377 237.84 0 0 0 0 -40.8992 -19.4259 0 -19.4259 228.057 0 0 0 0 -32.0821 -18.1524 0 -18.1524 219.242 0 0 0 0 -24.0938 -16.9997 0 -16.9997 211.271 0 0 0 0 -16.8698 -15.9544 0 -15.9544 204.023 0 0 0 0 -10.2589 -15.0014 0 -15.0014 197.439 0 0 0 0 -4.25899 -14.1327 0 -14.1327 191.412 0 0 0 0 1.26735 -13.336 0 -13.336 185.908 0 0 0 0 6.31057 -12.606 0 -12.606 180.844 0 0 0 0 10.9744 -11.9334 0 -11.9334 176.195 0 0 0 0 15.2594 -11.3138 0 -11.3138 171.902 0 0 0 0 19.2271 -10.741 0 -10.741 167.938 0 0 0 0 22.8933 -10.2108 0 -10.2108 164.265 0 0 0 0 -179.945 -81.9128 0 -81.9128 367.32 0 0 0 0 -154.683 -74.3111 0 -74.3111 341.795 0 0 0 0 -132.535 -67.7017 0 -67.7017 319.785 0 0 0 0 -113.406 -61.9512 0 -61.9512 300.495 0 0 0 0 -96.4096 -56.8874 0 -56.8874 283.659 0 0 0 0 -81.6089 -52.4353 0 -52.4353 268.715 0 0 0 0 -68.3299 -48.4742 0 -48.4742 255.53 0 0 0 0 -56.6048 -44.9539 0 -44.9539 243.736 0 0 0 0 -46.0379 -41.7976 0 -41.7976 233.215 0 0 0 0 -36.5878 -38.9659 0 -38.9659 223.746 0 0 0 0 -28.0534 -36.4113 0 -36.4113 215.213 0 0 0 0 -20.3209 -34.0992 0 -34.0992 207.498 0 0 0 0 -13.329 -32.0025 0 -32.0025 200.482 0 0 0 0 -6.92956 -30.0909 0 -30.0909 194.11 0 0 0 0 -1.12242 -28.3484 0 -28.3484 188.275 0 0 0 0 4.22711 -26.7504 0 -26.7504 182.948 0 0 0 0 9.10831 -25.286 0 -25.286 178.046 0 0 0 0 13.6229 -23.9369 0 -23.9369 173.547 0 0 0 0 17.7704 -22.6941 0 -22.6941 169.391 0 0 0 0 21.6109 -21.545 0 -21.545 165.554 0 0 0 0 25.1595 -20.4816 0 -20.4816 161.999 0 0 0 0 -164.499 -122.166 0 -122.166 351.874 0 0 0 0 -140.67 -110.828 0 -110.828 327.782 0 0 0 0 -119.768 -100.971 0 -100.971 307.019 0 0 0 0 -101.724 -92.3947 0 -92.3947 288.813 0 0 0 0 -85.6822 -84.8425 0 -84.8425 272.932 0 0 0 0 -71.7211 -78.2026 0 -78.2026 258.827 0 0 0 0 -59.189 -72.2949 0 -72.2949 246.389 0 0 0 0 -48.1278 -67.0447 0 -67.0447 235.259 0 0 0 0 -38.156 -62.3374 0 -62.3374 225.333 0 0 0 0 -29.2399 -58.1141 0 -58.1141 216.398 0 0 0 0 -21.1872 -54.3042 0 -54.3042 208.347 0 0 0 0 -13.8908 -50.8558 0 -50.8558 201.068 0 0 0 0 -7.29417 -47.7289 0 -47.7289 194.448 0 0 0 0 -1.25526 -44.8779 0 -44.8779 188.436 0 0 0 0 4.2233 -42.2791 0 -42.2791 182.93 0 0 0 0 9.27149 -39.8958 0 -39.8958 177.904 0 0 0 0 13.8766 -37.7119 0 -37.7119 173.278 0 0 0 0 18.1367 -35.6997 0 -35.6997 169.033 0 0 0 0 22.0498 -33.8462 0 -33.8462 165.112 0 0 0 0 25.6737 -32.1324 0 -32.1324 161.492 0 0 0 0 29.0217 -30.5465 0 -30.5465 158.136 0 0 0 0 -142.629 -160.435 0 -160.435 330.003 0 0 0 0 -120.829 -145.546 0 -145.546 307.942 0 0 0 0 -101.692 -132.601 0 -132.601 288.943 0 0 0 0 -85.1829 -121.338 0 -121.338 272.272 0 0 0 0 -70.4935 -111.42 0 -111.42 257.743 0 0 0 0 -57.7211 -102.7 0 -102.7 244.827 0 0 0 0 -46.2466 -94.9419 0 -94.9419 233.447 0 0 0 0 -36.1252 -88.0471 0 -88.0471 223.256 0 0 0 0 -26.9962 -81.8652 0 -81.8652 214.174 0 0 0 0 -18.8362 -76.3189 0 -76.3189 205.994 0 0 0 0 -11.4656 -71.3155 0 -71.3155 198.625 0 0 0 0 -4.78643 -66.7869 0 -66.7869 191.964 0 0 0 0 1.25039 -62.6804 0 -62.6804 185.903 0 0 0 0 6.7789 -58.9363 0 -58.9363 180.401 0 0 0 0 11.7922 -55.5234 0 -55.5234 175.361 0 0 0 0 16.4137 -52.3935 0 -52.3935 170.762 0 0 0 0 20.6278 -49.5254 0 -49.5254 166.527 0 0 0 0 24.5278 -46.8829 0 -46.8829 162.642 0 0 0 0 28.1091 -44.4488 0 -44.4488 159.052 0 0 0 0 31.4261 -42.1981 0 -42.1981 155.739 0 0 0 0 34.4902 -40.1154 0 -40.1154 152.668 0 0 0 0 -114.541 -195.514 0 -195.514 301.915 0 0 0 0 -95.3475 -177.37 0 -177.37 282.46 0 0 0 0 -78.4773 -161.594 0 -161.594 265.728 0 0 0 0 -63.9398 -147.869 0 -147.869 251.029 0 0 0 0 -50.9868 -135.782 0 -135.782 238.237 0 0 0 0 -39.741 -125.155 0 -125.155 226.847 0 0 0 0 -29.6248 -115.701 0 -115.701 216.825 0 0 0 0 -20.7106 -107.298 0 -107.298 207.841 0 0 0 0 -12.6638 -99.7649 0 -99.7649 199.841 0 0 0 0 -5.47481 -93.0059 0 -93.0059 192.633 0 0 0 0 1.01987 -86.9085 0 -86.9085 186.14 0 0 0 0 6.90616 -81.3897 0 -81.3897 180.271 0 0 0 0 12.2241 -76.3854 0 -76.3854 174.929 0 0 0 0 17.0971 -71.8226 0 -71.8226 170.083 0 0 0 0 21.5129 -67.6635 0 -67.6635 165.64 0 0 0 0 25.5864 -63.8492 0 -63.8492 161.589 0 0 0 0 29.2984 -60.3541 0 -60.3541 157.856 0 0 0 0 32.7357 -57.1338 0 -57.1338 154.434 0 0 0 0 35.8909 -54.1674 0 -54.1674 151.271 0 0 0 0 38.8139 -51.4247 0 -51.4247 148.351 0 0 0 0 41.5134 -48.8866 0 -48.8866 145.645 0 0 0 0 -80.7088 -226.209 0 -226.209 268.084 0 0 0 0 -64.6553 -205.216 0 -205.216 251.768 0 0 0 0 -50.5149 -186.964 0 -186.964 237.765 0 0 0 0 -38.3525 -171.084 0 -171.084 225.441 0 0 0 0 -27.491 -157.099 0 -157.099 214.741 0 0 0 0 -18.084 -144.805 0 -144.805 205.19 0 0 0 0 -9.60381 -133.866 0 -133.866 196.804 0 0 0 0 -2.14355 -124.144 0 -124.144 189.274 0 0 0 0 4.59959 -115.428 0 -115.428 182.578 0 0 0 0 10.619 -107.608 0 -107.608 176.539 0 0 0 0 16.0586 -100.553 0 -100.553 171.101 0 0 0 0 20.9899 -94.1677 0 -94.1677 166.187 0 0 0 0 25.4418 -88.3777 0 -88.3777 161.712 0 0 0 0 29.5253 -83.0986 0 -83.0986 157.655 0 0 0 0 33.2214 -78.2865 0 -78.2865 153.931 0 0 0 0 36.6349 -73.8734 0 -73.8734 150.54 0 0 0 0 39.7421 -69.8296 0 -69.8296 147.412 0 0 0 0 42.6222 -66.1036 0 -66.1036 144.547 0 0 0 0 45.264 -62.6716 0 -62.6716 141.897 0 0 0 0 47.7124 -59.4983 0 -59.4983 139.453 0 0 0 0 49.9727 -56.5617 0 -56.5617 137.185 0 0 0 0 -41.8757 -251.411 0 -251.411 229.25 0 0 0 0 -29.426 -228.079 0 -228.079 216.539 0 0 0 0 -18.419 -207.793 0 -207.793 205.669 0 0 0 0 -8.98279 -190.144 0 -190.144 196.072 0 0 0 0 -0.521942 -174.601 0 -174.601 187.772 0 0 0 0 6.77442 -160.937 0 -160.937 180.332 0 0 0 0 13.3768 -148.779 0 -148.779 173.823 0 0 0 0 19.1681 -137.975 0 -137.975 167.963 0 0 0 0 24.4149 -128.287 0 -128.287 162.762 0 0 0 0 29.0919 -119.596 0 -119.596 158.066 0 0 0 0 33.3204 -111.755 0 -111.755 153.839 0 0 0 0 37.1556 -104.659 0 -104.659 150.022 0 0 0 0 40.6135 -98.2237 0 -98.2237 146.54 0 0 0 0 43.7907 -92.3563 0 -92.3563 143.39 0 0 0 0 46.6608 -87.0082 0 -87.0082 140.492 0 0 0 0 49.3167 -82.1034 0 -82.1034 137.859 0 0 0 0 51.7297 -77.6091 0 -77.6091 135.425 0 0 0 0 53.9701 -73.4681 0 -73.4681 133.2 0 0 0 0 56.0228 -69.6537 0 -69.6537 131.139 0 0 0 0 57.9264 -66.1268 0 -66.1268 129.239 0 0 0 0 59.6826 -62.8631 0 -62.8631 127.475 0 0 0 0 0.964481 -270.161 0 -270.161 186.41 0 0 0 0 9.43846 -245.09 0 -245.09 177.674 0 0 0 0 16.9888 -223.291 0 -223.291 170.262 0 0 0 0 23.4175 -204.325 0 -204.325 163.671 0 0 0 0 29.23 -187.623 0 -187.623 158.02 0 0 0 0 34.1979 -172.94 0 -172.94 152.908 0 0 0 0 38.7286 -159.875 0 -159.875 148.471 0 0 0 0 42.6789 -148.265 0 -148.265 144.452 0 0 0 0 46.275 -137.855 0 -137.855 140.902 0 0 0 0 49.4709 -128.516 0 -128.516 137.687 0 0 0 0 52.3634 -120.09 0 -120.09 134.796 0 0 0 0 54.9893 -112.464 0 -112.464 132.188 0 0 0 0 57.3508 -105.549 0 -105.549 129.803 0 0 0 0 59.5282 -99.2444 0 -99.2444 127.652 0 0 0 0 61.4869 -93.4974 0 -93.4974 125.666 0 0 0 0 63.3071 -88.2269 0 -88.2269 123.868 0 0 0 0 64.9542 -83.3973 0 -83.3973 122.2 0 0 0 0 66.489 -78.9475 0 -78.9475 120.681 0 0 0 0 67.8917 -74.8486 0 -74.8486 119.27 0 0 0 0 69.1944 -71.0586 0 -71.0586 117.971 0 0 0 0 70.3944 -67.5515 0 -67.5515 116.764 0 0 0 0 46.6055 -281.723 0 -281.723 140.769 0 0 0 0 50.8439 -255.579 0 -255.579 136.269 0 0 0 0 54.7116 -232.847 0 -232.847 132.539 0 0 0 0 57.9361 -213.069 0 -213.069 129.153 0 0 0 0 60.9271 -195.653 0 -195.653 126.323 0 0 0 0 63.4144 -180.341 0 -180.341 123.692 0 0 0 0 65.738 -166.718 0 -166.718 121.462 0 0 0 0 67.7268 -154.61 0 -154.61 119.404 0 0 0 0 69.5642 -143.755 0 -143.755 117.613 0 0 0 0 71.1823 -134.016 0 -134.016 115.976 0 0 0 0 72.6514 -125.23 0 -125.23 114.508 0 0 0 0 73.989 -117.277 0 -117.277 113.188 0 0 0 0 75.1823 -110.066 0 -110.066 111.971 0 0 0 0 76.2945 -103.492 0 -103.492 110.886 0 0 0 0 77.2823 -97.4987 0 -97.4987 109.871 0 0 0 0 78.2121 -92.0026 0 -92.0026 108.963 0 0 0 0 79.0434 -86.9664 0 -86.9664 108.111 0 0 0 0 79.8264 -82.3261 0 -82.3261 107.343 0 0 0 0 80.5366 -78.0518 0 -78.0518 106.625 0 0 0 0 81.199 -74.0997 0 -74.0997 105.966 0 0 0 0 81.8066 -70.4425 0 -70.4425 105.351 0 0 0 0 93.6874 -285.63 0 -285.63 93.6874 0 0 0 0 93.5564 -259.123 0 -259.123 93.5564 0 0 0 0 93.6252 -236.076 0 -236.076 93.6252 0 0 0 0 93.5445 -216.024 0 -216.024 93.5445 0 0 0 0 93.6248 -198.366 0 -198.366 93.6248 0 0 0 0 93.5532 -182.842 0 -182.842 93.5532 0 0 0 0 93.6 -169.03 0 -169.03 93.6 0 0 0 0 93.5654 -156.754 0 -156.754 93.5654 0 0 0 0 93.5887 -145.748 0 -145.748 93.5887 0 0 0 0 93.5791 -135.874 0 -135.874 93.5791 0 0 0 0 93.5799 -126.966 0 -126.966 93.5799 0 0 0 0 93.5886 -118.904 0 -118.904 93.5886 0 0 0 0 93.5767 -111.593 0 -111.593 93.5767 0 0 0 0 93.5902 -104.927 0 -104.927 93.5902 0 0 0 0 93.5764 -98.8509 0 -98.8509 93.5764 0 0 0 0 93.5877 -93.2786 0 -93.2786 93.5877 0 0 0 0 93.5773 -88.1725 0 -88.1725 93.5773 0 0 0 0 93.5848 -83.4679 0 -83.4679 93.5848 0 0 0 0 93.5807 -79.1343 0 -79.1343 93.5807 0 0 0 0 93.5826 -75.1274 0 -75.1274 93.5826 0 0 0 0 93.579 -71.4194 0 -71.4194 93.579 0 0 0 0 140.769 -281.723 0 -281.723 46.6055 0 0 0 0 136.269 -255.579 0 -255.579 50.8439 0 0 0 0 132.539 -232.847 0 -232.847 54.7116 0 0 0 0 129.153 -213.069 0 -213.069 57.9361 0 0 0 0 126.323 -195.653 0 -195.653 60.9271 0 0 0 0 123.692 -180.341 0 -180.341 63.4144 0 0 0 0 121.462 -166.718 0 -166.718 65.738 0 0 0 0 119.404 -154.61 0 -154.61 67.7268 0 0 0 0 117.613 -143.755 0 -143.755 69.5642 0 0 0 0 115.976 -134.016 0 -134.016 71.1823 0 0 0 0 114.508 -125.23 0 -125.23 72.6514 0 0 0 0 113.188 -117.277 0 -117.277 73.989 0 0 0 0 111.971 -110.066 0 -110.066 75.1823 0 0 0 0 110.886 -103.492 0 -103.492 76.2945 0 0 0 0 109.871 -97.4987 0 -97.4987 77.2823 0 0 0 0 108.963 -92.0026 0 -92.0026 78.2121 0 0 0 0 108.111 -86.9664 0 -86.9664 79.0434 0 0 0 0 107.343 -82.3261 0 -82.3261 79.8264 0 0 0 0 106.625 -78.0518 0 -78.0518 80.5366 0 0 0 0 105.966 -74.0997 0 -74.0997 81.199 0 0 0 0 105.351 -70.4425 0 -70.4425 81.8066 0 0 0 0 186.41 -270.161 0 -270.161 0.964481 0 0 0 0 177.674 -245.09 0 -245.09 9.43846 0 0 0 0 170.262 -223.291 0 -223.291 16.9888 0 0 0 0 163.671 -204.325 0 -204.325 23.4175 0 0 0 0 158.02 -187.623 0 -187.623 29.23 0 0 0 0 152.908 -172.94 0 -172.94 34.1979 0 0 0 0 148.471 -159.875 0 -159.875 38.7286 0 0 0 0 144.452 -148.265 0 -148.265 42.6789 0 0 0 0 140.902 -137.855 0 -137.855 46.275 0 0 0 0 137.687 -128.516 0 -128.516 49.4709 0 0 0 0 134.796 -120.09 0 -120.09 52.3634 0 0 0 0 132.188 -112.464 0 -112.464 54.9893 0 0 0 0 129.803 -105.549 0 -105.549 57.3508 0 0 0 0 127.652 -99.2444 0 -99.2444 59.5282 0 0 0 0 125.666 -93.4974 0 -93.4974 61.4869 0 0 0 0 123.868 -88.2269 0 -88.2269 63.3071 0 0 0 0 122.2 -83.3973 0 -83.3973 64.9542 0 0 0 0 120.681 -78.9475 0 -78.9475 66.489 0 0 0 0 119.27 -74.8486 0 -74.8486 67.8917 0 0 0 0 117.971 -71.0586 0 -71.0586 69.1944 0 0 0 0 116.764 -67.5515 0 -67.5515 70.3944 0 0 0 0 229.25 -251.411 0 -251.411 -41.8757 0 0 0 0 216.539 -228.079 0 -228.079 -29.426 0 0 0 0 205.669 -207.793 0 -207.793 -18.419 0 0 0 0 196.072 -190.144 0 -190.144 -8.98279 0 0 0 0 187.772 -174.601 0 -174.601 -0.521942 0 0 0 0 180.332 -160.937 0 -160.937 6.77442 0 0 0 0 173.823 -148.779 0 -148.779 13.3768 0 0 0 0 167.963 -137.975 0 -137.975 19.1681 0 0 0 0 162.762 -128.287 0 -128.287 24.4149 0 0 0 0 158.066 -119.596 0 -119.596 29.0919 0 0 0 0 153.839 -111.755 0 -111.755 33.3204 0 0 0 0 150.022 -104.659 0 -104.659 37.1556 0 0 0 0 146.54 -98.2237 0 -98.2237 40.6135 0 0 0 0 143.39 -92.3563 0 -92.3563 43.7907 0 0 0 0 140.492 -87.0082 0 -87.0082 46.6608 0 0 0 0 137.859 -82.1034 0 -82.1034 49.3167 0 0 0 0 135.425 -77.6091 0 -77.6091 51.7297 0 0 0 0 133.2 -73.4681 0 -73.4681 53.9701 0 0 0 0 131.139 -69.6537 0 -69.6537 56.0228 0 0 0 0 129.239 -66.1268 0 -66.1268 57.9264 0 0 0 0 127.475 -62.8631 0 -62.8631 59.6826 0 0 0 0 268.084 -226.209 0 -226.209 -80.7088 0 0 0 0 251.768 -205.216 0 -205.216 -64.6553 0 0 0 0 237.765 -186.964 0 -186.964 -50.5149 0 0 0 0 225.441 -171.084 0 -171.084 -38.3525 0 0 0 0 214.741 -157.099 0 -157.099 -27.491 0 0 0 0 205.19 -144.805 0 -144.805 -18.084 0 0 0 0 196.804 -133.866 0 -133.866 -9.60381 0 0 0 0 189.274 -124.144 0 -124.144 -2.14355 0 0 0 0 182.578 -115.428 0 -115.428 4.59959 0 0 0 0 176.539 -107.608 0 -107.608 10.619 0 0 0 0 171.101 -100.553 0 -100.553 16.0586 0 0 0 0 166.187 -94.1677 0 -94.1677 20.9899 0 0 0 0 161.712 -88.3777 0 -88.3777 25.4418 0 0 0 0 157.655 -83.0986 0 -83.0986 29.5253 0 0 0 0 153.931 -78.2865 0 -78.2865 33.2214 0 0 0 0 150.54 -73.8734 0 -73.8734 36.6349 0 0 0 0 147.412 -69.8296 0 -69.8296 39.7421 0 0 0 0 144.547 -66.1036 0 -66.1036 42.6222 0 0 0 0 141.897 -62.6716 0 -62.6716 45.264 0 0 0 0 139.453 -59.4983 0 -59.4983 47.7124 0 0 0 0 137.185 -56.5617 0 -56.5617 49.9727 0 0 0 0 301.915 -195.514 0 -195.514 -114.541 0 0 0 0 282.46 -177.37 0 -177.37 -95.3475 0 0 0 0 265.728 -161.594 0 -161.594 -78.4773 0 0 0 0 251.029 -147.869 0 -147.869 -63.9398 0 0 0 0 238.237 -135.782 0 -135.782 -50.9868 0 0 0 0 226.847 -125.155 0 -125.155 -39.741 0 0 0 0 216.825 -115.701 0 -115.701 -29.6248 0 0 0 0 207.841 -107.298 0 -107.298 -20.7106 0 0 0 0 199.841 -99.7649 0 -99.7649 -12.6638 0 0 0 0 192.633 -93.0059 0 -93.0059 -5.47481 0 0 0 0 186.14 -86.9085 0 -86.9085 1.01987 0 0 0 0 180.271 -81.3897 0 -81.3897 6.90616 0 0 0 0 174.929 -76.3854 0 -76.3854 12.2241 0 0 0 0 170.083 -71.8226 0 -71.8226 17.0971 0 0 0 0 165.64 -67.6635 0 -67.6635 21.5129 0 0 0 0 161.589 -63.8492 0 -63.8492 25.5864 0 0 0 0 157.856 -60.3541 0 -60.3541 29.2984 0 0 0 0 154.434 -57.1338 0 -57.1338 32.7357 0 0 0 0 151.271 -54.1674 0 -54.1674 35.8909 0 0 0 0 148.351 -51.4247 0 -51.4247 38.8139 0 0 0 0 145.645 -48.8866 0 -48.8866 41.5134 0 0 0 0 330.003 -160.435 0 -160.435 -142.629 0 0 0 0 307.942 -145.546 0 -145.546 -120.829 0 0 0 0 288.943 -132.601 0 -132.601 -101.692 0 0 0 0 272.272 -121.338 0 -121.338 -85.1829 0 0 0 0 257.743 -111.42 0 -111.42 -70.4935 0 0 0 0 244.827 -102.7 0 -102.7 -57.7211 0 0 0 0 233.447 -94.9419 0 -94.9419 -46.2466 0 0 0 0 223.256 -88.0471 0 -88.0471 -36.1252 0 0 0 0 214.174 -81.8652 0 -81.8652 -26.9962 0 0 0 0 205.994 -76.3189 0 -76.3189 -18.8362 0 0 0 0 198.625 -71.3155 0 -71.3155 -11.4656 0 0 0 0 191.964 -66.7869 0 -66.7869 -4.78643 0 0 0 0 185.903 -62.6804 0 -62.6804 1.25039 0 0 0 0 180.401 -58.9363 0 -58.9363 6.7789 0 0 0 0 175.361 -55.5234 0 -55.5234 11.7922 0 0 0 0 170.762 -52.3935 0 -52.3935 16.4137 0 0 0 0 166.527 -49.5254 0 -49.5254 20.6278 0 0 0 0 162.642 -46.8829 0 -46.8829 24.5278 0 0 0 0 159.052 -44.4488 0 -44.4488 28.1091 0 0 0 0 155.739 -42.1981 0 -42.1981 31.4261 0 0 0 0 152.668 -40.1154 0 -40.1154 34.4902 0 0 0 0 351.874 -122.166 0 -122.166 -164.499 0 0 0 0 327.782 -110.828 0 -110.828 -140.67 0 0 0 0 307.019 -100.971 0 -100.971 -119.768 0 0 0 0 288.813 -92.3947 0 -92.3947 -101.724 0 0 0 0 272.932 -84.8425 0 -84.8425 -85.6822 0 0 0 0 258.827 -78.2026 0 -78.2026 -71.7211 0 0 0 0 246.389 -72.2949 0 -72.2949 -59.189 0 0 0 0 235.259 -67.0447 0 -67.0447 -48.1278 0 0 0 0 225.333 -62.3374 0 -62.3374 -38.156 0 0 0 0 216.398 -58.1141 0 -58.1141 -29.2399 0 0 0 0 208.347 -54.3042 0 -54.3042 -21.1872 0 0 0 0 201.068 -50.8558 0 -50.8558 -13.8908 0 0 0 0 194.448 -47.7289 0 -47.7289 -7.29417 0 0 0 0 188.436 -44.8779 0 -44.8779 -1.25526 0 0 0 0 182.93 -42.2791 0 -42.2791 4.2233 0 0 0 0 177.904 -39.8958 0 -39.8958 9.27149 0 0 0 0 173.278 -37.7119 0 -37.7119 13.8766 0 0 0 0 169.033 -35.6997 0 -35.6997 18.1367 0 0 0 0 165.112 -33.8462 0 -33.8462 22.0498 0 0 0 0 161.492 -32.1324 0 -32.1324 25.6737 0 0 0 0 158.136 -30.5465 0 -30.5465 29.0217 0 0 0 0 367.32 -81.9128 0 -81.9128 -179.945 0 0 0 0 341.795 -74.3111 0 -74.3111 -154.683 0 0 0 0 319.785 -67.7017 0 -67.7017 -132.535 0 0 0 0 300.495 -61.9512 0 -61.9512 -113.406 0 0 0 0 283.659 -56.8874 0 -56.8874 -96.4096 0 0 0 0 268.715 -52.4353 0 -52.4353 -81.6089 0 0 0 0 255.53 -48.4742 0 -48.4742 -68.3299 0 0 0 0 243.736 -44.9539 0 -44.9539 -56.6048 0 0 0 0 233.215 -41.7976 0 -41.7976 -46.0379 0 0 0 0 223.746 -38.9659 0 -38.9659 -36.5878 0 0 0 0 215.213 -36.4113 0 -36.4113 -28.0534 0 0 0 0 207.498 -34.0992 0 -34.0992 -20.3209 0 0 0 0 200.482 -32.0025 0 -32.0025 -13.329 0 0 0 0 194.11 -30.0909 0 -30.0909 -6.92956 0 0 0 0 188.275 -28.3484 0 -28.3484 -1.12242 0 0 0 0 182.948 -26.7504 0 -26.7504 4.22711 0 0 0 0 178.046 -25.286 0 -25.286 9.10831 0 0 0 0 173.547 -23.9369 0 -23.9369 13.6229 0 0 0 0 169.391 -22.6941 0 -22.6941 17.7704 0 0 0 0 165.554 -21.545 0 -21.545 21.6109 0 0 0 0 161.999 -20.4816 0 -20.4816 25.1595 0 0 0 0 376.383 -40.8366 0 -40.8366 -189.009 0 0 0 0 350.018 -37.0468 0 -37.0468 -162.905 0 0 0 0 327.276 -33.7518 0 -33.7518 -140.026 0 0 0 0 307.349 -30.885 0 -30.885 -120.26 0 0 0 0 289.954 -28.3605 0 -28.3605 -102.704 0 0 0 0 274.517 -26.1409 0 -26.1409 -87.4106 0 0 0 0 260.893 -24.1662 0 -24.1662 -73.6932 0 0 0 0 248.709 -22.4112 0 -22.4112 -61.5787 0 0 0 0 237.84 -20.8377 0 -20.8377 -50.6625 0 0 0 0 228.057 -19.4259 0 -19.4259 -40.8992 0 0 0 0 219.242 -18.1524 0 -18.1524 -32.0821 0 0 0 0 211.271 -16.9997 0 -16.9997 -24.0938 0 0 0 0 204.023 -15.9544 0 -15.9544 -16.8698 0 0 0 0 197.439 -15.0014 0 -15.0014 -10.2589 0 0 0 0 191.412 -14.1327 0 -14.1327 -4.25899 0 0 0 0 185.908 -13.336 0 -13.336 1.26735 0 0 0 0 180.844 -12.606 0 -12.606 6.31057 0 0 0 0 176.195 -11.9334 0 -11.9334 10.9744 0 0 0 0 171.902 -11.3138 0 -11.3138 15.2594 0 0 0 0 167.938 -10.741 0 -10.741 19.2271 0 0 0 0 164.265 -10.2108 0 -10.2108 22.8933 0 0 0 0 379.318 -6.06789e-07 0 -6.06789e-07 -191.943 0 0 0 0 352.68 -5.36066e-07 0 -5.36066e-07 -165.567 0 0 0 0 329.701 -4.68482e-07 0 -4.68482e-07 -142.451 0 0 0 0 309.569 -4.25181e-07 0 -4.25181e-07 -122.48 0 0 0 0 291.991 -4.00763e-07 0 -4.00763e-07 -104.742 0 0 0 0 276.395 -3.80611e-07 0 -3.80611e-07 -89.2889 0 0 0 0 262.63 -3.60235e-07 0 -3.60235e-07 -75.4297 0 0 0 0 250.32 -3.42397e-07 0 -3.42397e-07 -63.189 0 0 0 0 239.337 -3.2802e-07 0 -3.2802e-07 -52.1598 0 0 0 0 229.453 -3.15424e-07 0 -3.15424e-07 -42.295 0 0 0 0 220.546 -3.03432e-07 0 -3.03432e-07 -33.3864 0 0 0 0 212.492 -2.92373e-07 0 -2.92373e-07 -25.3153 0 0 0 0 205.17 -2.8265e-07 0 -2.8265e-07 -18.0162 0 0 0 0 198.517 -2.73991e-07 0 -2.73991e-07 -11.3368 0 0 0 0 192.427 -2.65945e-07 0 -2.65945e-07 -5.27449 0 0 0 0 186.866 -2.58142e-07 0 -2.58142e-07 0.309105 0 0 0 0 181.75 -2.50244e-07 0 -2.50244e-07 5.40477 0 0 0 0 177.053 -2.41236e-07 0 -2.41236e-07 10.117 0 0 0 0 172.715 -2.294e-07 0 -2.294e-07 14.4465 0 0 0 0 168.71 -2.12134e-07 0 -2.12134e-07 18.4553 0 0 0 0 164.998 -1.85017e-07 0 -1.85017e-07 22.1596 0 0 0 0 </DataArray> 
</PointData> 
<Points> 
<DataArray type="Float32" NumberOfComponents="3"> 
1 0 0 1.05 0 0 1.1 0 0 1.15 0 0 1.2 0 0 1.25 0 0 1.3 0 0 1.35 0 0 1.4 0 0 1.45 0 0 1.5 0 0 1.55 0 0 1.6 0 0 1.65 0 0 1.7 0 0 1.75 0 0 1.8 0 0 1.85 0 0 1.9 0 0 1.95 0 0 2 0 0 0.997428 0.0716693 0 1.0473 0.0752528 0 1.09717 0.0788363 0 1.14704 0.0824197 0 1.19691 0.0860032 0 1.24679 0.0895867 0 1.29666 0.0931701 0 1.34653 0.0967536 0 1.3964 0.100337 0 1.44627 0.103921 0 1.49614 0.107504 0 1.54601 0.111087 0 1.59589 0.114671 0 1.64576 0.118254 0 1.69563 0.121838 0 1.7455 0.125421 0 1.79537 0.129005 0 1.84524 0.132588 0 1.89511 0.136172 0 1.94499 0.139755 0 1.99486 0.143339 0 0.989443 0.144919 0 1.03892 0.152165 0 1.08839 0.159411 0 1.13786 0.166657 0 1.18733 0.173903 0 1.2368 0.181149 0 1.28628 0.188395 0 1.33575 0.195641 0 1.38522 0.202887 0 1.43469 0.210133 0 1.48417 0.217379 0 1.53364 0.224625 0 1.58311 0.231871 0 1.63258 0.239117 0 1.68205 0.246363 0 1.73153 0.253609 0 1.781 0.260855 0 1.83047 0.268101 0 1.87994 0.275347 0 1.92941 0.282593 0 1.97889 0.289839 0 0.975684 0.219182 0 1.02447 0.230142 0 1.07325 0.241101 0 1.12204 0.25206 0 1.17082 0.263019 0 1.2196 0.273978 0 1.26839 0.284937 0 1.31717 0.295896 0 1.36596 0.306855 0 1.41474 0.317815 0 1.46353 0.328774 0 1.51231 0.339733 0 1.56109 0.350692 0 1.60988 0.361651 0 1.65866 0.37261 0 1.70745 0.383569 0 1.75623 0.394528 0 1.80502 0.405488 0 1.8538 0.416447 0 1.90258 0.427406 0 1.95137 0.438365 0 0.955863 0.293812 0 1.00366 0.308503 0 1.05145 0.323193 0 1.09924 0.337884 0 1.14704 0.352574 0 1.19483 0.367265 0 1.24262 0.381956 0 1.29042 0.396646 0 1.33821 0.411337 0 1.386 0.426027 0 1.43379 0.440718 0 1.48159 0.455409 0 1.52938 0.470099 0 1.57717 0.48479 0 1.62497 0.49948 0 1.67276 0.514171 0 1.72055 0.528861 0 1.76835 0.543552 0 1.81614 0.558243 0 1.86393 0.572933 0 1.91173 0.587624 0 0.929788 0.368095 0 0.976278 0.386499 0 1.02277 0.404904 0 1.06926 0.423309 0 1.11575 0.441714 0 1.16224 0.460118 0 1.20872 0.478523 0 1.25521 0.496928 0 1.3017 0.515333 0 1.34819 0.533737 0 1.39468 0.552142 0 1.44117 0.570547 0 1.48766 0.588952 0 1.53415 0.607356 0 1.58064 0.625761 0 1.62713 0.644166 0 1.67362 0.66257 0 1.72011 0.680975 0 1.7666 0.69938 0 1.81309 0.717785 0 1.85958 0.736189 0 0.897376 0.441267 0 0.942244 0.463331 0 0.987113 0.485394 0 1.03198 0.507458 0 1.07685 0.529521 0 1.12172 0.551584 0 1.16659 0.573648 0 1.21146 0.595711 0 1.25633 0.617774 0 1.30119 0.639838 0 1.34606 0.661901 0 1.39093 0.683965 0 1.4358 0.706028 0 1.48067 0.728091 0 1.52554 0.750155 0 1.57041 0.772218 0 1.61528 0.794281 0 1.66014 0.816345 0 1.70501 0.838408 0 1.74988 0.860471 0 1.79475 0.882535 0 0.858665 0.512538 0 0.901598 0.538165 0 0.944531 0.563791 0 0.987464 0.589418 0 1.0304 0.615045 0 1.07333 0.640672 0 1.11626 0.666299 0 1.1592 0.691926 0 1.20213 0.717553 0 1.24506 0.74318 0 1.288 0.768806 0 1.33093 0.794433 0 1.37386 0.82006 0 1.4168 0.845687 0 1.45973 0.871314 0 1.50266 0.896941 0 1.5456 0.922568 0 1.58853 0.948195 0 1.63146 0.973822 0 1.6744 0.999448 0 1.71733 1.02508 0 0.813826 0.581109 0 0.854517 0.610164 0 0.895209 0.639219 0 0.9359 0.668275 0 0.976591 0.69733 0 1.01728 0.726386 0 1.05797 0.755441 0 1.09867 0.784497 0 1.13936 0.813552 0 1.18005 0.842607 0 1.22074 0.871663 0 1.26143 0.900718 0 1.30212 0.929774 0 1.34281 0.958829 0 1.3835 0.987885 0 1.4242 1.01694 0 1.46489 1.046 0 1.50558 1.07505 0 1.54627 1.10411 0 1.58696 1.13316 0 1.62765 1.16222 0 0.763163 0.646206 0 0.801321 0.678517 0 0.839479 0.710827 0 0.877637 0.743137 0 0.915795 0.775447 0 0.953954 0.807758 0 0.992112 0.840068 0 1.03027 0.872378 0 1.06843 0.904689 0 1.10659 0.936999 0 1.14474 0.969309 0 1.1829 1.00162 0 1.22106 1.03393 0 1.25922 1.06624 0 1.29738 1.09855 0 1.33553 1.13086 0 1.37369 1.16317 0 1.41185 1.19548 0 1.45001 1.22779 0 1.48817 1.2601 0 1.52633 1.29241 0 0.707107 0.707107 0 0.742462 0.742462 0 0.777817 0.777817 0 0.813173 0.813173 0 0.848528 0.848528 0 0.883883 0.883883 0 0.919239 0.919239 0 0.954594 0.954594 0 0.989949 0.989949 0 1.0253 1.0253 0 1.06066 1.06066 0 1.09602 1.09602 0 1.13137 1.13137 0 1.16673 1.16673 0 1.20208 1.20208 0 1.23744 1.23744 0 1.27279 1.27279 0 1.30815 1.30815 0 1.3435 1.3435 0 1.37886 1.37886 0 1.41421 1.41421 0 0.646206 0.763163 0 0.678517 0.801321 0 0.710827 0.839479 0 0.743137 0.877637 0 0.775447 0.915795 0 0.807758 0.953954 0 0.840068 0.992112 0 0.872378 1.03027 0 0.904689 1.06843 0 0.936999 1.10659 0 0.969309 1.14474 0 1.00162 1.1829 0 1.03393 1.22106 0 1.06624 1.25922 0 1.09855 1.29738 0 1.13086 1.33553 0 1.16317 1.37369 0 1.19548 1.41185 0 1.22779 1.45001 0 1.2601 1.48817 0 1.29241 1.52633 0 0.581109 0.813826 0 0.610164 0.854517 0 0.639219 0.895209 0 0.668275 0.9359 0 0.69733 0.976591 0 0.726386 1.01728 0 0.755441 1.05797 0 0.784497 1.09867 0 0.813552 1.13936 0 0.842607 1.18005 0 0.871663 1.22074 0 0.900718 1.26143 0 0.929774 1.30212 0 0.958829 1.34281 0 0.987885 1.3835 0 1.01694 1.4242 0 1.046 1.46489 0 1.07505 1.50558 0 1.10411 1.54627 0 1.13316 1.58696 0 1.16222 1.62765 0 0.512538 0.858665 0 0.538165 0.901598 0 0.563791 0.944531 0 0.589418 0.987464 0 0.615045 1.0304 0 0.640672 1.07333 0 0.666299 1.11626 0 0.691926 1.1592 0 0.717553 1.20213 0 0.74318 1.24506 0 0.768806 1.288 0 0.794433 1.33093 0 0.82006 1.37386 0 0.845687 1.4168 0 0.871314 1.45973 0 0.896941 1.50266 0 0.922568 1.5456 0 0.948195 1.58853 0 0.973822 1.63146 0 0.999448 1.6744 0 1.02508 1.71733 0 0.441267 0.897376 0 0.463331 0.942244 0 0.485394 0.987113 0 0.507458 1.03198 0 0.529521 1.07685 0 0.551584 1.12172 0 0.573648 1.16659 0 0.595711 1.21146 0 0.617774 1.25633 0 0.639838 1.30119 0 0.661901 1.34606 0 0.683965 1.39093 0 0.706028 1.4358 0 0.728091 1.48067 0 0.750155 1.52554 0 0.772218 1.57041 0 0.794281 1.61528 0 0.816345 1.66014 0 0.838408 1.70501 0 0.860471 1.74988 0 0.882535 1.79475 0 0.368095 0.929788 0 0.386499 0.976278 0 0.404904 1.02277 0 0.423309 1.06926 0 0.441714 1.11575 0 0.460118 1.16224 0 0.478523 1.20872 0 0.496928 1.25521 0 0.515333 1.3017 0 0.533737 1.34819 0 0.552142 1.39468 0 0.570547 1.44117 0 0.588952 1.48766 0 0.607356 1.53415 0 0.625761 1.58064 0 0.644166 1.62713 0 0.66257 1.67362 0 0.680975 1.72011 0 0.69938 1.7666 0 0.717785 1.81309 0 0.736189 1.85958 0 0.293812 0.955863 0 0.308503 1.00366 0 0.323193 1.05145 0 0.337884 1.09924 0 0.352574 1.14704 0 0.367265 1.19483 0 0.381956 1.24262 0 0.396646 1.29042 0 0.411337 1.33821 0 0.426027 1.386 0 0.440718 1.43379 0 0.455409 1.48159 0 0.470099 1.52938 0 0.48479 1.57717 0 0.49948 1.62497 0 0.514171 1.67276 0 0.528861 1.72055 0 0.543552 1.76835 0 0.558243 1.81614 0 0.572933 1.86393 0 0.587624 1.91173 0 0.219182 0.975684 0 0.230142 1.02447 0 0.241101 1.07325 0 0.25206 1.12204 0 0.263019 1.17082 0 0.273978 1.2196 0 0.284937 1.26839 0 0.295896 1.31717 0 0.306855 1.36596 0 0.317815 1.41474 0 0.328774 1.46353 0 0.339733 1.51231 0 0.350692 1.56109 0 0.361651 1.60988 0 0.37261 1.65866 0 0.383569 1.70745 0 0.394528 1.75623 0 0.405488 1.80502 0 0.416447 1.8538 0 0.427406 1.90258 0 0.438365 1.95137 0 0.144919 0.989443 0 0.152165 1.03892 0 0.159411 1.08839 0 0.166657 1.13786 0 0.173903 1.18733 0 0.181149 1.2368 0 0.188395 1.28628 0 0.195641 1.33575 0 0.202887 1.38522 0 0.210133 1.43469 0 0.217379 1.48417 0 0.224625 1.53364 0 0.231871 1.58311 0 0.239117 1.63258 0 0.246363 1.68205 0 0.253609 1.73153 0 0.260855 1.781 0 0.268101 1.83047 0 0.275347 1.87994 0 0.282593 1.92941 0 0.289839 1.97889 0 0.0716693 0.997428 0 0.0752528 1.0473 0 0.0788363 1.09717 0 0.0824197 1.14704 0 0.0860032 1.19691 0 0.0895867 1.24679 0 0.0931701 1.29666 0 0.0967536 1.34653 0 0.100337 1.3964 0 0.103921 1.44627 0 0.107504 1.49614 0 0.111087 1.54601 0 0.114671 1.59589 0 0.118254 1.64576 0 0.121838 1.69563 0 0.125421 1.7455 0 0.129005 1.79537 0 0.132588 1.84524 0 0.136172 1.89511 0 0.139755 1.94499 0 0.143339 1.99486 0 0 1 0 0 1.05 0 0 1.1 0 0 1.15 0 0 1.2 0 0 1.25 0 0 1.3 0 0 1.35 0 0 1.4 0 0 1.45 0 0 1.5 0 0 1.55 0 0 1.6 0 0 1.65 0 0 1.7 0 0 1.75 0 0 1.8 0 0 1.85 0 0 1.9 0 0 1.95 0 0 2 0 
</DataArray>
</Points> 
</Piece> 
</StructuredGrid> 
</VTKFile> 
