<?xml version="1.0"?> 
<VTKFile type="StructuredGrid" version="0.1"> 
<StructuredGrid WholeExtent="0 40 0 40 0 0"> 
<Piece Extent="0 40 0 40 0 0"> 
<PointData>
<DataArray type="Float32" Name="plastic_strain_5" format="ascii" NumberOfComponents="1"> 
0 0 0 0 0 0 0 0 0 0 0 0 0 0 0 0 0 0 0 0 0 0 0 0 0 0 0 0 0 0 0 0 0 0 0 0 0 0 0 0 0 0 0 0 0 0 0 0 0 0 0 0 0 0 0 0 0 0 0 0 0 0 0 0 0 0 0 0 0 0 0 0 0 0 0 0 0 0 0 0 0 0 0 0 0 0 0 0 0 0 0 0 0 0 0 0 0 0 0 0 0 0 0 0 0 0 0 0 0 0 0 0 0 0 0 0 0 0 0 0 0 0 0 0 0 0 0 0 0 0 0 0 0 0 0 0 0 0 0 0 0 0 0 0 0 0 0 0 0 0 0 0 0 0 0 0 0 0 0 0 0 0 0 0 0 0 0 0 0 0 0 0 0 0 0 0 0 0 0 0 0 0 0 0 0 0 0 0 0 0 0 0 0 0 0 0 0 0 0 0 0 0 0 0 0 0 0 0 0 0 0 0 0 0 0 0 0 0 0 0 0 0 0 0 0 0 0 0 0 0 0 0 0 0 0 0 0 0 0 0 0 0 0 0 0 0 0 0 0 0 0 0 0 0 0 0 0 0 0 0 0 0 0 0 0 0 0 0 0 0 0 0 0 0 0 0 0 0 0 0 0 0 0 0 0 0 0 0 0 0 0 0 0 0 0 0 0 0 0 0 0 0 0 0 0 0 0 0 0 0 0 0 0 0 0 0 0 0 0 0 0 0 0 0 0 0 0 0 0 0 0 0 0 0 0 0 0 0 0 0 0 0 0 0 0 0 0 0 0 0 0 0 0 0 0 0 0 0 0 0 0 0 0 0 0 0 0 0 0 0 0 0 0 0 0 0 0 0 0 0 0 0 0 0 0 0 0 0 0 0 0 0 0 0 0 0 0 0 0 0 0 0 0 0 0 0 0 0 0 0 0 0 0 0 0 0 0 0 0 0 0 0 0 0 0 0 0 0 0 0 0 0 0 0 0 0 0 0 0 0 0 0 0 0 0 0 0 0 0 0 0 0 0 0 0 0 0 0 0 0 0 0 0 0 0 0 0 0 0 0 0 0 0 0 0 0 0 0 0 0 0 0 0 0 0 0 0 0 0 0 0 0 0 0 0 0 0 0 0 0 0 0 0 0 0 0 0 0 0 0 0 0 0 0 0 0 0 0 0 0 0 0 0 0 0 0 0 0 0 0 0 0 0 0 0 0 0 0 0 0 0 0 0 0 0 0 0 0 0 0 0 0 0 0 0 0 0 0 0 0 0 0 0 0 0 0 0 0 0 0 0 0 0 0 0 0 0 0 0 0 0 0 0 0 0 0 0 0 0 0 0 0 0 0 0 0 0 0 0 0 0 0 0 0 0 0 0 0 0 0 0 0 0 0 0 0 0 0 0 0 0 0 0 0 0 0 0 0 0 0 0 0 0 0 0 0 0 0 0 0 0 0 0 0 0 0 0 0 0 0 0 0 0 0 0 0 0 0 0 0 0 0 0 0 0 0 0 0 0 0 0 0 0 0 0 0 0 0 0 0 0 0 0 0 0 0 0 0 0 0 0 0 0 0 0 0 0 0 0 0 0 0 0 0 0 0 0 0 0 0 0 0 0 0 0 0 0 0 0 0 0 0 0 0 0 0 0 0 0 0 0 0 0 0 0 0 0 0 0 0 0 0 0 0 0 0 0 0 0 0 0 0 0 0 0 0 0 0 0 0 0 0 0 0 0 0 0 0 0 0 0 0 0 0 0 0 0 0 0 0 0 0 0 0 0 0 0 0 0 0 0 0 0 0 0 0 0 0 0 0 0 0 0 0 0 0 0 0 0 0 0 0 0 0 0 0 0 0 0 0 0 0 0 0 0 0 0 0 0 0 0 0 0 0 0 0 0 0 0 0 0 0 0 0 0 0 0 0 0 0 0 0 0 0 0 0 0 0 0 0 0 0 0 0 0 0 0 0 0 0 0 0 0 0 0 0 0 0 0 0 0 0 0 0 0 0 0 0 0 0 0 0 0 0 0 0 0 0 0 0 0 0 0 0 0 0 0 0 0 0 0 0 0 0 0 0 0 0 0 0 0 0 0 0 0 0 0 0 0 0 0 0 0 0 0 0 0 0 0 0 0 0 0 0 0 0 0 0 0 0 0 0 0 0 0 0 0 0 0 0 0 0 0 0 0 0 0 0 0 0 0 0 0 0 0 0 0 0 0 0 0 0 0 0 0 0 0 0 0 0 0 0 0 0 0 0 0 0 0 0 0 0 0 0 0 0 0 0 0 0 0 0 0 0 0 0 0 0 0 0 0 0 0 0 0 0 0 0 0 0 0 0 0 0 0 0 0 0 0 0 0 0 0 0 0 0 0 0 0 0 0 0 0 0 0 0 0 0 0 0 0 0 0 0 0 0 0 0 0 0 0 0 0 0 0 0 0 0 0 0 0 0 0 0 0 0 0 0 0 0 0 0 0 0 0 0 0 0 0 0 0 0 0 0 0 0 0 0 0 0 0 0 0 0 0 0 0 0 0 0 0 0 0 0 0 0 0 0 0 0 0 0 0 0 0 0 0 0 0 0 0 0 0 0 0 0 0 0 0 0 0 0 0 0 0 0 0 0 0 0 0 0 0 0 0 0 0 0 0 0 0 0 0 0 0 0 0 0 0 0 0 0 0 0 0 0 0 0 0 0 0 0 0 0 0 0 0 0 0 0 0 0 0 0 0 0 0 0 0 0 0 0 0 0 0 0 0 0 0 0 0 0 0 0 0 0 0 0 0 0 0 0 0 0 0 0 0 0 0 0 0 0 0 0 0 0 0 0 0 0 0 0 0 0 0 0 0 0 0 0 0 0 0 0 0 0 0 0 0 0 0 0 0 0 0 0 0 0 0 0 0 0 0 0 0 0 0 0 0 0 0 0 0 0 0 0 0 0 0 0 0 0 0 0 0 0 0 0 0 0 0 0 0 0 0 0 0 0 0 0 0 0 0 0 0 0 0 0 0 0 0 0 0 0 0 0 0 0 0 0 0 0 0 0 0 0 0 0 0 0 0 0 0 0 0 0 0 0 0 0 0 0 0 0 0 0 0 0 0 0 0 0 0 0 0 0 0 0 0 0 0 0 0 0 0 0 0 0 0 0 0 0 0 0 0 0 0 0 0 0 0 0 0 0 0 0 0 0 0 0 0 0 0 0 0 0 0 0 0 0 0 0 0 0 0 0 0 0 0 0 0 0 0 0 0 0 0 0 0 0 0 0 0 0 0 0 0 0 0 0 0 0 0 0 0 0 0 0 0 0 0 0 0 0 0 0 0 0 0 0 0 0 0 0 0 0 0 0 0 0 0 0 0 0 0 0 0 0 0 0 0 0 0 0 0 0 0 0 0 0 0 0 0 0 0 0 0 0 0 0 0 0 0 0 0 0 0 0 0 0 0 0 0 0 0 0 0 0 0 0 0 0 0 0 0 0 0 0 0 0 0 0 0 0 0 0 0 0 0 0 0 0 0 0 0 0 0 0 0 0 0 0 0 0 0 0 0 0 0 0 0 0 0 0 0 0 0 0 0 0 0 0 0 0 0 0 0 0 0 0 0 0 0 0 0 0 0 0 0 0 0 0 0 0 0 0 0 0 0 0 0 0 0 0 0 0 0 0 0 0 0 0 0 0 0 0 0 0 0 0 0 0 0 0 0 0 0 0 0 0 0 0 0 0 0 0 0 0 0 0 0 0 0 0 0 0 0 0 0 0 0 0 0 0 0 0 0 0 0 0 0 0 0 0 0 0 0 0 0 0 0 </DataArray> 
</PointData> 
<Points> 
<DataArray type="Float32" NumberOfComponents="3"> 
100 0 0 102.5 0 0 105 0 0 107.5 0 0 110 0 0 112.5 0 0 115 0 0 117.5 0 0 120 0 0 122.5 0 0 125 0 0 127.5 0 0 130 0 0 132.5 0 0 135 0 0 137.5 0 0 140 0 0 142.5 0 0 145 0 0 147.5 0 0 150 0 0 152.5 0 0 155 0 0 157.5 0 0 160 0 0 162.5 0 0 165 0 0 167.5 0 0 170 0 0 172.5 0 0 175 0 0 177.5 0 0 180 0 0 182.5 0 0 185 0 0 187.5 0 0 190 0 0 192.5 0 0 195 0 0 197.5 0 0 200 0 0 99.9366 3.56048 0 102.435 3.6495 0 104.933 3.73851 0 107.432 3.82752 0 109.93 3.91653 0 112.429 4.00554 0 114.927 4.09456 0 117.425 4.18357 0 119.924 4.27258 0 122.422 4.36159 0 124.921 4.45061 0 127.419 4.53962 0 129.918 4.62863 0 132.416 4.71764 0 134.914 4.80665 0 137.413 4.89567 0 139.911 4.98468 0 142.41 5.07369 0 144.908 5.1627 0 147.406 5.25171 0 149.905 5.34073 0 152.403 5.42974 0 154.902 5.51875 0 157.4 5.60776 0 159.899 5.69677 0 162.397 5.78579 0 164.895 5.8748 0 167.394 5.96381 0 169.892 6.05282 0 172.391 6.14184 0 174.889 6.23085 0 177.387 6.31986 0 179.886 6.40887 0 182.384 6.49788 0 184.883 6.5869 0 187.381 6.67591 0 189.88 6.76492 0 192.378 6.85393 0 194.876 6.94294 0 197.375 7.03196 0 199.873 7.12097 0 99.7428 7.16693 0 102.236 7.34611 0 104.73 7.52528 0 107.224 7.70445 0 109.717 7.88363 0 112.211 8.0628 0 114.704 8.24197 0 117.198 8.42115 0 119.691 8.60032 0 122.185 8.77949 0 124.679 8.95867 0 127.172 9.13784 0 129.666 9.31701 0 132.159 9.49619 0 134.653 9.67536 0 137.146 9.85453 0 139.64 10.0337 0 142.134 10.2129 0 144.627 10.3921 0 147.121 10.5712 0 149.614 10.7504 0 152.108 10.9296 0 154.601 11.1087 0 157.095 11.2879 0 159.589 11.4671 0 162.082 11.6463 0 164.576 11.8254 0 167.069 12.0046 0 169.563 12.1838 0 172.056 12.363 0 174.55 12.5421 0 177.044 12.7213 0 179.537 12.9005 0 182.031 13.0797 0 184.524 13.2588 0 187.018 13.438 0 189.511 13.6172 0 192.005 13.7963 0 194.499 13.9755 0 196.992 14.1547 0 199.486 14.3339 0 99.4137 10.813 0 101.899 11.0834 0 104.384 11.3537 0 106.87 11.624 0 109.355 11.8943 0 111.84 12.1647 0 114.326 12.435 0 116.811 12.7053 0 119.296 12.9756 0 121.782 13.246 0 124.267 13.5163 0 126.752 13.7866 0 129.238 14.0569 0 131.723 14.3273 0 134.208 14.5976 0 136.694 14.8679 0 139.179 15.1383 0 141.664 15.4086 0 144.15 15.6789 0 146.635 15.9492 0 149.121 16.2196 0 151.606 16.4899 0 154.091 16.7602 0 156.577 17.0305 0 159.062 17.3009 0 161.547 17.5712 0 164.033 17.8415 0 166.518 18.1118 0 169.003 18.3822 0 171.489 18.6525 0 173.974 18.9228 0 176.459 19.1931 0 178.945 19.4635 0 181.43 19.7338 0 183.915 20.0041 0 186.401 20.2744 0 188.886 20.5448 0 191.371 20.8151 0 193.857 21.0854 0 196.342 21.3557 0 198.827 21.6261 0 98.9443 14.4919 0 101.418 14.8542 0 103.892 15.2165 0 106.365 15.5788 0 108.839 15.9411 0 111.312 16.3034 0 113.786 16.6657 0 116.26 17.028 0 118.733 17.3903 0 121.207 17.7526 0 123.68 18.1149 0 126.154 18.4772 0 128.628 18.8395 0 131.101 19.2018 0 133.575 19.5641 0 136.048 19.9264 0 138.522 20.2887 0 140.996 20.651 0 143.469 21.0133 0 145.943 21.3756 0 148.417 21.7379 0 150.89 22.1002 0 153.364 22.4625 0 155.837 22.8248 0 158.311 23.1871 0 160.785 23.5494 0 163.258 23.9117 0 165.732 24.274 0 168.205 24.6363 0 170.679 24.9986 0 173.153 25.3609 0 175.626 25.7232 0 178.1 26.0855 0 180.573 26.4478 0 183.047 26.8101 0 185.521 27.1724 0 187.994 27.5347 0 190.468 27.897 0 192.941 28.2593 0 195.415 28.6216 0 197.889 28.9839 0 98.3305 18.1963 0 100.789 18.6512 0 103.247 19.1061 0 105.705 19.561 0 108.164 20.0159 0 110.622 20.4708 0 113.08 20.9258 0 115.538 21.3807 0 117.997 21.8356 0 120.455 22.2905 0 122.913 22.7454 0 125.371 23.2003 0 127.83 23.6552 0 130.288 24.1101 0 132.746 24.565 0 135.204 25.0199 0 137.663 25.4748 0 140.121 25.9297 0 142.579 26.3846 0 145.038 26.8396 0 147.496 27.2945 0 149.954 27.7494 0 152.412 28.2043 0 154.871 28.6592 0 157.329 29.1141 0 159.787 29.569 0 162.245 30.0239 0 164.704 30.4788 0 167.162 30.9337 0 169.62 31.3886 0 172.078 31.8435 0 174.537 32.2984 0 176.995 32.7533 0 179.453 33.2083 0 181.911 33.6632 0 184.37 34.1181 0 186.828 34.573 0 189.286 35.0279 0 191.745 35.4828 0 194.203 35.9377 0 196.661 36.3926 0 97.5684 21.9182 0 100.008 22.4662 0 102.447 23.0142 0 104.886 23.5621 0 107.325 24.1101 0 109.764 24.658 0 112.204 25.206 0 114.643 25.7539 0 117.082 26.3019 0 119.521 26.8499 0 121.96 27.3978 0 124.4 27.9458 0 126.839 28.4937 0 129.278 29.0417 0 131.717 29.5896 0 134.157 30.1376 0 136.596 30.6855 0 139.035 31.2335 0 141.474 31.7815 0 143.913 32.3294 0 146.353 32.8774 0 148.792 33.4253 0 151.231 33.9733 0 153.67 34.5212 0 156.109 35.0692 0 158.549 35.6172 0 160.988 36.1651 0 163.427 36.7131 0 165.866 37.261 0 168.305 37.809 0 170.745 38.3569 0 173.184 38.9049 0 175.623 39.4528 0 178.062 40.0008 0 180.502 40.5488 0 182.941 41.0967 0 185.38 41.6447 0 187.819 42.1926 0 190.258 42.7406 0 192.698 43.2885 0 195.137 43.8365 0 96.6546 25.6495 0 99.0709 26.2907 0 101.487 26.9319 0 103.904 27.5732 0 106.32 28.2144 0 108.736 28.8556 0 111.153 29.4969 0 113.569 30.1381 0 115.985 30.7793 0 118.402 31.4206 0 120.818 32.0618 0 123.235 32.7031 0 125.651 33.3443 0 128.067 33.9855 0 130.484 34.6268 0 132.9 35.268 0 135.316 35.9092 0 137.733 36.5505 0 140.149 37.1917 0 142.565 37.833 0 144.982 38.4742 0 147.398 39.1154 0 149.815 39.7567 0 152.231 40.3979 0 154.647 41.0391 0 157.064 41.6804 0 159.48 42.3216 0 161.896 42.9628 0 164.313 43.6041 0 166.729 44.2453 0 169.145 44.8866 0 171.562 45.5278 0 173.978 46.169 0 176.395 46.8103 0 178.811 47.4515 0 181.227 48.0927 0 183.644 48.734 0 186.06 49.3752 0 188.476 50.0164 0 190.893 50.6577 0 193.309 51.2989 0 95.5863 29.3812 0 97.976 30.1157 0 100.366 30.8503 0 102.755 31.5848 0 105.145 32.3193 0 107.535 33.0538 0 109.924 33.7884 0 112.314 34.5229 0 114.704 35.2574 0 117.093 35.992 0 119.483 36.7265 0 121.873 37.461 0 124.262 38.1956 0 126.652 38.9301 0 129.042 39.6646 0 131.431 40.3991 0 133.821 41.1337 0 136.211 41.8682 0 138.6 42.6027 0 140.99 43.3373 0 143.379 44.0718 0 145.769 44.8063 0 148.159 45.5409 0 150.548 46.2754 0 152.938 47.0099 0 155.328 47.7444 0 157.717 48.479 0 160.107 49.2135 0 162.497 49.948 0 164.886 50.6826 0 167.276 51.4171 0 169.666 52.1516 0 172.055 52.8861 0 174.445 53.6207 0 176.835 54.3552 0 179.224 55.0897 0 181.614 55.8243 0 184.004 56.5588 0 186.393 57.2933 0 188.783 58.0279 0 191.173 58.7624 0 94.3616 33.1043 0 96.7206 33.932 0 99.0796 34.7596 0 101.439 35.5872 0 103.798 36.4148 0 106.157 37.2424 0 108.516 38.07 0 110.875 38.8976 0 113.234 39.7252 0 115.593 40.5528 0 117.952 41.3804 0 120.311 42.208 0 122.67 43.0356 0 125.029 43.8633 0 127.388 44.6909 0 129.747 45.5185 0 132.106 46.3461 0 134.465 47.1737 0 136.824 48.0013 0 139.183 48.8289 0 141.542 49.6565 0 143.901 50.4841 0 146.26 51.3117 0 148.619 52.1393 0 150.978 52.9669 0 153.338 53.7946 0 155.697 54.6222 0 158.056 55.4498 0 160.415 56.2774 0 162.774 57.105 0 165.133 57.9326 0 167.492 58.7602 0 169.851 59.5878 0 172.21 60.4154 0 174.569 61.243 0 176.928 62.0706 0 179.287 62.8982 0 181.646 63.7259 0 184.005 64.5535 0 186.364 65.3811 0 188.723 66.2087 0 92.9788 36.8095 0 95.3033 37.7297 0 97.6278 38.6499 0 99.9522 39.5702 0 102.277 40.4904 0 104.601 41.4107 0 106.926 42.3309 0 109.25 43.2511 0 111.575 44.1714 0 113.899 45.0916 0 116.224 46.0118 0 118.548 46.9321 0 120.872 47.8523 0 123.197 48.7725 0 125.521 49.6928 0 127.846 50.613 0 130.17 51.5333 0 132.495 52.4535 0 134.819 53.3737 0 137.144 54.294 0 139.468 55.2142 0 141.793 56.1344 0 144.117 57.0547 0 146.442 57.9749 0 148.766 58.8952 0 151.091 59.8154 0 153.415 60.7356 0 155.74 61.6559 0 158.064 62.5761 0 160.388 63.4963 0 162.713 64.4166 0 165.037 65.3368 0 167.362 66.257 0 169.686 67.1773 0 172.011 68.0975 0 174.335 69.0178 0 176.66 69.938 0 178.984 70.8582 0 181.309 71.7785 0 183.633 72.6987 0 185.958 73.6189 0 91.4375 40.4869 0 93.7234 41.4991 0 96.0093 42.5112 0 98.2953 43.5234 0 100.581 44.5356 0 102.867 45.5478 0 105.153 46.5599 0 107.439 47.5721 0 109.725 48.5843 0 112.011 49.5964 0 114.297 50.6086 0 116.583 51.6208 0 118.869 52.633 0 121.155 53.6451 0 123.441 54.6573 0 125.727 55.6695 0 128.012 56.6817 0 130.298 57.6938 0 132.584 58.706 0 134.87 59.7182 0 137.156 60.7303 0 139.442 61.7425 0 141.728 62.7547 0 144.014 63.7669 0 146.3 64.779 0 148.586 65.7912 0 150.872 66.8034 0 153.158 67.8155 0 155.444 68.8277 0 157.73 69.8399 0 160.016 70.8521 0 162.302 71.8642 0 164.587 72.8764 0 166.873 73.8886 0 169.159 74.9008 0 171.445 75.9129 0 173.731 76.9251 0 176.017 77.9373 0 178.303 78.9494 0 180.589 79.9616 0 182.875 80.9738 0 89.7376 44.1267 0 91.981 45.2299 0 94.2244 46.3331 0 96.4679 47.4362 0 98.7113 48.5394 0 100.955 49.6426 0 103.198 50.7458 0 105.442 51.8489 0 107.685 52.9521 0 109.929 54.0553 0 112.172 55.1584 0 114.415 56.2616 0 116.659 57.3648 0 118.902 58.4679 0 121.146 59.5711 0 123.389 60.6743 0 125.633 61.7774 0 127.876 62.8806 0 130.119 63.9838 0 132.363 65.0869 0 134.606 66.1901 0 136.85 67.2933 0 139.093 68.3965 0 141.337 69.4996 0 143.58 70.6028 0 145.824 71.706 0 148.067 72.8091 0 150.31 73.9123 0 152.554 75.0155 0 154.797 76.1186 0 157.041 77.2218 0 159.284 78.325 0 161.528 79.4281 0 163.771 80.5313 0 166.014 81.6345 0 168.258 82.7376 0 170.501 83.8408 0 172.745 84.944 0 174.988 86.0471 0 177.232 87.1503 0 179.475 88.2535 0 87.88 47.719 0 90.077 48.912 0 92.274 50.105 0 94.471 51.298 0 96.668 52.4909 0 98.865 53.6839 0 101.062 54.8769 0 103.259 56.0699 0 105.456 57.2628 0 107.653 58.4558 0 109.85 59.6488 0 112.047 60.8418 0 114.244 62.0347 0 116.441 63.2277 0 118.638 64.4207 0 120.835 65.6137 0 123.032 66.8066 0 125.229 67.9996 0 127.426 69.1926 0 129.623 70.3856 0 131.82 71.5786 0 134.017 72.7715 0 136.214 73.9645 0 138.411 75.1575 0 140.608 76.3505 0 142.805 77.5434 0 145.002 78.7364 0 147.199 79.9294 0 149.396 81.1224 0 151.593 82.3153 0 153.79 83.5083 0 155.987 84.7013 0 158.184 85.8943 0 160.381 87.0872 0 162.578 88.2802 0 164.775 89.4732 0 166.972 90.6662 0 169.169 91.8591 0 171.366 93.0521 0 173.563 94.2451 0 175.76 95.4381 0 85.8665 51.2538 0 88.0131 52.5351 0 90.1598 53.8165 0 92.3065 55.0978 0 94.4531 56.3791 0 96.5998 57.6605 0 98.7464 58.9418 0 100.893 60.2232 0 103.04 61.5045 0 105.186 62.7859 0 107.333 64.0672 0 109.48 65.3485 0 111.626 66.6299 0 113.773 67.9112 0 115.92 69.1926 0 118.066 70.4739 0 120.213 71.7553 0 122.36 73.0366 0 124.506 74.318 0 126.653 75.5993 0 128.8 76.8806 0 130.946 78.162 0 133.093 79.4433 0 135.24 80.7247 0 137.386 82.006 0 139.533 83.2874 0 141.68 84.5687 0 143.826 85.8501 0 145.973 87.1314 0 148.12 88.4127 0 150.266 89.6941 0 152.413 90.9754 0 154.56 92.2568 0 156.706 93.5381 0 158.853 94.8195 0 161 96.1008 0 163.146 97.3822 0 165.293 98.6635 0 167.44 99.9448 0 169.586 101.226 0 171.733 102.508 0 83.6996 54.721 0 85.792 56.089 0 87.8845 57.457 0 89.977 58.825 0 92.0695 60.1931 0 94.162 61.5611 0 96.2545 62.9291 0 98.347 64.2971 0 100.439 65.6652 0 102.532 67.0332 0 104.624 68.4012 0 106.717 69.7692 0 108.809 71.1373 0 110.902 72.5053 0 112.994 73.8733 0 115.087 75.2413 0 117.179 76.6094 0 119.272 77.9774 0 121.364 79.3454 0 123.457 80.7134 0 125.549 82.0815 0 127.642 83.4495 0 129.734 84.8175 0 131.827 86.1855 0 133.919 87.5536 0 136.012 88.9216 0 138.104 90.2896 0 140.197 91.6576 0 142.289 93.0257 0 144.382 94.3937 0 146.474 95.7617 0 148.567 97.1297 0 150.659 98.4978 0 152.752 99.8658 0 154.844 101.234 0 156.937 102.602 0 159.029 103.97 0 161.122 105.338 0 163.214 106.706 0 165.307 108.074 0 167.399 109.442 0 81.3826 58.1109 0 83.4172 59.5636 0 85.4517 61.0164 0 87.4863 62.4692 0 89.5209 63.9219 0 91.5554 65.3747 0 93.59 66.8275 0 95.6246 68.2803 0 97.6591 69.733 0 99.6937 71.1858 0 101.728 72.6386 0 103.763 74.0913 0 105.797 75.5441 0 107.832 76.9969 0 109.867 78.4497 0 111.901 79.9024 0 113.936 81.3552 0 115.97 82.808 0 118.005 84.2607 0 120.039 85.7135 0 122.074 87.1663 0 124.108 88.6191 0 126.143 90.0718 0 128.178 91.5246 0 130.212 92.9774 0 132.247 94.4301 0 134.281 95.8829 0 136.316 97.3357 0 138.35 98.7885 0 140.385 100.241 0 142.42 101.694 0 144.454 103.147 0 146.489 104.6 0 148.523 106.052 0 150.558 107.505 0 152.592 108.958 0 154.627 110.411 0 156.662 111.863 0 158.696 113.316 0 160.731 114.769 0 162.765 116.222 0 78.9198 61.4138 0 80.8928 62.9492 0 82.8658 64.4845 0 84.8388 66.0199 0 86.8118 67.5552 0 88.7848 69.0906 0 90.7578 70.6259 0 92.7308 72.1612 0 94.7038 73.6966 0 96.6768 75.2319 0 98.6498 76.7673 0 100.623 78.3026 0 102.596 79.838 0 104.569 81.3733 0 106.542 82.9087 0 108.515 84.444 0 110.488 85.9794 0 112.461 87.5147 0 114.434 89.0501 0 116.407 90.5854 0 118.38 92.1207 0 120.353 93.6561 0 122.326 95.1914 0 124.299 96.7268 0 126.272 98.2621 0 128.245 99.7975 0 130.218 101.333 0 132.191 102.868 0 134.164 104.404 0 136.137 105.939 0 138.11 107.474 0 140.083 109.01 0 142.056 110.545 0 144.029 112.08 0 146.002 113.616 0 147.975 115.151 0 149.948 116.686 0 151.921 118.222 0 153.894 119.757 0 155.867 121.292 0 157.84 122.828 0 76.3163 64.6206 0 78.2242 66.2361 0 80.1321 67.8517 0 82.04 69.4672 0 83.9479 71.0827 0 85.8558 72.6982 0 87.7637 74.3137 0 89.6716 75.9292 0 91.5795 77.5447 0 93.4874 79.1603 0 95.3954 80.7758 0 97.3033 82.3913 0 99.2112 84.0068 0 101.119 85.6223 0 103.027 87.2378 0 104.935 88.8534 0 106.843 90.4689 0 108.751 92.0844 0 110.659 93.6999 0 112.567 95.3154 0 114.474 96.9309 0 116.382 98.5464 0 118.29 100.162 0 120.198 101.777 0 122.106 103.393 0 124.014 105.009 0 125.922 106.624 0 127.83 108.24 0 129.738 109.855 0 131.646 111.471 0 133.553 113.086 0 135.461 114.702 0 137.369 116.317 0 139.277 117.933 0 141.185 119.548 0 143.093 121.164 0 145.001 122.779 0 146.909 124.395 0 148.817 126.01 0 150.725 127.626 0 152.633 129.241 0 73.5777 67.7224 0 75.4172 69.4154 0 77.2566 71.1085 0 79.096 72.8015 0 80.9355 74.4946 0 82.7749 76.1877 0 84.6144 77.8807 0 86.4538 79.5738 0 88.2933 81.2668 0 90.1327 82.9599 0 91.9722 84.653 0 93.8116 86.346 0 95.651 88.0391 0 97.4905 89.7321 0 99.3299 91.4252 0 101.169 93.1183 0 103.009 94.8113 0 104.848 96.5044 0 106.688 98.1974 0 108.527 99.8905 0 110.367 101.584 0 112.206 103.277 0 114.045 104.97 0 115.885 106.663 0 117.724 108.356 0 119.564 110.049 0 121.403 111.742 0 123.243 113.435 0 125.082 115.128 0 126.922 116.821 0 128.761 118.514 0 130.6 120.207 0 132.44 121.9 0 134.279 123.593 0 136.119 125.286 0 137.958 126.979 0 139.798 128.672 0 141.637 130.366 0 143.477 132.059 0 145.316 133.752 0 147.155 135.445 0 70.7107 70.7107 0 72.4784 72.4784 0 74.2462 74.2462 0 76.014 76.014 0 77.7817 77.7817 0 79.5495 79.5495 0 81.3173 81.3173 0 83.085 83.085 0 84.8528 84.8528 0 86.6206 86.6206 0 88.3883 88.3883 0 90.1561 90.1561 0 91.9239 91.9239 0 93.6916 93.6916 0 95.4594 95.4594 0 97.2272 97.2272 0 98.9949 98.9949 0 100.763 100.763 0 102.53 102.53 0 104.298 104.298 0 106.066 106.066 0 107.834 107.834 0 109.602 109.602 0 111.369 111.369 0 113.137 113.137 0 114.905 114.905 0 116.673 116.673 0 118.44 118.44 0 120.208 120.208 0 121.976 121.976 0 123.744 123.744 0 125.511 125.511 0 127.279 127.279 0 129.047 129.047 0 130.815 130.815 0 132.583 132.583 0 134.35 134.35 0 136.118 136.118 0 137.886 137.886 0 139.654 139.654 0 141.421 141.421 0 67.7224 73.5777 0 69.4154 75.4172 0 71.1085 77.2566 0 72.8015 79.096 0 74.4946 80.9355 0 76.1877 82.7749 0 77.8807 84.6144 0 79.5738 86.4538 0 81.2668 88.2933 0 82.9599 90.1327 0 84.653 91.9722 0 86.346 93.8116 0 88.0391 95.651 0 89.7321 97.4905 0 91.4252 99.3299 0 93.1183 101.169 0 94.8113 103.009 0 96.5044 104.848 0 98.1974 106.688 0 99.8905 108.527 0 101.584 110.367 0 103.277 112.206 0 104.97 114.045 0 106.663 115.885 0 108.356 117.724 0 110.049 119.564 0 111.742 121.403 0 113.435 123.243 0 115.128 125.082 0 116.821 126.922 0 118.514 128.761 0 120.207 130.6 0 121.9 132.44 0 123.593 134.279 0 125.286 136.119 0 126.979 137.958 0 128.672 139.798 0 130.366 141.637 0 132.059 143.477 0 133.752 145.316 0 135.445 147.155 0 64.6206 76.3163 0 66.2361 78.2242 0 67.8517 80.1321 0 69.4672 82.04 0 71.0827 83.9479 0 72.6982 85.8558 0 74.3137 87.7637 0 75.9292 89.6716 0 77.5447 91.5795 0 79.1603 93.4874 0 80.7758 95.3954 0 82.3913 97.3033 0 84.0068 99.2112 0 85.6223 101.119 0 87.2378 103.027 0 88.8534 104.935 0 90.4689 106.843 0 92.0844 108.751 0 93.6999 110.659 0 95.3154 112.567 0 96.9309 114.474 0 98.5464 116.382 0 100.162 118.29 0 101.777 120.198 0 103.393 122.106 0 105.009 124.014 0 106.624 125.922 0 108.24 127.83 0 109.855 129.738 0 111.471 131.646 0 113.086 133.553 0 114.702 135.461 0 116.317 137.369 0 117.933 139.277 0 119.548 141.185 0 121.164 143.093 0 122.779 145.001 0 124.395 146.909 0 126.01 148.817 0 127.626 150.725 0 129.241 152.633 0 61.4138 78.9198 0 62.9492 80.8928 0 64.4845 82.8658 0 66.0199 84.8388 0 67.5552 86.8118 0 69.0906 88.7848 0 70.6259 90.7578 0 72.1612 92.7308 0 73.6966 94.7038 0 75.2319 96.6768 0 76.7673 98.6498 0 78.3026 100.623 0 79.838 102.596 0 81.3733 104.569 0 82.9087 106.542 0 84.444 108.515 0 85.9794 110.488 0 87.5147 112.461 0 89.0501 114.434 0 90.5854 116.407 0 92.1207 118.38 0 93.6561 120.353 0 95.1914 122.326 0 96.7268 124.299 0 98.2621 126.272 0 99.7975 128.245 0 101.333 130.218 0 102.868 132.191 0 104.404 134.164 0 105.939 136.137 0 107.474 138.11 0 109.01 140.083 0 110.545 142.056 0 112.08 144.029 0 113.616 146.002 0 115.151 147.975 0 116.686 149.948 0 118.222 151.921 0 119.757 153.894 0 121.292 155.867 0 122.828 157.84 0 58.1109 81.3826 0 59.5636 83.4172 0 61.0164 85.4517 0 62.4692 87.4863 0 63.9219 89.5209 0 65.3747 91.5554 0 66.8275 93.59 0 68.2803 95.6246 0 69.733 97.6591 0 71.1858 99.6937 0 72.6386 101.728 0 74.0913 103.763 0 75.5441 105.797 0 76.9969 107.832 0 78.4497 109.867 0 79.9024 111.901 0 81.3552 113.936 0 82.808 115.97 0 84.2607 118.005 0 85.7135 120.039 0 87.1663 122.074 0 88.6191 124.108 0 90.0718 126.143 0 91.5246 128.178 0 92.9774 130.212 0 94.4301 132.247 0 95.8829 134.281 0 97.3357 136.316 0 98.7885 138.35 0 100.241 140.385 0 101.694 142.42 0 103.147 144.454 0 104.6 146.489 0 106.052 148.523 0 107.505 150.558 0 108.958 152.592 0 110.411 154.627 0 111.863 156.662 0 113.316 158.696 0 114.769 160.731 0 116.222 162.765 0 54.721 83.6996 0 56.089 85.792 0 57.457 87.8845 0 58.825 89.977 0 60.1931 92.0695 0 61.5611 94.162 0 62.9291 96.2545 0 64.2971 98.347 0 65.6652 100.439 0 67.0332 102.532 0 68.4012 104.624 0 69.7692 106.717 0 71.1373 108.809 0 72.5053 110.902 0 73.8733 112.994 0 75.2413 115.087 0 76.6094 117.179 0 77.9774 119.272 0 79.3454 121.364 0 80.7134 123.457 0 82.0815 125.549 0 83.4495 127.642 0 84.8175 129.734 0 86.1855 131.827 0 87.5536 133.919 0 88.9216 136.012 0 90.2896 138.104 0 91.6576 140.197 0 93.0257 142.289 0 94.3937 144.382 0 95.7617 146.474 0 97.1297 148.567 0 98.4978 150.659 0 99.8658 152.752 0 101.234 154.844 0 102.602 156.937 0 103.97 159.029 0 105.338 161.122 0 106.706 163.214 0 108.074 165.307 0 109.442 167.399 0 51.2538 85.8665 0 52.5351 88.0131 0 53.8165 90.1598 0 55.0978 92.3065 0 56.3791 94.4531 0 57.6605 96.5998 0 58.9418 98.7464 0 60.2232 100.893 0 61.5045 103.04 0 62.7859 105.186 0 64.0672 107.333 0 65.3485 109.48 0 66.6299 111.626 0 67.9112 113.773 0 69.1926 115.92 0 70.4739 118.066 0 71.7553 120.213 0 73.0366 122.36 0 74.318 124.506 0 75.5993 126.653 0 76.8806 128.8 0 78.162 130.946 0 79.4433 133.093 0 80.7247 135.24 0 82.006 137.386 0 83.2874 139.533 0 84.5687 141.68 0 85.8501 143.826 0 87.1314 145.973 0 88.4127 148.12 0 89.6941 150.266 0 90.9754 152.413 0 92.2568 154.56 0 93.5381 156.706 0 94.8195 158.853 0 96.1008 161 0 97.3822 163.146 0 98.6635 165.293 0 99.9448 167.44 0 101.226 169.586 0 102.508 171.733 0 47.719 87.88 0 48.912 90.077 0 50.105 92.274 0 51.298 94.471 0 52.4909 96.668 0 53.6839 98.865 0 54.8769 101.062 0 56.0699 103.259 0 57.2628 105.456 0 58.4558 107.653 0 59.6488 109.85 0 60.8418 112.047 0 62.0347 114.244 0 63.2277 116.441 0 64.4207 118.638 0 65.6137 120.835 0 66.8066 123.032 0 67.9996 125.229 0 69.1926 127.426 0 70.3856 129.623 0 71.5786 131.82 0 72.7715 134.017 0 73.9645 136.214 0 75.1575 138.411 0 76.3505 140.608 0 77.5434 142.805 0 78.7364 145.002 0 79.9294 147.199 0 81.1224 149.396 0 82.3153 151.593 0 83.5083 153.79 0 84.7013 155.987 0 85.8943 158.184 0 87.0872 160.381 0 88.2802 162.578 0 89.4732 164.775 0 90.6662 166.972 0 91.8591 169.169 0 93.0521 171.366 0 94.2451 173.563 0 95.4381 175.76 0 44.1267 89.7376 0 45.2299 91.981 0 46.3331 94.2244 0 47.4362 96.4679 0 48.5394 98.7113 0 49.6426 100.955 0 50.7458 103.198 0 51.8489 105.442 0 52.9521 107.685 0 54.0553 109.929 0 55.1584 112.172 0 56.2616 114.415 0 57.3648 116.659 0 58.4679 118.902 0 59.5711 121.146 0 60.6743 123.389 0 61.7774 125.633 0 62.8806 127.876 0 63.9838 130.119 0 65.0869 132.363 0 66.1901 134.606 0 67.2933 136.85 0 68.3965 139.093 0 69.4996 141.337 0 70.6028 143.58 0 71.706 145.824 0 72.8091 148.067 0 73.9123 150.31 0 75.0155 152.554 0 76.1186 154.797 0 77.2218 157.041 0 78.325 159.284 0 79.4281 161.528 0 80.5313 163.771 0 81.6345 166.014 0 82.7376 168.258 0 83.8408 170.501 0 84.944 172.745 0 86.0471 174.988 0 87.1503 177.232 0 88.2535 179.475 0 40.4869 91.4375 0 41.4991 93.7234 0 42.5112 96.0093 0 43.5234 98.2953 0 44.5356 100.581 0 45.5478 102.867 0 46.5599 105.153 0 47.5721 107.439 0 48.5843 109.725 0 49.5964 112.011 0 50.6086 114.297 0 51.6208 116.583 0 52.633 118.869 0 53.6451 121.155 0 54.6573 123.441 0 55.6695 125.727 0 56.6817 128.012 0 57.6938 130.298 0 58.706 132.584 0 59.7182 134.87 0 60.7303 137.156 0 61.7425 139.442 0 62.7547 141.728 0 63.7669 144.014 0 64.779 146.3 0 65.7912 148.586 0 66.8034 150.872 0 67.8155 153.158 0 68.8277 155.444 0 69.8399 157.73 0 70.8521 160.016 0 71.8642 162.302 0 72.8764 164.587 0 73.8886 166.873 0 74.9008 169.159 0 75.9129 171.445 0 76.9251 173.731 0 77.9373 176.017 0 78.9494 178.303 0 79.9616 180.589 0 80.9738 182.875 0 36.8095 92.9788 0 37.7297 95.3033 0 38.6499 97.6278 0 39.5702 99.9522 0 40.4904 102.277 0 41.4107 104.601 0 42.3309 106.926 0 43.2511 109.25 0 44.1714 111.575 0 45.0916 113.899 0 46.0118 116.224 0 46.9321 118.548 0 47.8523 120.872 0 48.7725 123.197 0 49.6928 125.521 0 50.613 127.846 0 51.5333 130.17 0 52.4535 132.495 0 53.3737 134.819 0 54.294 137.144 0 55.2142 139.468 0 56.1344 141.793 0 57.0547 144.117 0 57.9749 146.442 0 58.8952 148.766 0 59.8154 151.091 0 60.7356 153.415 0 61.6559 155.74 0 62.5761 158.064 0 63.4963 160.388 0 64.4166 162.713 0 65.3368 165.037 0 66.257 167.362 0 67.1773 169.686 0 68.0975 172.011 0 69.0178 174.335 0 69.938 176.66 0 70.8582 178.984 0 71.7785 181.309 0 72.6987 183.633 0 73.6189 185.958 0 33.1043 94.3616 0 33.932 96.7206 0 34.7596 99.0796 0 35.5872 101.439 0 36.4148 103.798 0 37.2424 106.157 0 38.07 108.516 0 38.8976 110.875 0 39.7252 113.234 0 40.5528 115.593 0 41.3804 117.952 0 42.208 120.311 0 43.0356 122.67 0 43.8633 125.029 0 44.6909 127.388 0 45.5185 129.747 0 46.3461 132.106 0 47.1737 134.465 0 48.0013 136.824 0 48.8289 139.183 0 49.6565 141.542 0 50.4841 143.901 0 51.3117 146.26 0 52.1393 148.619 0 52.9669 150.978 0 53.7946 153.338 0 54.6222 155.697 0 55.4498 158.056 0 56.2774 160.415 0 57.105 162.774 0 57.9326 165.133 0 58.7602 167.492 0 59.5878 169.851 0 60.4154 172.21 0 61.243 174.569 0 62.0706 176.928 0 62.8982 179.287 0 63.7259 181.646 0 64.5535 184.005 0 65.3811 186.364 0 66.2087 188.723 0 29.3812 95.5863 0 30.1157 97.976 0 30.8503 100.366 0 31.5848 102.755 0 32.3193 105.145 0 33.0538 107.535 0 33.7884 109.924 0 34.5229 112.314 0 35.2574 114.704 0 35.992 117.093 0 36.7265 119.483 0 37.461 121.873 0 38.1956 124.262 0 38.9301 126.652 0 39.6646 129.042 0 40.3991 131.431 0 41.1337 133.821 0 41.8682 136.211 0 42.6027 138.6 0 43.3373 140.99 0 44.0718 143.379 0 44.8063 145.769 0 45.5409 148.159 0 46.2754 150.548 0 47.0099 152.938 0 47.7444 155.328 0 48.479 157.717 0 49.2135 160.107 0 49.948 162.497 0 50.6826 164.886 0 51.4171 167.276 0 52.1516 169.666 0 52.8861 172.055 0 53.6207 174.445 0 54.3552 176.835 0 55.0897 179.224 0 55.8243 181.614 0 56.5588 184.004 0 57.2933 186.393 0 58.0279 188.783 0 58.7624 191.173 0 25.6495 96.6546 0 26.2907 99.0709 0 26.9319 101.487 0 27.5732 103.904 0 28.2144 106.32 0 28.8556 108.736 0 29.4969 111.153 0 30.1381 113.569 0 30.7793 115.985 0 31.4206 118.402 0 32.0618 120.818 0 32.7031 123.235 0 33.3443 125.651 0 33.9855 128.067 0 34.6268 130.484 0 35.268 132.9 0 35.9092 135.316 0 36.5505 137.733 0 37.1917 140.149 0 37.833 142.565 0 38.4742 144.982 0 39.1154 147.398 0 39.7567 149.815 0 40.3979 152.231 0 41.0391 154.647 0 41.6804 157.064 0 42.3216 159.48 0 42.9628 161.896 0 43.6041 164.313 0 44.2453 166.729 0 44.8866 169.145 0 45.5278 171.562 0 46.169 173.978 0 46.8103 176.395 0 47.4515 178.811 0 48.0927 181.227 0 48.734 183.644 0 49.3752 186.06 0 50.0164 188.476 0 50.6577 190.893 0 51.2989 193.309 0 21.9182 97.5684 0 22.4662 100.008 0 23.0142 102.447 0 23.5621 104.886 0 24.1101 107.325 0 24.658 109.764 0 25.206 112.204 0 25.7539 114.643 0 26.3019 117.082 0 26.8499 119.521 0 27.3978 121.96 0 27.9458 124.4 0 28.4937 126.839 0 29.0417 129.278 0 29.5896 131.717 0 30.1376 134.157 0 30.6855 136.596 0 31.2335 139.035 0 31.7815 141.474 0 32.3294 143.913 0 32.8774 146.353 0 33.4253 148.792 0 33.9733 151.231 0 34.5212 153.67 0 35.0692 156.109 0 35.6172 158.549 0 36.1651 160.988 0 36.7131 163.427 0 37.261 165.866 0 37.809 168.305 0 38.3569 170.745 0 38.9049 173.184 0 39.4528 175.623 0 40.0008 178.062 0 40.5488 180.502 0 41.0967 182.941 0 41.6447 185.38 0 42.1926 187.819 0 42.7406 190.258 0 43.2885 192.698 0 43.8365 195.137 0 18.1963 98.3305 0 18.6512 100.789 0 19.1061 103.247 0 19.561 105.705 0 20.0159 108.164 0 20.4708 110.622 0 20.9258 113.08 0 21.3807 115.538 0 21.8356 117.997 0 22.2905 120.455 0 22.7454 122.913 0 23.2003 125.371 0 23.6552 127.83 0 24.1101 130.288 0 24.565 132.746 0 25.0199 135.204 0 25.4748 137.663 0 25.9297 140.121 0 26.3846 142.579 0 26.8396 145.038 0 27.2945 147.496 0 27.7494 149.954 0 28.2043 152.412 0 28.6592 154.871 0 29.1141 157.329 0 29.569 159.787 0 30.0239 162.245 0 30.4788 164.704 0 30.9337 167.162 0 31.3886 169.62 0 31.8435 172.078 0 32.2984 174.537 0 32.7533 176.995 0 33.2083 179.453 0 33.6632 181.911 0 34.1181 184.37 0 34.573 186.828 0 35.0279 189.286 0 35.4828 191.745 0 35.9377 194.203 0 36.3926 196.661 0 14.4919 98.9443 0 14.8542 101.418 0 15.2165 103.892 0 15.5788 106.365 0 15.9411 108.839 0 16.3034 111.312 0 16.6657 113.786 0 17.028 116.26 0 17.3903 118.733 0 17.7526 121.207 0 18.1149 123.68 0 18.4772 126.154 0 18.8395 128.628 0 19.2018 131.101 0 19.5641 133.575 0 19.9264 136.048 0 20.2887 138.522 0 20.651 140.996 0 21.0133 143.469 0 21.3756 145.943 0 21.7379 148.417 0 22.1002 150.89 0 22.4625 153.364 0 22.8248 155.837 0 23.1871 158.311 0 23.5494 160.785 0 23.9117 163.258 0 24.274 165.732 0 24.6363 168.205 0 24.9986 170.679 0 25.3609 173.153 0 25.7232 175.626 0 26.0855 178.1 0 26.4478 180.573 0 26.8101 183.047 0 27.1724 185.521 0 27.5347 187.994 0 27.897 190.468 0 28.2593 192.941 0 28.6216 195.415 0 28.9839 197.889 0 10.813 99.4137 0 11.0834 101.899 0 11.3537 104.384 0 11.624 106.87 0 11.8943 109.355 0 12.1647 111.84 0 12.435 114.326 0 12.7053 116.811 0 12.9756 119.296 0 13.246 121.782 0 13.5163 124.267 0 13.7866 126.752 0 14.0569 129.238 0 14.3273 131.723 0 14.5976 134.208 0 14.8679 136.694 0 15.1383 139.179 0 15.4086 141.664 0 15.6789 144.15 0 15.9492 146.635 0 16.2196 149.121 0 16.4899 151.606 0 16.7602 154.091 0 17.0305 156.577 0 17.3009 159.062 0 17.5712 161.547 0 17.8415 164.033 0 18.1118 166.518 0 18.3822 169.003 0 18.6525 171.489 0 18.9228 173.974 0 19.1931 176.459 0 19.4635 178.945 0 19.7338 181.43 0 20.0041 183.915 0 20.2744 186.401 0 20.5448 188.886 0 20.8151 191.371 0 21.0854 193.857 0 21.3557 196.342 0 21.6261 198.827 0 7.16693 99.7428 0 7.34611 102.236 0 7.52528 104.73 0 7.70445 107.224 0 7.88363 109.717 0 8.0628 112.211 0 8.24197 114.704 0 8.42115 117.198 0 8.60032 119.691 0 8.77949 122.185 0 8.95867 124.679 0 9.13784 127.172 0 9.31701 129.666 0 9.49619 132.159 0 9.67536 134.653 0 9.85453 137.146 0 10.0337 139.64 0 10.2129 142.134 0 10.3921 144.627 0 10.5712 147.121 0 10.7504 149.614 0 10.9296 152.108 0 11.1087 154.601 0 11.2879 157.095 0 11.4671 159.589 0 11.6463 162.082 0 11.8254 164.576 0 12.0046 167.069 0 12.1838 169.563 0 12.363 172.056 0 12.5421 174.55 0 12.7213 177.044 0 12.9005 179.537 0 13.0797 182.031 0 13.2588 184.524 0 13.438 187.018 0 13.6172 189.511 0 13.7963 192.005 0 13.9755 194.499 0 14.1547 196.992 0 14.3339 199.486 0 3.56048 99.9366 0 3.6495 102.435 0 3.73851 104.933 0 3.82752 107.432 0 3.91653 109.93 0 4.00554 112.429 0 4.09456 114.927 0 4.18357 117.425 0 4.27258 119.924 0 4.36159 122.422 0 4.45061 124.921 0 4.53962 127.419 0 4.62863 129.918 0 4.71764 132.416 0 4.80665 134.914 0 4.89567 137.413 0 4.98468 139.911 0 5.07369 142.41 0 5.1627 144.908 0 5.25171 147.406 0 5.34073 149.905 0 5.42974 152.403 0 5.51875 154.902 0 5.60776 157.4 0 5.69677 159.899 0 5.78579 162.397 0 5.8748 164.895 0 5.96381 167.394 0 6.05282 169.892 0 6.14184 172.391 0 6.23085 174.889 0 6.31986 177.387 0 6.40887 179.886 0 6.49788 182.384 0 6.5869 184.883 0 6.67591 187.381 0 6.76492 189.88 0 6.85393 192.378 0 6.94294 194.876 0 7.03196 197.375 0 7.12097 199.873 0 0 100 0 0 102.5 0 0 105 0 0 107.5 0 0 110 0 0 112.5 0 0 115 0 0 117.5 0 0 120 0 0 122.5 0 0 125 0 0 127.5 0 0 130 0 0 132.5 0 0 135 0 0 137.5 0 0 140 0 0 142.5 0 0 145 0 0 147.5 0 0 150 0 0 152.5 0 0 155 0 0 157.5 0 0 160 0 0 162.5 0 0 165 0 0 167.5 0 0 170 0 0 172.5 0 0 175 0 0 177.5 0 0 180 0 0 182.5 0 0 185 0 0 187.5 0 0 190 0 0 192.5 0 0 195 0 0 197.5 0 0 200 0 
</DataArray>
</Points> 
</Piece> 
</StructuredGrid> 
</VTKFile> 
