<?xml version="1.0"?> 
<VTKFile type="StructuredGrid" version="0.1"> 
<StructuredGrid WholeExtent="0 40 0 40 0 0"> 
<Piece Extent="0 40 0 40 0 0"> 
<PointData>
<DataArray type="Float32" Name="plastic_strain_2" format="ascii" NumberOfComponents="1"> 
0.00188181 0.00174203 0.00160987 0.00148534 0.00136844 0.00125917 0.00115634 0.00105877 0.00096647 0.000879431 0.000797654 0.000720743 0.000648297 0.000580319 0.000516806 0.00045776 0.000401389 0.000345901 0.000291295 0.000237572 0.000184732 0.000136142 9.51701e-05 6.18153e-05 3.6078e-05 1.79582e-05 5.59554e-06 -2.87042e-06 -7.43967e-06 -8.11223e-06 -4.88808e-06 -5.01157e-07 2.31463e-06 3.55927e-06 3.23277e-06 1.33513e-06 -7.67234e-07 -1.70789e-06 -1.48685e-06 -1.04109e-07 2.44034e-06 0.001876 0.00173578 0.00160334 0.00147868 0.0013618 0.0012527 0.00115014 0.00105287 0.000960889 0.000874195 0.000792789 0.000716251 0.00064416 0.000576518 0.000513322 0.000454575 0.000398477 0.00034323 0.000288835 0.000235291 0.000182599 0.00013417 9.34165e-05 6.03395e-05 3.49384e-05 1.72132e-05 5.22324e-06 -2.97242e-06 -7.37375e-06 -7.98075e-06 -4.79342e-06 -4.81544e-07 2.28512e-06 3.50655e-06 3.18277e-06 1.31377e-06 -7.55956e-07 -1.6819e-06 -1.46407e-06 -1.02454e-07 2.40294e-06 0.00185949 0.00171976 0.00158789 0.00146388 0.00134775 0.00123948 0.00113779 0.00104137 0.000950231 0.000864366 0.000783779 0.000708032 0.000636688 0.000569748 0.000507212 0.000449079 0.000393557 0.000338853 0.000284968 0.0002319 0.000179652 0.000131652 9.13341e-05 5.86968e-05 3.37405e-05 1.64652e-05 4.87151e-06 -3.04001e-06 -7.26933e-06 -7.81644e-06 -4.68135e-06 -4.61667e-07 2.24501e-06 3.43867e-06 3.11932e-06 1.28696e-06 -7.41396e-07 -1.64874e-06 -1.43506e-06 -1.00373e-07 2.35533e-06 0.00183229 0.00169397 0.00156353 0.00144097 0.0013263 0.00121951 0.00111927 0.00102427 0.000934494 0.000849946 0.000770626 0.000696087 0.000625882 0.000560011 0.000498474 0.000441272 0.000386628 0.000332768 0.000279692 0.0002274 0.000175891 0.000128591 8.89228e-05 5.68874e-05 3.24845e-05 1.57142e-05 4.54034e-06 -3.0732e-06 -7.12642e-06 -7.61931e-06 -4.55187e-06 -4.41524e-07 2.19431e-06 3.35562e-06 3.04242e-06 1.25471e-06 -7.23554e-07 -1.6084e-06 -1.39984e-06 -9.78663e-08 2.29752e-06 0.0017944 0.00165841 0.00153025 0.00140993 0.00129743 0.00119277 0.0010946 0.00100157 0.000913679 0.000830932 0.000753328 0.000680415 0.000611741 0.000547306 0.00048711 0.000431154 0.000377692 0.000324977 0.000273009 0.00022179 0.000171318 0.000124985 8.61826e-05 5.49111e-05 3.11703e-05 1.49602e-05 4.22975e-06 -3.07198e-06 -6.94501e-06 -7.38934e-06 -4.40497e-06 -4.21117e-07 2.13301e-06 3.25741e-06 2.95207e-06 1.21701e-06 -7.02429e-07 -1.5609e-06 -1.3584e-06 -9.49327e-08 2.22951e-06 0.00174581 0.00161308 0.00148806 0.00137076 0.00126116 0.00115928 0.00106376 0.000973265 0.000887786 0.000807327 0.000731887 0.000661016 0.000594265 0.000531632 0.000473119 0.000418726 0.000366747 0.000315478 0.000264919 0.00021507 0.000165931 0.000120834 8.31135e-05 5.2768e-05 2.97979e-05 1.42031e-05 3.93973e-06 -3.03635e-06 -6.72511e-06 -7.12655e-06 -4.24066e-06 -4.00445e-07 2.06112e-06 3.14402e-06 2.84827e-06 1.17387e-06 -6.78021e-07 -1.50622e-06 -1.31074e-06 -9.15729e-08 2.15128e-06 0.00168652 0.00155798 0.00143696 0.00132346 0.00121749 0.00111903 0.00102677 0.000939362 0.000856816 0.000779129 0.000706302 0.000637891 0.000573454 0.000512991 0.000456502 0.000403986 0.000353793 0.000304271 0.00025542 0.00020724 0.00015973 0.00011614 7.97156e-05 5.04581e-05 2.83673e-05 1.34431e-05 3.67028e-06 -2.96631e-06 -6.46671e-06 -6.83092e-06 -4.05894e-06 -3.79508e-07 1.97863e-06 3.01547e-06 2.73102e-06 1.12528e-06 -6.50331e-07 -1.44438e-06 -1.25686e-06 -8.77866e-08 2.06285e-06 0.00161654 0.00149311 0.00137695 0.00126804 0.0011664 0.00107203 0.00098361 0.000899858 0.000820767 0.000746339 0.000676572 0.000611039 0.000549308 0.000491381 0.000437257 0.000386936 0.000338832 0.000291358 0.000244514 0.0001983 0.000152717 0.0001109 7.59887e-05 4.79813e-05 2.68784e-05 1.268e-05 3.4214e-06 -2.86186e-06 -6.16982e-06 -6.50247e-06 -3.8598e-06 -3.58306e-07 1.88555e-06 2.87176e-06 2.60032e-06 1.07124e-06 -6.19359e-07 -1.37536e-06 -1.19677e-06 -8.3574e-08 1.96422e-06 0.00153587 0.00141848 0.00130802 0.0012045 0.00110791 0.00101826 0.000934293 0.000854753 0.000779641 0.000708956 0.000642699 0.00058046 0.000521828 0.000466803 0.000415386 0.000367575 0.000321862 0.000276737 0.0002322 0.000188251 0.00014489 0.000105117 7.19329e-05 4.53378e-05 2.53314e-05 1.19139e-05 3.1931e-06 -2.72301e-06 -5.83444e-06 -6.14119e-06 -3.64326e-06 -3.36839e-07 1.78187e-06 2.71287e-06 2.45617e-06 1.01176e-06 -5.85104e-07 -1.29918e-06 -1.13045e-06 -7.8935e-08 1.85538e-06 0.00144451 0.00133407 0.00123018 0.00113283 0.00104201 0.000957741 0.000878816 0.000804048 0.000733436 0.000666981 0.000604682 0.000546155 0.000491013 0.000439257 0.000390887 0.000345903 0.000302884 0.000260409 0.000218478 0.000177092 0.000136249 9.8789e-05 6.75483e-05 4.25274e-05 2.37262e-05 1.11448e-05 2.98536e-06 -2.54975e-06 -5.46056e-06 -5.74707e-06 -3.40929e-06 -3.15107e-07 1.6676e-06 2.53882e-06 2.29857e-06 9.46835e-07 -5.47566e-07 -1.21582e-06 -1.05792e-06 -7.38697e-08 1.73633e-06 0.00134244 0.0012399 0.00114343 0.00105303 0.000968708 0.000890462 0.000817178 0.000747742 0.000682154 0.000620414 0.000562521 0.000508123 0.000456864 0.000408743 0.000363762 0.000321921 0.000281898 0.000242374 0.000203349 0.000164823 0.000126796 9.19167e-05 6.28348e-05 3.95501e-05 2.20628e-05 1.03726e-05 2.79819e-06 -2.34207e-06 -5.04818e-06 -5.32013e-06 -3.15792e-06 -2.93111e-07 1.54273e-06 2.34961e-06 2.12752e-06 8.76461e-07 -5.06746e-07 -1.12529e-06 -9.79166e-07 -6.8378e-08 1.60707e-06 0.00123215 0.00113819 0.00104979 0.000966955 0.000889682 0.000817972 0.000750798 0.000687135 0.000626981 0.000570338 0.000517204 0.000467262 0.000420192 0.000375995 0.00033467 0.000296217 0.000259425 0.000223082 0.000187187 0.00015174 0.000116742 8.46366e-05 5.78682e-05 3.64367e-05 2.03422e-05 9.58474e-06 2.61431e-06 -2.11898e-06 -4.61512e-06 -4.87411e-06 -2.89595e-06 -2.70606e-07 1.41195e-06 2.15173e-06 1.94872e-06 8.02931e-07 -4.64053e-07 -1.03064e-06 -8.96838e-07 -6.26394e-08 1.47195e-06 0.0011161 0.00103119 0.000951311 0.000876453 0.000806621 0.000741814 0.000681095 0.000623525 0.000569106 0.000517837 0.000469718 0.000424469 0.000381811 0.000341744 0.000304269 0.000269383 0.000235988 0.000202983 0.000170366 0.000138139 0.000106301 7.70855e-05 5.27243e-05 3.32177e-05 1.85657e-05 8.76837e-06 2.4164e-06 -1.89944e-06 -4.17915e-06 -4.42274e-06 -2.63019e-06 -2.47349e-07 1.27994e-06 1.95169e-06 1.76788e-06 7.28531e-07 -4.20898e-07 -9.34935e-07 -8.1358e-07 -5.68335e-08 1.3353e-06 0.000994284 0.000918902 0.000847982 0.000781523 0.000719525 0.000661989 0.000608067 0.000556913 0.000508528 0.000462911 0.000420062 0.000379745 0.000341721 0.000305993 0.000272559 0.000241419 0.000211587 0.000182077 0.000152888 0.00012402 9.54739e-05 6.92634e-05 4.74032e-05 2.98931e-05 1.67332e-05 7.92351e-06 2.20447e-06 -1.68347e-06 -3.7403e-06 -3.96602e-06 -2.36064e-06 -2.23341e-07 1.1467e-06 1.74948e-06 1.585e-06 6.53263e-07 -3.77279e-07 -8.38164e-07 -7.29391e-07 -5.09602e-08 1.19713e-06 0.000866703 0.000801319 0.000739806 0.000682165 0.000628395 0.000578496 0.000531716 0.000487299 0.000445248 0.00040556 0.000368237 0.000333088 0.000299922 0.00026874 0.00023954 0.000212324 0.000186221 0.000160364 0.000134751 0.000109383 8.42594e-05 6.11702e-05 4.19047e-05 2.64629e-05 1.48447e-05 7.05018e-06 1.97852e-06 -1.47105e-06 -3.29855e-06 -3.50397e-06 -2.08731e-06 -1.98581e-07 1.01223e-06 1.54512e-06 1.40008e-06 5.77125e-07 -3.33198e-07 -7.4033e-07 -6.44271e-07 -4.50196e-08 1.05742e-06 0.000733359 0.000678443 0.000626782 0.000578378 0.000533229 0.000491336 0.00045204 0.000414683 0.000379265 0.000345785 0.000314244 0.0002845 0.000256414 0.000229985 0.000205213 0.000182098 0.000159891 0.000137844 0.000115956 9.42273e-05 7.26581e-05 5.2806e-05 3.6229e-05 2.29271e-05 1.29002e-05 6.14836e-06 1.73856e-06 -1.2622e-06 -2.85391e-06 -3.03658e-06 -1.8102e-06 -1.7307e-07 8.76527e-07 1.33859e-06 1.21312e-06 5.00118e-07 -2.88654e-07 -6.41434e-07 -5.58219e-07 -3.90116e-08 9.1619e-07 0.000594252 0.000550274 0.000508912 0.000470163 0.000434029 0.000400509 0.000369041 0.000339065 0.000310579 0.000283585 0.000258081 0.000233981 0.000211197 0.000189729 0.000169577 0.000150742 0.000132597 0.000114517 9.65028e-05 7.85537e-05 6.06699e-05 4.41708e-05 3.03761e-05 1.92857e-05 1.08997e-05 5.21805e-06 1.48457e-06 -1.0569e-06 -2.40637e-06 -2.56384e-06 -1.5293e-06 -1.46806e-07 7.39595e-07 1.1299e-06 1.02412e-06 4.22243e-07 -2.43648e-07 -5.41475e-07 -4.71237e-07 -3.29363e-08 7.73429e-07 0.00044938 0.000416813 0.000386193 0.00035752 0.000330794 0.000306014 0.000282719 0.000260444 0.000239191 0.00021896 0.000199749 0.000181529 0.00016427 0.000147971 0.000132633 0.000118255 0.000104338 9.03835e-05 7.63915e-05 6.2362e-05 4.82947e-05 3.52645e-05 2.43458e-05 1.55388e-05 8.84322e-06 4.25926e-06 1.21657e-06 -8.55165e-07 -1.95594e-06 -2.08576e-06 -1.24461e-06 -1.19791e-07 6.01431e-07 9.19054e-07 8.33076e-07 3.43498e-07 -1.98178e-07 -4.40453e-07 -3.83324e-07 -2.67936e-08 6.2914e-07 0.000298746 0.00027806 0.000258628 0.000240449 0.000223524 0.000207852 0.000193072 0.000178821 0.000165101 0.00015191 0.000139248 0.000127146 0.000115634 0.000104712 9.43798e-05 8.4637e-05 7.51146e-05 6.5443e-05 5.56221e-05 4.5652e-05 3.55327e-05 2.60872e-05 1.81383e-05 1.16862e-05 6.73074e-06 3.27199e-06 9.34547e-07 -6.56989e-07 -1.50262e-06 -1.60233e-06 -9.56143e-07 -9.20247e-08 4.62037e-07 7.06043e-07 6.39992e-07 2.63885e-07 -1.52246e-07 -3.38368e-07 -2.9448e-07 -2.05836e-08 4.83322e-07 0.000142347 0.000134014 0.000126215 0.00011895 0.000112219 0.000106023 0.000100101 9.41964e-05 8.83075e-05 8.24348e-05 7.65781e-05 7.08317e-05 6.52895e-05 5.99517e-05 5.48181e-05 4.98888e-05 4.49269e-05 3.96955e-05 3.41945e-05 2.84239e-05 2.23838e-05 1.66388e-05 1.17536e-05 7.72805e-06 4.56227e-06 2.25624e-06 6.38506e-07 -4.62374e-07 -1.0464e-06 -1.11357e-06 -6.63886e-07 -6.35064e-08 3.21413e-07 4.9087e-07 4.44867e-07 1.83402e-07 -1.05851e-07 -2.3522e-07 -2.04705e-07 -1.43062e-08 3.35977e-07 -1.98146e-05 -1.53248e-05 -1.10459e-05 -6.97781e-06 -3.12056e-06 5.25852e-07 3.80717e-06 6.56914e-06 8.81177e-06 1.05351e-05 1.1739e-05 1.25853e-05 1.32355e-05 1.36897e-05 1.39479e-05 1.401e-05 1.37749e-05 1.31411e-05 1.21087e-05 1.06777e-05 8.84803e-06 6.91942e-06 5.19152e-06 3.66431e-06 2.33781e-06 1.212e-06 3.28445e-07 -2.71318e-07 -5.87288e-07 -6.19463e-07 -3.67845e-07 -3.42364e-08 1.79557e-07 2.73536e-07 2.47701e-07 1.0205e-07 -5.89935e-08 -1.3101e-07 -1.13999e-07 -7.96146e-09 1.87104e-07 -0.000181977 -0.000164666 -0.00014831 -0.00013291 -0.000118465 -0.000104976 -9.24925e-05 -8.10633e-05 -7.06888e-05 -6.13689e-05 -5.31037e-05 -4.5664e-05 -3.88205e-05 -3.25734e-05 -2.69225e-05 -2.1868e-05 -1.73755e-05 -1.34109e-05 -9.97417e-06 -7.06526e-06 -4.68421e-06 -2.79638e-06 -1.36714e-06 -3.96505e-07 1.15534e-07 1.68975e-07 1.86411e-08 -8.06459e-08 -1.28886e-07 -1.26079e-07 -7.22249e-08 -5.00123e-09 3.79149e-08 5.65235e-08 5.08245e-08 2.0818e-08 -1.2205e-08 -2.69534e-08 -2.3427e-08 -1.62603e-09 3.84496e-08 -0.000338379 -0.00030872 -0.000280735 -0.000254423 -0.000229786 -0.000206822 -0.000185479 -0.000165704 -0.000147496 -0.000130857 -0.000115784 -0.000101987 -8.91713e-05 -7.73372e-05 -6.64847e-05 -5.6614e-05 -4.75583e-05 -3.91513e-05 -3.1393e-05 -2.42834e-05 -1.78224e-05 -1.22339e-05 -7.74175e-06 -4.3459e-06 -2.04636e-06 -8.43151e-07 -2.76631e-07 1.1282e-07 3.25204e-07 3.60519e-07 2.18765e-07 2.34128e-08 -1.02071e-07 -1.57685e-07 -1.43431e-07 -5.93073e-08 3.3982e-08 7.57336e-08 6.59474e-08 4.62346e-09 -1.08238e-07 -0.000489019 -0.000447486 -0.00040832 -0.000371518 -0.000337082 -0.000305011 -0.000275153 -0.000247353 -0.000221611 -0.000197928 -0.000176303 -0.000156384 -0.000137817 -0.000120602 -0.000104739 -9.02278e-05 -7.67734e-05 -6.40802e-05 -5.21479e-05 -4.09767e-05 -3.05666e-05 -2.13932e-05 -1.39323e-05 -8.18386e-06 -4.14789e-06 -1.82437e-06 -5.57371e-07 3.09081e-07 7.74981e-07 8.40329e-07 5.05127e-07 5.10056e-08 -2.404e-07 -3.6909e-07 -3.35066e-07 -1.38325e-07 7.95677e-08 1.77051e-07 1.54124e-07 1.0787e-08 -2.5296e-07 -0.000633897 -0.000580966 -0.000531065 -0.000484194 -0.000440354 -0.000399544 -0.000361513 -0.000326009 -0.000293032 -0.000262583 -0.00023466 -0.000208855 -0.000184757 -0.000162367 -0.000141684 -0.00012271 -0.000105021 -8.81973e-05 -7.22388e-05 -5.71453e-05 -4.29167e-05 -3.02743e-05 -1.99388e-05 -1.19104e-05 -6.18903e-06 -2.7747e-06 -8.23579e-07 5.08135e-07 1.22045e-06 1.31335e-06 7.86858e-07 7.77772e-08 -3.77073e-07 -5.77692e-07 -5.24079e-07 -2.16236e-07 1.24552e-07 2.76998e-07 2.41102e-07 1.68646e-08 -3.95715e-07 -0.000773014 -0.000709158 -0.00064897 -0.000592452 -0.000539602 -0.000490421 -0.000444561 -0.000401674 -0.000361761 -0.000324821 -0.000290855 -0.000259399 -0.000229992 -0.000202633 -0.000177322 -0.000154059 -0.000132301 -0.000111503 -9.16657e-05 -7.2789e-05 -5.48729e-05 -3.88771e-05 -2.57613e-05 -1.55255e-05 -8.1698e-06 -3.69412e-06 -1.07526e-06 7.09983e-07 1.6616e-06 1.77959e-06 1.06396e-06 1.03728e-07 -5.12089e-07 -7.83489e-07 -7.10472e-07 -2.9304e-07 1.68935e-07 3.75576e-07 3.26883e-07 2.28562e-08 -5.36504e-07 -0.000906369 -0.000832062 -0.000762036 -0.00069629 -0.000634825 -0.000577641 -0.000524295 -0.000474347 -0.000427797 -0.000384644 -0.000344888 -0.000308018 -0.000273522 -0.000241399 -0.000211651 -0.000184277 -0.000158613 -0.000133997 -0.000110429 -8.79079e-05 -6.6435e-05 -4.72016e-05 -3.13997e-05 -1.90292e-05 -1.00902e-05 -4.58263e-06 -1.3124e-06 9.14624e-07 2.09844e-06 2.23904e-06 1.33643e-06 1.28857e-07 -6.45448e-07 -9.86482e-07 -8.94245e-07 -3.68736e-07 2.12716e-07 4.72783e-07 4.11465e-07 2.87619e-08 -6.75326e-07 -0.00103396 -0.000949679 -0.000870262 -0.00079571 -0.000726024 -0.000661204 -0.000600717 -0.000544028 -0.000491139 -0.000442049 -0.000396759 -0.00035471 -0.000315346 -0.000278667 -0.000244672 -0.000213362 -0.000183957 -0.000155679 -0.000128527 -0.000102502 -7.7603e-05 -5.52479e-05 -3.6854e-05 -2.24215e-05 -1.19502e-05 -5.44025e-06 -1.53501e-06 1.12206e-06 2.53097e-06 2.6917e-06 1.60428e-06 1.53165e-07 -7.77151e-07 -1.18667e-06 -1.0754e-06 -4.43325e-07 2.55896e-07 5.68621e-07 4.9485e-07 3.45817e-08 -8.12183e-07 -0.0011558 -0.00106201 -0.000973648 -0.000890711 -0.000813199 -0.000741111 -0.000673825 -0.000610717 -0.000551789 -0.000497039 -0.000446468 -0.000399476 -0.000355465 -0.000314435 -0.000276385 -0.000241315 -0.000208334 -0.00017655 -0.000145962 -0.000116571 -8.83771e-05 -6.30159e-05 -4.21243e-05 -2.57023e-05 -1.37499e-05 -6.26696e-06 -1.74309e-06 1.33229e-06 2.95918e-06 3.13758e-06 1.86749e-06 1.76652e-07 -9.07198e-07 -1.38406e-06 -1.25393e-06 -5.16807e-07 2.98475e-07 6.63089e-07 5.77036e-07 4.03155e-08 -9.47073e-07 -0.00127187 -0.00116905 -0.00107219 -0.000981293 -0.000896349 -0.000817361 -0.00074362 -0.000674415 -0.000609746 -0.000549612 -0.000494015 -0.000442317 -0.000393879 -0.000348704 -0.000306789 -0.000268136 -0.000231743 -0.000196609 -0.000162733 -0.000130116 -9.87571e-05 -7.05057e-05 -4.72106e-05 -2.88717e-05 -1.54891e-05 -7.06277e-06 -1.93664e-06 1.54531e-06 3.38308e-06 3.57667e-06 2.12608e-06 1.99317e-07 -1.03559e-06 -1.57864e-06 -1.42984e-06 -5.89181e-07 3.40452e-07 7.56188e-07 6.58025e-07 4.59633e-08 -1.08e-06 -0.00138217 -0.00127081 -0.0011659 -0.00106746 -0.000975475 -0.000889956 -0.000810102 -0.00073512 -0.000665009 -0.000599769 -0.0005394 -0.00048323 -0.000430588 -0.000381473 -0.000335886 -0.000293825 -0.000254185 -0.000215857 -0.00017884 -0.000143136 -0.000108743 -7.77173e-05 -5.21128e-05 -3.19297e-05 -1.7168e-05 -7.82768e-06 -2.11565e-06 1.76113e-06 3.80267e-06 4.00897e-06 2.38003e-06 2.21162e-07 -1.16232e-06 -1.77042e-06 -1.60313e-06 -6.60449e-07 3.81828e-07 8.47916e-07 7.37815e-07 5.15252e-08 -1.21095e-06 -0.00148426 -0.00136503 -0.00125272 -0.00114734 -0.00104887 -0.000957323 -0.000871827 -0.000791507 -0.000716365 -0.000646399 -0.000581609 -0.000521295 -0.000464755 -0.000411989 -0.000362996 -0.000317777 -0.000275125 -0.000233833 -0.000193901 -0.000155329 -0.000118117 -8.45095e-05 -5.67513e-05 -3.48424e-05 -1.87826e-05 -8.57207e-06 -2.29552e-06 1.96224e-06 4.20121e-06 4.42141e-06 2.62281e-06 2.42373e-07 -1.28297e-06 -1.95322e-06 -1.76837e-06 -7.28431e-07 4.21265e-07 9.35374e-07 8.13896e-07 5.68304e-08 -1.33582e-06 -0.00157567 -0.00144949 -0.00133062 -0.00121906 -0.00111482 -0.0010179 -0.000927349 -0.00084225 -0.000762596 -0.000688389 -0.000619628 -0.000555588 -0.000495544 -0.000439495 -0.000387442 -0.000339385 -0.000294029 -0.000250078 -0.000207533 -0.000166394 -0.00012666 -9.07413e-05 -6.10465e-05 -3.75757e-05 -2.0329e-05 -9.30631e-06 -2.49163e-06 2.13113e-06 4.56197e-06 4.80088e-06 2.84787e-06 2.63138e-07 -1.39311e-06 -2.12087e-06 -1.92015e-06 -7.90951e-07 4.57424e-07 1.01566e-06 8.83754e-07 6.17081e-08 -1.45048e-06 -0.00165641 -0.00152417 -0.00139958 -0.00128264 -0.00117333 -0.00107167 -0.00097667 -0.000887348 -0.000803705 -0.000725741 -0.000653457 -0.000586108 -0.000522954 -0.000463992 -0.000409225 -0.00035865 -0.000310897 -0.000264593 -0.000219738 -0.000176331 -0.000134373 -9.64129e-05 -6.49984e-05 -4.01298e-05 -2.18071e-05 -1.00304e-05 -2.70397e-06 2.26781e-06 4.88493e-06 5.1474e-06 3.0552e-06 2.83457e-07 -1.49274e-06 -2.27338e-06 -2.05847e-06 -8.48008e-07 4.90307e-07 1.08877e-06 9.4739e-07 6.61583e-08 -1.55492e-06 -0.00172646 -0.00158909 -0.00145962 -0.00133806 -0.0012244 -0.00111865 -0.00101979 -0.000926801 -0.000839689 -0.000758454 -0.000683095 -0.000612857 -0.000546985 -0.000485481 -0.000428343 -0.000375572 -0.00032573 -0.000277377 -0.000230514 -0.00018514 -0.000141256 -0.000101524 -6.86069e-05 -4.25046e-05 -2.32171e-05 -1.07444e-05 -2.93255e-06 2.37228e-06 5.17011e-06 5.46096e-06 3.24482e-06 3.03329e-07 -1.58186e-06 -2.41074e-06 -2.18332e-06 -8.99602e-07 5.19912e-07 1.15471e-06 1.0048e-06 7.0181e-08 -1.64915e-06 -0.00178583 -0.00164423 -0.00151073 -0.00138533 -0.00126803 -0.00115883 -0.0010567 -0.000960609 -0.000870551 -0.000786529 -0.000708543 -0.000635833 -0.000567639 -0.00050396 -0.000444798 -0.000390151 -0.000338527 -0.00028843 -0.000239862 -0.000192821 -0.000147308 -0.000106075 -7.18721e-05 -4.47001e-05 -2.45588e-05 -1.14482e-05 -3.17737e-06 2.44453e-06 5.41751e-06 5.74157e-06 3.41671e-06 3.22756e-07 -1.66046e-06 -2.53295e-06 -2.29471e-06 -9.45734e-07 5.4624e-07 1.21348e-06 1.056e-06 7.37761e-08 -1.73317e-06 -0.00183453 -0.00168961 -0.00155291 -0.00142445 -0.00130422 -0.00119222 -0.00108742 -0.000988773 -0.000896288 -0.000809964 -0.0007298 -0.000655037 -0.000584913 -0.000519431 -0.000458589 -0.000402387 -0.000349288 -0.000297753 -0.000247781 -0.000199374 -0.00015253 -0.000110065 -7.4794e-05 -4.67163e-05 -2.58323e-05 -1.21419e-05 -3.43843e-06 2.48456e-06 5.62711e-06 5.98922e-06 3.57088e-06 3.41737e-07 -1.72856e-06 -2.64002e-06 -2.39263e-06 -9.86404e-07 5.69292e-07 1.26508e-06 1.10097e-06 7.69438e-08 -1.80698e-06 -0.00187255 -0.00172521 -0.00158617 -0.00145542 -0.00133297 -0.00121881 -0.00111193 -0.00101129 -0.000916903 -0.000828761 -0.000746868 -0.000670468 -0.00059881 -0.000531892 -0.000469716 -0.00041228 -0.000358013 -0.000305344 -0.000254272 -0.000204798 -0.000156921 -0.000113495 -7.73725e-05 -4.85533e-05 -2.70376e-05 -1.28254e-05 -3.71572e-06 2.49239e-06 5.79893e-06 6.20391e-06 3.70732e-06 3.60272e-07 -1.78615e-06 -2.73193e-06 -2.47709e-06 -1.02161e-06 5.89066e-07 1.30951e-06 1.13971e-06 7.96839e-08 -1.87058e-06 -0.00189989 -0.00175104 -0.00161049 -0.00147824 -0.00135428 -0.00123861 -0.00113024 -0.00102817 -0.000932393 -0.000842919 -0.000759745 -0.000682128 -0.000609328 -0.000541345 -0.000478179 -0.00041983 -0.000364703 -0.000311205 -0.000259335 -0.000209095 -0.000160483 -0.000116365 -7.96077e-05 -5.0211e-05 -2.81747e-05 -1.34988e-05 -4.00925e-06 2.468e-06 5.93296e-06 6.38564e-06 3.82605e-06 3.78361e-07 -1.83322e-06 -2.8087e-06 -2.54808e-06 -1.05135e-06 6.05563e-07 1.34676e-06 1.17224e-06 8.19966e-08 -1.92396e-06 -0.00191654 -0.0017671 -0.00162589 -0.0014929 -0.00136814 -0.00125161 -0.00114235 -0.0010394 -0.00094276 -0.000852439 -0.000768431 -0.000690015 -0.000616468 -0.000547789 -0.000483978 -0.000425036 -0.000369357 -0.000315335 -0.00026297 -0.000212263 -0.000163213 -0.000118674 -8.14996e-05 -5.16894e-05 -2.92435e-05 -1.4162e-05 -4.31902e-06 2.41139e-06 6.0292e-06 6.53442e-06 3.92705e-06 3.96004e-07 -1.86979e-06 -2.87032e-06 -2.60561e-06 -1.07564e-06 6.18782e-07 1.37684e-06 1.19854e-06 8.38818e-08 -1.96714e-06 -0.00192253 -0.0017734 -0.00163236 -0.00149942 -0.00137457 -0.00125781 -0.00114825 -0.00104498 -0.000948004 -0.000857319 -0.000772928 -0.000694131 -0.000620229 -0.000551223 -0.000487113 -0.000427899 -0.000371975 -0.000317734 -0.000265177 -0.000214303 -0.000165114 -0.000120423 -8.30482e-05 -5.29885e-05 -3.02441e-05 -1.48151e-05 -4.64502e-06 2.32257e-06 6.08766e-06 6.65025e-06 4.01033e-06 4.13201e-07 -1.89584e-06 -2.9168e-06 -2.64967e-06 -1.09445e-06 6.28725e-07 1.39975e-06 1.21862e-06 8.53394e-08 -2.0001e-06 </DataArray> 
</PointData> 
<Points> 
<DataArray type="Float32" NumberOfComponents="3"> 
100 0 0 102.5 0 0 105 0 0 107.5 0 0 110 0 0 112.5 0 0 115 0 0 117.5 0 0 120 0 0 122.5 0 0 125 0 0 127.5 0 0 130 0 0 132.5 0 0 135 0 0 137.5 0 0 140 0 0 142.5 0 0 145 0 0 147.5 0 0 150 0 0 152.5 0 0 155 0 0 157.5 0 0 160 0 0 162.5 0 0 165 0 0 167.5 0 0 170 0 0 172.5 0 0 175 0 0 177.5 0 0 180 0 0 182.5 0 0 185 0 0 187.5 0 0 190 0 0 192.5 0 0 195 0 0 197.5 0 0 200 0 0 99.9366 3.56048 0 102.435 3.6495 0 104.933 3.73851 0 107.432 3.82752 0 109.93 3.91653 0 112.429 4.00554 0 114.927 4.09456 0 117.425 4.18357 0 119.924 4.27258 0 122.422 4.36159 0 124.921 4.45061 0 127.419 4.53962 0 129.918 4.62863 0 132.416 4.71764 0 134.914 4.80665 0 137.413 4.89567 0 139.911 4.98468 0 142.41 5.07369 0 144.908 5.1627 0 147.406 5.25171 0 149.905 5.34073 0 152.403 5.42974 0 154.902 5.51875 0 157.4 5.60776 0 159.899 5.69677 0 162.397 5.78579 0 164.895 5.8748 0 167.394 5.96381 0 169.892 6.05282 0 172.391 6.14184 0 174.889 6.23085 0 177.387 6.31986 0 179.886 6.40887 0 182.384 6.49788 0 184.883 6.5869 0 187.381 6.67591 0 189.88 6.76492 0 192.378 6.85393 0 194.876 6.94294 0 197.375 7.03196 0 199.873 7.12097 0 99.7428 7.16693 0 102.236 7.34611 0 104.73 7.52528 0 107.224 7.70445 0 109.717 7.88363 0 112.211 8.0628 0 114.704 8.24197 0 117.198 8.42115 0 119.691 8.60032 0 122.185 8.77949 0 124.679 8.95867 0 127.172 9.13784 0 129.666 9.31701 0 132.159 9.49619 0 134.653 9.67536 0 137.146 9.85453 0 139.64 10.0337 0 142.134 10.2129 0 144.627 10.3921 0 147.121 10.5712 0 149.614 10.7504 0 152.108 10.9296 0 154.601 11.1087 0 157.095 11.2879 0 159.589 11.4671 0 162.082 11.6463 0 164.576 11.8254 0 167.069 12.0046 0 169.563 12.1838 0 172.056 12.363 0 174.55 12.5421 0 177.044 12.7213 0 179.537 12.9005 0 182.031 13.0797 0 184.524 13.2588 0 187.018 13.438 0 189.511 13.6172 0 192.005 13.7963 0 194.499 13.9755 0 196.992 14.1547 0 199.486 14.3339 0 99.4137 10.813 0 101.899 11.0834 0 104.384 11.3537 0 106.87 11.624 0 109.355 11.8943 0 111.84 12.1647 0 114.326 12.435 0 116.811 12.7053 0 119.296 12.9756 0 121.782 13.246 0 124.267 13.5163 0 126.752 13.7866 0 129.238 14.0569 0 131.723 14.3273 0 134.208 14.5976 0 136.694 14.8679 0 139.179 15.1383 0 141.664 15.4086 0 144.15 15.6789 0 146.635 15.9492 0 149.121 16.2196 0 151.606 16.4899 0 154.091 16.7602 0 156.577 17.0305 0 159.062 17.3009 0 161.547 17.5712 0 164.033 17.8415 0 166.518 18.1118 0 169.003 18.3822 0 171.489 18.6525 0 173.974 18.9228 0 176.459 19.1931 0 178.945 19.4635 0 181.43 19.7338 0 183.915 20.0041 0 186.401 20.2744 0 188.886 20.5448 0 191.371 20.8151 0 193.857 21.0854 0 196.342 21.3557 0 198.827 21.6261 0 98.9443 14.4919 0 101.418 14.8542 0 103.892 15.2165 0 106.365 15.5788 0 108.839 15.9411 0 111.312 16.3034 0 113.786 16.6657 0 116.26 17.028 0 118.733 17.3903 0 121.207 17.7526 0 123.68 18.1149 0 126.154 18.4772 0 128.628 18.8395 0 131.101 19.2018 0 133.575 19.5641 0 136.048 19.9264 0 138.522 20.2887 0 140.996 20.651 0 143.469 21.0133 0 145.943 21.3756 0 148.417 21.7379 0 150.89 22.1002 0 153.364 22.4625 0 155.837 22.8248 0 158.311 23.1871 0 160.785 23.5494 0 163.258 23.9117 0 165.732 24.274 0 168.205 24.6363 0 170.679 24.9986 0 173.153 25.3609 0 175.626 25.7232 0 178.1 26.0855 0 180.573 26.4478 0 183.047 26.8101 0 185.521 27.1724 0 187.994 27.5347 0 190.468 27.897 0 192.941 28.2593 0 195.415 28.6216 0 197.889 28.9839 0 98.3305 18.1963 0 100.789 18.6512 0 103.247 19.1061 0 105.705 19.561 0 108.164 20.0159 0 110.622 20.4708 0 113.08 20.9258 0 115.538 21.3807 0 117.997 21.8356 0 120.455 22.2905 0 122.913 22.7454 0 125.371 23.2003 0 127.83 23.6552 0 130.288 24.1101 0 132.746 24.565 0 135.204 25.0199 0 137.663 25.4748 0 140.121 25.9297 0 142.579 26.3846 0 145.038 26.8396 0 147.496 27.2945 0 149.954 27.7494 0 152.412 28.2043 0 154.871 28.6592 0 157.329 29.1141 0 159.787 29.569 0 162.245 30.0239 0 164.704 30.4788 0 167.162 30.9337 0 169.62 31.3886 0 172.078 31.8435 0 174.537 32.2984 0 176.995 32.7533 0 179.453 33.2083 0 181.911 33.6632 0 184.37 34.1181 0 186.828 34.573 0 189.286 35.0279 0 191.745 35.4828 0 194.203 35.9377 0 196.661 36.3926 0 97.5684 21.9182 0 100.008 22.4662 0 102.447 23.0142 0 104.886 23.5621 0 107.325 24.1101 0 109.764 24.658 0 112.204 25.206 0 114.643 25.7539 0 117.082 26.3019 0 119.521 26.8499 0 121.96 27.3978 0 124.4 27.9458 0 126.839 28.4937 0 129.278 29.0417 0 131.717 29.5896 0 134.157 30.1376 0 136.596 30.6855 0 139.035 31.2335 0 141.474 31.7815 0 143.913 32.3294 0 146.353 32.8774 0 148.792 33.4253 0 151.231 33.9733 0 153.67 34.5212 0 156.109 35.0692 0 158.549 35.6172 0 160.988 36.1651 0 163.427 36.7131 0 165.866 37.261 0 168.305 37.809 0 170.745 38.3569 0 173.184 38.9049 0 175.623 39.4528 0 178.062 40.0008 0 180.502 40.5488 0 182.941 41.0967 0 185.38 41.6447 0 187.819 42.1926 0 190.258 42.7406 0 192.698 43.2885 0 195.137 43.8365 0 96.6546 25.6495 0 99.0709 26.2907 0 101.487 26.9319 0 103.904 27.5732 0 106.32 28.2144 0 108.736 28.8556 0 111.153 29.4969 0 113.569 30.1381 0 115.985 30.7793 0 118.402 31.4206 0 120.818 32.0618 0 123.235 32.7031 0 125.651 33.3443 0 128.067 33.9855 0 130.484 34.6268 0 132.9 35.268 0 135.316 35.9092 0 137.733 36.5505 0 140.149 37.1917 0 142.565 37.833 0 144.982 38.4742 0 147.398 39.1154 0 149.815 39.7567 0 152.231 40.3979 0 154.647 41.0391 0 157.064 41.6804 0 159.48 42.3216 0 161.896 42.9628 0 164.313 43.6041 0 166.729 44.2453 0 169.145 44.8866 0 171.562 45.5278 0 173.978 46.169 0 176.395 46.8103 0 178.811 47.4515 0 181.227 48.0927 0 183.644 48.734 0 186.06 49.3752 0 188.476 50.0164 0 190.893 50.6577 0 193.309 51.2989 0 95.5863 29.3812 0 97.976 30.1157 0 100.366 30.8503 0 102.755 31.5848 0 105.145 32.3193 0 107.535 33.0538 0 109.924 33.7884 0 112.314 34.5229 0 114.704 35.2574 0 117.093 35.992 0 119.483 36.7265 0 121.873 37.461 0 124.262 38.1956 0 126.652 38.9301 0 129.042 39.6646 0 131.431 40.3991 0 133.821 41.1337 0 136.211 41.8682 0 138.6 42.6027 0 140.99 43.3373 0 143.379 44.0718 0 145.769 44.8063 0 148.159 45.5409 0 150.548 46.2754 0 152.938 47.0099 0 155.328 47.7444 0 157.717 48.479 0 160.107 49.2135 0 162.497 49.948 0 164.886 50.6826 0 167.276 51.4171 0 169.666 52.1516 0 172.055 52.8861 0 174.445 53.6207 0 176.835 54.3552 0 179.224 55.0897 0 181.614 55.8243 0 184.004 56.5588 0 186.393 57.2933 0 188.783 58.0279 0 191.173 58.7624 0 94.3616 33.1043 0 96.7206 33.932 0 99.0796 34.7596 0 101.439 35.5872 0 103.798 36.4148 0 106.157 37.2424 0 108.516 38.07 0 110.875 38.8976 0 113.234 39.7252 0 115.593 40.5528 0 117.952 41.3804 0 120.311 42.208 0 122.67 43.0356 0 125.029 43.8633 0 127.388 44.6909 0 129.747 45.5185 0 132.106 46.3461 0 134.465 47.1737 0 136.824 48.0013 0 139.183 48.8289 0 141.542 49.6565 0 143.901 50.4841 0 146.26 51.3117 0 148.619 52.1393 0 150.978 52.9669 0 153.338 53.7946 0 155.697 54.6222 0 158.056 55.4498 0 160.415 56.2774 0 162.774 57.105 0 165.133 57.9326 0 167.492 58.7602 0 169.851 59.5878 0 172.21 60.4154 0 174.569 61.243 0 176.928 62.0706 0 179.287 62.8982 0 181.646 63.7259 0 184.005 64.5535 0 186.364 65.3811 0 188.723 66.2087 0 92.9788 36.8095 0 95.3033 37.7297 0 97.6278 38.6499 0 99.9522 39.5702 0 102.277 40.4904 0 104.601 41.4107 0 106.926 42.3309 0 109.25 43.2511 0 111.575 44.1714 0 113.899 45.0916 0 116.224 46.0118 0 118.548 46.9321 0 120.872 47.8523 0 123.197 48.7725 0 125.521 49.6928 0 127.846 50.613 0 130.17 51.5333 0 132.495 52.4535 0 134.819 53.3737 0 137.144 54.294 0 139.468 55.2142 0 141.793 56.1344 0 144.117 57.0547 0 146.442 57.9749 0 148.766 58.8952 0 151.091 59.8154 0 153.415 60.7356 0 155.74 61.6559 0 158.064 62.5761 0 160.388 63.4963 0 162.713 64.4166 0 165.037 65.3368 0 167.362 66.257 0 169.686 67.1773 0 172.011 68.0975 0 174.335 69.0178 0 176.66 69.938 0 178.984 70.8582 0 181.309 71.7785 0 183.633 72.6987 0 185.958 73.6189 0 91.4375 40.4869 0 93.7234 41.4991 0 96.0093 42.5112 0 98.2953 43.5234 0 100.581 44.5356 0 102.867 45.5478 0 105.153 46.5599 0 107.439 47.5721 0 109.725 48.5843 0 112.011 49.5964 0 114.297 50.6086 0 116.583 51.6208 0 118.869 52.633 0 121.155 53.6451 0 123.441 54.6573 0 125.727 55.6695 0 128.012 56.6817 0 130.298 57.6938 0 132.584 58.706 0 134.87 59.7182 0 137.156 60.7303 0 139.442 61.7425 0 141.728 62.7547 0 144.014 63.7669 0 146.3 64.779 0 148.586 65.7912 0 150.872 66.8034 0 153.158 67.8155 0 155.444 68.8277 0 157.73 69.8399 0 160.016 70.8521 0 162.302 71.8642 0 164.587 72.8764 0 166.873 73.8886 0 169.159 74.9008 0 171.445 75.9129 0 173.731 76.9251 0 176.017 77.9373 0 178.303 78.9494 0 180.589 79.9616 0 182.875 80.9738 0 89.7376 44.1267 0 91.981 45.2299 0 94.2244 46.3331 0 96.4679 47.4362 0 98.7113 48.5394 0 100.955 49.6426 0 103.198 50.7458 0 105.442 51.8489 0 107.685 52.9521 0 109.929 54.0553 0 112.172 55.1584 0 114.415 56.2616 0 116.659 57.3648 0 118.902 58.4679 0 121.146 59.5711 0 123.389 60.6743 0 125.633 61.7774 0 127.876 62.8806 0 130.119 63.9838 0 132.363 65.0869 0 134.606 66.1901 0 136.85 67.2933 0 139.093 68.3965 0 141.337 69.4996 0 143.58 70.6028 0 145.824 71.706 0 148.067 72.8091 0 150.31 73.9123 0 152.554 75.0155 0 154.797 76.1186 0 157.041 77.2218 0 159.284 78.325 0 161.528 79.4281 0 163.771 80.5313 0 166.014 81.6345 0 168.258 82.7376 0 170.501 83.8408 0 172.745 84.944 0 174.988 86.0471 0 177.232 87.1503 0 179.475 88.2535 0 87.88 47.719 0 90.077 48.912 0 92.274 50.105 0 94.471 51.298 0 96.668 52.4909 0 98.865 53.6839 0 101.062 54.8769 0 103.259 56.0699 0 105.456 57.2628 0 107.653 58.4558 0 109.85 59.6488 0 112.047 60.8418 0 114.244 62.0347 0 116.441 63.2277 0 118.638 64.4207 0 120.835 65.6137 0 123.032 66.8066 0 125.229 67.9996 0 127.426 69.1926 0 129.623 70.3856 0 131.82 71.5786 0 134.017 72.7715 0 136.214 73.9645 0 138.411 75.1575 0 140.608 76.3505 0 142.805 77.5434 0 145.002 78.7364 0 147.199 79.9294 0 149.396 81.1224 0 151.593 82.3153 0 153.79 83.5083 0 155.987 84.7013 0 158.184 85.8943 0 160.381 87.0872 0 162.578 88.2802 0 164.775 89.4732 0 166.972 90.6662 0 169.169 91.8591 0 171.366 93.0521 0 173.563 94.2451 0 175.76 95.4381 0 85.8665 51.2538 0 88.0131 52.5351 0 90.1598 53.8165 0 92.3065 55.0978 0 94.4531 56.3791 0 96.5998 57.6605 0 98.7464 58.9418 0 100.893 60.2232 0 103.04 61.5045 0 105.186 62.7859 0 107.333 64.0672 0 109.48 65.3485 0 111.626 66.6299 0 113.773 67.9112 0 115.92 69.1926 0 118.066 70.4739 0 120.213 71.7553 0 122.36 73.0366 0 124.506 74.318 0 126.653 75.5993 0 128.8 76.8806 0 130.946 78.162 0 133.093 79.4433 0 135.24 80.7247 0 137.386 82.006 0 139.533 83.2874 0 141.68 84.5687 0 143.826 85.8501 0 145.973 87.1314 0 148.12 88.4127 0 150.266 89.6941 0 152.413 90.9754 0 154.56 92.2568 0 156.706 93.5381 0 158.853 94.8195 0 161 96.1008 0 163.146 97.3822 0 165.293 98.6635 0 167.44 99.9448 0 169.586 101.226 0 171.733 102.508 0 83.6996 54.721 0 85.792 56.089 0 87.8845 57.457 0 89.977 58.825 0 92.0695 60.1931 0 94.162 61.5611 0 96.2545 62.9291 0 98.347 64.2971 0 100.439 65.6652 0 102.532 67.0332 0 104.624 68.4012 0 106.717 69.7692 0 108.809 71.1373 0 110.902 72.5053 0 112.994 73.8733 0 115.087 75.2413 0 117.179 76.6094 0 119.272 77.9774 0 121.364 79.3454 0 123.457 80.7134 0 125.549 82.0815 0 127.642 83.4495 0 129.734 84.8175 0 131.827 86.1855 0 133.919 87.5536 0 136.012 88.9216 0 138.104 90.2896 0 140.197 91.6576 0 142.289 93.0257 0 144.382 94.3937 0 146.474 95.7617 0 148.567 97.1297 0 150.659 98.4978 0 152.752 99.8658 0 154.844 101.234 0 156.937 102.602 0 159.029 103.97 0 161.122 105.338 0 163.214 106.706 0 165.307 108.074 0 167.399 109.442 0 81.3826 58.1109 0 83.4172 59.5636 0 85.4517 61.0164 0 87.4863 62.4692 0 89.5209 63.9219 0 91.5554 65.3747 0 93.59 66.8275 0 95.6246 68.2803 0 97.6591 69.733 0 99.6937 71.1858 0 101.728 72.6386 0 103.763 74.0913 0 105.797 75.5441 0 107.832 76.9969 0 109.867 78.4497 0 111.901 79.9024 0 113.936 81.3552 0 115.97 82.808 0 118.005 84.2607 0 120.039 85.7135 0 122.074 87.1663 0 124.108 88.6191 0 126.143 90.0718 0 128.178 91.5246 0 130.212 92.9774 0 132.247 94.4301 0 134.281 95.8829 0 136.316 97.3357 0 138.35 98.7885 0 140.385 100.241 0 142.42 101.694 0 144.454 103.147 0 146.489 104.6 0 148.523 106.052 0 150.558 107.505 0 152.592 108.958 0 154.627 110.411 0 156.662 111.863 0 158.696 113.316 0 160.731 114.769 0 162.765 116.222 0 78.9198 61.4138 0 80.8928 62.9492 0 82.8658 64.4845 0 84.8388 66.0199 0 86.8118 67.5552 0 88.7848 69.0906 0 90.7578 70.6259 0 92.7308 72.1612 0 94.7038 73.6966 0 96.6768 75.2319 0 98.6498 76.7673 0 100.623 78.3026 0 102.596 79.838 0 104.569 81.3733 0 106.542 82.9087 0 108.515 84.444 0 110.488 85.9794 0 112.461 87.5147 0 114.434 89.0501 0 116.407 90.5854 0 118.38 92.1207 0 120.353 93.6561 0 122.326 95.1914 0 124.299 96.7268 0 126.272 98.2621 0 128.245 99.7975 0 130.218 101.333 0 132.191 102.868 0 134.164 104.404 0 136.137 105.939 0 138.11 107.474 0 140.083 109.01 0 142.056 110.545 0 144.029 112.08 0 146.002 113.616 0 147.975 115.151 0 149.948 116.686 0 151.921 118.222 0 153.894 119.757 0 155.867 121.292 0 157.84 122.828 0 76.3163 64.6206 0 78.2242 66.2361 0 80.1321 67.8517 0 82.04 69.4672 0 83.9479 71.0827 0 85.8558 72.6982 0 87.7637 74.3137 0 89.6716 75.9292 0 91.5795 77.5447 0 93.4874 79.1603 0 95.3954 80.7758 0 97.3033 82.3913 0 99.2112 84.0068 0 101.119 85.6223 0 103.027 87.2378 0 104.935 88.8534 0 106.843 90.4689 0 108.751 92.0844 0 110.659 93.6999 0 112.567 95.3154 0 114.474 96.9309 0 116.382 98.5464 0 118.29 100.162 0 120.198 101.777 0 122.106 103.393 0 124.014 105.009 0 125.922 106.624 0 127.83 108.24 0 129.738 109.855 0 131.646 111.471 0 133.553 113.086 0 135.461 114.702 0 137.369 116.317 0 139.277 117.933 0 141.185 119.548 0 143.093 121.164 0 145.001 122.779 0 146.909 124.395 0 148.817 126.01 0 150.725 127.626 0 152.633 129.241 0 73.5777 67.7224 0 75.4172 69.4154 0 77.2566 71.1085 0 79.096 72.8015 0 80.9355 74.4946 0 82.7749 76.1877 0 84.6144 77.8807 0 86.4538 79.5738 0 88.2933 81.2668 0 90.1327 82.9599 0 91.9722 84.653 0 93.8116 86.346 0 95.651 88.0391 0 97.4905 89.7321 0 99.3299 91.4252 0 101.169 93.1183 0 103.009 94.8113 0 104.848 96.5044 0 106.688 98.1974 0 108.527 99.8905 0 110.367 101.584 0 112.206 103.277 0 114.045 104.97 0 115.885 106.663 0 117.724 108.356 0 119.564 110.049 0 121.403 111.742 0 123.243 113.435 0 125.082 115.128 0 126.922 116.821 0 128.761 118.514 0 130.6 120.207 0 132.44 121.9 0 134.279 123.593 0 136.119 125.286 0 137.958 126.979 0 139.798 128.672 0 141.637 130.366 0 143.477 132.059 0 145.316 133.752 0 147.155 135.445 0 70.7107 70.7107 0 72.4784 72.4784 0 74.2462 74.2462 0 76.014 76.014 0 77.7817 77.7817 0 79.5495 79.5495 0 81.3173 81.3173 0 83.085 83.085 0 84.8528 84.8528 0 86.6206 86.6206 0 88.3883 88.3883 0 90.1561 90.1561 0 91.9239 91.9239 0 93.6916 93.6916 0 95.4594 95.4594 0 97.2272 97.2272 0 98.9949 98.9949 0 100.763 100.763 0 102.53 102.53 0 104.298 104.298 0 106.066 106.066 0 107.834 107.834 0 109.602 109.602 0 111.369 111.369 0 113.137 113.137 0 114.905 114.905 0 116.673 116.673 0 118.44 118.44 0 120.208 120.208 0 121.976 121.976 0 123.744 123.744 0 125.511 125.511 0 127.279 127.279 0 129.047 129.047 0 130.815 130.815 0 132.583 132.583 0 134.35 134.35 0 136.118 136.118 0 137.886 137.886 0 139.654 139.654 0 141.421 141.421 0 67.7224 73.5777 0 69.4154 75.4172 0 71.1085 77.2566 0 72.8015 79.096 0 74.4946 80.9355 0 76.1877 82.7749 0 77.8807 84.6144 0 79.5738 86.4538 0 81.2668 88.2933 0 82.9599 90.1327 0 84.653 91.9722 0 86.346 93.8116 0 88.0391 95.651 0 89.7321 97.4905 0 91.4252 99.3299 0 93.1183 101.169 0 94.8113 103.009 0 96.5044 104.848 0 98.1974 106.688 0 99.8905 108.527 0 101.584 110.367 0 103.277 112.206 0 104.97 114.045 0 106.663 115.885 0 108.356 117.724 0 110.049 119.564 0 111.742 121.403 0 113.435 123.243 0 115.128 125.082 0 116.821 126.922 0 118.514 128.761 0 120.207 130.6 0 121.9 132.44 0 123.593 134.279 0 125.286 136.119 0 126.979 137.958 0 128.672 139.798 0 130.366 141.637 0 132.059 143.477 0 133.752 145.316 0 135.445 147.155 0 64.6206 76.3163 0 66.2361 78.2242 0 67.8517 80.1321 0 69.4672 82.04 0 71.0827 83.9479 0 72.6982 85.8558 0 74.3137 87.7637 0 75.9292 89.6716 0 77.5447 91.5795 0 79.1603 93.4874 0 80.7758 95.3954 0 82.3913 97.3033 0 84.0068 99.2112 0 85.6223 101.119 0 87.2378 103.027 0 88.8534 104.935 0 90.4689 106.843 0 92.0844 108.751 0 93.6999 110.659 0 95.3154 112.567 0 96.9309 114.474 0 98.5464 116.382 0 100.162 118.29 0 101.777 120.198 0 103.393 122.106 0 105.009 124.014 0 106.624 125.922 0 108.24 127.83 0 109.855 129.738 0 111.471 131.646 0 113.086 133.553 0 114.702 135.461 0 116.317 137.369 0 117.933 139.277 0 119.548 141.185 0 121.164 143.093 0 122.779 145.001 0 124.395 146.909 0 126.01 148.817 0 127.626 150.725 0 129.241 152.633 0 61.4138 78.9198 0 62.9492 80.8928 0 64.4845 82.8658 0 66.0199 84.8388 0 67.5552 86.8118 0 69.0906 88.7848 0 70.6259 90.7578 0 72.1612 92.7308 0 73.6966 94.7038 0 75.2319 96.6768 0 76.7673 98.6498 0 78.3026 100.623 0 79.838 102.596 0 81.3733 104.569 0 82.9087 106.542 0 84.444 108.515 0 85.9794 110.488 0 87.5147 112.461 0 89.0501 114.434 0 90.5854 116.407 0 92.1207 118.38 0 93.6561 120.353 0 95.1914 122.326 0 96.7268 124.299 0 98.2621 126.272 0 99.7975 128.245 0 101.333 130.218 0 102.868 132.191 0 104.404 134.164 0 105.939 136.137 0 107.474 138.11 0 109.01 140.083 0 110.545 142.056 0 112.08 144.029 0 113.616 146.002 0 115.151 147.975 0 116.686 149.948 0 118.222 151.921 0 119.757 153.894 0 121.292 155.867 0 122.828 157.84 0 58.1109 81.3826 0 59.5636 83.4172 0 61.0164 85.4517 0 62.4692 87.4863 0 63.9219 89.5209 0 65.3747 91.5554 0 66.8275 93.59 0 68.2803 95.6246 0 69.733 97.6591 0 71.1858 99.6937 0 72.6386 101.728 0 74.0913 103.763 0 75.5441 105.797 0 76.9969 107.832 0 78.4497 109.867 0 79.9024 111.901 0 81.3552 113.936 0 82.808 115.97 0 84.2607 118.005 0 85.7135 120.039 0 87.1663 122.074 0 88.6191 124.108 0 90.0718 126.143 0 91.5246 128.178 0 92.9774 130.212 0 94.4301 132.247 0 95.8829 134.281 0 97.3357 136.316 0 98.7885 138.35 0 100.241 140.385 0 101.694 142.42 0 103.147 144.454 0 104.6 146.489 0 106.052 148.523 0 107.505 150.558 0 108.958 152.592 0 110.411 154.627 0 111.863 156.662 0 113.316 158.696 0 114.769 160.731 0 116.222 162.765 0 54.721 83.6996 0 56.089 85.792 0 57.457 87.8845 0 58.825 89.977 0 60.1931 92.0695 0 61.5611 94.162 0 62.9291 96.2545 0 64.2971 98.347 0 65.6652 100.439 0 67.0332 102.532 0 68.4012 104.624 0 69.7692 106.717 0 71.1373 108.809 0 72.5053 110.902 0 73.8733 112.994 0 75.2413 115.087 0 76.6094 117.179 0 77.9774 119.272 0 79.3454 121.364 0 80.7134 123.457 0 82.0815 125.549 0 83.4495 127.642 0 84.8175 129.734 0 86.1855 131.827 0 87.5536 133.919 0 88.9216 136.012 0 90.2896 138.104 0 91.6576 140.197 0 93.0257 142.289 0 94.3937 144.382 0 95.7617 146.474 0 97.1297 148.567 0 98.4978 150.659 0 99.8658 152.752 0 101.234 154.844 0 102.602 156.937 0 103.97 159.029 0 105.338 161.122 0 106.706 163.214 0 108.074 165.307 0 109.442 167.399 0 51.2538 85.8665 0 52.5351 88.0131 0 53.8165 90.1598 0 55.0978 92.3065 0 56.3791 94.4531 0 57.6605 96.5998 0 58.9418 98.7464 0 60.2232 100.893 0 61.5045 103.04 0 62.7859 105.186 0 64.0672 107.333 0 65.3485 109.48 0 66.6299 111.626 0 67.9112 113.773 0 69.1926 115.92 0 70.4739 118.066 0 71.7553 120.213 0 73.0366 122.36 0 74.318 124.506 0 75.5993 126.653 0 76.8806 128.8 0 78.162 130.946 0 79.4433 133.093 0 80.7247 135.24 0 82.006 137.386 0 83.2874 139.533 0 84.5687 141.68 0 85.8501 143.826 0 87.1314 145.973 0 88.4127 148.12 0 89.6941 150.266 0 90.9754 152.413 0 92.2568 154.56 0 93.5381 156.706 0 94.8195 158.853 0 96.1008 161 0 97.3822 163.146 0 98.6635 165.293 0 99.9448 167.44 0 101.226 169.586 0 102.508 171.733 0 47.719 87.88 0 48.912 90.077 0 50.105 92.274 0 51.298 94.471 0 52.4909 96.668 0 53.6839 98.865 0 54.8769 101.062 0 56.0699 103.259 0 57.2628 105.456 0 58.4558 107.653 0 59.6488 109.85 0 60.8418 112.047 0 62.0347 114.244 0 63.2277 116.441 0 64.4207 118.638 0 65.6137 120.835 0 66.8066 123.032 0 67.9996 125.229 0 69.1926 127.426 0 70.3856 129.623 0 71.5786 131.82 0 72.7715 134.017 0 73.9645 136.214 0 75.1575 138.411 0 76.3505 140.608 0 77.5434 142.805 0 78.7364 145.002 0 79.9294 147.199 0 81.1224 149.396 0 82.3153 151.593 0 83.5083 153.79 0 84.7013 155.987 0 85.8943 158.184 0 87.0872 160.381 0 88.2802 162.578 0 89.4732 164.775 0 90.6662 166.972 0 91.8591 169.169 0 93.0521 171.366 0 94.2451 173.563 0 95.4381 175.76 0 44.1267 89.7376 0 45.2299 91.981 0 46.3331 94.2244 0 47.4362 96.4679 0 48.5394 98.7113 0 49.6426 100.955 0 50.7458 103.198 0 51.8489 105.442 0 52.9521 107.685 0 54.0553 109.929 0 55.1584 112.172 0 56.2616 114.415 0 57.3648 116.659 0 58.4679 118.902 0 59.5711 121.146 0 60.6743 123.389 0 61.7774 125.633 0 62.8806 127.876 0 63.9838 130.119 0 65.0869 132.363 0 66.1901 134.606 0 67.2933 136.85 0 68.3965 139.093 0 69.4996 141.337 0 70.6028 143.58 0 71.706 145.824 0 72.8091 148.067 0 73.9123 150.31 0 75.0155 152.554 0 76.1186 154.797 0 77.2218 157.041 0 78.325 159.284 0 79.4281 161.528 0 80.5313 163.771 0 81.6345 166.014 0 82.7376 168.258 0 83.8408 170.501 0 84.944 172.745 0 86.0471 174.988 0 87.1503 177.232 0 88.2535 179.475 0 40.4869 91.4375 0 41.4991 93.7234 0 42.5112 96.0093 0 43.5234 98.2953 0 44.5356 100.581 0 45.5478 102.867 0 46.5599 105.153 0 47.5721 107.439 0 48.5843 109.725 0 49.5964 112.011 0 50.6086 114.297 0 51.6208 116.583 0 52.633 118.869 0 53.6451 121.155 0 54.6573 123.441 0 55.6695 125.727 0 56.6817 128.012 0 57.6938 130.298 0 58.706 132.584 0 59.7182 134.87 0 60.7303 137.156 0 61.7425 139.442 0 62.7547 141.728 0 63.7669 144.014 0 64.779 146.3 0 65.7912 148.586 0 66.8034 150.872 0 67.8155 153.158 0 68.8277 155.444 0 69.8399 157.73 0 70.8521 160.016 0 71.8642 162.302 0 72.8764 164.587 0 73.8886 166.873 0 74.9008 169.159 0 75.9129 171.445 0 76.9251 173.731 0 77.9373 176.017 0 78.9494 178.303 0 79.9616 180.589 0 80.9738 182.875 0 36.8095 92.9788 0 37.7297 95.3033 0 38.6499 97.6278 0 39.5702 99.9522 0 40.4904 102.277 0 41.4107 104.601 0 42.3309 106.926 0 43.2511 109.25 0 44.1714 111.575 0 45.0916 113.899 0 46.0118 116.224 0 46.9321 118.548 0 47.8523 120.872 0 48.7725 123.197 0 49.6928 125.521 0 50.613 127.846 0 51.5333 130.17 0 52.4535 132.495 0 53.3737 134.819 0 54.294 137.144 0 55.2142 139.468 0 56.1344 141.793 0 57.0547 144.117 0 57.9749 146.442 0 58.8952 148.766 0 59.8154 151.091 0 60.7356 153.415 0 61.6559 155.74 0 62.5761 158.064 0 63.4963 160.388 0 64.4166 162.713 0 65.3368 165.037 0 66.257 167.362 0 67.1773 169.686 0 68.0975 172.011 0 69.0178 174.335 0 69.938 176.66 0 70.8582 178.984 0 71.7785 181.309 0 72.6987 183.633 0 73.6189 185.958 0 33.1043 94.3616 0 33.932 96.7206 0 34.7596 99.0796 0 35.5872 101.439 0 36.4148 103.798 0 37.2424 106.157 0 38.07 108.516 0 38.8976 110.875 0 39.7252 113.234 0 40.5528 115.593 0 41.3804 117.952 0 42.208 120.311 0 43.0356 122.67 0 43.8633 125.029 0 44.6909 127.388 0 45.5185 129.747 0 46.3461 132.106 0 47.1737 134.465 0 48.0013 136.824 0 48.8289 139.183 0 49.6565 141.542 0 50.4841 143.901 0 51.3117 146.26 0 52.1393 148.619 0 52.9669 150.978 0 53.7946 153.338 0 54.6222 155.697 0 55.4498 158.056 0 56.2774 160.415 0 57.105 162.774 0 57.9326 165.133 0 58.7602 167.492 0 59.5878 169.851 0 60.4154 172.21 0 61.243 174.569 0 62.0706 176.928 0 62.8982 179.287 0 63.7259 181.646 0 64.5535 184.005 0 65.3811 186.364 0 66.2087 188.723 0 29.3812 95.5863 0 30.1157 97.976 0 30.8503 100.366 0 31.5848 102.755 0 32.3193 105.145 0 33.0538 107.535 0 33.7884 109.924 0 34.5229 112.314 0 35.2574 114.704 0 35.992 117.093 0 36.7265 119.483 0 37.461 121.873 0 38.1956 124.262 0 38.9301 126.652 0 39.6646 129.042 0 40.3991 131.431 0 41.1337 133.821 0 41.8682 136.211 0 42.6027 138.6 0 43.3373 140.99 0 44.0718 143.379 0 44.8063 145.769 0 45.5409 148.159 0 46.2754 150.548 0 47.0099 152.938 0 47.7444 155.328 0 48.479 157.717 0 49.2135 160.107 0 49.948 162.497 0 50.6826 164.886 0 51.4171 167.276 0 52.1516 169.666 0 52.8861 172.055 0 53.6207 174.445 0 54.3552 176.835 0 55.0897 179.224 0 55.8243 181.614 0 56.5588 184.004 0 57.2933 186.393 0 58.0279 188.783 0 58.7624 191.173 0 25.6495 96.6546 0 26.2907 99.0709 0 26.9319 101.487 0 27.5732 103.904 0 28.2144 106.32 0 28.8556 108.736 0 29.4969 111.153 0 30.1381 113.569 0 30.7793 115.985 0 31.4206 118.402 0 32.0618 120.818 0 32.7031 123.235 0 33.3443 125.651 0 33.9855 128.067 0 34.6268 130.484 0 35.268 132.9 0 35.9092 135.316 0 36.5505 137.733 0 37.1917 140.149 0 37.833 142.565 0 38.4742 144.982 0 39.1154 147.398 0 39.7567 149.815 0 40.3979 152.231 0 41.0391 154.647 0 41.6804 157.064 0 42.3216 159.48 0 42.9628 161.896 0 43.6041 164.313 0 44.2453 166.729 0 44.8866 169.145 0 45.5278 171.562 0 46.169 173.978 0 46.8103 176.395 0 47.4515 178.811 0 48.0927 181.227 0 48.734 183.644 0 49.3752 186.06 0 50.0164 188.476 0 50.6577 190.893 0 51.2989 193.309 0 21.9182 97.5684 0 22.4662 100.008 0 23.0142 102.447 0 23.5621 104.886 0 24.1101 107.325 0 24.658 109.764 0 25.206 112.204 0 25.7539 114.643 0 26.3019 117.082 0 26.8499 119.521 0 27.3978 121.96 0 27.9458 124.4 0 28.4937 126.839 0 29.0417 129.278 0 29.5896 131.717 0 30.1376 134.157 0 30.6855 136.596 0 31.2335 139.035 0 31.7815 141.474 0 32.3294 143.913 0 32.8774 146.353 0 33.4253 148.792 0 33.9733 151.231 0 34.5212 153.67 0 35.0692 156.109 0 35.6172 158.549 0 36.1651 160.988 0 36.7131 163.427 0 37.261 165.866 0 37.809 168.305 0 38.3569 170.745 0 38.9049 173.184 0 39.4528 175.623 0 40.0008 178.062 0 40.5488 180.502 0 41.0967 182.941 0 41.6447 185.38 0 42.1926 187.819 0 42.7406 190.258 0 43.2885 192.698 0 43.8365 195.137 0 18.1963 98.3305 0 18.6512 100.789 0 19.1061 103.247 0 19.561 105.705 0 20.0159 108.164 0 20.4708 110.622 0 20.9258 113.08 0 21.3807 115.538 0 21.8356 117.997 0 22.2905 120.455 0 22.7454 122.913 0 23.2003 125.371 0 23.6552 127.83 0 24.1101 130.288 0 24.565 132.746 0 25.0199 135.204 0 25.4748 137.663 0 25.9297 140.121 0 26.3846 142.579 0 26.8396 145.038 0 27.2945 147.496 0 27.7494 149.954 0 28.2043 152.412 0 28.6592 154.871 0 29.1141 157.329 0 29.569 159.787 0 30.0239 162.245 0 30.4788 164.704 0 30.9337 167.162 0 31.3886 169.62 0 31.8435 172.078 0 32.2984 174.537 0 32.7533 176.995 0 33.2083 179.453 0 33.6632 181.911 0 34.1181 184.37 0 34.573 186.828 0 35.0279 189.286 0 35.4828 191.745 0 35.9377 194.203 0 36.3926 196.661 0 14.4919 98.9443 0 14.8542 101.418 0 15.2165 103.892 0 15.5788 106.365 0 15.9411 108.839 0 16.3034 111.312 0 16.6657 113.786 0 17.028 116.26 0 17.3903 118.733 0 17.7526 121.207 0 18.1149 123.68 0 18.4772 126.154 0 18.8395 128.628 0 19.2018 131.101 0 19.5641 133.575 0 19.9264 136.048 0 20.2887 138.522 0 20.651 140.996 0 21.0133 143.469 0 21.3756 145.943 0 21.7379 148.417 0 22.1002 150.89 0 22.4625 153.364 0 22.8248 155.837 0 23.1871 158.311 0 23.5494 160.785 0 23.9117 163.258 0 24.274 165.732 0 24.6363 168.205 0 24.9986 170.679 0 25.3609 173.153 0 25.7232 175.626 0 26.0855 178.1 0 26.4478 180.573 0 26.8101 183.047 0 27.1724 185.521 0 27.5347 187.994 0 27.897 190.468 0 28.2593 192.941 0 28.6216 195.415 0 28.9839 197.889 0 10.813 99.4137 0 11.0834 101.899 0 11.3537 104.384 0 11.624 106.87 0 11.8943 109.355 0 12.1647 111.84 0 12.435 114.326 0 12.7053 116.811 0 12.9756 119.296 0 13.246 121.782 0 13.5163 124.267 0 13.7866 126.752 0 14.0569 129.238 0 14.3273 131.723 0 14.5976 134.208 0 14.8679 136.694 0 15.1383 139.179 0 15.4086 141.664 0 15.6789 144.15 0 15.9492 146.635 0 16.2196 149.121 0 16.4899 151.606 0 16.7602 154.091 0 17.0305 156.577 0 17.3009 159.062 0 17.5712 161.547 0 17.8415 164.033 0 18.1118 166.518 0 18.3822 169.003 0 18.6525 171.489 0 18.9228 173.974 0 19.1931 176.459 0 19.4635 178.945 0 19.7338 181.43 0 20.0041 183.915 0 20.2744 186.401 0 20.5448 188.886 0 20.8151 191.371 0 21.0854 193.857 0 21.3557 196.342 0 21.6261 198.827 0 7.16693 99.7428 0 7.34611 102.236 0 7.52528 104.73 0 7.70445 107.224 0 7.88363 109.717 0 8.0628 112.211 0 8.24197 114.704 0 8.42115 117.198 0 8.60032 119.691 0 8.77949 122.185 0 8.95867 124.679 0 9.13784 127.172 0 9.31701 129.666 0 9.49619 132.159 0 9.67536 134.653 0 9.85453 137.146 0 10.0337 139.64 0 10.2129 142.134 0 10.3921 144.627 0 10.5712 147.121 0 10.7504 149.614 0 10.9296 152.108 0 11.1087 154.601 0 11.2879 157.095 0 11.4671 159.589 0 11.6463 162.082 0 11.8254 164.576 0 12.0046 167.069 0 12.1838 169.563 0 12.363 172.056 0 12.5421 174.55 0 12.7213 177.044 0 12.9005 179.537 0 13.0797 182.031 0 13.2588 184.524 0 13.438 187.018 0 13.6172 189.511 0 13.7963 192.005 0 13.9755 194.499 0 14.1547 196.992 0 14.3339 199.486 0 3.56048 99.9366 0 3.6495 102.435 0 3.73851 104.933 0 3.82752 107.432 0 3.91653 109.93 0 4.00554 112.429 0 4.09456 114.927 0 4.18357 117.425 0 4.27258 119.924 0 4.36159 122.422 0 4.45061 124.921 0 4.53962 127.419 0 4.62863 129.918 0 4.71764 132.416 0 4.80665 134.914 0 4.89567 137.413 0 4.98468 139.911 0 5.07369 142.41 0 5.1627 144.908 0 5.25171 147.406 0 5.34073 149.905 0 5.42974 152.403 0 5.51875 154.902 0 5.60776 157.4 0 5.69677 159.899 0 5.78579 162.397 0 5.8748 164.895 0 5.96381 167.394 0 6.05282 169.892 0 6.14184 172.391 0 6.23085 174.889 0 6.31986 177.387 0 6.40887 179.886 0 6.49788 182.384 0 6.5869 184.883 0 6.67591 187.381 0 6.76492 189.88 0 6.85393 192.378 0 6.94294 194.876 0 7.03196 197.375 0 7.12097 199.873 0 0 100 0 0 102.5 0 0 105 0 0 107.5 0 0 110 0 0 112.5 0 0 115 0 0 117.5 0 0 120 0 0 122.5 0 0 125 0 0 127.5 0 0 130 0 0 132.5 0 0 135 0 0 137.5 0 0 140 0 0 142.5 0 0 145 0 0 147.5 0 0 150 0 0 152.5 0 0 155 0 0 157.5 0 0 160 0 0 162.5 0 0 165 0 0 167.5 0 0 170 0 0 172.5 0 0 175 0 0 177.5 0 0 180 0 0 182.5 0 0 185 0 0 187.5 0 0 190 0 0 192.5 0 0 195 0 0 197.5 0 0 200 0 
</DataArray>
</Points> 
</Piece> 
</StructuredGrid> 
</VTKFile> 
